luts/_Pirabook Horror Movie _.cube
TITLE "Generated by Resolve"
LUT_3D_SIZE 5
0 0 0
0.271687 0 0
0.542123 0 0
0.802121 0 0
1 0 0
0.0445869 0.235447 0.0411841
0.248707 0.261601 0
0.520073 0.258396 0
0.780209 0.25803 0
1 0.257816 0
0 0.521584 0
0.291691 0.487877 0.106859
0.497566 0.522255 0
0.755764 0.519371 0
1 0.516869 0
0 0.789548 0
0.207721 0.782162 0
0.477012 0.774472 0
0.734279 0.769863 0
0.986587 0.765957 0
0 1 0
0.185962 1 0
0.455436 1 0
0.712856 1 0
0.965042 1 0
0 0 0.262547
0.271214 0 0.258061
0.541726 0 0.255329
0.801892 0 0.25568
1 0 0.256596
0.0252537 0.250935 0.226215
0.248325 0.261219 0.235157
0.519615 0.257893 0.231815
0.779599 0.257374 0.231281
1 0.256931 0.230823
0 0.522332 0.22768
0.3243 0.485267 0.306874
0.496284 0.520974 0.207156
0.754345 0.517937 0.203861
1 0.515251 0.200931
0 0.78793 0.200656
0.206027 0.780529 0.193088
0.475227 0.772717 0.184771
0.732387 0.768017 0.179721
0.984665 0.764035 0.175387
0 1 0.179599
0.183993 1 0.171054
0.453391 1 0.161715
0.710933 1 0.156115
0.963165 1 0.151461
0 0 0.523751
0.271 0 0.519722
0.541772 0 0.517174
0.80174 0 0.517647
1 0 0.518822
0 0.26508 0.501686
0.248157 0.261051 0.498146
0.519341 0.257588 0.494636
0.778881 0.256611 0.494118
1 0.256168 0.493629
0 0.525124 0.476188
0.225193 0.525597 0.476356
0.495094 0.519783 0.470253
0.752712 0.516258 0.466819
1 0.513649 0.463981
0 0.786404 0.464302
0.204334 0.778866 0.456504
0.473381 0.770901 0.448356
0.73019 0.765957 0.44303
0.982712 0.762051 0.439033
0 1 0.443748
0.181842 1 0.434974
0.451286 1 0.426078
0.708614 1 0.420127
0.96112 1 0.416159
0 0 0.772808
0.271855 0 0.768658
0.542763 0 0.766629
0.802731 0 0.766979
1 0 0.768444
0 0.265995 0.751431
0.248722 0.261616 0.747616
0.520012 0.258228 0.744579
0.779385 0.257008 0.74377
1 0.256291 0.74342
0 0.53164 0.731838
0.225071 0.525505 0.726085
0.494865 0.519554 0.720012
0.752194 0.515846 0.716579
1 0.513039 0.713802
0 0.785885 0.714443
0.203357 0.777935 0.706538
0.472557 0.770092 0.698604
0.729168 0.764996 0.693477
0.981826 0.761044 0.689494
0 1 0.694545
0.180652 1 0.686015
0.450202 1 0.677256
0.707546 1 0.671778
0.960098 1 0.667826
0 0 1
0.273152 0 1
0.544076 0 1
0.804059 0 1
1 0 1
0 0.267185 0.997299
0.249821 0.262715 0.99321
0.520806 0.258991 0.989837
0.780194 0.257649 0.988998
1 0.256596 0.98819
0 0.53225 0.977111
0.225299 0.525856 0.970779
0.494942 0.519631 0.964767
0.752041 0.515816 0.960845
1 0.512581 0.957992
0 0.785733 0.958984
0.203052 0.777676 0.950683
0.472038 0.769589 0.94284
0.728725 0.764553 0.937545
0.981308 0.760449 0.933684
0 1 0.938735
0.180224 1 0.930098
0.449668 1 0.92163
0.707073 1 0.915984
0.959472 1 0.912169
