luts/_Pirabook Horror Movie _.cube
TITLE "Generated by Resolve"
LUT_3D_SIZE 9
0 0 0
0.133013 0 0
0.271687 0 0
0.408682 0 0
0.542123 0 0
0.672984 0 0
0.802121 0 0
0.930953 0 0
1 0 0
0.041413 0.106432 0.0387427
0.121843 0.128328 0
0.260655 0.126207 0
0.398215 0.124437 0
0.531899 0.1234 0
0.662989 0.123339 0
0.792416 0.123659 0
0.921187 0.124071 0
1 0.1243 0
0.0445869 0.235447 0.0411841
0.145495 0.242145 0.056611
0.248707 0.261601 0
0.386145 0.259724 0
0.520073 0.258396 0
0.651194 0.258 0
0.780209 0.25803 0
0.908598 0.258061 0
1 0.257816 0
0.043473 0.366064 0.0395819
0.225513 0.333806 0.169345
0.237156 0.39588 0
0.374624 0.393561 0
0.508247 0.391806 0
0.639048 0.39089 0
0.767788 0.390311 0
0.895277 0.389807 0
1 0.388891 0
0 0.521584 0
0.208392 0.473732 0.117723
0.291691 0.487877 0.106859
0.363973 0.524712 0
0.497566 0.522255 0
0.627634 0.520623 0
0.755764 0.519371 0
0.882719 0.518257 0
1 0.516869 0
0 0.648722 0
0.227131 0.59202 0.13077
0.217655 0.656107 0
0.354025 0.652583 0
0.487144 0.649424 0
0.617151 0.647242 0
0.744915 0.645502 0
0.871275 0.644053 0
0.997787 0.6421 0
0 0.789548 0
0.071046 0.786191 0
0.207721 0.782162 0
0.34374 0.778164 0
0.477012 0.774472 0
0.606699 0.771923 0
0.734279 0.769863 0
0.860563 0.768078 0
0.986587 0.765957 0
0 0.914763 0
0.0607767 0.911025 0
0.197253 0.906615 0
0.332921 0.902342 0
0.466239 0.898329 0
0.596155 0.89543 0
0.723476 0.893202 0
0.849683 0.891249 0
0.975753 0.889006 0
0 1 0
0.0499733 1 0
0.185962 1 0
0.321904 1 0
0.455436 1 0
0.585245 1 0
0.712856 1 0
0.839139 1 0
0.965042 1 0
0 0 0.12845
0.132784 0 0.126314
0.271504 0 0.123903
0.408591 0 0.122026
0.541985 0 0.121126
0.672892 0 0.121035
0.802075 0 0.121416
0.930617 0 0.121828
1 0 0.122377
0.0219425 0.119905 0.107683
0.121767 0.128237 0.115023
0.260563 0.126101 0.113176
0.398138 0.124346 0.111406
0.531884 0.123293 0.110094
0.662913 0.123247 0.110094
0.792309 0.123537 0.110597
0.920897 0.123751 0.110811
1 0.124117 0.110918
0.0345769 0.244129 0.125673
0.144747 0.248905 0.136614
0.2486 0.261494 0.100908
0.386038 0.259617 0.0990158
0.519951 0.258244 0.0975967
0.651026 0.257816 0.0972152
0.780011 0.257816 0.0972
0.908202 0.25771 0.0970169
1 0.257481 0.0968795
0.0429541 0.370291 0.137758
0.213855 0.349508 0.201938
0.255314 0.38436 0.135103
0.374319 0.393301 0.0870375
0.508019 0.391501 0.0849622
0.638743 0.390555 0.0839551
0.767391 0.389899 0.0835126
0.894743 0.389334 0.0827192
1 0.388373 0.0816358
0 0.518624 0.108156
0.212696 0.477989 0.200381
0.31107 0.483818 0.221439
0.363516 0.52433 0.0760204
0.497017 0.521706 0.0732586
0.627146 0.520058 0.0716564
0.755184 0.518776 0.0702373
0.88188 0.517433 0.0685283
1 0.516197 0.0671855
0 0.648798 0.100099
0.204028 0.606882 0.191867
0.217075 0.655558 0.0694133
0.353353 0.651987 0.0656901
0.486488 0.648783 0.0623178
0.61648 0.646571 0.0599222
0.744228 0.6448 0.0579995
0.87039 0.643168 0.0562142
0.997024 0.641337 0.0542
0 0.788785 0.0671092
0.0703746 0.78555 0.0638132
0.207004 0.781476 0.0596628
0.343023 0.777462 0.0552224
0.476265 0.773739 0.0513008
0.60592 0.77116 0.0487831
0.733486 0.76907 0.0464942
0.859693 0.767208 0.0442054
0.985763 0.765148 0.0419471
0 0.913802 0.0572824
0.0599985 0.910292 0.0535744
0.196475 0.905852 0.0489357
0.332143 0.901518 0.0443427
0.4654 0.897505 0.0402228
0.595331 0.894621 0.0371252
0.722606 0.892409 0.0346227
0.848859 0.890425 0.0323949
0.974914 0.888167 0.0301366
0 1 0.0464485
0.0491646 1 0.0424811
0.185107 1 0.0379492
0.321065 1 0.0331426
0.454505 1 0.0286717
0.584421 1 0.0254673
0.712032 1 0.0231174
0.838193 1 0.0207065
0.964248 1 0.0184939
0 0 0.262547
0.132464 0 0.260441
0.271214 0 0.258061
0.408103 0 0.256184
0.541726 0 0.255329
0.672663 0 0.255253
0.801892 0 0.25568
0.930373 0 0.256123
1 0 0.256596
0 0.129717 0.251011
0.121492 0.127962 0.249516
0.260319 0.125872 0.247425
0.397665 0.123857 0.245426
0.531701 0.123018 0.244327
0.662654 0.122957 0.244526
0.792035 0.123232 0.244816
0.920485 0.123339 0.244907
1 0.123751 0.245075
0.0252537 0.250935 0.226215
0.148623 0.252934 0.227832
0.248325 0.261219 0.235157
0.38555 0.259129 0.233127
0.519615 0.257893 0.231815
0.650675 0.257435 0.231357
0.779599 0.257374 0.231281
0.907515 0.257053 0.231067
1 0.256931 0.230823
0.0343175 0.376654 0.237491
0.168154 0.373953 0.248417
0.265904 0.38294 0.251362
0.37377 0.392828 0.220996
0.507591 0.390997 0.218952
0.638178 0.389975 0.21799
0.766766 0.389258 0.21738
0.893782 0.388403 0.216205
1 0.387594 0.215351
0 0.522332 0.22768
0.230488 0.477668 0.289799
0.3243 0.485267 0.306874
0.362554 0.523445 0.209552
0.496284 0.520974 0.207156
0.626413 0.519249 0.20531
0.754345 0.517937 0.203861
0.880964 0.516518 0.202045
1 0.515251 0.200931
0 0.648936 0.225483
0.0789654 0.658503 0.206973
0.216251 0.654765 0.203189
0.352285 0.650935 0.199069
0.485573 0.647883 0.195819
0.615534 0.645624 0.193393
0.743236 0.643824 0.191653
0.869276 0.642054 0.189471
0.995987 0.640299 0.187533
0 0.78793 0.200656
0.0694438 0.784634 0.197406
0.206027 0.780529 0.193088
0.341878 0.776349 0.188464
0.475227 0.772717 0.184771
0.604898 0.770108 0.182071
0.732387 0.768017 0.179721
0.858442 0.765942 0.177234
0.984665 0.764035 0.175387
0 0.91281 0.190616
0.0589609 0.90927 0.186862
0.195392 0.904814 0.182193
0.33106 0.900404 0.177584
0.464302 0.896437 0.173404
0.594232 0.893523 0.170275
0.721477 0.891325 0.167697
0.847501 0.889067 0.165423
0.9738 0.887068 0.163195
0 1 0.179599
0.0480507 1 0.175799
0.183993 1 0.171054
0.319707 1 0.165972
0.453391 1 0.161715
0.583291 1 0.158724
0.710933 1 0.156115
0.83711 1 0.153643
0.963165 1 0.151461
0 0 0.394965
0.13228 0 0.39295
0.271031 0 0.39089
0.407965 0 0.388815
0.541604 0 0.388022
0.672541 0 0.387991
0.80174 0 0.388556
0.93022 0 0.388922
1 0 0.389425
0 0.12958 0.383932
0.121355 0.127825 0.38233
0.260197 0.125734 0.380285
0.397498 0.123705 0.378317
0.531533 0.12285 0.377493
0.662486 0.122759 0.377462
0.791836 0.123018 0.377768
0.920195 0.12311 0.377813
1 0.12343 0.378256
0 0.264973 0.372061
0.109178 0.263294 0.370413
0.248127 0.261021 0.368185
0.385199 0.258808 0.366217
0.519356 0.257618 0.364843
0.65037 0.257115 0.36437
0.779248 0.256992 0.364401
0.907057 0.256657 0.364019
1 0.256443 0.36379
0.0369573 0.379126 0.342702
0.14641 0.384512 0.347143
0.269017 0.38616 0.348669
0.373159 0.392294 0.353857
0.507195 0.390524 0.351995
0.637659 0.389456 0.351156
0.766079 0.388556 0.35024
0.893187 0.387717 0.349142
1 0.386847 0.348379
0 0.524697 0.352346
0.181125 0.499855 0.360021
0.255589 0.515923 0.355352
0.361868 0.52282 0.342779
0.495583 0.520272 0.340154
0.625727 0.518486 0.338262
0.753506 0.517082 0.336751
0.880095 0.515618 0.33521
1 0.514351 0.333837
0 0.654963 0.346548
0.0782177 0.657771 0.340017
0.215457 0.653986 0.336324
0.3514 0.65008 0.332021
0.484703 0.647013 0.328801
0.614603 0.644694 0.326497
0.742275 0.642863 0.32459
0.868299 0.641077 0.322423
0.99498 0.639292 0.320485
0 0.78706 0.333928
0.0685283 0.783749 0.330434
0.205097 0.779599 0.326101
0.34078 0.77528 0.32137
0.474205 0.77171 0.317861
0.603922 0.76907 0.315038
0.731289 0.766995 0.312657
0.857359 0.764874 0.31043
0.983581 0.762951 0.3084
0 0.911833 0.323674
0.0579385 0.908263 0.319905
0.194263 0.903792 0.315419
0.32987 0.899153 0.310445
0.463218 0.895354 0.306462
0.593133 0.892439 0.303349
0.720287 0.89012 0.300862
0.846403 0.887968 0.298512
0.972702 0.885954 0.2963
0 1 0.312734
0.0469215 1 0.308949
0.182879 1 0.304143
0.318578 1 0.299077
0.452247 1 0.295048
0.582177 1 0.291859
0.709804 1 0.289265
0.835966 1 0.286793
0.962051 1 0.284916
0 0 0.523751
0.132372 0 0.522011
0.271 0 0.519722
0.408118 0 0.517891
0.541772 0 0.517174
0.672679 0 0.517449
0.80174 0 0.517647
0.930358 0 0.518273
1 0 0.518822
0 0.129702 0.513268
0.121492 0.127977 0.511666
0.260243 0.125795 0.509621
0.397604 0.123796 0.507942
0.531655 0.122942 0.507012
0.662577 0.122835 0.507042
0.791638 0.122789 0.507103
0.92015 0.12311 0.507469
1 0.123369 0.507927
0 0.26508 0.501686
0.109255 0.263371 0.500099
0.248157 0.261051 0.498146
0.385199 0.258839 0.495903
0.519341 0.257588 0.494636
0.650309 0.257023 0.494179
0.778881 0.256611 0.494118
0.906844 0.256458 0.493812
1 0.256168 0.493629
0 0.399405 0.491081
0.0976883 0.397482 0.48925
0.235904 0.394659 0.486488
0.372946 0.392142 0.483787
0.506966 0.390249 0.482185
0.637369 0.389136 0.481132
0.765667 0.388128 0.480171
0.892805 0.387259 0.479103
1 0.386328 0.478477
0 0.525124 0.476188
0.182055 0.503609 0.456107
0.225193 0.525597 0.476356
0.361425 0.522393 0.472877
0.495094 0.519783 0.470253
0.625208 0.517937 0.46836
0.752712 0.516258 0.466819
0.879454 0.514977 0.465339
1 0.513649 0.463981
0 0.660182 0.473259
0.0776989 0.657221 0.470466
0.214801 0.653361 0.466514
0.350759 0.649454 0.462287
0.484016 0.646342 0.459098
0.613886 0.643977 0.456886
0.741222 0.641886 0.454612
0.867506 0.640284 0.452766
0.994141 0.638453 0.451026
0 0.786404 0.464302
0.0677958 0.783047 0.460838
0.204334 0.778866 0.456504
0.339971 0.774487 0.452049
0.473381 0.770901 0.448356
0.603143 0.768215 0.445548
0.73019 0.765957 0.44303
0.856474 0.763973 0.441093
0.982712 0.762051 0.439033
0 0.91104 0.454261
0.0570535 0.907423 0.450782
0.193194 0.9028 0.445884
0.329 0.898268 0.441138
0.462303 0.894453 0.437201
0.592203 0.891508 0.434318
0.719356 0.889143 0.431632
0.845472 0.887022 0.429389
0.971756 0.885023 0.427237
0 1 0.443748
0.0459907 1 0.439811
0.181842 1 0.434974
0.317617 1 0.430106
0.451286 1 0.426078
0.581216 1 0.422919
0.708614 1 0.420127
0.835004 1 0.418189
0.96112 1 0.416159
0 0 0.64918
0.132738 0 0.647547
0.27129 0 0.645136
0.40853 0 0.643473
0.542184 0 0.642985
0.673106 0 0.643122
0.802152 0 0.643366
0.93077 0 0.644022
1 0 0.644831
0 0.130114 0.638972
0.12192 0.128389 0.63743
0.260471 0.126009 0.635294
0.397955 0.124224 0.633783
0.532052 0.123323 0.632883
0.662959 0.123186 0.632929
0.791989 0.12311 0.633021
0.920394 0.1234 0.633478
1 0.123583 0.633829
0 0.265461 0.627634
0.109606 0.263722 0.626276
0.248234 0.261128 0.62388
0.385504 0.259129 0.621851
0.519615 0.257832 0.620661
0.650492 0.257191 0.620417
0.779019 0.256718 0.620111
0.906935 0.256519 0.619821
1 0.256153 0.619608
0 0.399664 0.617227
0.0979629 0.397681 0.615351
0.236027 0.394797 0.612573
0.373022 0.392233 0.610117
0.507027 0.390295 0.608301
0.637339 0.38909 0.607202
0.765469 0.3879 0.606119
0.892668 0.38703 0.605371
1 0.386084 0.604532
0 0.531411 0.608103
0.0874495 0.528969 0.605798
0.224979 0.525399 0.602411
0.361273 0.52224 0.599039
0.494881 0.519585 0.596399
0.624949 0.517662 0.594537
0.752377 0.515953 0.593057
0.879118 0.514626 0.591531
1 0.513252 0.590204
0 0.659998 0.599771
0.0775158 0.656992 0.596735
0.214298 0.652873 0.592599
0.350408 0.649119 0.588571
0.483619 0.645945 0.585626
0.613458 0.643565 0.583215
0.740719 0.641443 0.580941
0.867018 0.63978 0.579202
0.993622 0.637919 0.577523
0 0.786053 0.590738
0.0673686 0.78265 0.587289
0.203616 0.778164 0.582895
0.339467 0.774014 0.578546
0.472877 0.770397 0.574884
0.602655 0.767666 0.572106
0.729503 0.765332 0.569726
0.855879 0.763394 0.567742
0.982147 0.761425 0.565728
0 0.910521 0.581064
0.0565042 0.906889 0.577447
0.192523 0.902235 0.572519
0.328405 0.897688 0.567895
0.461677 0.893858 0.564065
0.591577 0.890883 0.561212
0.718669 0.88838 0.558404
0.844831 0.886397 0.556359
0.971099 0.884367 0.554482
0 1 0.570642
0.0453498 1 0.566766
0.181033 1 0.561837
0.31693 1 0.557351
0.450629 1 0.553231
0.58056 1 0.550118
0.707958 1 0.547509
0.834363 1 0.545556
0.960479 1 0.543587
0 0 0.772808
0.133303 0 0.771023
0.271855 0 0.768658
0.40911 0 0.767071
0.542763 0 0.766629
0.673487 0 0.766506
0.802731 0 0.766979
0.931304 0 0.767819
1 0 0.768444
0 0.130694 0.7626
0.122499 0.128969 0.76109
0.261036 0.126574 0.759136
0.398474 0.124804 0.757412
0.532601 0.123857 0.756558
0.66334 0.123552 0.756466
0.792447 0.123552 0.756909
0.920836 0.123827 0.757122
1 0.123964 0.757473
0 0.265995 0.751431
0.110033 0.264149 0.74995
0.248722 0.261616 0.747616
0.385962 0.259586 0.74551
0.520012 0.258228 0.744579
0.650828 0.257496 0.74406
0.779385 0.257008 0.74377
0.907195 0.256748 0.74345
1 0.256291 0.74342
0 0.400107 0.741009
0.0983444 0.398047 0.739086
0.236316 0.395087 0.73637
0.373297 0.392508 0.733822
0.50724 0.390509 0.731975
0.637247 0.388983 0.730602
0.76553 0.387945 0.729946
0.892699 0.387015 0.728908
1 0.386023 0.728054
0 0.53164 0.731838
0.0875868 0.529137 0.729641
0.225071 0.525505 0.726085
0.361303 0.522286 0.722683
0.494865 0.519554 0.720012
0.624689 0.517403 0.718166
0.752194 0.515846 0.716579
0.87895 0.514443 0.715099
1 0.513039 0.713802
0 0.659998 0.723445
0.0775006 0.656931 0.720378
0.214145 0.652796 0.716213
0.350225 0.648951 0.712444
0.483467 0.645731 0.709239
0.613138 0.643229 0.706752
0.740414 0.641199 0.704524
0.866728 0.63949 0.703029
0.993317 0.637613 0.701183
0 0.785885 0.714443
0.0670787 0.782376 0.711086
0.203357 0.777935 0.706538
0.339178 0.773739 0.702251
0.472557 0.770092 0.698604
0.602289 0.767285 0.696025
0.729168 0.764996 0.693477
0.855528 0.763027 0.691508
0.981826 0.761044 0.689494
0 0.910231 0.704906
0.0561685 0.906569 0.701244
0.192081 0.901854 0.696254
0.328023 0.897337 0.691722
0.461295 0.893477 0.68809
0.590997 0.890303 0.684901
0.718288 0.887984 0.682307
0.844434 0.885985 0.6804
0.970703 0.88397 0.678492
0 1 0.694545
0.0449378 1 0.6907
0.180652 1 0.686015
0.316503 1 0.681346
0.450202 1 0.677256
0.580011 1 0.674083
0.707546 1 0.671778
0.833982 1 0.669734
0.960098 1 0.667826
0 0 0.895476
0.133639 0 0.893462
0.27248 0 0.891371
0.409735 0 0.889982
0.54342 0 0.889357
0.674083 0 0.889204
0.803372 0 0.889784
0.93193 0 0.890562
1 0 0.891127
0 0.131334 0.885359
0.122927 0.129397 0.883864
0.261692 0.127214 0.881895
0.399054 0.125444 0.88011
0.533211 0.124468 0.879301
0.663783 0.12398 0.879255
0.793011 0.124086 0.879591
0.92134 0.124315 0.879759
1 0.124407 0.880079
0 0.26659 0.874342
0.110582 0.264698 0.872663
0.249287 0.262181 0.870344
0.386542 0.26009 0.868284
0.520485 0.258686 0.867231
0.651057 0.25771 0.866453
0.779812 0.257343 0.866285
0.9075 0.257023 0.866163
1 0.256443 0.865782
0 0.40061 0.863691
0.098558 0.398276 0.861494
0.236698 0.395483 0.859098
0.373632 0.392844 0.856367
0.507515 0.390768 0.854444
0.637446 0.389166 0.853132
0.765637 0.388098 0.852262
0.892805 0.387106 0.85124
1 0.386038 0.850324
0 0.531945 0.854597
0.0875715 0.529137 0.851865
0.225208 0.525673 0.848478
0.36141 0.522408 0.845045
0.494896 0.5196 0.842557
0.624628 0.517327 0.840375
0.752117 0.515831 0.838773
0.878874 0.514366 0.837324
1 0.512901 0.836179
0 0.66009 0.845808
0.0773938 0.656779 0.842527
0.214054 0.652811 0.838605
0.350164 0.648905 0.834714
0.483436 0.64564 0.831464
0.612863 0.642954 0.828824
0.740215 0.641032 0.826917
0.866545 0.639292 0.825208
0.993103 0.6374 0.823346
0 0.785809 0.836744
0.0669108 0.782238 0.833371
0.203204 0.777813 0.828717
0.338994 0.773571 0.824475
0.472328 0.769879 0.820981
0.601846 0.766857 0.818021
0.728939 0.764767 0.815686
0.855283 0.762783 0.813718
0.981582 0.760723 0.811749
0 0.910048 0.827161
0.0556954 0.906142 0.82324
0.191852 0.90164 0.818494
0.327733 0.897078 0.814191
0.461021 0.893233 0.81033
0.590692 0.889998 0.807111
0.718029 0.887724 0.804578
0.844144 0.88571 0.802823
0.970443 0.883696 0.800809
0 1 0.816831
0.0444343 1 0.812985
0.180423 1 0.808301
0.316213 1 0.803662
0.449928 1 0.799603
0.579629 1 0.796536
0.707286 1 0.794156
0.833722 1 0.792142
0.959869 1 0.790265
0 0 1
0.134295 0 1
0.273152 0 1
0.410422 0 1
0.544076 0 1
0.674769 0 1
0.804059 0 1
0.932586 0 1
1 0 1
0 0.132021 1
0.123568 0.130037 1
0.262394 0.12784 1
0.399664 0.126085 1
0.533822 0.125048 1
0.664363 0.124529 1
0.793545 0.12459 1
0.921828 0.124773 1
1 0.124605 1
0 0.267185 0.997299
0.111025 0.265141 0.995438
0.249821 0.262715 0.99321
0.387045 0.260578 0.991226
0.520806 0.258991 0.989837
0.651484 0.258106 0.989136
0.780194 0.257649 0.988998
0.90779 0.257282 0.988693
1 0.256596 0.98819
0 0.401083 0.98645
0.09897 0.398688 0.984436
0.237079 0.395865 0.98175
0.373953 0.393164 0.978943
0.507683 0.390936 0.976852
0.637613 0.389319 0.975616
0.765713 0.38822 0.974533
0.892882 0.387152 0.973495
1 0.385809 0.97229
0 0.53225 0.977111
0.0877852 0.529366 0.974289
0.225299 0.525856 0.970779
0.361471 0.522484 0.967453
0.494942 0.519631 0.964767
0.624628 0.517327 0.962539
0.752041 0.515816 0.960845
0.878798 0.514275 0.959609
1 0.512581 0.957992
0 0.660182 0.968048
0.0773175 0.656733 0.964645
0.213962 0.652811 0.960769
0.350103 0.648859 0.956802
0.483391 0.645533 0.95349
0.612726 0.642832 0.950988
0.740078 0.640894 0.948882
0.866423 0.639109 0.947127
0.992767 0.637064 0.945113
0 0.785733 0.958984
0.0666361 0.781994 0.95523
0.203052 0.777676 0.950683
0.338811 0.773419 0.946471
0.472038 0.769589 0.94284
0.601648 0.766659 0.939895
0.728725 0.764553 0.937545
0.855055 0.76257 0.935561
0.981308 0.760449 0.933684
0 0.90988 0.949065
0.0554971 0.905959 0.945144
0.191608 0.901427 0.940566
0.327504 0.89688 0.936049
0.460746 0.892958 0.932128
0.590417 0.889784 0.928908
0.717769 0.887465 0.926635
0.843915 0.885481 0.924636
0.96997 0.883238 0.922393
0 1 0.938735
0.0441444 1 0.934798
0.180224 1 0.930098
0.315969 1 0.92549
0.449668 1 0.92163
0.579446 1 0.918349
0.707073 1 0.915984
0.833524 1 0.913985
0.959472 1 0.912169
