luts/_Pirabook Horror Movie _.cube
TITLE "Generated by Resolve"
LUT_3D_SIZE 33
0 0 0
0.0299535 0 0
0.0638743 0 0
0.0984054 0 0
0.133013 0 0
0.167636 0 0
0.202533 0 0
0.23714 0 0
0.271687 0 0
0.306111 0 0
0.340429 0 0
0.374792 0 0
0.408682 0 0
0.442329 0 0
0.475822 0 0
0.509056 0 0
0.542123 0 0
0.575235 0 0
0.60795 0 0
0.640528 0 0
0.672984 0 0
0.705348 0 0
0.737819 0 0
0.770077 0 0
0.802121 0 0
0.834257 0 0
0.866392 0 0
0.898528 0 0
0.930953 0 0
0.963165 0 0
0.995422 0 0
1 0 0
1 0 0
0.000442512 0.0263981 0.000122072
0.0272679 0.0288396 0
0.0616617 0.0282444 0
0.0961929 0.0276036 0
0.130785 0.0270848 0
0.165606 0.0266117 0
0.20029 0.0259556 0
0.234928 0.02533 0
0.269505 0.0247196 0
0.30399 0.0241245 0
0.338582 0.0238346 0
0.372808 0.0233616 0
0.406821 0.0229191 0
0.440604 0.0225528 0
0.474144 0.0222477 0
0.507439 0.0220798 0
0.540566 0.0221714 0
0.573297 0.0220951 0
0.606058 0.0220188 0
0.638666 0.021973 0
0.671168 0.0219425 0
0.703761 0.0221714 0
0.736141 0.0222629 0
0.768383 0.0223239 0
0.80058 0.022385 0
0.832746 0.0224613 0
0.864912 0.0225376 0
0.897276 0.0228885 0
0.92932 0.0229801 0
0.961501 0.0230411 0
0.993713 0.0231022 0
1 0.023331 0
1 0.023621 0
0.0127718 0.0533913 0.0118715
0.0326085 0.0573281 0.0100557
0.0585031 0.0618601 0
0.0931868 0.0613413 0
0.128008 0.060853 0
0.162692 0.0602121 0
0.197391 0.0595865 0
0.232044 0.0589609 0
0.266499 0.0583963 0
0.301213 0.0581064 0
0.335607 0.0575723 0
0.369833 0.057084 0
0.403861 0.0566415 0
0.437675 0.0562753 0
0.471504 0.0562295 0
0.504768 0.0560159 0
0.537774 0.0558785 0
0.570672 0.0557565 0
0.603449 0.0556802 0
0.63621 0.0557717 0
0.668788 0.0558785 0
0.70106 0.0559396 0
0.733379 0.0559701 0
0.765621 0.0560159 0
0.797818 0.0560769 0
0.830243 0.0564126 0
0.862394 0.0564736 0
0.894545 0.0565347 0
0.926696 0.0565957 0
0.958892 0.0566262 0
0.991165 0.0567788 0
1 0.0572061 0
1 0.0572061 0
0.0222171 0.0817426 0.0207218
0.0400702 0.0867475 0.0177005
0.0555886 0.0958267 0
0.0901808 0.0952163 0
0.124834 0.0945907 0
0.159533 0.0939651 0
0.194247 0.0933394 0
0.229129 0.0929274 0
0.263813 0.0923934 0
0.298344 0.0918288 0
0.332738 0.0912947 0
0.366979 0.0908064 0
0.400916 0.0904097 0
0.434943 0.0903182 0
0.468544 0.0899977 0
0.501793 0.0897841 0
0.534813 0.0896468 0
0.567758 0.0895094 0
0.600702 0.0895857 0
0.633448 0.0896315 0
0.665949 0.089601 0
0.698375 0.089601 0
0.730694 0.0896315 0
0.762921 0.089662 0
0.795361 0.0899977 0
0.82739 0.0900893 0
0.859495 0.0901503 0
0.89163 0.0901961 0
0.923781 0.0902419 0
0.956069 0.0903792 0
0.988342 0.0905776 0
1 0.0907912 0
1 0.0907607 0
0.041413 0.106432 0.0387427
0.0611887 0.109514 0.0440375
0.0733043 0.11693 0.0334478
0.0871748 0.128939 0
0.121843 0.128328 0
0.156405 0.127749 0
0.191287 0.127352 0
0.226032 0.126802 0
0.260655 0.126207 0
0.295201 0.125643 0
0.329625 0.125109 0
0.363912 0.124651 0
0.398215 0.124437 0
0.43209 0.124056 0
0.465705 0.123735 0
0.498955 0.123537 0
0.531899 0.1234 0
0.565042 0.123552 0
0.597818 0.123445 0
0.630472 0.123369 0
0.662989 0.123339 0
0.695399 0.123339 0
0.727962 0.123598 0
0.76022 0.123629 0
0.792416 0.123659 0
0.824567 0.123705 0
0.856672 0.123751 0
0.888869 0.123842 0
0.921187 0.124071 0
0.95317 0.124132 0
0.985229 0.124178 0
1 0.124346 0
1 0.1243 0
0.0536812 0.133715 0.0502632
0.0828107 0.132403 0.0679637
0.0954147 0.13843 0.0671702
0.10367 0.148608 0.0442817
0.118822 0.16231 0
0.153643 0.161807 0
0.188357 0.161181 0
0.223056 0.160571 0
0.257694 0.159991 0
0.292119 0.159457 0
0.326741 0.159197 0
0.361013 0.158709 0
0.395102 0.158251 0
0.428992 0.15787 0
0.462593 0.157549 0
0.495995 0.157443 0
0.529229 0.157412 0
0.562188 0.157244 0
0.59498 0.157137 0
0.627619 0.157061 0
0.66006 0.157031 0
0.692607 0.15729 0
0.724926 0.15729 0
0.757168 0.15729 0
0.789334 0.157321 0
0.821469 0.157336 0
0.853651 0.157443 0
0.885939 0.157641 0
0.918044 0.157656 0
0.950134 0.157656 0
0.982208 0.157656 0
1 0.157839 0
1 0.157992 0
0.065507 0.161166 0.0616465
0.0975814 0.15874 0.082002
0.0992905 0.17055 0.0638437
0.109453 0.179614 0.0453498
0.115755 0.196246 0
0.150454 0.195636 0
0.185183 0.195026 0
0.219883 0.194415 0
0.25452 0.19382 0
0.289342 0.193515 0
0.323781 0.192966 0
0.358068 0.192462 0
0.392172 0.192004 0
0.425956 0.191623 0
0.459602 0.19147 0
0.493019 0.191348 0
0.526131 0.19115 0
0.559091 0.190967 0
0.591882 0.190845 0
0.624537 0.190738 0
0.657313 0.190936 0
0.689708 0.19089 0
0.722011 0.19086 0
0.754223 0.19086 0
0.786328 0.190875 0
0.81857 0.19118 0
0.850645 0.191165 0
0.882734 0.191165 0
0.914809 0.19115 0
0.946853 0.191135 0
0.979065 0.191302 0
1 0.191409 0
1 0.191394 0
0.039765 0.204547 0.0369726
0.0785229 0.200595 0.0558175
0.110903 0.198123 0.0751507
0.125673 0.204074 0.0701152
0.13933 0.211917 0.052781
0.147509 0.229404 0
0.182101 0.228824 0
0.216983 0.228489 0
0.251637 0.227893 0
0.286183 0.227314 0
0.320623 0.226749 0
0.35491 0.22623 0
0.389105 0.225849 0
0.423178 0.225605 0
0.456779 0.225269 0
0.490059 0.22501 0
0.523201 0.224781 0
0.556085 0.224613 0
0.588998 0.22472 0
0.621668 0.224628 0
0.654169 0.224537 0
0.686564 0.224475 0
0.718837 0.22443 0
0.75108 0.22443 0
0.783444 0.224628 0
0.815534 0.224613 0
0.847608 0.224582 0
0.879652 0.224552 0
0.91165 0.224506 0
0.943694 0.224704 0
0.975753 0.22475 0
1 0.22475 0
1 0.224674 0
0.0445869 0.235447 0.0411841
0.0879988 0.229099 0.0648356
0.121523 0.2262 0.0848096
0.135958 0.232212 0.0799878
0.145495 0.242145 0.056611
0.144396 0.263188 0
0.17937 0.262837 0
0.214054 0.262211 0
0.248707 0.261601 0
0.283253 0.261006 0
0.317586 0.260456 0
0.351873 0.26006 0
0.386145 0.259724 0
0.42005 0.259281 0
0.45362 0.25893 0
0.486915 0.258656 0
0.520073 0.258396 0
0.553292 0.258427 0
0.586084 0.258259 0
0.618708 0.258122 0
0.651194 0.258 0
0.683513 0.257923 0
0.715709 0.257954 0
0.748089 0.258091 0
0.780209 0.25803 0
0.812268 0.257969 0
0.844297 0.257923 0
0.876326 0.257862 0
0.908598 0.258061 0
0.94052 0.258 0
0.972503 0.257908 0
1 0.257786 0
1 0.257816 0
0.0382544 0.270619 0.0350958
0.0863508 0.262501 0.0615702
0.127291 0.256504 0.0882734
0.152804 0.257359 0.100481
0.165057 0.264744 0.0899062
0.174273 0.275441 0.0605631
0.176287 0.296544 0
0.210956 0.295903 0
0.245609 0.295277 0
0.280156 0.294667 0
0.314839 0.294347 0
0.349126 0.293797 0
0.38323 0.293278 0
0.417121 0.292821 0
0.450614 0.29247 0
0.484001 0.292393 0
0.51722 0.292165 0
0.550164 0.291905 0
0.58294 0.291707 0
0.615564 0.291554 0
0.648035 0.291402 0
0.680629 0.291539 0
0.712871 0.291432 0
0.745037 0.291341 0
0.777127 0.291264 0
0.809125 0.291188 0
0.841138 0.291279 0
0.873213 0.291295 0
0.905165 0.291203 0
0.937072 0.291127 0
0.969024 0.291005 0
1 0.290822 0
1 0.291051 0
0.0348516 0.30454 0.0316167
0.0920119 0.292622 0.0665141
0.141802 0.283024 0.103471
0.169558 0.282292 0.119753
0.188159 0.285801 0.124392
0.195407 0.296117 0.102342
0.203067 0.308598 0.0626078
0.208057 0.329488 0
0.242618 0.328939 0
0.277348 0.328496 0
0.311772 0.327901 0
0.346059 0.327321 0
0.380148 0.326787 0
0.414008 0.326299 0
0.447776 0.326116 0
0.481178 0.325811 0
0.514321 0.325505 0
0.54725 0.325216 0
0.57995 0.324987 0
0.612436 0.324865 0
0.645121 0.324926 0
0.677455 0.324773 0
0.709667 0.324636 0
0.741787 0.324498 0
0.773846 0.324376 0
0.806027 0.324437 0
0.838087 0.324407 0
0.870024 0.324269 0
0.9019 0.324132 0
0.933745 0.324025 0
0.96556 0.323903 0
0.997803 0.323949 0
1 0.323873 0
0.0390173 0.335164 0.0357061
0.100023 0.322011 0.0740673
0.153323 0.310536 0.114382
0.185397 0.307729 0.136751
0.205631 0.310262 0.145373
0.210925 0.321401 0.12372
0.214237 0.335454 0.0816205
0.20528 0.363043 0
0.240055 0.362554 0
0.274571 0.361898 0
0.30898 0.361257 0
0.34316 0.360678 0
0.377127 0.360159 0
0.411215 0.359915 0
0.44477 0.359472 0
0.478111 0.359075 0
0.511254 0.35874 0
0.544182 0.358419 0
0.577173 0.358419 0
0.609735 0.358175 0
0.642161 0.357961 0
0.674464 0.357778 0
0.70663 0.357626 0
0.738705 0.35761 0
0.77084 0.357595 0
0.802808 0.357427 0
0.83473 0.357275 0
0.866636 0.357107 0
0.898466 0.356954 0
0.93051 0.357031 0
0.962417 0.356817 0
0.994415 0.356573 0
1 0.356497 0
0.043473 0.366064 0.0395819
0.107668 0.351125 0.0812238
0.164508 0.33814 0.124804
0.198505 0.33463 0.148943
0.225513 0.333806 0.169345
0.234241 0.342107 0.159228
0.232914 0.357488 0.117235
0.234012 0.374487 0.0568856
0.237156 0.39588 0
0.271656 0.395209 0
0.306035 0.394537 0
0.340459 0.39408 0
0.374624 0.393561 0
0.408423 0.393042 0
0.441962 0.392584 0
0.475273 0.392157 0
0.508247 0.391806 0
0.54139 0.391714 0
0.574121 0.391409 0
0.606668 0.39115 0
0.639048 0.39089 0
0.671321 0.390646 0
0.703609 0.390585 0
0.73579 0.390509 0
0.767788 0.390311 0
0.79971 0.390112 0
0.831571 0.389899 0
0.863294 0.389731 0
0.895277 0.389807 0
0.927031 0.389609 0
0.958907 0.389334 0
0.990814 0.389029 0
1 0.388891 0
0.0443732 0.397971 0.0403143
0.106126 0.384176 0.0785534
0.161456 0.372442 0.118379
0.19939 0.367285 0.145129
0.226932 0.366369 0.162661
0.238605 0.373388 0.155489
0.242405 0.38558 0.126177
0.242908 0.401846 0.0726635
0.251087 0.416541 0.0133059
0.268818 0.428336 0
0.303395 0.427848 0
0.337682 0.427253 0
0.371725 0.426612 0
0.405493 0.426047 0
0.439017 0.425544 0
0.472389 0.425071 0
0.505745 0.424903 0
0.538613 0.424506 0
0.571298 0.424155 0
0.6038 0.42385 0
0.636027 0.423606 0
0.668482 0.423606 0
0.700603 0.423346 0
0.732616 0.423087 0
0.764553 0.422858 0
0.79646 0.422629 0
0.828504 0.422599 0
0.860334 0.42237 0
0.892027 0.422141 0
0.923766 0.421881 0
0.955596 0.421592 0
0.987396 0.421332 0
1 0.421363 0
0.0483558 0.428443 0.0442206
0.113146 0.413504 0.0850996
0.164553 0.403494 0.119615
0.191165 0.40383 0.129534
0.209644 0.407889 0.129152
0.222873 0.414878 0.11809
0.2374 0.421668 0.105531
0.244068 0.434348 0.0668193
0.252796 0.448081 0.0146944
0.26656 0.461494 0
0.300908 0.460761 0
0.334997 0.460105 0
0.368917 0.459464 0
0.402655 0.458869 0
0.436439 0.458564 0
0.46978 0.45803 0
0.502861 0.457572 0
0.535714 0.457145 0
0.568368 0.456748 0
0.600946 0.456489 0
0.633433 0.456306 0
0.665629 0.456001 0
0.697719 0.455711 0
0.729686 0.455406 0
0.76144 0.455161 0
0.793469 0.455131 0
0.825284 0.454856 0
0.857023 0.454582 0
0.888685 0.454322 0
0.920394 0.454017 0
0.952239 0.453727 0
0.984268 0.453574 0
1 0.453391 0
0.0368658 0.465553 0.032929
0.0969558 0.452903 0.0672618
0.137667 0.447791 0.0863355
0.167941 0.447028 0.0959487
0.201297 0.444511 0.111864
0.231708 0.443397 0.126452
0.25449 0.445487 0.130907
0.270054 0.451789 0.119265
0.276051 0.465049 0.0753338
0.284199 0.479591 0.0164187
0.298253 0.493477 0
0.332418 0.492744 0
0.366384 0.492042 0
0.400351 0.491661 0
0.43389 0.491066 0
0.467124 0.490501 0
0.500053 0.490013 0
0.532876 0.48954 0
0.565621 0.489219 0
0.598215 0.48896 0
0.630503 0.488579 0
0.662654 0.488212 0
0.694713 0.487877 0
0.72665 0.487541 0
0.758755 0.48748 0
0.79057 0.487144 0
0.822309 0.486824 0
0.853986 0.486519 0
0.885496 0.486259 0
0.917372 0.486198 0
0.949111 0.485832 0
0.980911 0.485435 0
1 0.485206 0
0 0.521584 0
0.0532235 0.503792 0.0213169
0.121019 0.487266 0.0657206
0.16791 0.479133 0.0934768
0.208392 0.473732 0.117723
0.238041 0.472602 0.131136
0.264927 0.472587 0.142092
0.284764 0.476188 0.141146
0.291691 0.487877 0.106859
0.292103 0.506035 0.0372778
0.295659 0.525994 0
0.330053 0.525444 0
0.363973 0.524712 0
0.39765 0.524041 0
0.431189 0.523384 0
0.464485 0.522759 0
0.497566 0.522255 0
0.530556 0.52192 0
0.563134 0.521431 0
0.595499 0.521004 0
0.627634 0.520623 0
0.65977 0.520226 0
0.691966 0.520043 0
0.723934 0.519707 0
0.755764 0.519371 0
0.787533 0.51902 0
0.819257 0.518669 0
0.850904 0.518349 0
0.882719 0.518257 0
0.914397 0.517891 0
0.94612 0.517494 0
0.977874 0.517082 0
1 0.516869 0
0 0.553628 0
0.0555276 0.534554 0.0233921
0.12578 0.51693 0.0703746
0.174899 0.508232 0.099794
0.216342 0.501976 0.125231
0.245457 0.501091 0.137484
0.271458 0.501534 0.146578
0.289799 0.506004 0.142199
0.30602 0.512261 0.130892
0.311025 0.526131 0.0834058
0.317082 0.541741 0.0198062
0.327672 0.557656 0
0.361456 0.556909 0
0.39498 0.556207 0
0.428489 0.555489 0
0.461845 0.554879 0
0.495018 0.554452 0
0.527794 0.553903 0
0.560372 0.553368 0
0.592752 0.55288 0
0.624994 0.552422 0
0.657313 0.552209 0
0.689342 0.551827 0
0.721187 0.551431 0
0.75285 0.55108 0
0.784573 0.550698 0
0.816312 0.550362 0
0.848096 0.550225 0
0.879652 0.549874 0
0.911315 0.549462 0
0.943008 0.54905 0
0.974731 0.548623 0
1 0.548608 0
0 0.585428 0
0.0577249 0.565194 0.0252689
0.131212 0.546532 0.0754253
0.181552 0.536873 0.106294
0.224109 0.530098 0.132769
0.253727 0.529 0.145281
0.280217 0.529503 0.154803
0.303944 0.530861 0.161303
0.312413 0.540887 0.135698
0.309514 0.559136 0.0721294
0.29099 0.59057 0
0.325063 0.589685 0
0.358877 0.588876 0
0.392523 0.588113 0
0.426276 0.587594 0
0.459525 0.586877 0
0.492454 0.586236 0
0.525063 0.585687 0
0.55761 0.585122 0
0.590158 0.584772 0
0.622461 0.58436 0
0.654536 0.583886 0
0.686503 0.583444 0
0.718364 0.583017 0
0.750149 0.582605 0
0.782101 0.582437 0
0.813748 0.582025 0
0.845289 0.581674 0
0.876707 0.581323 0
0.908309 0.580911 0
0.940078 0.580591 0
0.971893 0.580255 0
1 0.579873 0
0 0.617029 0
0.0602274 0.595911 0.0275578
0.136156 0.575784 0.0800336
0.187991 0.565438 0.112306
0.232013 0.558007 0.14023
0.262226 0.556924 0.153277
0.277653 0.562692 0.144411
0.27866 0.576349 0.107393
0.220172 0.624292 0
0.254368 0.623377 0
0.288411 0.622477 0
0.322423 0.621561 0
0.356268 0.620752 0
0.390112 0.620142 0
0.42359 0.619333 0
0.45684 0.618585 0
0.489815 0.617899 0
0.522545 0.617258 0
0.555261 0.616846 0
0.587686 0.616358 0
0.619852 0.615854 0
0.651789 0.615381 0
0.683696 0.614923 0
0.715526 0.614466 0
0.747539 0.614267 0
0.779248 0.61384 0
0.810834 0.613413 0
0.842359 0.613016 0
0.873915 0.612604 0
0.905653 0.612299 0
0.937392 0.611948 0
0.96907 0.611475 0
1 0.611078 0
0 0.648722 0
0.0624552 0.626154 0.0296483
0.14107 0.604852 0.0845808
0.19472 0.593973 0.118578
0.227131 0.59202 0.13077
0.23476 0.601633 0.109712
0.149035 0.658061 0
0.183368 0.657099 0
0.217655 0.656107 0
0.251881 0.655116 0
0.286015 0.654154 0
0.320058 0.653269 0
0.354025 0.652583 0
0.38761 0.651728 0
0.420935 0.650919 0
0.454154 0.650141 0
0.487144 0.649424 0
0.520119 0.648997 0
0.552621 0.648371 0
0.58497 0.647791 0
0.617151 0.647242 0
0.649195 0.646723 0
0.681361 0.646464 0
0.713191 0.645975 0
0.744915 0.645502 0
0.776455 0.64509 0
0.807965 0.644678 0
0.839567 0.644343 0
0.871275 0.644053 0
0.902846 0.64358 0
0.934447 0.643107 0
0.966094 0.642618 0
0.997787 0.6421 0
0 0.694575 0
0.0358434 0.668467 0.00329595
0.119768 0.645228 0.0603037
0.161776 0.639963 0.0778363
0.078233 0.691646 0
0.112505 0.69073 0
0.146685 0.689754 0
0.180835 0.688777 0
0.215106 0.68777 0
0.249302 0.686763 0
0.283665 0.685985 0
0.317601 0.685023 0
0.351354 0.684108 0
0.385016 0.683207 0
0.418463 0.682338 0
0.451835 0.681651 0
0.484901 0.680995 0
0.517586 0.680308 0
0.54995 0.679698 0
0.582254 0.679103 0
0.61442 0.678508 0
0.646693 0.678203 0
0.678614 0.677684 0
0.710414 0.67718 0
0.742138 0.676692 0
0.773785 0.676204 0
0.805417 0.675868 0
0.837049 0.675578 0
0.868605 0.675105 0
0.900038 0.674647 0
0.931533 0.674174 0
0.963165 0.673671 0
0.995071 0.673365 0
0 0.726329 0
0 0.725551 0
0.00836194 0.724758 0
0.0416876 0.724269 0
0.0758373 0.723354 0
0.110033 0.722347 0
0.144244 0.721309 0
0.1785 0.720272 0
0.212741 0.719249 0
0.24715 0.718425 0
0.281209 0.717403 0
0.314946 0.716457 0
0.348669 0.715511 0
0.382345 0.714565 0
0.415961 0.713832 0
0.449256 0.713069 0
0.482216 0.712276 0
0.514931 0.711543 0
0.547417 0.710872 0
0.579751 0.710231 0
0.612146 0.70988 0
0.64416 0.7093 0
0.675914 0.708782 0
0.707652 0.708278 0
0.739361 0.707774 0
0.771252 0.707515 0
0.802747 0.707057 0
0.834211 0.7066 0
0.865766 0.706111 0
0.897292 0.705608 0
0.929046 0.705287 0
0.960708 0.704814 0
0.99234 0.704265 0
0 0.757916 0
0 0.757107 0
0.00633249 0.756542 0
0.039292 0.755856 0
0.0733501 0.754849 0
0.1075 0.753826 0
0.141695 0.752773 0
0.17615 0.751949 0
0.210361 0.750866 0
0.244511 0.749783 0
0.278584 0.74873 0
0.312474 0.747723 0
0.346319 0.746853 0
0.380102 0.746014 0
0.41352 0.745083 0
0.446601 0.744244 0
0.47953 0.74345 0
0.51223 0.742687 0
0.544961 0.742229 0
0.577279 0.741573 0
0.60943 0.740948 0
0.641443 0.740353 0
0.67332 0.739773 0
0.70518 0.7393 0
0.737041 0.738949 0
0.768643 0.73843 0
0.800015 0.738003 0
0.831418 0.73753 0
0.862943 0.737026 0
0.894667 0.736721 0
0.926253 0.736233 0
0.957824 0.735698 0
0.989456 0.735149 0
0 0.789548 0
0 0.7888 0
0.00399786 0.787961 0
0.0370184 0.787213 0
0.071046 0.786191 0
0.10515 0.785122 0
0.139452 0.784314 0
0.173541 0.783261 0
0.207721 0.782162 0
0.241856 0.781048 0
0.275883 0.779965 0
0.309865 0.779065 0
0.34374 0.778164 0
0.377386 0.777173 0
0.410834 0.776211 0
0.444053 0.775311 0
0.477012 0.774472 0
0.509957 0.773938 0
0.542443 0.773205 0
0.574609 0.772564 0
0.606699 0.771923 0
0.638697 0.771313 0
0.670665 0.770809 0
0.702602 0.770397 0
0.734279 0.769863 0
0.76585 0.769345 0
0.797314 0.768856 0
0.828809 0.768353 0
0.860563 0.768078 0
0.892073 0.767544 0
0.923506 0.76704 0
0.954971 0.766522 0
0.986587 0.765957 0
0 0.820996 0
0 0.820127 0
0.00158694 0.819257 0
0.0344701 0.818524 0
0.0684672 0.817487 0
0.102785 0.816648 0
0.136919 0.815534 0
0.171069 0.81442 0
0.205234 0.813291 0
0.239338 0.812161 0
0.273503 0.811337 0
0.307225 0.810315 0
0.340993 0.809262 0
0.37464 0.80824 0
0.408087 0.807263 0
0.441505 0.806546 0
0.47451 0.805707 0
0.50721 0.804913 0
0.539696 0.804166 0
0.572015 0.803464 0
0.604196 0.802838 0
0.636378 0.802396 0
0.668254 0.801801 0
0.699901 0.801251 0
0.731502 0.800702 0
0.763058 0.800183 0
0.79469 0.799847 0
0.826261 0.799405 0
0.857755 0.798871 0
0.88925 0.798337 0
0.92076 0.797803 0
0.952316 0.797253 0
0.984146 0.796918 0
0 0.852247 0
0 0.851362 0
0 0.850462 0
0.0322271 0.849943 0
0.0660563 0.848905 0
0.100099 0.847807 0
0.134218 0.846693 0
0.168353 0.845548 0
0.202564 0.844495 0
0.23682 0.843488 0
0.270787 0.84239 0
0.304631 0.841321 0
0.338415 0.840238 0
0.372045 0.839185 0
0.405661 0.838422 0
0.438758 0.837537 0
0.471717 0.836652 0
0.504433 0.835828 0
0.536934 0.83505 0
0.569284 0.834379 0
0.601617 0.83389 0
0.633616 0.833234 0
0.665476 0.832624 0
0.697246 0.832029 0
0.728908 0.831449 0
0.760616 0.831113 0
0.792126 0.830655 0
0.823545 0.830137 0
0.854932 0.829633 0
0.886427 0.829084 0
0.917952 0.82855 0
0.949706 0.828229 0
0.981292 0.827649 0
0 0.883421 0
0 0.882506 0
0 0.881834 0
0.0296483 0.881056 0
0.0635538 0.879973 0
0.0975662 0.878859 0
0.131655 0.877714 0
0.165805 0.876677 0
0.199924 0.875685 0
