luts/A Walk in the park.cube
TITLE "Generated by Resolve"
LUT_3D_SIZE 33
0.0396429 0.0396429 0.0396429
0.0396429 0.0396429 0.0396429
0.0396429 0.0396429 0.0396429
0.0396429 0.0396429 0.0396429
0.0545052 0.0363012 0.0367895
0.0768597 0.0287327 0.0304723
0.0986343 0.0179446 0.0219425
0.125994 0.000701915 0.00944533
0.161425 0 0
0.201114 0 0
0.244694 0 0
0.292165 0 0
0.34226 0 0
0.39353 0 0
0.44387 0 0
0.495903 0 0
0.54818 0 0
0.599741 0 0
0.648981 0 0
0.695125 0 0
0.737484 0 0
0.775723 0 0
0.809842 0 0
0.839841 0 0
0.865751 0 0
0.886442 0 0
0.886442 0 0
0.886442 0 0
0.886442 0 0
0.886519 0 0.0475624
0.912306 0 0.284703
0.962295 0.417639 0.459251
0.956527 0.537285 0.534936
0.0396429 0.0396429 0.0396429
0.0396429 0.0396429 0.0396429
0.0396429 0.0396429 0.0396429
0.0396429 0.0396429 0.0396429
0.0577554 0.0354009 0.0360266
0.0790112 0.0278172 0.0297398
0.100389 0.0169833 0.0212253
0.127443 0 0.00866712
0.162753 0 0
0.202106 0 0
0.245487 0 0
0.292744 0 0
0.342336 0 0
0.392615 0 0
0.443473 0 0
0.495674 0 0
0.548028 0 0
0.599619 0 0
0.64889 0 0
0.695064 0 0
0.737438 0 0
0.775692 0 0
0.809827 0 0
0.839811 0 0
0.865736 0 0
0.886442 0 0
0.886442 0 0
0.886442 0 0
0.886442 0 0
0.886519 0 0.0452277
0.912306 0 0.284352
0.962112 0.419089 0.459083
0.95642 0.537942 0.534844
0.0396429 0.0396429 0.0396429
0.0396429 0.0396429 0.0396429
0.0396429 0.0396429 0.0396429
0.0396429 0.0396429 0.0396429
0.0608377 0.0344854 0.0352636
0.0810712 0.0269169 0.0290074
0.102098 0.0160372 0.0204929
0.128862 0 0.00788891
0.164065 0 0
0.203082 0 0
0.246235 0 0
0.292149 0 0
0.341054 0 0
0.391959 0 0
0.443153 0 0
0.495445 0 0
0.54786 0 0
0.599512 0 0
0.648814 0 0
0.695003 0 0
0.737408 0 0
0.775662 0 0
0.809796 0 0
0.839796 0 0
0.865721 0 0
0.886442 0 0
0.886442 0 0
0.886442 0 0
0.886442 0 0
0.886519 0 0.042771
0.912291 0 0.283986
0.961929 0.420523 0.458915
0.956329 0.538582 0.534737
0.0396429 0.0396429 0.0396429
0.0396429 0.0396429 0.0396429
0.0396429 0.0396429 0.0396429
0.0396429 0.0396429 0.0396429
0.0636606 0.0338293 0.0344244
0.0825513 0.0285344 0.0277409
0.102846 0.0217594 0.0183719
0.128862 0.0125734 0.00386053
0.163134 0 0
0.201419 0 0
0.24387 0 0
0.290547 0 0
0.340124 0 0
0.391455 0 0
0.442817 0 0
0.495216 0 0
0.547692 0 0
0.59939 0 0
0.648722 0 0
0.694942 0 0
0.737362 0 0
0.775631 0 0
0.809766 0 0
0.83978 0 0
0.865705 0 0
0.886442 0 0
0.886442 0 0
0.886442 0 0
0.886442 0 0
0.886519 0 0.0402075
0.912276 0 0.283635
0.961746 0.421942 0.458747
0.956237 0.539239 0.534646
0.0208591 0.058381 0.0310521
0.019379 0.0594339 0.030457
0.0178836 0.0604562 0.0298466
0.0187533 0.0613718 0.0291142
0.0551308 0.0600748 0.0255741
0.0767987 0.0566262 0.0181125
0.0979782 0.0524605 0.00701915
0.124926 0.0470436 0
0.159701 0.0394903 0
0.199039 0.0279545 0
0.2421 0.00747692 0
0.289387 0 0
0.339376 0 0
0.390936 0 0
0.442466 0 0
0.494972 0 0
0.547509 0 0
0.599268 0 0
0.648646 0 0
0.694881 0 0
0.737316 0 0
0.775601 0 0
0.80975 0 0
0.83975 0 0
0.86569 0 0
0.886442 0 0
0.886442 0 0
0.886442 0 0
0.886442 0 0
0.886503 0 0.0375219
0.912276 0 0.283284
0.961563 0.423346 0.458579
0.956146 0.539879 0.534554
0 0.0784009 0.0176547
0 0.0792401 0.016968
0 0.0800793 0.0162814
0 0.0805524 0.0148928
0.0418402 0.0795911 0.0103914
0.069688 0.07776 0.00505074
0.0927291 0.0731975 0
0.119768 0.0681773 0
0.15555 0.0620584 0
0.196765 0.0536355 0
0.240558 0.0405127 0
0.288243 0.0162509 0
0.338491 0 0
0.390341 0 0
0.442069 0 0
0.494682 0 0
0.547326 0 0
0.59913 0 0
0.648554 0 0
0.69482 0 0
0.73727 0 0
0.77557 0 0
0.80972 0 0
0.839734 0 0
0.86566 0 0
0.886442 0 0
0.886442 0 0
0.886442 0 0
0.886442 0 0
0.886488 0 0.0343938
0.912261 0 0.282887
0.961379 0.424887 0.458396
0.956039 0.540581 0.534447
0 0.107073 0
0 0.107973 0
0 0.108843 0
0 0.108919 0
0.0175174 0.107881 0
0.0550851 0.106538 0
0.0852064 0.100969 1.5259e-05
0.113069 0.0941787 0
0.148135 0.0872511 0
0.190219 0.0779431 0
0.236912 0.068513 0
0.286702 0.0539559 0
0.337484 0.0258335 0
0.389456 0 0
0.441474 0 0
0.49427 0 0
0.547036 0 0
0.598932 0 0
0.648417 0 0
0.694713 0 0
0.737194 0 0
0.775525 0 0
0.809689 0 0
0.839704 0 0
0.865644 0 0
0.886442 0 0
0.886442 0 0
0.886442 0 0
0.886442 0 0
0.886458 0 0.0296483
0.912245 0 0.282338
0.961105 0.427039 0.458122
0.955886 0.541573 0.53431
0 0.139101 0
0 0.139742 0
0 0.140383 0
0 0.139986 0
0 0.139269 0
0.0268254 0.138506 0
0.069276 0.135332 0
0.1037 0.130022 1.5259e-05
0.141558 0.122606 0
0.183276 0.114321 0
0.229435 0.102174 0
0.280964 0.0860304 0
0.335622 0.0685893 0
0.388434 0.033875 0
0.440574 0 0
0.49366 0 0
0.546609 0 0
0.598642 0 0
0.648219 0 0
0.694575 0 0
0.737102 0 0
0.775448 0 0
0.809628 0 0
0.839658 0 0
0.865614 0 0
0.886442 0 0
0.886442 0 0
0.886442 0 0
0.886442 0 0
0.886442 0 0.022034
0.91223 0 0.281544
0.960708 0.430076 0.457755
0.955688 0.542992 0.534096
0 0.172366 0
0 0.172839 0
0 0.173175 0
0 0.172564 0
0 0.172122 0
0 0.171618 0
0.0370947 0.170886 0
0.0846876 0.166674 0
0.128374 0.163882 3.0518e-05
0.17644 0.155596 0
0.223056 0.145724 0
0.273686 0.13167 0
0.328603 0.110994 0
0.385565 0.082948 0
0.439643 0.039353 0
0.492714 0 0
0.545968 0 0
0.598215 0 0
0.647913 0 0
0.694377 0 0
0.736965 0 0
0.775341 0 0
0.809552 0 0
0.839597 0 0
0.865553 0 0
0.886442 0 0
0.886442 0 0
0.886442 0 0
0.886442 0 0
0.886442 0 0.00883497
0.914519 0.0268101 0.282002
0.960174 0.434318 0.457206
0.955398 0.544991 0.533867
0 0.207965 0
0 0.208331 0
0 0.208072 0
0 0.207675 0
0 0.207385 0
0 0.207019 0
0 0.20647 0
0.0490272 0.206134 0
0.102632 0.203082 0
0.160601 0.200977 3.0518e-05
0.216068 0.191653 0
0.268009 0.180575 0
0.322271 0.165286 0
0.378836 0.140047 0
0.436133 0.100694 0
0.491783 0.0504768 0
0.545007 0 0
0.597574 0 0
0.647486 0 0
0.694072 0 0
0.736751 0 0
0.775189 0 0
0.80943 0 0
0.839506 0 0
0.865476 0 0
0.886442 0 0
0.886442 0 0
0.886442 0 0
0.886442 0 0
0.886442 0 0
0.929473 0.0774395 0.292439
0.959442 0.440208 0.456611
0.954986 0.547799 0.533547
0 0.246265 0
0 0.246159 0
0 0.245853 0
0 0.24564 0
0 0.245441 0
0 0.245182 0
0 0.244816 0
0 0.244221 0
0.062501 0.245151 0
0.124804 0.244175 0
0.197543 0.242237 6.10361e-05
0.26038 0.231281 0
0.317556 0.219104 0
0.37348 0.200748 0
0.430533 0.173495 0
0.48835 0.130205 0
0.544625 0.0653086 0
0.596613 0 0
0.64683 0 0
0.693614 0 0
0.736446 0 0
0.774975 0 0
0.809262 0 0
0.839384 0 0
0.865385 0 0
0.886442 0 0
0.886442 0 0
0.886442 0 0
0.886442 0 0
0.886442 0 0
0.943938 0.122515 0.301472
0.958419 0.44828 0.455863
0.954376 0.551705 0.533135
0 0.287068 0
0 0.286854 0
0 0.286717 0
0 0.286564 0
0 0.286412 0
0 0.286229 0
0 0.285954 0
0 0.285542 0
0 0.284916 0
0.077409 0.287922 0
0.155566 0.289448 0
0.238941 0.287343 7.62951e-05
0.308934 0.274891 0
0.369757 0.260288 0
0.426688 0.241917 0
0.484031 0.213626 0
0.542 0.166445 0
0.597635 0.0840925 0
0.645838 0 0
0.692958 0 0
0.736004 0 0
0.774639 0 0
0.809018 0 0
0.839185 0 0
0.865232 0 0
0.886442 0 0
0.886442 0 0
0.886442 0 0
0.886442 0 0
0.886442 0 0
0.954696 0.189349 0.307942
0.957031 0.45919 0.45478
0.953521 0.557122 0.532525
0 0.331304 0
0 0.331212 0
0 0.331121 0
0 0.331014 0
0 0.330907 0
0 0.330785 0
0 0.330587 0
0 0.330297 0
0 0.329854 0
0 0.329152 0
0.0935683 0.335775 0
0.191775 0.338796 0
0.285801 0.335653 9.15541e-05
0.361242 0.32221 0
0.424521 0.307515 0
0.482124 0.288365 0
0.539193 0.259098 0
0.595819 0.209873 0
0.64889 0.111833 0
0.691951 0 0
0.735332 0 0
0.774166 0 0
0.808667 0 0
0.838911 0 0
0.865003 0 0
0.886442 0 0
0.886442 0 0
0.886442 0 0
0.886442 0 0
0.886442 0 0
0.959258 0.25565 0.310246
0.955169 0.47364 0.453208
0.952346 0.564569 0.53164
0 0.378286 0
0 0.378225 0
0 0.378149 0
0 0.378073 0
0 0.377997 0
0 0.377905 0
0 0.377783 0
0 0.377569 0
0 0.377188 0
0 0.376577 0
0 0.375662 0
0.110948 0.38735 0
0.233616 0.391043 0
0.337224 0.387686 0.000106813
0.415641 0.374014 0
0.480842 0.358679 0
0.539208 0.338949 0
0.594675 0.309697 0
0.648478 0.260716 0
0.697902 0.162921 0
0.734295 0 0
0.773449 0 0
0.808148 0 0
0.838514 0 0
0.864683 0 0
0.886442 0 0
0.886442 0 0
0.886442 0 0
0.886442 0 0
0.886442 0 0
0.956802 0.320211 0.307668
0.952804 0.492256 0.451301
0.950729 0.574639 0.530343
0 0.42739 0
0 0.427314 0
0 0.427253 0
0 0.427176 0
0 0.4271 0
0 0.427008 0
0 0.426886 0
0 0.426703 0
0 0.426429 0
0 0.426017 0
0 0.425391 0
0 0.42446 0
0.136309 0.442405 0
0.282567 0.445182 0
0.391867 0.441535 0.00015259
0.471595 0.427939 0
0.538231 0.412116 0
0.596506 0.392279 0
0.649134 0.364004 0
0.69839 0.317998 0
0.744503 0.229358 0
0.772381 0 0
0.80737 0 0
0.837919 0 0
0.864225 0 0
0.886213 0 0
0.886442 0 0
0.886442 0 0
0.886442 0 0
0.886442 0 0
0.948837 0.383505 0.30103
0.949813 0.515602 0.448722
0.948684 0.588022 0.528786
0 0.478599 0
0 0.478553 0
0 0.478508 0
0 0.478462 0
0 0.478401 0
0 0.47834 0
0 0.478264 0
0 0.478141 0
0 0.477958 0
0 0.477684 0
0 0.477287 0
0 0.476661 0
0 0.4757 0
0.17348 0.499107 0
0.335973 0.499687 1.5259e-05
0.44744 0.495781 0.000183108
0.528374 0.481971 0
0.59501 0.46595 0
0.652049 0.44651 0
0.701167 0.420111 0
0.74522 0.379416 0
0.786603 0.306859 0
0.818433 0.132067 0
0.837049 0 0
0.863539 0 0
0.885649 0 0
0.886442 0 0
0.886442 0 0
0.886442 0 0
0.909529 0.214527 0
0.940368 0.445655 0.292134
0.945632 0.544015 0.444953
0.945724 0.605142 0.526207
0 0.531502 0
0 0.531472 0
0 0.531426 0
0 0.531395 0
0 0.53135 0
0 0.531319 0
0 0.531258 0
0 0.531167 0
0 0.531029 0
0 0.530846 0
0 0.530556 0
0 0.530114 0
0 0.529442 0
0 0.52842 0
0.219379 0.555322 0
0.390677 0.553536 3.0518e-05
0.502846 0.549584 0.000213626
0.583978 0.535836 1.5259e-05
0.649531 0.520088 0
0.704112 0.501411 0
0.750011 0.476982 0
0.789151 0.442359 0
0.824018 0.38883 0
0.857008 0.293935 0
0.870115 0.0776379 0
0.884825 0 0
0.886442 0 0
0.886442 0 0
0.904494 0.149523 0
0.912077 0.384909 0
0.934478 0.505501 0.281193
0.941207 0.576867 0.440467
0.942428 0.62649 0.523339
0 0.584955 0
0 0.584924 0
0 0.584894 0
0 0.584878 0
0 0.584848 0
0 0.584817 0
0 0.584772 0
0 0.58471 0
0 0.584619 0
0 0.584482 0
0 0.584268 0
0 0.583963 0
0 0.583505 0
0 0.582818 0
0 0.58175 0
0.271565 0.609613 0
0.446662 0.607172 6.10361e-05
0.559106 0.603357 0.000244144
0.638361 0.590112 3.0518e-05
0.701244 0.575189 0
0.752544 0.557565 0
0.795377 0.535439 0
0.830716 0.506783 0
0.85977 0.46923 0
0.885313 0.421378 0
0.909148 0.367651 0
0.912459 0.330556 0
0.912337 0.349279 0
0.912352 0.413916 0
0.916869 0.486076 0
0.932631 0.562036 0.263188
0.937423 0.613199 0.435157
0.93901 0.651682 0.51989
0 0.637476 0
0 0.637446 0
0 0.63743 0
0 0.637415 0
0 0.637385 0
0 0.637369 0
0 0.637339 0
0 0.637293 0
0 0.637217 0
0 0.637125 0
0 0.636973 0
0 0.636759 0
0 0.636439 0
0 0.63595 0
0 0.635233 0
0 0.634119 0
0.331975 0.662257 0
0.504646 0.659785 9.15541e-05
0.615061 0.656062 0.000274662
0.69041 0.643687 4.57771e-05
0.748989 0.629923 0
0.796536 0.613947 0
0.835859 0.594888 0
0.868177 0.572503 0
0.894621 0.547768 0
0.916121 0.524483 0
0.919173 0.508324 0
0.91931 0.509544 0
0.921599 0.53077 0
0.925292 0.565057 0
0.936019 0.61416 0.220569
0.935729 0.65156 0.427222
0.936584 0.680232 0.515969
0 0.687907 0
0 0.687892 0
0 0.687877 0
0 0.687861 0
0 0.687846 0
0 0.687831 0
0 0.6878 0
0 0.68777 0
0 0.687724 0
0 0.687648 0
0 0.687541 0
0 0.687388 0
0 0.68716 0
0 0.686824 0
0 0.686336 0
0 0.685573 0
0 0.684443 0
0.398093 0.712871 0
0.56405 0.709957 0.000137331
0.669154 0.706432 0.00030518
0.738903 0.695201 6.10361e-05
0.792416 0.682902 0
0.835584 0.668986 0
0.87097 0.65359 0
0.899901 0.637385 0
0.9234 0.622415 0
0.929808 0.610986 0
0.929519 0.607904 0
0.930266 0.615869 0
0.931746 0.633219 0
0.935805 0.657694 0.0317235
0.937835 0.690288 0.411078
0.936263 0.711025 0.510277
0 0.735317 0
0 0.735302 0
0 0.735286 0
0 0.735271 0
0 0.735271 0
0 0.735256 0
0 0.735241 0
0 0.73521 0
0 0.735164 0
0 0.735119 0
0 0.735027 0
0 0.73492 0
0 0.734752 0
0 0.734493 0
0 0.734127 0
0 0.733593 0
0 0.732784 0
0 0.731594 0
0.468025 0.760037 0
0.623255 0.756481 0.000198367
0.719905 0.753643 0.000335698
0.783062 0.743679 0.000122072
0.831113 0.732876 0
0.86949 0.721492 0
0.900511 0.709438 0
0.925505 0.698405 0
0.93608 0.689326 0
0.935714 0.684306 0
0.935836 0.685954 0
0.936416 0.693935 0
0.93727 0.70634 0
0.94197 0.72929 0.368551
0.93846 0.742916 0.497444
0 0.779873 0
0 0.779858 0
0 0.779858 0
0 0.779843 0
0 0.779843 0
0 0.779828 0
0 0.779812 0
0 0.779797 0
0 0.779767 0
0 0.779721 0
0 0.77966 0
0 0.779568 0
0 0.779431 0
0 0.779248 0
0 0.778958 0
0 0.778546 0
0 0.777951 0
0 0.777066 0
0.0283513 0.781598 0
0.540688 0.80235 1.5259e-05
0.679911 0.798672 0.000244144
0.766155 0.796536 0.000366217
0.822232 0.787976 0.000198367
0.864546 0.778653 0
0.897963 0.769299 0
0.924529 0.760525 0
0.940444 0.752743 0
0.940047 0.746929 0
0.939925 0.745205 0
0.940108 0.747738 0
0.940505 0.753765 0
0.946105 0.768261 0.253117
0.941787 0.776059 0.46772
0 0.820752 0
0 0.820737 0
0 0.820737 0
0 0.820722 0
0 0.820722 0
0 0.820706 0
0 0.820706 0
0 0.820676 0
0 0.820661 0
0 0.82063 0
0 0.820569 0
0 0.820508 0
0 0.820401 0
0 0.820249 0
0 0.820035 0
0 0.819715 0
0 0.819242 0
0 0.818586 0
0 0.817609 0
0.304417 0.845747 0
0.612528 0.839429 9.15541e-05
0.731945 0.836103 0.000289921
0.80705 0.834501 0.000381476
0.855787 0.82707 0.000274662
0.892454 0.819348 1.5259e-05
0.920989 0.811765 0
0.943175 0.805173 0
0.943587 0.799283 0
0.943374 0.79588 0
0.943328 0.795254 0
0.94345 0.797131 0
0.943694 0.800809 0
0.945495 0.809583 0.402136
0 0.857206 0
0 0.857206 0
0 0.857206 0
0 0.857191 0
0 0.857191 0
0 0.857176 0
0 0.857176 0
0 0.85716 0
0 0.857145 0
0 0.857114 0
0 0.857069 0
0 0.857008 0
0 0.856916 0
0 0.856794 0
0 0.856626 0
0 0.856367 0
0 0.856001 0
0 0.855482 0
0 0.854749 0
0 0.853742 0
0.471153 0.877607 0
0.680156 0.871077 0.000167849
0.778668 0.868452 0.000320439
0.842329 0.867124 0.000396735
0.883787 0.860822 0.000335698
0.914916 0.854353 7.62951e-05
0.938582 0.84828 0
0.946502 0.842863 0
0.946212 0.838651 0
0.946044 0.836301 0
0.946014 0.835752 0
0.946075 0.836667 0
0.949645 0.842374 0.224567
0 0.888808 0
0 0.888808 0
0 0.888808 0
0 0.888792 0
0 0.888792 0
0 0.888792 0
0 0.888777 0
0 0.888777 0
0 0.888747 0
0 0.888731 0
0 0.888701 0
0 0.888655 0
0 0.888579 0
0 0.888487 0
0 0.888334 0
0 0.888136 0
0 0.887846 0
0 0.887449 0
0 0.886885 0
0 0.886107 0
0 0.885054 0
0.594186 0.902724 1.5259e-05
0.740353 0.897627 0.000228885
0.819348 0.895567 0.000350958
0.871916 0.894347 0.000411994
0.906416 0.889036 0.000366217
0.932128 0.883604 0.000198367
0.949065 0.878752 7.62951e-05
0.948745 0.874342 6.10361e-05
0.948516 0.871168 4.57771e-05
0.948379 0.869276 4.57771e-05
0.948333 0.868498 3.0518e-05
0.948333 0.868574 3.0518e-05
0 0.915373 0
0 0.915373 0
0 0.915373 0
0 0.915373 0
0 0.915358 0
0 0.915358 0
0 0.915358 0
0 0.915343 0
0 0.915328 0
0 0.915312 0
0 0.915282 0
0 0.915251 0
0 0.91519 0
0 0.915114 0
0 0.914992 0
0 0.914839 0
0 0.914611 0
0 0.91429 0
0 0.913832 0
0 0.913191 0
0 0.912322 0
0.421286 0.932891 0
0.689799 0.922637 0.000122072
0.791989 0.919295 0.000289921
0.853727 0.917571 0.000381476
0.896147 0.916335 0.000427253
0.924102 0.911757 0.000396735
0.944793 0.907393 0.000274662
0.950774 0.903365 0.000213626
0.950545 0.899947 0.000183108
0.950378 0.897429 0.000167849
0.950271 0.89575 0.00015259
0.95021 0.894789 0.00015259
0 0.936904 0
0 0.936904 0
0 0.936904 0
0 0.936904 0
0 0.936889 0
0 0.936889 0
0 0.936889 0
0 0.936873 0
0 0.936873 0
0 0.936843 0
0 0.936828 0
0 0.936797 0
0 0.936751 0
0 0.936675 0
0 0.936584 0
0 0.936446 0
0 0.936248 0
0 0.935973 0
0 0.935576 0
0 0.935027 0
0 0.934279 0
0 0.933288 0
0.627192 0.944015 1.5259e-05
0.762295 0.938521 0.000228885
0.83447 0.936202 0.000335698
0.881819 0.934646 0.000411994
0.915282 0.933425 0.000427253
0.937331 0.929717 0.000411994
0.952255 0.926238 0.000350958
0.952056 0.922957 0.000335698
0.951904 0.920272 0.000320439
0.951766 0.918166 0.00030518
0.951659 0.91664 0.00030518
0 0.943191 0
0 0.943191 0
0 0.943191 0
0 0.943191 0
0 0.943191 0
0 0.943191 0
0 0.943191 0
0 0.943191 0
0 0.943191 0
