luts/A Walk in the park.cube
TITLE "Generated by Resolve"
LUT_3D_SIZE 5
0.0396429 0.0396429 0.0396429
0.161425 0 0
0.54818 0 0
0.865751 0 0
0.956527 0.537285 0.534936
0 0.172366 0
0.128374 0.163882 3.0518e-05
0.545968 0 0
0.865553 0 0
0.955398 0.544991 0.533867
0 0.531502 0
0 0.531029 0
0.502846 0.549584 0.000213626
0.870115 0.0776379 0
0.942428 0.62649 0.523339
0 0.888808 0
0 0.888747 0
0 0.887846 0
0.871916 0.894347 0.000411994
0.948333 0.868574 3.0518e-05
0 0.943191 0
0 0.943191 0
0 0.943191 0
0.809277 0.948608 0.000289921
0.953597 0.949111 0.000427253
0 0.00114443 0.194568
0.155245 0 0.191714
0.548074 0 0
0.865766 0 0
0.957351 0.535821 0.540719
0 0.158068 0.166384
0.117235 0.153262 0.169619
0.54583 0 0
0.865614 0 0
0.956222 0.543587 0.53962
0 0.530144 0
0 0.529656 0
0.502586 0.547967 0.000213626
0.86598 0.0569314 0
0.943038 0.625666 0.528893
0 0.888747 0
0 0.888685 0
0 0.887816 0
0.871916 0.894377 0.000411994
0.948333 0.868498 3.0518e-05
0 0.943191 0
0 0.943191 0
0 0.943191 0
0.809262 0.948608 0.000289921
0.953597 0.949111 0.000427253
0 0.0482948 0.576333
0.000564584 0.0482795 0.576165
0.536461 0 0.546304
0.88983 0 0.25922
0.966476 0.511849 0.611505
0 0.0481422 0.575143
0 0.0481117 0.57496
0.534157 0 0.545007
0.889433 0 0.252949
0.965606 0.520775 0.609903
0.0319829 0.5122 0.477226
0.0327916 0.513115 0.477531
0.482139 0.53196 0.540169
0.877897 0 0.162371
0.951766 0.613092 0.595636
0 0.889632 0
0 0.889586 0
0 0.888747 0
0.871595 0.894438 0.000411994
0.947631 0.868605 0.420203
0 0.943191 0
0 0.943191 0
0 0.943191 0
0.809155 0.948608 0.000289921
0.950988 0.94786 0.399435
0 0.085359 0.882506
0 0.085359 0.882475
0.297215 0.000289921 0.867399
0.848798 0 0.840162
0.876768 0 0.815961
0 0.0853437 0.882414
0 0.0853437 0.882383
0.28838 0.000457771 0.867643
0.848676 0 0.84004
0.876768 0 0.815854
0 0.0851911 0.880934
0 0.0851911 0.880903
0.18999 0.0300145 0.874174
0.846357 0 0.838239
0.935271 0.173571 0.861433
0.102586 0.876783 0.774594
0.102617 0.876829 0.774594
0.103105 0.877256 0.774395
0.85124 0.858915 0.85864
0.937591 0.848295 0.827771
0.140322 0.935271 0.773999
0.140337 0.935271 0.773983
0.140368 0.93521 0.773816
0.795026 0.941299 0.797101
0.939666 0.939345 0.820066
0.516091 0 0.901122
0.522805 0 0.900816
0.592325 0 0.897337
0.823209 0 0.890517
0.875608 0 0.8907
0.513817 0 0.901228
0.520607 0 0.900908
0.591104 0 0.897398
0.823041 0 0.890517
0.875608 0 0.8907
0.47715 0 0.902968
0.485267 0 0.902586
0.571756 0 0.898344
0.820371 0 0.890501
0.875608 0 0.8907
0.035874 0.815702 0.777752
0.0358587 0.815686 0.777752
0.0356909 0.815442 0.77763
0.814374 0.801602 0.938796
0.941649 0.815839 0.93904
0.449668 0.971832 0.898177
0.459785 0.971069 0.89929
0.554452 0.963485 0.909178
0.815396 0.943801 0.933501
0.935576 0.93991 0.936568
