luts/A Walk in the park.cube
TITLE "Generated by Resolve"
LUT_3D_SIZE 9
0.0396429 0.0396429 0.0396429
0.0545052 0.0363012 0.0367895
0.161425 0 0
0.34226 0 0
0.54818 0 0
0.737484 0 0
0.865751 0 0
0.886442 0 0
0.956527 0.537285 0.534936
0.0208591 0.058381 0.0310521
0.0551308 0.0600748 0.0255741
0.159701 0.0394903 0
0.339376 0 0
0.547509 0 0
0.737316 0 0
0.86569 0 0
0.886442 0 0
0.956146 0.539879 0.534554
0 0.172366 0
0 0.172122 0
0.128374 0.163882 3.0518e-05
0.328603 0.110994 0
0.545968 0 0
0.736965 0 0
0.865553 0 0
0.886442 0 0
0.955398 0.544991 0.533867
0 0.331304 0
0 0.330907 0
0 0.329854 0
0.285801 0.335653 9.15541e-05
0.539193 0.259098 0
0.735332 0 0
0.865003 0 0
0.886442 0 0
0.952346 0.564569 0.53164
0 0.531502 0
0 0.53135 0
0 0.531029 0
0 0.529442 0
0.502846 0.549584 0.000213626
0.750011 0.476982 0
0.870115 0.0776379 0
0.904494 0.149523 0
0.942428 0.62649 0.523339
0 0.735317 0
0 0.735271 0
0 0.735164 0
0 0.734752 0
0 0.732784 0
0.719905 0.753643 0.000335698
0.900511 0.709438 0
0.935836 0.685954 0
0.93846 0.742916 0.497444
0 0.888808 0
0 0.888792 0
0 0.888747 0
0 0.888579 0
0 0.887846 0
0 0.885054 0
0.871916 0.894347 0.000411994
0.948745 0.874342 6.10361e-05
0.948333 0.868574 3.0518e-05
0 0.943191 0
0 0.943191 0
0 0.943191 0
0 0.943191 0
0 0.943191 0
0 0.943191 0
0.802441 0.948684 0.000274662
0.940948 0.948943 0.000427253
0.953506 0.947478 0.000427253
0 0.943191 0
0 0.943191 0
0 0.943191 0
0 0.943191 0
0 0.943191 0
0.498207 0.959106 0
0.809277 0.948608 0.000289921
0.923613 0.948714 0.000442512
0.953597 0.949111 0.000427253
0.0352483 0.0314794 0.0585184
0.0566567 0.0263371 0.062501
0.162387 0 0.0447089
0.34226 0 0
0.54815 0 0
0.737469 0 0
0.865766 0 0
0.886442 0 0
0.956802 0.536797 0.536873
0.0142519 0.056199 0.056672
0.0564431 0.056611 0.0578775
0.159991 0.0316167 0.0379492
0.339193 0 0
0.547478 0 0
0.737301 0 0
0.865705 0 0
0.886442 0 0
0.95642 0.539406 0.536492
0 0.170642 0
0 0.169848 0
0.128527 0.160464 3.0518e-05
0.328954 0.100862 0
0.545937 0 0
0.73695 0 0
0.865568 0 0
0.886442 0 0
0.955673 0.544533 0.535744
0 0.3299 0
0 0.329397 0
0 0.328115 0
0.285512 0.333471 9.15541e-05
0.53904 0.256077 0
0.735317 0 0
0.865019 0 0
0.886442 0 0
0.952621 0.564157 0.533532
0 0.53109 0
0 0.530938 0
0 0.530617 0
0 0.529 0
0.50277 0.549065 0.000213626
0.749905 0.476204 0
0.868681 0.0716106 0
0.904082 0.144778 0
0.942626 0.626215 0.525216
0 0.735195 0
0 0.735149 0
0 0.735058 0
0 0.73463 0
0 0.732662 0
0.719905 0.753689 0.000335698
0.900511 0.709407 0
0.935836 0.685832 0
0.938369 0.742855 0.49984
0 0.888792 0
0 0.888762 0
0 0.888731 0
0 0.888548 0
0 0.887831 0
0 0.885069 0
0.871916 0.894362 0.000411994
0.948745 0.874327 6.10361e-05
0.948333 0.868544 3.0518e-05
0 0.943191 0
0 0.943191 0
0 0.943191 0
0 0.943191 0
0 0.943191 0
0 0.943191 0
0.802441 0.948684 0.000274662
0.940948 0.948943 0.000427253
0.953506 0.947463 0.000427253
0 0.943191 0
0 0.943191 0
0 0.943191 0
0 0.943191 0
0 0.943191 0
0.498222 0.959106 0
0.809277 0.948608 0.000289921
0.923613 0.948714 0.000442512
0.953597 0.949111 0.000427253
0 0.00114443 0.194568
0.0438087 0.00120546 0.195605
0.155245 0 0.191714
0.349645 0 0.108553
0.548074 0 0
0.737438 0 0
0.865766 0 0
0.886442 0 0
0.957351 0.535821 0.540719
0 0.00108339 0.193332
0.0385443 0.00109865 0.193484
0.151843 0 0.188693
0.345434 0 0.103227
0.547402 0 0
0.73727 0 0
0.865736 0 0
0.886442 0 0
0.95697 0.53843 0.540352
0 0.158068 0.166384
0 0.156802 0.165408
0.117235 0.153262 0.169619
0.334539 0.0816968 0.0909895
0.54583 0 0
0.736919 0 0
0.865614 0 0
0.886442 0 0
0.956222 0.543587 0.53962
0 0.32604 0
0 0.325505 0
0 0.324163 0
0.284764 0.328603 9.15541e-05
0.538689 0.249165 0
0.735286 0 0
0.865064 0 0
0.886442 0 0
0.95317 0.563333 0.537301
0 0.530144 0
0 0.529992 0
0 0.529656 0
0 0.528008 0
0.502586 0.547967 0.000213626
0.749691 0.474617 0
0.86598 0.0569314 0
0.903181 0.134646 0
0.943038 0.625666 0.528893
0 0.734966 0
0 0.73492 0
0 0.734813 0
0 0.734401 0
0 0.732418 0
0.719921 0.753887 0.000335698
0.900542 0.709316 0
0.935821 0.685603 0
0.938186 0.742702 0.504601
0 0.888747 0
0 0.888716 0
0 0.888685 0
0 0.888518 0
0 0.887816 0
0 0.8851 0
0.871916 0.894377 0.000411994
0.948745 0.874281 6.10361e-05
0.948333 0.868498 3.0518e-05
0 0.943191 0
0 0.943191 0
0 0.943191 0
0 0.943191 0
0 0.943191 0
0 0.943191 0
0.802441 0.948684 0.000274662
0.940932 0.948943 0.000427253
0.953506 0.947433 0.000427253
0 0.943191 0
0 0.943191 0
0 0.943191 0
0 0.943191 0
0 0.943191 0
0.498253 0.959106 0
0.809262 0.948608 0.000289921
0.923598 0.948714 0.000442512
0.953597 0.949111 0.000427253
0 0.0218814 0.3729
0 0.0218814 0.372854
0.11902 0.00332647 0.372244
0.336202 0 0.357259
0.56585 0 0.231937
0.737316 0 0
0.865705 0 0
0.886442 0 0
0.959533 0.531701 0.556008
0 0.0217441 0.371817
0 0.0217136 0.371557
0.113237 0.004654 0.370794
0.332753 0 0.355337
0.565057 0 0.228809
0.737133 0 0
0.86566 0 0
0.886442 0 0
0.959152 0.534371 0.555673
0 0.0212253 0.367803
0 0.0211643 0.367376
0.0922255 0.0104219 0.366552
0.325292 0 0.351232
0.563256 0 0.221668
0.736782 0 0
0.865599 0 0
0.886442 0 0
0.958389 0.539635 0.554986
0.00062562 0.311131 0.305364
0.000595102 0.310506 0.304891
0.000549325 0.309056 0.3037
0.255146 0.320928 0.334997
0.563165 0.208774 0.19649
0.735821 0 0
0.865248 0 0
0.886442 0 0
0.955276 0.559869 0.552041
0 0.525353 0
0 0.525216 0
0 0.525612 0
0 0.527062 0
0.502098 0.547555 0.000213626
0.74966 0.468803 0
0.862791 0 0
0.897688 0.0895552 0
0.944762 0.623301 0.543694
0 0.734585 0
0 0.734554 0
0 0.734478 0
0 0.734142 0
0 0.732616 0
0.720058 0.755138 0.000335698
0.900649 0.708995 0
0.935744 0.684581 0
0.937545 0.742229 0.522576
0 0.888777 0
0 0.888762 0
0 0.888716 0
0 0.888563 0
0 0.887922 0
0 0.885344 0
0.87187 0.894453 0.000411994
0.94873 0.874128 6.10361e-05
0.948318 0.868299 3.0518e-05
0 0.943191 0
0 0.943191 0
0 0.943191 0
0 0.943191 0
0 0.943191 0
0 0.943191 0
0.802426 0.948684 0.000274662
0.940871 0.948943 0.000427253
0.95349 0.947311 0.000427253
0 0.943191 0
0 0.943191 0
0 0.943191 0
0 0.943191 0
0 0.943191 0
0.49839 0.959091 0
0.809247 0.948608 0.000289921
0.923552 0.948714 0.000442512
0.953597 0.949111 0.000427253
0 0.0482948 0.576333
0 0.0482948 0.576288
0.000564584 0.0482795 0.576165
0.211063 9.15541e-05 0.568795
0.536461 0 0.546304
0.752407 0 0.452277
0.88983 0 0.25922
0.913405 0 0.334157
0.966476 0.511849 0.611505
0 0.048249 0.575967
0 0.0482338 0.575921
0 0.0482185 0.575799
0.205921 0.000106813 0.568627
0.535744 0 0.545892
0.7523 0 0.451484
0.889708 0 0.257176
0.913405 0 0.332891
0.966186 0.514855 0.610971
0 0.0481422 0.575143
0 0.048127 0.575082
0 0.0481117 0.57496
0.194247 0.000198367 0.568292
0.534157 0 0.545007
0.752117 0 0.449821
0.889433 0 0.252949
0.913405 0 0.330297
0.965606 0.520775 0.609903
0 0.0475624 0.570733
0 0.0475624 0.570672
0 0.0475319 0.570504
0.162844 0.00886549 0.566964
0.528298 0 0.540459
0.752087 0 0.441367
0.888182 0 0.233448
0.913268 0 0.319081
0.96289 0.543603 0.606394
0.0319829 0.5122 0.477226
0.0321508 0.512367 0.477272
0.0327916 0.513115 0.477531
0.0349432 0.515328 0.47808
0.482139 0.53196 0.540169
0.778103 0.442786 0.413245
0.877897 0 0.162371
0.911467 0 0.264149
0.951766 0.613092 0.595636
0 0.740001 0.166949
0 0.740108 0.162768
0 0.740322 0.153994
0 0.740414 0.114046
0 0.73547 0
0.719707 0.756756 0.000335698
0.900786 0.706355 0
0.935409 0.680003 0
0.935775 0.739757 0.578347
0 0.889632 0
0 0.889616 0
0 0.889586 0
0 0.889418 0
0 0.888747 0
0 0.885969 0
0.871595 0.894438 0.000411994
0.948684 0.873411 6.10361e-05
0.947631 0.868605 0.420203
0 0.943191 0
0 0.943191 0
0 0.943191 0
0 0.943191 0
0 0.943191 0
0 0.943191 0
0.802289 0.948684 0.000274662
0.940627 0.948943 0.000427253
0.95346 0.946777 0.000411994
0 0.943191 0
0 0.943191 0
0 0.943191 0
0 0.943191 0
0 0.943191 0
0.498772 0.959075 0
0.809155 0.948608 0.000289921
0.923384 0.948714 0.000442512
0.950988 0.94786 0.399435
0 0.0716411 0.760525
0 0.0716411 0.76051
0 0.0716259 0.760464
0.0978561 0.0620584 0.760281
0.461097 0 0.739086
0.721126 0 0.720714
0.862287 0 0.675212
0.888014 0 0.654444
0.964233 0.416068 0.748684
0 0.0716259 0.760433
0 0.0716259 0.760418
0 0.0716259 0.760388
0.0895399 0.0648051 0.760204
0.459937 0 0.739055
0.720974 0 0.720607
0.862257 0 0.675044
0.888029 0 0.654261
0.964385 0.421256 0.748272
0 0.0716106 0.76025
0 0.0715953 0.760235
0 0.0715953 0.760189
0.0658274 0.0715648 0.759945
0.45742 0 0.738994
0.720729 0 0.720394
0.862226 0 0.674693
0.888075 0 0.65391
0.964675 0.431266 0.747555
0 0.0715038 0.75938
0 0.0715038 0.759365
0 0.0714885 0.759319
0 0.0714733 0.759152
0.444984 0 0.73872
0.720104 0 0.719371
0.862074 0 0.673167
0.888228 0 0.652415
0.965698 0.467552 0.744335
0 0.271901 0.742275
0 0.270497 0.74258
0 0.26804 0.743114
0 0.264942 0.743572
0.364889 0.132174 0.748363
0.714427 0 0.714031
0.860975 0 0.666239
0.888914 0 0.645914
0.965743 0.565103 0.730007
0.0744335 0.720714 0.647974
0.0745556 0.720882 0.648035
0.0747845 0.721218 0.648142
0.0756695 0.722408 0.648539
0.0783703 0.725582 0.649241
0.70605 0.728511 0.731426
0.905882 0.695583 0.653696
0.947158 0.665644 0.636561
0.942916 0.724773 0.697765
0.0989853 0.866957 0.634531
0.0988937 0.866987 0.634379
0.0986954 0.867063 0.634089
0.0979171 0.867338 0.632837
0.0946517 0.868299 0.627649
0.0830549 0.869444 0.608743
0.867506 0.891463 0.515007
0.944396 0.868742 0.540932
0.940032 0.861219 0.669505
0 0.943191 0
0 0.943191 0
0 0.943191 0
0 0.943191 0
0 0.943191 0
0 0.943191 0
0.801297 0.948699 0.000274662
0.939666 0.948928 0.000427253
0.945434 0.939422 0.588479
0 0.943191 0
0 0.943191 0
0 0.943191 0
0 0.943191 0
0 0.943191 0
0.498497 0.959091 0
0.808606 0.948623 0.000289921
0.922301 0.949233 0.319646
0.943725 0.942336 0.649927
0 0.085359 0.882506
0 0.085359 0.88249
0 0.085359 0.882475
0 0.0853437 0.882399
0.297215 0.000289921 0.867399
0.681987 0 0.848219
0.848798 0 0.840162
0.876616 0 0.821881
0.876768 0 0.815961
0 0.085359 0.882475
0 0.085359 0.88246
0 0.085359 0.882445
0 0.0853437 0.882368
0.294347 0.000335698 0.867475
0.681773 0 0.848203
0.848768 0 0.840116
0.876616 0 0.821851
0.876768 0 0.81593
0 0.0853437 0.882414
0 0.0853437 0.882399
0 0.0853437 0.882383
0 0.0853437 0.882307
0.28838 0.000457771 0.867643
0.681331 0 0.848157
0.848676 0 0.84004
0.876616 0 0.821759
0.876768 0 0.815854
0 0.0853285 0.882155
0 0.0853285 0.882139
0 0.0853132 0.882124
0 0.0853132 0.882033
0.260731 0.0012665 0.868421
0.679561 0 0.847944
0.848295 0 0.839704
0.876631 0 0.821424
0.876783 0 0.815564
0 0.0851911 0.880934
0 0.0851911 0.880919
0 0.0851911 0.880903
0 0.0851911 0.880827
0.18999 0.0300145 0.874174
0.671443 0 0.846998
0.846357 0 0.838239
0.876661 0 0.819959
0.935271 0.173571 0.861433
0 0.63003 0.693492
0 0.630152 0.693477
0 0.630365 0.693431
0 0.631189 0.693263
0 0.633158 0.692683
0.618021 0.600153 0.887373
0.912032 0.543954 0.89102
0.957931 0.510567 0.875868
0.953674 0.66215 0.86247
0.102586 0.876783 0.774594
0.102586 0.876799 0.774594
0.102617 0.876829 0.774594
0.102724 0.876936 0.774563
0.103105 0.877256 0.774395
0.104143 0.87747 0.773281
0.85124 0.858915 0.85864
0.937255 0.853147 0.828122
0.937591 0.848295 0.827771
0.13756 0.938659 0.784619
0.13756 0.938659 0.784619
0.137575 0.938643 0.784604
0.137591 0.938628 0.784527
0.137652 0.938537 0.784268
0.137926 0.938216 0.78323
0.784176 0.94229 0.81532
0.92314 0.935927 0.815213
0.939269 0.928725 0.818311
0.140322 0.935271 0.773999
0.140322 0.935271 0.773999
0.140337 0.935271 0.773983
0.140337 0.935256 0.773953
0.140368 0.93521 0.773816
0.54699 0.950149 0.831586
0.795026 0.941299 0.797101
0.907591 0.939483 0.800381
0.939666 0.939345 0.820066
0 0.0897688 0.925475
0 0.0897688 0.925475
0 0.0897688 0.925475
0.161883 0.0546883 0.92285
0.382101 0 0.907057
0.666957 0 0.893935
0.829648 0 0.890517
0.875608 0 0.8907
0.875624 0 0.888243
0 0.0897688 0.925475
0 0.0897688 0.925475
0 0.0897688 0.925475
0.159548 0.0561379 0.923079
0.380377 0 0.907118
0.666728 0 0.89395
0.829587 0 0.890517
0.875608 0 0.8907
0.875624 0 0.888212
0 0.0897688 0.925475
0 0.0897688 0.925475
0 0.0897688 0.925475
0.154482 0.0588998 0.923476
0.376822 0 0.907271
0.66627 0 0.893965
0.82948 0 0.890517
0.875608 0 0.8907
0.875624 0 0.888182
0 0.0897688 0.925475
0 0.0897688 0.925475
0 0.0897688 0.925475
0.125505 0.0719158 0.925078
0.361089 0 0.907912
0.664302 0 0.894041
0.828992 0 0.890517
0.875608 0 0.8907
0.875624 0 0.888029
0 0.0897688 0.925475
0 0.0897688 0.925475
0 0.0897688 0.925475
0 0.0897688 0.925475
0.27335 0.00213626 0.911192
0.655467 0 0.894392
0.82681 0 0.890517
0.875608 0 0.8907
0.875624 0 0.887419
0 0.0897688 0.925475
0 0.0897688 0.925475
0 0.0897688 0.925475
0 0.0897688 0.925475
0 0.0897688 0.925475
0.602945 0 0.896819
0.81651 0 0.890501
0.875608 0 0.8907
0.957519 0.532601 0.949142
0.0542611 0.842115 0.790188
0.0542611 0.842115 0.790204
0.0542611 0.84213 0.790204
0.0542916 0.842161 0.790219
0.0543374 0.842237 0.790249
0.0541695 0.841962 0.790127
0.80592 0.834745 0.935027
0.941665 0.823941 0.930007
0.941955 0.822339 0.923934
0.114031 0.948852 0.834867
0.114031 0.948837 0.834852
0.114031 0.948821 0.834836
0.114031 0.94876 0.834775
0.113985 0.94847 0.834516
0.113832 0.947311 0.833509
0.794141 0.933104 0.91841
0.914061 0.920333 0.917006
0.938201 0.918486 0.908797
0.120226 0.953964 0.831052
0.120226 0.953964 0.831052
0.120241 0.953948 0.831052
0.120241 0.953948 0.831022
0.120287 0.953918 0.830945
0.579904 0.957809 0.897032
0.801648 0.94229 0.914305
0.901701 0.939895 0.907179
0.938582 0.938827 0.906783
0.516091 0 0.901122
0.518349 0 0.901015
0.522805 0 0.900816
0.539284 0 0.899992
0.592325 0 0.897337
0.700206 0 0.892683
0.823209 0 0.890517
0.875608 0 0.8907
0.875608 0 0.8907
0.515343 0 0.901167
0.517601 0 0.901061
0.522087 0 0.900847
0.538689 0 0.900023
0.591928 0 0.897353
0.700038 0 0.892683
0.823163 0 0.890517
0.875608 0 0.8907
0.875608 0 0.8907
0.513817 0 0.901228
0.516091 0 0.901122
0.520607 0 0.900908
0.537469 0 0.900084
0.591104 0 0.897398
0.699702 0 0.892699
0.823041 0 0.890517
0.875608 0 0.8907
0.875608 0 0.8907
0.507301 0 0.901549
0.509636 0 0.901427
0.514305 0 0.901213
0.532265 0 0.900343
0.587594 0 0.897566
0.698299 0 0.892744
0.822538 0 0.890517
0.875608 0 0.8907
0.875608 0 0.8907
0.47715 0 0.902968
0.479881 0 0.902831
0.485267 0 0.902586
0.506401 0 0.901579
0.571756 0 0.898344
0.69218 0 0.892958
0.820371 0 0.890501
0.875608 0 0.8907
0.875608 0 0.8907
0.230228 0.00767529 0.913176
0.233448 0.00613413 0.91281
0.248478 0.00421149 0.912123
0.313405 0 0.909697
0.471427 0 0.903212
0.662165 0 0.894118
0.810956 0 0.890532
0.875608 0 0.8907
0.956878 0.558785 0.954345
0.035874 0.815702 0.777752
0.035874 0.815702 0.777752
0.0358587 0.815686 0.777752
0.0358282 0.815641 0.777722
0.0356909 0.815442 0.77763
0.496559 0.840742 0.870161
0.814374 0.801602 0.938796
0.942458 0.79498 0.940185
0.941649 0.815839 0.93904
0.104738 0.936736 0.835004
0.104738 0.936721 0.835004
0.104738 0.936721 0.835004
0.104707 0.93666 0.834974
0.104616 0.936446 0.834867
0.104234 0.935561 0.83447
0.782422 0.924041 0.924346
0.905409 0.914611 0.936522
0.937682 0.911833 0.935134
0.449668 0.971832 0.898177
0.453117 0.971572 0.898558
0.459785 0.971069 0.89929
0.484398 0.969207 0.901976
0.554452 0.963485 0.909178
0.683055 0.952193 0.921324
0.815396 0.943801 0.933501
0.899519 0.941299 0.936522
0.935576 0.93991 0.936568
