luts/Action Red 01.cube
TITLE "Generated by Resolve"
LUT_3D_SIZE 9
0 0 0.0393225
0.0155032 0 0.0398108
0.0627451 0 0.0404517
0.128603 0 0.0398108
0.211627 0 0.037644
0.312612 0 0.0334783
0.433127 0 0.0267033
0.575463 0 0.0166934
0.742184 0 0.00273136
0.0227359 0.0293278 0.0770886
0.0356756 0.0455787 0.0745251
0.0885939 0.0516823 0.0754101
0.16936 0.0514382 0.0757
0.27158 0.0468299 0.0726329
0.395987 0.0376287 0.0649424
0.543908 0.0234989 0.0512245
0.71899 0.00315862 0.0323644
0.923217 0 0.00813306
0.0703136 0.0835737 0.139055
0.080827 0.105837 0.145388
0.110033 0.127245 0.120302
0.191852 0.132723 0.111986
0.312078 0.128252 0.102098
0.463188 0.116197 0.0889601
0.64329 0.0972 0.0708934
0.851286 0.0715953 0.0474098
1 0.0400244 0.0188296
0.132952 0.150927 0.212863
0.145678 0.176623 0.225299
0.153582 0.209354 0.194415
0.207507 0.231464 0.144961
0.322377 0.23389 0.121904
0.482933 0.224002 0.0970474
0.677684 0.20502 0.0716869
0.899062 0.179263 0.0448463
1 0.148272 0.0161288
0.206897 0.228992 0.2934
0.222827 0.25742 0.308186
0.223575 0.295613 0.281285
0.243442 0.333639 0.209918
0.325917 0.353811 0.140627
0.46894 0.353231 0.10811
0.655467 0.340581 0.0760815
0.873533 0.319188 0.0466926
1 0.291859 0.0191958
0.292073 0.316197 0.374334
0.31194 0.346731 0.390234
0.312688 0.387579 0.369512
0.315343 0.4336 0.301076
0.356023 0.47187 0.206104
0.462242 0.489586 0.130266
0.622629 0.487846 0.0961013
0.822156 0.475166 0.0629282
1 0.45391 0.0319524
0.387915 0.411276 0.454719
0.411688 0.443503 0.47245
0.415625 0.485634 0.458991
0.412406 0.535134 0.401862
0.427222 0.583917 0.306615
0.488579 0.620661 0.201587
0.612619 0.636896 0.122667
0.786358 0.634928 0.085069
0.996704 0.622599 0.0497597
0.49279 0.513313 0.537636
0.520027 0.547021 0.558038
0.527672 0.590066 0.5514
0.523491 0.641367 0.50544
0.524971 0.695888 0.418296
0.555261 0.74522 0.304921
0.63566 0.780148 0.193881
0.775189 0.795132 0.113146
0.960372 0.793103 0.0735943
0.605005 0.621729 0.62565
0.635187 0.656855 0.6486
0.646647 0.70071 0.647669
0.644022 0.753017 0.611521
0.639673 0.810575 0.535271
0.65127 0.867475 0.42533
0.698131 0.916091 0.300389
0.795697 0.949264 0.185687
0.94876 0.963409 0.10248
0 0.000381476 0.0405585
0 0.0069276 0.0494087
0.0375982 0.00801099 0.068101
0.107164 0.00422675 0.0726329
0.193576 0 0.0723735
0.297337 0 0.0693217
0.420462 0 0.063386
0.565408 0 0.0540627
0.735286 0 0.0406195
0.0267796 0.0340429 0.0826581
0.0392157 0.0491646 0.10016
0.0961166 0.054078 0.107591
0.177142 0.0540932 0.110338
0.280415 0.049485 0.109438
0.406241 0.040238 0.103151
0.5561 0.025864 0.0906539
0.732158 0.00570687 0.0716411
0.940108 0 0.0496986
0.0760662 0.0898146 0.146029
0.0938125 0.108965 0.167224
0.114946 0.132082 0.15378
0.20528 0.135546 0.144839
0.331182 0.129412 0.139132
0.485405 0.116518 0.12903
0.667704 0.0970321 0.113237
0.876982 0.0712291 0.0916915
1 0.0396124 0.0649424
0.13991 0.158343 0.220798
0.161074 0.180819 0.244511
0.170733 0.210315 0.244633
0.213336 0.236927 0.18764
0.336553 0.237797 0.159152
0.505928 0.225315 0.137392
0.705501 0.204837 0.116121
0.928756 0.17847 0.0931411
1 0.147524 0.066331
0.214984 0.237415 0.301625
0.23946 0.262699 0.32578
0.252293 0.294209 0.333074
0.258762 0.335088 0.276173
0.332708 0.359655 0.191745
0.482353 0.358312 0.150362
0.677409 0.343328 0.119432
0.900877 0.320134 0.0948348
1 0.292103 0.0694591
0.301289 0.32546 0.382422
0.329046 0.35317 0.406256
0.346716 0.386069 0.417639
0.345235 0.430884 0.37615
0.369726 0.474357 0.280217
0.469947 0.495918 0.186938
0.635355 0.494072 0.141573
0.842542 0.479515 0.107271
1 0.456306 0.0800946
0.398108 0.421271 0.462913
0.428702 0.451102 0.487236
0.450996 0.485176 0.502403
0.451026 0.530953 0.475227
0.454108 0.582177 0.393194
0.501152 0.624384 0.27866
0.621164 0.64387 0.181918
0.799039 0.642145 0.132326
1 0.62829 0.0944381
0.503792 0.52398 0.546273
0.536629 0.555749 0.57203
0.562737 0.590997 0.590875
0.566461 0.637217 0.574472
0.562448 0.691493 0.508385
0.57908 0.744854 0.397787
0.647715 0.784894 0.273182
0.784497 0.802701 0.174868
0.973266 0.801114 0.122499
0.616709 0.633005 0.634821
0.651576 0.66656 0.662196
0.681056 0.702968 0.684215
0.68896 0.749554 0.676051
0.684153 0.80502 0.62417
0.685969 0.86389 0.526024
0.719554 0.917113 0.39675
0.807553 0.954925 0.266361
0.958816 0.971572 0.16582
0 0.00225834 0.0428626
0.00233463 0.0101472 0.0530709
0.0158541 0.0200504 0.0682689
0.0534981 0.0243687 0.09514
0.136202 0.0186313 0.111788
0.243198 0.00885023 0.116991
0.370748 0 0.115816
0.519997 0 0.109651
0.693919 0 0.0985428
0.0306096 0.0390631 0.0885634
0.0439765 0.0545663 0.106508
0.0604868 0.0708324 0.126696
0.136522 0.0699474 0.158587
0.249165 0.0621347 0.167056
0.381003 0.0511635 0.16495
0.535531 0.0355535 0.155581
0.715206 0.0145266 0.13875
0.923781 0 0.11635
0.0819257 0.0962234 0.153124
0.100053 0.115724 0.174655
0.119249 0.136278 0.19707
0.216022 0.136828 0.202487
0.341558 0.130816 0.200702
0.496605 0.117739 0.194156
0.67953 0.0982681 0.180194
0.889158 0.0726024 0.159792
1 0.0422217 0.130755
0.146944 0.165896 0.228809
0.16846 0.188663 0.252659
0.190951 0.212314 0.276799
0.218341 0.241505 0.242771
0.353338 0.239002 0.216617
0.528756 0.224567 0.199924
0.729809 0.203784 0.180652
0.952972 0.177798 0.157427
1 0.147478 0.130556
0.223148 0.24593 0.309834
0.24799 0.271473 0.333959
0.273823 0.297765 0.357961
0.282353 0.333684 0.347356
0.338521 0.364508 0.256535
0.4972 0.361181 0.211276
0.70135 0.343771 0.180652
0.928969 0.319768 0.154772
1 0.291768 0.129503
0.310567 0.334798 0.390509
0.338659 0.362737 0.414343
0.367605 0.391318 0.438254
0.381323 0.427466 0.441062
0.388006 0.474495 0.365209
0.476646 0.501259 0.257145
0.648432 0.498482 0.20502
0.864942 0.481819 0.16672
1 0.457298 0.135653
0.408377 0.431342 0.471122
0.439246 0.461372 0.495552
0.470802 0.491997 0.520363
0.490303 0.528435 0.531075
0.488075 0.578256 0.481224
0.515999 0.626276 0.368017
0.628702 0.649866 0.25478
0.811475 0.6477 0.197604
1 0.632197 0.153414
0.514839 0.534707 0.554955
0.547921 0.566659 0.58088
0.581598 0.599161 0.607294
0.605783 0.636271 0.623423
0.605219 0.68629 0.591745
0.608469 0.742214 0.497704
0.660853 0.788113 0.365072
0.792798 0.809293 0.250141
0.985367 0.807614 0.189761
0.628458 0.644358 0.644053
0.663523 0.678065 0.671595
0.699168 0.712291 0.699611
0.727275 0.75024 0.71989
0.730968 0.800076 0.701106
0.726528 0.858579 0.627176
0.7449 0.91606 0.502739
0.819821 0.959258 0.359686
0.967834 0.978759 0.24271
0 0.00463874 0.0458228
0.00639353 0.0133669 0.0577096
0.018967 0.0245975 0.0726177
0.0326543 0.0376898 0.0913558
0.0752728 0.0429999 0.123537
0.162921 0.0372931 0.151553
0.285649 0.0241703 0.166751
0.435569 0.00561532 0.171572
0.611841 0 0.1682
0.0348516 0.0441901 0.0946059
0.0489357 0.0601053 0.112993
0.0648966 0.0771801 0.132799
0.0849775 0.0944076 0.155627
0.158877 0.095201 0.198108
0.293355 0.080827 0.226551
0.458244 0.060853 0.234409
0.647532 0.036286 0.228443
0.860975 0.0069276 0.210849
0.0878767 0.102739 0.160403
0.106371 0.122606 0.182284
0.125963 0.143465 0.205112
0.149157 0.164309 0.230396
0.273075 0.154528 0.275044
0.444648 0.135393 0.283589
0.636301 0.113069 0.276005
0.850553 0.0860304 0.259205
1 0.0541848 0.23508
0.154055 0.173556 0.236896
0.175906 0.196628 0.260853
0.198749 0.220554 0.285039
0.222583 0.245289 0.309239
0.366339 0.238193 0.306401
0.538918 0.224399 0.295155
0.738476 0.203952 0.280278
0.959655 0.178698 0.258762
1 0.149233 0.232731
0.231388 0.254536 0.318044
0.256596 0.280339 0.342123
0.282795 0.306874 0.366079
0.309941 0.334112 0.389929
0.343511 0.368505 0.333455
0.515694 0.361028 0.292561
0.724743 0.34168 0.269688
0.951736 0.3178 0.247333
1 0.290562 0.223117
0.319936 0.344244 0.398596
0.348348 0.372381 0.422446
0.377615 0.401175 0.446403
0.407675 0.43061 0.470542
0.416327 0.471473 0.452811
0.48249 0.505745 0.339284
0.663661 0.500786 0.283986
0.889342 0.481392 0.248417
1 0.455772 0.219593
0.418708 0.441505 0.479377
0.449851 0.471717 0.503914
0.481651 0.502541 0.528893
0.514076 0.533928 0.55433
0.528908 0.573739 0.555856
0.536095 0.625696 0.467384
0.635355 0.654978 0.339788
0.824781 0.651637 0.277073
1 0.633692 0.231601
0.525948 0.545525 0.563699
0.559258 0.577646 0.589792
0.593149 0.610315 0.616358
0.627634 0.643519 0.643397
0.648615 0.68307 0.654536
0.645716 0.737301 0.597589
0.6766 0.789471 0.468589
0.800198 0.814984 0.337545
0.997742 0.812726 0.270573
0.640253 0.655756 0.65333
0.675532 0.689647 0.681041
0.711376 0.724025 0.709239
0.747738 0.758907 0.737926
0.773678 0.798718 0.75523
0.772793 0.852506 0.719738
0.776318 0.912657 0.614893
0.833356 0.962081 0.465034
0.975967 0.985046 0.331823
0 0.00735485 0.0493477
0.0105135 0.0169223 0.062562
0.0229648 0.0290684 0.0780041
0.0355383 0.0433661 0.0957809
0.0534676 0.0578012 0.117159
0.100511 0.0639506 0.153185
0.193362 0.0578927 0.191974
0.327733 0.0422065 0.219226
0.497261 0.0188449 0.233234
0.0393835 0.0494545 0.100816
0.054078 0.0657969 0.119631
0.0704204 0.0833143 0.139788
0.0886397 0.101747 0.16141
0.112291 0.119692 0.186892
0.186114 0.121889 0.234516
0.328313 0.105272 0.280186
0.517861 0.0778973 0.305501
0.739651 0.0441291 0.310933
0.0939651 0.109377 0.167849
0.112825 0.129595 0.190097
0.132784 0.150759 0.21326
0.154238 0.172671 0.237461
0.18172 0.193668 0.265217
0.297368 0.186496 0.323903
0.497307 0.157504 0.361563
0.728344 0.123415 0.368673
0.977981 0.0867018 0.357397
0.161242 0.181323 0.24509
0.183413 0.204685 0.269184
0.206592 0.228885 0.293462
0.230869 0.253849 0.317861
0.260273 0.27808 0.344839
0.436545 0.256825 0.400092
0.661875 0.227131 0.404135
0.895567 0.197864 0.388647
1 0.166613 0.364797
0.239689 0.263249 0.326299
0.265232 0.289311 0.350317
0.291783 0.316075 0.374212
0.31928 0.343542 0.398047
0.347692 0.371664 0.421866
0.529091 0.358816 0.410269
0.733806 0.340261 0.395056
0.955596 0.318273 0.37229
1 0.292348 0.347692
0.329351 0.353765 0.406714
0.358068 0.382132 0.430564
0.38764 0.411124 0.454566
0.418021 0.440742 0.478798
0.449119 0.470954 0.503319
0.487541 0.509438 0.432685
0.683223 0.49984 0.38323
0.913573 0.478355 0.35729
1 0.452811 0.332937
0.429084 0.451743 0.487678
0.460472 0.482155 0.512337
0.492531 0.513146 0.537469
0.5252 0.544717 0.563073
0.55848 0.576837 0.589166
0.567514 0.621729 0.567758
0.641184 0.659266 0.436179
0.84062 0.653422 0.371374
1 0.632441 0.330617
0.537087 0.556405 0.572488
0.570626 0.588708 0.598749
0.604746 0.621546 0.625467
0.639445 0.654917 0.652674
0.674708 0.688792 0.680369
0.690501 0.731884 0.68127
0.698207 0.788235 0.58143
0.806775 0.819867 0.436332
1 0.816266 0.364462
0.652079 0.667247 0.662669
0.687587 0.701289 0.690547
0.723629 0.735836 0.718914
0.760204 0.770871 0.747768
0.797284 0.806378 0.777142
0.819654 0.848707 0.788937
0.816312 0.90692 0.725689
0.84979 0.962982 0.581598
0.98323 0.990478 0.432456
0.00234989 0.0103761 0.0534371
0.0146487 0.020798 0.0675822
0.0269017 0.0337987 0.0836957
0.0399023 0.0486763 0.101823
0.0558175 0.0645304 0.121477
0.0776684 0.0799725 0.145541
0.129366 0.0865949 0.18526
0.226932 0.0803693 0.232029
0.372656 0.0618143 0.273213
0.0441444 0.0548714 0.107179
0.0593881 0.0716411 0.126421
0.0761425 0.0895552 0.14696
0.0944991 0.108461 0.168811
0.11487 0.128069 0.192157
0.142321 0.146471 0.220264
0.218662 0.149279 0.271855
0.363973 0.132204 0.329473
0.568673 0.100099 0.372656
0.100175 0.116136 0.175448
0.119402 0.136675 0.198047
0.139727 0.15816 0.2215
0.161364 0.180423 0.245792
0.185031 0.203204 0.271107
0.216953 0.224201 0.301106
0.327535 0.219532 0.364584
0.530861 0.188724 0.424414
0.784955 0.146853 0.454536
0.168551 0.189181 0.253407
0.191043 0.212833 0.277623
0.214572 0.237293 0.301976
0.239261 0.262486 0.326482
0.265705 0.288151 0.351461
0.300542 0.311894 0.380789
0.456657 0.296223 0.452888
0.709438 0.255711 0.495781
0.982177 0.214054 0.500252
0.248081 0.272053 0.3346
0.27396 0.29836 0.358602
0.300816 0.325368 0.382498
0.328634 0.353048 0.406378
0.357473 0.381338 0.430518
0.392447 0.408347 0.458198
0.606195 0.379461 0.521752
0.863523 0.344686 0.523644
1 0.31342 0.504952
0.338811 0.363378 0.414893
0.367834 0.391959 0.438773
0.397696 0.421164 0.462837
0.428351 0.45098 0.487129
0.459739 0.481392 0.511772
0.491814 0.512367 0.536858
0.697154 0.496712 0.521614
0.921462 0.476616 0.502159
1 0.452628 0.478981
0.43949 0.462043 0.49604
0.471122 0.492668 0.520836
0.50341 0.523842 0.54612
0.536339 0.555596 0.571878
0.569863 0.587884 0.598108
0.603967 0.620722 0.624826
0.64622 0.662776 0.543496
0.861265 0.651743 0.486534
1 0.628458 0.457618
0.548257 0.567361 0.581369
0.58201 0.599847 0.607767
0.616358 0.632853 0.634653
0.651301 0.666392 0.662013
0.686778 0.70042 0.689876
0.722789 0.734966 0.718227
0.732265 0.783413 0.693767
0.812543 0.823957 0.545998
1 0.817578 0.472831
0.663935 0.678798 0.672084
0.699641 0.712993 0.700114
0.735912 0.747707 0.728634
0.772686 0.782895 0.757671
0.809964 0.818555 0.787213
0.847745 0.854688 0.817227
0.864439 0.900725 0.817761
0.872618 0.961166 0.707057
0.9897 0.995132 0.544152
0.00646983 0.0135958 0.0581369
0.0187991 0.0249638 0.0728466
0.0307469 0.0388037 0.0896773
0.0445869 0.0541085 0.10811
0.0606851 0.0705119 0.127993
0.0791638 0.0877699 0.149569
0.104845 0.10396 0.17641
0.1617 0.110658 0.219959
0.264683 0.104005 0.273457
0.0491035 0.0604257 0.11368
0.0648356 0.0776074 0.133349
0.0820172 0.0959182 0.154253
0.100633 0.115221 0.176425
0.120912 0.135332 0.199847
0.143496 0.155962 0.22472
0.175067 0.174609 0.255451
0.255406 0.177493 0.310582
0.403143 0.160403 0.376638
0.106523 0.123003 0.183185
0.126101 0.143877 0.206104
0.146777 0.165667 0.229816
0.168688 0.188251 0.254261
0.192218 0.211475 0.279438
0.218265 0.234989 0.305531
0.254871 0.255848 0.337636
0.363989 0.252781 0.403662
0.562097 0.22356 0.476493
0.175952 0.197131 0.261799
0.198795 0.221057 0.286122
0.22269 0.245777 0.310567
0.247761 0.271214 0.335103
0.274311 0.297215 0.35993
0.303304 0.3234 0.385504
0.343191 0.346685 0.417136
0.485115 0.336126 0.492851
0.732174 0.295842 0.562463
0.25658 0.280934 0.342962
0.28278 0.307485 0.366949
0.309972 0.334722 0.39089
0.33814 0.362615 0.414893
0.367346 0.391073 0.4392
0.398352 0.419806 0.464424
0.439124 0.44593 0.495323
0.621836 0.425498 0.577691
0.905623 0.379309 0.62591
0.348363 0.373053 0.423133
0.377661 0.401862 0.447089
0.407782 0.431281 0.471229
0.438697 0.461295 0.495674
0.470329 0.491875 0.520531
0.502754 0.522972 0.54612
0.541817 0.552453 0.576089
0.780194 0.51928 0.647517
1 0.481025 0.650202
0.449943 0.472435 0.504509
0.481804 0.503243 0.529473
0.514321 0.53463 0.55491
0.547448 0.566552 0.580804
0.581201 0.599023 0.607187
0.615564 0.632029 0.634028
0.650507 0.665537 0.661357
0.876234 0.647501 0.644694
1 0.625513 0.624262
0.559457 0.578393 0.590341
0.593423 0.611048 0.616892
0.627985 0.644236 0.643915
0.663127 0.677943 0.671427
0.698848 0.712139 0.699443
0.735088 0.746822 0.727962
0.771847 0.78201 0.756985
0.817563 0.827298 0.666209
1 0.815244 0.602625
0.675822 0.69041 0.681575
0.711727 0.724773 0.709758
0.748196 0.75964 0.738445
0.785168 0.79498 0.767636
0.822675 0.830793 0.79733
0.860655 0.867079 0.827512
0.899107 0.903822 0.858167
0.908965 0.955566 0.830777
0.995377 0.998993 0.666575
0.010605 0.0171664 0.0630045
0.0229343 0.0293889 0.0783398
0.03505 0.0439002 0.0957656
0.0495003 0.0596628 0.11458
0.065919 0.0765545 0.134798
0.0843061 0.094377 0.156466
0.105165 0.112856 0.179904
0.134874 0.129488 0.209659
0.197375 0.135943 0.257084
0.0542306 0.0661326 0.120333
0.0704509 0.083711 0.140429
0.0880293 0.102403 0.1617
0.10695 0.122087 0.184176
0.127352 0.142611 0.207813
0.149599 0.16379 0.232593
0.174502 0.18529 0.258747
0.210559 0.203952 0.292012
0.295598 0.206653 0.350347
0.112993 0.129992 0.191043
0.132921 0.151186 0.214252
0.153948 0.173266 0.238209
0.17615 0.19617 0.262791
0.199817 0.219745 0.287968
0.225422 0.243809 0.31371
0.253971 0.267964 0.340337
0.295354 0.288579 0.374533
0.404669 0.286595 0.44239
0.18349 0.205173 0.270268
0.206668 0.229374 0.294682
0.230945 0.254353 0.319173
0.256382 0.280034 0.34374
0.283162 0.306294 0.368505
0.311788 0.332952 0.393729
0.343328 0.359609 0.419944
0.387991 0.382467 0.453986
0.521904 0.375387 0.53077
0.265202 0.289906 0.351354
0.291737 0.316686 0.375372
0.319265 0.344137 0.399374
0.347768 0.372229 0.423484
0.377325 0.400885 0.447929
0.408286 0.429938 0.47306
0.441764 0.458961 0.499443
0.487526 0.484413 0.533379
0.649332 0.470985 0.618875
0.358007 0.382803 0.431464
0.387579 0.411826 0.455512
0.417975 0.441444 0.479789
0.449134 0.471641 0.504402
0.481041 0.502403 0.529549
0.513787 0.533654 0.555459
0.548226 0.565042 0.582681
0.593332 0.593362 0.61651
0.795544 0.569848 0.708782
0.460456 0.482887 0.5131
0.492531 0.513893 0.538231
0.525246 0.545464 0.563836
0.558587 0.577585 0.589929
0.592538 0.610224 0.616495
0.6271 0.643397 0.643595
0.662409 0.676982 0.671458
0.70489 0.70869 0.704173
0.964416 0.67187 0.783307
0.570687 0.589487 0.59942
0.604852 0.622324 0.626139
0.639612 0.65568 0.653315
0.674952 0.689555 0.680995
0.710872 0.723918 0.709148
0.747326 0.75877 0.737819
0.784314 0.794095 0.766979
0.821836 0.829892 0.796628
1 0.810437 0.776822
0.687724 0.702083 0.691173
0.723827 0.736629 0.719509
0.760479 0.771649 0.748363
0.79765 0.807157 0.777707
0.83534 0.843122 0.807538
0.873549 0.879545 0.837858
0.91223 0.916426 0.868666
0.951354 0.95375 0.899931
1 1 0.799435
0.0147402 0.0210422 0.0680552
0.0269627 0.0341192 0.0840925
0.0395972 0.0491493 0.102022
0.054612 0.0653544 0.121218
0.071397 0.0826886 0.141787
0.0899367 0.100984 0.163729
0.110445 0.120073 0.187137
0.133654 0.139559 0.212314
0.167712 0.156405 0.244984
0.0595407 0.0719768 0.127138
0.0761883 0.0899519 0.147631
0.0941634 0.10901 0.169284
0.113405 0.129046 0.192081
0.134035 0.14995 0.21593
0.156268 0.171557 0.240787
0.18056 0.193683 0.266651
0.207904 0.21593 0.293828
0.248737 0.234424 0.329458
0.11957 0.137087 0.199023
0.139849 0.158587 0.222507
0.161212 0.180987 0.246677
0.183749 0.204181 0.271397
0.207645 0.228061 0.296574
0.233219 0.252522 0.322148
0.26099 0.277317 0.348257
0.292058 0.302052 0.375357
0.338186 0.322362 0.411719
0.191135 0.213321 0.278782
0.214679 0.237781 0.303273
0.239307 0.263005 0.327794
0.26511 0.28893 0.352377
0.29218 0.31545 0.377096
0.320836 0.342443 0.402182
0.351553 0.369696 0.427924
0.385489 0.396765 0.454871
0.434684 0.419211 0.491478
0.273945 0.298939 0.359808
0.300816 0.325948 0.383841
0.328664 0.353613 0.407904
0.357504 0.381918 0.43212
0.387381 0.410758 0.456672
0.418494 0.440055 0.481834
0.451362 0.469596 0.507927
0.487144 0.498924 0.535576
0.537499 0.523781 0.572641
0.367742 0.39263 0.439887
0.397589 0.421851 0.464027
0.42826 0.451667 0.488457
0.459693 0.482048 0.513283
0.491859 0.512978 0.538705
0.52488 0.544381 0.564843
0.559167 0.576089 0.592035
0.596002 0.607645 0.620813
0.646296 0.635081 0.658122
0.471031 0.4934 0.521813
0.503319 0.524605 0.547127
0.536248 0.556359 0.572931
0.569802 0.588647 0.599222
0.603967 0.621469 0.626032
0.638773 0.65478 0.653437
0.674388 0.688502 0.681636
0.711727 0.722271 0.711269
0.760601 0.752575 0.748196
0.581964 0.600641 0.608621
0.616327 0.633661 0.635493
0.651286 0.667185 0.662867
0.686809 0.701228 0.690715
0.722896 0.735759 0.719066
0.759533 0.770764 0.747936
0.796719 0.806241 0.777356
0.834577 0.8421 0.807584
0.880079 0.875822 0.843061
0.699672 0.713832 0.700877
0.735958 0.748531 0.729381
0.772778 0.783719 0.758389
0.810132 0.819379 0.7879
0.848005 0.855497 0.817899
0.886381 0.892073 0.848356
0.925246 0.929107 0.879286
0.964614 0.966567 0.910674
1 1 0.942519
