luts/Action Red 01.cube
TITLE "Generated by Resolve"
LUT_3D_SIZE 33
0 0 0.0393225
0 0 0.0386206
0.00204471 0 0.0385748
0.00762951 0 0.0393072
0.0155032 0 0.0398108
0.0252689 0 0.040116
0.0365148 0 0.0403143
0.0490272 0 0.0404212
0.0627451 0 0.0404517
0.0775769 0 0.0404212
0.0935225 0 0.0402991
0.110521 0 0.0401007
0.128603 0 0.0398108
0.147738 0 0.0394293
0.167956 0 0.038941
0.189242 0 0.0383459
0.211627 0 0.037644
0.235111 0 0.0368048
0.259754 0 0.0358434
0.285618 0 0.0347295
0.312612 0 0.0334783
0.340825 0 0.0320439
0.370291 0 0.030457
0.401038 0 0.0286717
0.433127 0 0.0267033
0.46656 0 0.0245365
0.501396 0 0.0221561
0.537682 0 0.0195315
0.575463 0 0.0166934
0.614771 0 0.0135958
0.655482 0 0.0102693
0.697993 0 0.00663767
0.742184 0 0.00273136
0 0.00335698 0.0439765
0 0.00544747 0.0428626
0.0040589 0.00622568 0.0425879
0.0106813 0.00740063 0.0436866
0.019028 0.00830091 0.0447395
0.0294499 0.00883497 0.0455024
0.041413 0.0091249 0.0460822
0.0546883 0.00921645 0.0464942
0.0691691 0.00914015 0.0467842
0.0848249 0.00889601 0.046952
0.101595 0.00849927 0.0469825
0.119463 0.00791943 0.0468757
0.138415 0.00720226 0.0466316
0.158404 0.00631724 0.0462501
0.179477 0.0052491 0.045716
0.201801 0.00396735 0.0450752
0.225284 0.00248722 0.0442969
0.249943 0.00077821 0.0433509
0.275807 0 0.0422522
0.302922 0 0.0409857
0.331304 0 0.0395361
0.360983 0 0.0379034
0.392004 0 0.0360571
0.424399 0 0.0339971
0.458198 0 0.0317235
0.493462 0 0.0292058
0.530083 0 0.0264591
0.568353 0 0.0234531
0.608225 0 0.0201572
0.649729 0 0.0165866
0.692912 0 0.012726
0.737804 0 0.00856031
0.784451 0 0.00407416
0.00221256 0.0102541 0.0527352
0.00457771 0.0129549 0.0543832
0.00901808 0.015671 0.0518502
0.0161746 0.0174868 0.0520485
0.0239872 0.0192111 0.0530251
0.0346838 0.0202792 0.0538033
0.0470436 0.0210269 0.0543832
0.0607614 0.021561 0.0547494
0.0758526 0.0218204 0.0550546
0.0922255 0.0218662 0.0552377
0.109804 0.0217136 0.0552834
0.128573 0.0213321 0.0551919
0.148577 0.0207523 0.054963
0.169726 0.0199588 0.0545663
0.192065 0.0189517 0.0540017
0.215625 0.0177157 0.0532692
0.240406 0.0162509 0.0523537
0.266438 0.0145571 0.0512398
0.293751 0.012604 0.0499275
0.322362 0.0103761 0.0484169
0.352316 0.00790417 0.0466773
0.383627 0.00514229 0.0447089
0.416327 0.00209049 0.0424964
0.45034 0 0.0400702
0.485939 0 0.0373388
0.523003 0 0.0343481
0.561547 0 0.0310369
0.601648 0 0.027451
0.643519 0 0.0235752
0.687129 0 0.0193942
0.732509 0 0.0149081
0.779675 0 0.0100862
0.828672 0 0.00494392
0.0124514 0.0188449 0.0643168
0.0149386 0.0220493 0.0668956
0.0172732 0.0258946 0.065507
0.0223697 0.0292058 0.0625772
0.0292515 0.0317998 0.0632181
0.039765 0.0334478 0.0637064
0.0526131 0.0345617 0.0643168
0.0671702 0.0352941 0.0649271
0.0831769 0.0357366 0.0654307
0.100511 0.0359197 0.0657969
0.119081 0.0358892 0.0659648
0.138872 0.0356298 0.0659342
0.159869 0.0351415 0.0656596
0.182055 0.0344549 0.065156
0.205417 0.0335546 0.0643473
0.229908 0.0324559 0.0631876
0.255756 0.0310826 0.0618601
0.283009 0.0294194 0.0603799
0.31165 0.027451 0.0587015
0.341711 0.0251926 0.0568093
0.373144 0.0226444 0.0546883
0.406134 0.0197452 0.0523232
0.440635 0.0165255 0.0496834
0.476677 0.0129549 0.0467689
0.514321 0.0090486 0.0435645
0.553582 0.00476081 0.0400702
0.594507 0.000106813 0.0362554
0.63711 0 0.0321355
0.681468 0 0.0276646
0.727565 0 0.0228733
0.775464 0 0.017731
0.825162 0 0.0122377
0.876692 0 0.00636301
0.0227359 0.0293278 0.0770886
0.025391 0.0329442 0.0803693
0.0274357 0.0372168 0.0805219
0.0303044 0.0417182 0.0773785
0.0356756 0.0455787 0.0745251
0.0449989 0.0480812 0.0747387
0.0573739 0.0498207 0.0748455
0.0720684 0.0509651 0.0750896
0.0885939 0.0516823 0.0754101
0.106691 0.0520638 0.0756847
0.126223 0.0521248 0.0758526
0.147127 0.0519112 0.0758679
0.16936 0.0514382 0.0757
0.19292 0.0506752 0.0753033
0.217823 0.0496681 0.0746624
0.244053 0.0483711 0.0737774
0.27158 0.0468299 0.0726329
0.300542 0.0449683 0.0711833
0.330922 0.0428321 0.0694285
0.362722 0.0403906 0.0673533
0.395987 0.0376287 0.0649424
0.430747 0.0345617 0.06215
0.466972 0.0311894 0.0589609
0.504662 0.027512 0.0552987
0.543908 0.0234989 0.0512245
0.585 0.0190433 0.0469673
0.627863 0.0141756 0.0424201
0.672526 0.00888075 0.0375525
0.71899 0.00315862 0.0323644
0.767285 0 0.0268406
0.817411 0 0.0209659
0.869398 0 0.014725
0.923217 0 0.00813306
0.032639 0.0414893 0.09131
0.0355383 0.0454566 0.0951247
0.0376593 0.0500343 0.0964065
0.0399023 0.0550546 0.0943008
0.0439765 0.0598611 0.0899825
0.0516518 0.0636301 0.0865644
0.0627909 0.0661631 0.0863966
0.0767987 0.0679484 0.0861219
0.0932479 0.0691234 0.0859083
0.111696 0.06981 0.0857557
0.131899 0.0700694 0.0856184
0.153674 0.0699779 0.0854047
0.176974 0.0695354 0.0850385
0.201694 0.0687877 0.0845045
0.227924 0.0677195 0.0837262
0.255604 0.066331 0.0827192
0.284764 0.0646372 0.0814527
0.315419 0.0626078 0.079881
0.347585 0.0602426 0.0780194
0.381308 0.0575418 0.0758373
0.416602 0.0545052 0.0733196
0.453483 0.0511025 0.0704509
0.491997 0.0473335 0.0672313
0.532174 0.0431983 0.0636301
0.574014 0.0386816 0.0596475
0.617563 0.0337835 0.0552529
0.662837 0.0284886 0.0504463
0.709819 0.0228122 0.0452277
0.758511 0.0167544 0.0395514
0.808927 0.0102998 0.0334173
0.861051 0.0034638 0.0267948
0.914794 0 0.0196384
0.970153 0 0.011902
0.0440375 0.0546273 0.106416
0.0473487 0.0588388 0.110597
0.0496834 0.0636912 0.112688
0.0516365 0.0690623 0.111696
0.0545663 0.0745708 0.107713
0.0601205 0.07953 0.102403
0.0695354 0.0833295 0.0984512
0.0823377 0.0858778 0.0978256
0.0979782 0.0876783 0.0971237
0.116182 0.088838 0.0963302
0.136584 0.0894331 0.095613
0.158923 0.0895552 0.0948806
0.183032 0.0892348 0.0941024
0.208835 0.0885328 0.0931868
0.236255 0.0874495 0.0920882
0.265293 0.0859998 0.0907607
0.295918 0.084184 0.089189
0.328161 0.082002 0.0873274
0.362036 0.079469 0.0851759
0.397559 0.0765393 0.0827039
0.43473 0.0732433 0.0799115
0.473594 0.0695659 0.0767529
0.514153 0.0654917 0.0732433
0.556451 0.0610208 0.0693523
0.600473 0.0561532 0.065095
0.64625 0.0508888 0.0604562
0.693782 0.0452125 0.0554055
0.743038 0.0391241 0.0499733
0.794079 0.032639 0.0441291
0.84686 0.025742 0.0378882
0.90135 0.0184482 0.0312352
0.957565 0.0107576 0.0241703
1 0.00268559 0.0167086
0.056672 0.0686656 0.122332
0.0603342 0.0731212 0.126864
0.0629129 0.0782025 0.129549
0.0648051 0.0838788 0.129503
0.0670024 0.0898756 0.126329
0.0709087 0.0957046 0.120729
0.0779736 0.100755 0.114458
0.0890516 0.104555 0.109834
0.103517 0.107088 0.108614
0.120836 0.108873 0.107408
0.140871 0.109972 0.105959
0.163302 0.11043 0.104494
0.187884 0.110353 0.103044
0.21445 0.109773 0.101534
0.242863 0.108751 0.0998856
0.273075 0.107286 0.0980697
0.305043 0.105409 0.0960403
0.338766 0.10312 0.0937362
0.374228 0.10042 0.0911574
0.411414 0.097322 0.0882734
0.45037 0.0937972 0.0850538
0.491051 0.0898756 0.0815137
0.533501 0.0855421 0.0776074
0.577722 0.0807965 0.0733501
0.623713 0.075639 0.0687266
0.671443 0.0700694 0.0637369
0.720943 0.0640879 0.0583658
0.772198 0.0576944 0.0526284
0.825147 0.0509041 0.0465095
0.879805 0.0437171 0.0400244
0.936126 0.0361334 0.0331884
0.994079 0.0281834 0.0259709
1 0.019913 0.0184787
0.0703136 0.0835737 0.139055
0.0742657 0.0882582 0.143877
0.0771038 0.0935683 0.147066
0.0790417 0.0994736 0.147738
0.080827 0.105837 0.145388
0.0835889 0.112306 0.140154
0.0886549 0.118364 0.133013
0.0972763 0.123461 0.125734
0.110033 0.127245 0.120302
0.126223 0.129747 0.118303
0.145312 0.131441 0.116503
0.1673 0.132418 0.114275
0.191852 0.132723 0.111986
0.218769 0.132403 0.109667
0.247868 0.131518 0.107271
0.278996 0.130129 0.104768
0.312078 0.128252 0.102098
0.347082 0.125902 0.0992142
0.383948 0.12311 0.0960861
0.422644 0.119875 0.092668
0.463188 0.116197 0.0889601
0.505531 0.112078 0.084947
0.549661 0.107546 0.0805982
0.59559 0.102586 0.0759136
0.64329 0.0972 0.0708934
0.692729 0.0914015 0.0655222
0.743908 0.0851911 0.0598154
0.796765 0.078584 0.0537881
0.851286 0.0715953 0.0474098
0.90724 0.064271 0.0407568
0.964904 0.0565347 0.033753
1 0.0484474 0.0264439
1 0.0400244 0.0188296
0.0848249 0.0992905 0.156527
0.0890516 0.104204 0.161624
0.0921492 0.109712 0.165209
0.0941939 0.115846 0.166491
0.0957504 0.122515 0.164874
0.0977188 0.129458 0.160174
0.101274 0.136278 0.152911
0.107652 0.142489 0.144244
0.117906 0.147601 0.135805
0.132387 0.151339 0.129381
0.150423 0.15375 0.126436
0.171405 0.155337 0.123964
0.195407 0.156146 0.120882
0.222187 0.156222 0.117647
0.251514 0.155642 0.114351
0.283192 0.154437 0.110994
0.317082 0.152651 0.10753
0.353063 0.150347 0.103914
0.391073 0.147524 0.100114
0.431037 0.144228 0.0960861
0.472908 0.140459 0.0917983
0.516655 0.136217 0.0872663
0.562234 0.131548 0.0824292
0.609598 0.126436 0.0773022
0.658717 0.120912 0.0718853
0.709453 0.114992 0.0662089
0.761913 0.108659 0.0602121
0.816022 0.10193 0.0539254
0.871672 0.0948501 0.047364
0.928878 0.0873884 0.0405127
0.987533 0.0795911 0.033402
1 0.071458 0.0260319
1 0.0630045 0.0184024
0.10013 0.115785 0.174716
0.104616 0.120897 0.180041
0.107958 0.126604 0.183963
0.11014 0.132952 0.185718
0.111589 0.139879 0.18471
0.113024 0.147219 0.180575
0.115465 0.154635 0.17351
0.120027 0.16173 0.164202
0.12784 0.168017 0.153948
0.139788 0.173114 0.144244
0.1561 0.176776 0.13669
0.176074 0.17908 0.132616
0.199023 0.180484 0.129427
0.225132 0.181094 0.125429
0.254185 0.180941 0.121187
0.285939 0.180056 0.116884
0.320195 0.178515 0.112505
0.356786 0.176349 0.108049
0.39559 0.173617 0.103487
0.4365 0.170352 0.0987564
0.479393 0.166567 0.0938582
0.524224 0.16231 0.0887465
0.57084 0.157595 0.0834669
0.619287 0.152438 0.0779126
0.66949 0.146853 0.0721447
0.721355 0.140856 0.0661326
0.774807 0.134478 0.0598764
0.829862 0.127718 0.0533913
0.886412 0.120592 0.0466621
0.944396 0.11313 0.0397192
1 0.105348 0.0325628
1 0.0972305 0.0251926
1 0.0888228 0.0176089
0.116182 0.132998 0.19353
0.120912 0.138323 0.199054
0.124483 0.144213 0.20325
0.126818 0.150759 0.205386
0.128252 0.157931 0.204868
0.129335 0.165576 0.201266
0.130938 0.17348 0.194522
0.134066 0.181292 0.185031
0.139803 0.188571 0.173678
0.149187 0.194919 0.161761
0.162921 0.199954 0.150698
0.18114 0.20351 0.141924
0.203128 0.205661 0.136568
0.228122 0.206851 0.132647
0.256367 0.207233 0.127764
0.287663 0.206821 0.122545
0.321798 0.205661 0.117235
0.358526 0.203784 0.111879
0.397681 0.201266 0.106477
0.439063 0.198154 0.101045
0.482582 0.194476 0.095491
0.528099 0.190295 0.0898299
0.575525 0.185626 0.0840314
0.624765 0.180499 0.0780652
0.675731 0.174929 0.0719463
0.728344 0.168963 0.0656596
0.782528 0.1626 0.0591897
0.838254 0.155871 0.0525521
0.895415 0.148791 0.0457313
0.953948 0.141375 0.0387274
1 0.133654 0.0315709
1 0.125628 0.0242466
1 0.117327 0.0167697
0.132952 0.150927 0.212863
0.137911 0.156435 0.218555
0.141711 0.162509 0.222995
0.144228 0.169238 0.225422
0.145678 0.176623 0.225299
0.146548 0.184558 0.222156
0.147539 0.192859 0.215763
0.149538 0.201251 0.206317
0.153582 0.209354 0.194415
0.160678 0.21677 0.181033
0.17174 0.223102 0.167452
0.187335 0.228046 0.154986
0.207507 0.231464 0.144961
0.23154 0.233448 0.138323
0.258595 0.234394 0.133715
0.288914 0.234562 0.128008
0.322377 0.23389 0.121904
0.358724 0.232441 0.115694
0.397742 0.230274 0.109468
0.439185 0.227451 0.103258
0.482933 0.224002 0.0970474
0.528771 0.219989 0.0907912
0.576577 0.215473 0.0845045
0.626261 0.210468 0.0781415
0.677684 0.20502 0.0716869
0.730739 0.199145 0.0651408
0.785397 0.192889 0.0584878
0.84152 0.186252 0.0517281
0.899062 0.179263 0.0448463
0.957931 0.171969 0.0378424
1 0.164355 0.0307164
1 0.156451 0.0234836
1 0.148272 0.0161288
0.150408 0.169512 0.232639
0.155596 0.175204 0.238468
0.159655 0.18143 0.243091
0.162325 0.188357 0.245747
0.163836 0.195941 0.245945
0.164584 0.204135 0.243168
0.165148 0.212772 0.237156
0.166308 0.221637 0.227878
0.168963 0.230426 0.215747
0.174136 0.238743 0.20148
0.182727 0.24622 0.18613
0.19556 0.252491 0.170932
0.213062 0.257313 0.157153
0.235203 0.260548 0.145968
0.26125 0.262348 0.13817
0.290288 0.263066 0.132906
0.322606 0.263005 0.126482
0.358053 0.262104 0.119631
0.396414 0.260426 0.112673
0.437461 0.258 0.105745
0.480964 0.254902 0.0988632
0.526711 0.251194 0.0920424
0.574533 0.246937 0.0852522
0.624308 0.242161 0.0784772
0.675868 0.236896 0.0717174
0.729122 0.231205 0.0649271
0.783932 0.225116 0.0580911
0.840238 0.218647 0.0512093
0.897948 0.21181 0.0442817
0.956939 0.204669 0.0372931
1 0.197208 0.0302281
1 0.189487 0.0230869
1 0.181476 0.0158846
0.168551 0.188724 0.252735
0.173968 0.194598 0.258656
0.178256 0.201007 0.263416
0.181125 0.208087 0.266255
0.182757 0.215869 0.266682
0.183444 0.224277 0.26424
0.183719 0.233219 0.258564
0.184237 0.242481 0.249561
0.185824 0.251804 0.23743
0.189395 0.260884 0.222705
0.195865 0.269337 0.206226
0.206104 0.276799 0.18909
0.220752 0.282979 0.172457
0.240146 0.287633 0.157473
0.264195 0.2907 0.145251
0.29218 0.292302 0.136446
0.323095 0.292805 0.130632
0.357214 0.292531 0.123674
0.394476 0.291432 0.116258
0.434623 0.289555 0.108721
0.477424 0.286931 0.101244
0.522667 0.283635 0.0938582
0.570123 0.279744 0.0865797
0.619638 0.275273 0.079408
0.671016 0.270314 0.0722972
0.724132 0.264881 0.0652476
0.778866 0.259022 0.0582437
0.835126 0.252781 0.0512551
0.892775 0.246174 0.0442817
0.951751 0.239216 0.0372931
1 0.231983 0.0302892
1 0.224445 0.02327
1 0.216648 0.0162203
0.187381 0.208576 0.27303
0.193011 0.214618 0.278996
0.197559 0.221164 0.283864
0.200641 0.228412 0.286839
0.202411 0.236362 0.287465
0.203128 0.244968 0.285283
0.203235 0.254154 0.279942
0.203296 0.263752 0.27126
0.204059 0.273533 0.259312
0.206348 0.283223 0.24445
0.211017 0.2925 0.227344
0.218936 0.300999 0.208911
0.230854 0.308415 0.190204
0.247333 0.314443 0.172351
0.268589 0.318929 0.156374
0.294469 0.321798 0.143313
0.324239 0.323247 0.133654
0.356863 0.323552 0.127398
0.39263 0.323095 0.120089
0.431464 0.321828 0.112261
0.473167 0.319783 0.104326
0.517479 0.317021 0.0964675
0.564172 0.313588 0.088716
0.613046 0.30956 0.0811322
0.66392 0.304967 0.0737011
0.716655 0.299886 0.0663767
0.771038 0.294331 0.0591745
0.826978 0.28838 0.0520638
0.884352 0.282048 0.0450294
0.943099 0.275364 0.0380407
1 0.268376 0.0310979
1 0.261082 0.0241855
1 0.253529 0.0172885
0.206897 0.228992 0.2934
0.212772 0.235203 0.299413
0.217578 0.241917 0.304311
0.22089 0.249317 0.307393
0.222827 0.25742 0.308186
0.223636 0.266194 0.306264
0.223667 0.275593 0.301244
0.223438 0.285451 0.292927
0.223575 0.295613 0.281285
0.224842 0.305806 0.266545
0.228031 0.315755 0.24921
0.233967 0.325139 0.23003
0.243442 0.333639 0.209918
0.257069 0.340932 0.189929
0.275334 0.346807 0.171084
0.29836 0.351095 0.154345
0.325917 0.353811 0.140627
0.357336 0.355093 0.130282
0.391531 0.35523 0.123674
0.428779 0.354604 0.116091
0.46894 0.353231 0.10811
0.51194 0.35108 0.0999161
0.557504 0.348226 0.0918135
0.605417 0.344701 0.0838483
0.655467 0.340581 0.0760815
0.707439 0.335927 0.0684825
0.761227 0.330785 0.0610819
0.816617 0.325185 0.0538186
0.873533 0.319188 0.0466926
0.931777 0.312825 0.0396887
0.991333 0.306127 0.0327916
1 0.299138 0.0259556
1 0.291859 0.0191958
0.227131 0.250004 0.313756
0.233234 0.256367 0.319753
0.2383 0.263203 0.324712
0.241856 0.270756 0.327871
0.244007 0.278996 0.328817
0.244938 0.287938 0.327138
0.244984 0.297505 0.322469
0.244572 0.307591 0.314534
0.244282 0.318044 0.303304
0.24477 0.328664 0.288869
0.246754 0.339162 0.271611
0.251041 0.349279 0.25211
0.258366 0.358694 0.231174
0.269413 0.367117 0.20972
0.284749 0.374273 0.188724
0.304707 0.379965 0.169146
0.329381 0.384085 0.151827
0.358511 0.386633 0.137621
0.391394 0.387793 0.126772
0.426978 0.387793 0.11989
0.465476 0.38706 0.112261
0.506828 0.38558 0.104158
0.550912 0.383368 0.0958572
0.597513 0.380453 0.0876326
0.646387 0.376898 0.0795605
0.697368 0.372747 0.0717174
0.75024 0.368078 0.0640879
0.804837 0.362921 0.056672
0.861006 0.357336 0.0494392
0.918639 0.351339 0.0423896
0.977569 0.345006 0.0355077
1 0.338354 0.028748
1 0.331395 0.0220645
0.248081 0.271534 0.334035
0.254414 0.278065 0.340017
0.259739 0.285039 0.345022
0.263554 0.292714 0.348257
0.265934 0.301091 0.349371
0.267048 0.310155 0.347921
0.267155 0.319875 0.343587
0.266682 0.330159 0.33611
0.266102 0.340856 0.325353
0.265995 0.351797 0.31136
0.267048 0.362753 0.294408
0.269963 0.373465 0.274937
0.275456 0.383658 0.25362
0.28423 0.393042 0.23125
0.296864 0.401358 0.208743
0.313832 0.408347 0.187015
0.335424 0.41387 0.166903
0.361608 0.417838 0.149218
0.392142 0.420249 0.134691
0.426337 0.421286 0.123476
0.463142 0.42118 0.116365
0.502724 0.420371 0.108827
0.545052 0.41883 0.10074
0.590051 0.416587 0.0924392
0.637491 0.413657 0.0841993
0.68716 0.410117 0.0761273
0.738827 0.405982 0.0682994
0.792386 0.401343 0.0607309
0.847593 0.396231 0.0533761
0.904418 0.390661 0.0461738
0.962737 0.384695 0.0391089
1 0.378363 0.032105
1 0.371679 0.0251926
0.269734 0.293614 0.354223
0.27628 0.300282 0.360189
0.28188 0.307378 0.36524
0.285985 0.31516 0.368597
0.288579 0.323674 0.369818
0.289906 0.33286 0.368627
0.29015 0.342702 0.36466
0.289677 0.35314 0.357641
0.28893 0.364034 0.347417
0.288411 0.375235 0.333974
0.288731 0.386557 0.317494
0.290547 0.397772 0.298329
0.29453 0.408606 0.276997
0.30132 0.418814 0.254185
0.311559 0.428122 0.230716
0.32575 0.436286 0.207416
0.344289 0.443122 0.185183
0.367376 0.448463 0.164752
0.394965 0.452277 0.146853
0.426734 0.454582 0.132143
0.462089 0.455528 0.120699
0.499992 0.45536 0.11342
0.540459 0.45449 0.106081
0.583612 0.452934 0.0981155
0.629343 0.45069 0.0899062
0.67744 0.447791 0.0817273
0.727779 0.444282 0.0736553
0.780163 0.440177 0.0657206
0.834424 0.435554 0.057969
0.890455 0.430442 0.0503853
0.948135 0.424887 0.0429541
1 0.418906 0.0356603
1 0.412543 0.0284581
0.292073 0.316197 0.374334
0.298833 0.323003 0.38027
0.304707 0.33022 0.385382
0.309087 0.338109 0.388846
0.31194 0.346731 0.390234
0.313481 0.356023 0.389303
0.313909 0.365972 0.385702
0.313512 0.376532 0.379171
0.312688 0.387579 0.369512
0.311894 0.399008 0.35671
0.311681 0.41062 0.340825
0.312612 0.422232 0.322133
0.315343 0.4336 0.301076
0.32047 0.444495 0.278187
0.328618 0.454673 0.254215
0.340322 0.463859 0.229908
0.356023 0.47187 0.206104
0.376043 0.478538 0.183566
0.400504 0.483711 0.162997
0.429358 0.487388 0.145022
0.462242 0.489586 0.130266
0.498604 0.490501 0.1187
0.537453 0.490288 0.111238
0.578729 0.489387 0.104082
0.622629 0.487846 0.0961013
0.669108 0.485618 0.0877699
0.717968 0.482734 0.0793774
0.769039 0.47924 0.0710765
0.822156 0.475166 0.0629282
0.87718 0.470558 0.0549325
0.93402 0.465461 0.0471199
0.992462 0.459907 0.0394751
1 0.45391 0.0319524
0.315099 0.339269 0.394369
0.322057 0.346212 0.40032
0.328191 0.353552 0.405493
0.33283 0.361547 0.409079
0.335958 0.37026 0.410651
0.337758 0.379644 0.409995
0.338399 0.389685 0.40679
0.338125 0.400336 0.400748
0.337316 0.411521 0.391699
0.336355 0.423102 0.379553
0.335744 0.434958 0.36437
0.336019 0.446891 0.346303
0.337728 0.458701 0.325719
0.341466 0.470161 0.303059
0.347829 0.481056 0.278965
0.357336 0.491142 0.254093
0.370474 0.500206 0.229236
0.38761 0.508049 0.205112
0.409003 0.514549 0.182452
0.43473 0.519585 0.161837
0.464714 0.523156 0.143755
0.498619 0.525307 0.128847
0.535897 0.526192 0.11693
0.575662 0.525994 0.10898
0.617761 0.525063 0.101854
0.662486 0.523507 0.0936751
0.709651 0.521294 0.0852827
0.759213 0.518441 0.0767224
0.811017 0.514961 0.0682078
0.864866 0.510918 0.0598459
0.920638 0.506325 0.0516365
0.97818 0.501244 0.0436103
1 0.495674 0.0357671
0.33875 0.362814 0.41442
0.345907 0.369894 0.420386
0.3523 0.37734 0.425635
0.357214 0.385443 0.429343
0.360616 0.394232 0.431128
0.362676 0.403708 0.430762
0.363546 0.413825 0.427939
0.363455 0.424567 0.422415
0.362722 0.435843 0.413993
0.361685 0.447562 0.402533
0.360815 0.459602 0.388098
0.360586 0.471778 0.370764
0.361501 0.48394 0.350805
0.364111 0.495888 0.328618
0.368963 0.507393 0.304692
0.376562 0.518242 0.279622
0.387396 0.528222 0.254093
0.401877 0.537163 0.228748
0.42034 0.544869 0.204288
0.442985 0.551232 0.181369
0.469886 0.556176 0.160525
0.500938 0.55967 0.142245
0.535821 0.561776 0.127077
0.573999 0.562646 0.114809
0.614694 0.562432 0.10631
0.657557 0.561486 0.0992905
0.703059 0.55993 0.0910048
0.750942 0.557733 0.0825055
0.801205 0.554894 0.0737774
0.853681 0.551446 0.065095
0.908248 0.547417 0.0565499
0.964675 0.542855 0.0481575
1 0.537789 0.0399634
0.363043 0.386816 0.434516
0.370367 0.394034 0.440497
0.37702 0.401587 0.445853
0.382193 0.409781 0.449714
0.38587 0.418647 0.451713
0.388205 0.428183 0.451652
0.389334 0.438376 0.449226
0.389456 0.449195 0.444205
0.388846 0.460548 0.436408
0.387823 0.472374 0.425681
0.386801 0.48455 0.412024
0.386206 0.496941 0.395483
0.386481 0.509392 0.376257
0.388144 0.521737 0.354635
0.391684 0.533761 0.331029
0.397604 0.545281 0.305943
0.406409 0.5561 0.279957
0.418494 0.566003 0.253727
0.434272 0.574823 0.227893
0.454002 0.582406 0.203098
0.477867 0.588663 0.179919
0.505898 0.5935 0.158877
0.538003 0.596933 0.140398
0.573831 0.598978 0.125002
0.612909 0.599832 0.112413
0.65449 0.599619 0.103441
0.698131 0.598642 0.0964523
0.744366 0.59707 0.0881208
0.792935 0.594888 0.0794995
0.84387 0.592081 0.0706645
0.897002 0.588647 0.0618448
0.952193 0.584649 0.0531472
1 0.580118 0.0446174
0.387915 0.411276 0.454719
0.395422 0.418616 0.460746
0.402304 0.426276 0.466209
0.407736 0.434546 0.470222
0.411688 0.443503 0.47245
0.414313 0.453101 0.472694
0.415702 0.463355 0.47068
0.416068 0.47422 0.466178
0.415625 0.485634 0.458991
0.414664 0.497551 0.448997
0.41355 0.50985 0.436103
0.412665 0.522423 0.420356
0.412406 0.535134 0.401862
0.413275 0.547814 0.38088
0.415717 0.560296 0.357687
0.420203 0.572396 0.332769
0.427222 0.583917 0.306615
0.437217 0.594675 0.279805
0.450568 0.604486 0.252949
0.467597 0.613199 0.226688
0.488579 0.620661 0.201587
0.513634 0.62678 0.17818
0.542763 0.631525 0.156954
0.57586 0.634882 0.138293
0.612619 0.636896 0.122667
0.652583 0.637705 0.109789
0.695003 0.637507 0.10042
0.739437 0.6365 0.0934157
0.786358 0.634928 0.085069
0.835584 0.632761 0.0764019
0.887175 0.629969 0.0674754
0.940917 0.626566 0.0585641
0.996704 0.622599 0.0497597
0.413352 0.436149 0.475074
0.421027 0.443626 0.481163
0.428138 0.451377 0.486748
0.433829 0.459739 0.490929
0.438102 0.468757 0.493416
0.44097 0.478431 0.49395
0.442634 0.488731 0.492363
0.443214 0.499641 0.488365
0.442939 0.511131 0.481788
0.442069 0.523125 0.47245
0.440894 0.535531 0.460319
0.439796 0.548257 0.445319
0.439139 0.561181 0.427588
0.439353 0.574166 0.407248
0.440879 0.58703 0.384588
0.44416 0.599634 0.359991
0.449653 0.611765 0.333867
0.457801 0.62327 0.306752
0.468986 0.633951 0.27921
0.483574 0.643656 0.25182
0.501869 0.652247 0.225162
0.524041 0.659586 0.199802
0.55024 0.665599 0.176211
0.580453 0.670237 0.154833
0.614542 0.673518 0.135988
0.652186 0.675486 0.120195
0.692973 0.676295 0.107073
0.736233 0.676066 0.0973526
0.781384 0.675059 0.0903182
0.828962 0.673487 0.0820172
0.878828 0.671336 0.0733196
0.931014 0.668559 0.0643626
0.985336 0.665187 0.0554055
0.439338 0.461463 0.495628
0.447166 0.469062 0.501793
0.45449 0.476905 0.5075
0.460426 0.485359 0.511879
0.464988 0.494423 0.514672
0.468086 0.504173 0.515496
0.470008 0.514534 0.51429
0.470832 0.525505 0.510781
0.470726 0.537041 0.504768
0.469963 0.549096 0.496086
0.468803 0.561608 0.484657
0.467567 0.574472 0.47042
0.466606 0.587579 0.453407
0.4663 0.600793 0.433768
0.467079 0.613993 0.411719
0.469337 0.627008 0.387533
0.473533 0.639673 0.361608
0.480049 0.651835 0.334417
0.489326 0.663279 0.306447
0.501717 0.673884 0.278248
0.517525 0.683482 0.250401
0.537026 0.691936 0.223423
0.560388 0.699153 0.197833
0.587701 0.705058 0.174105
0.618936 0.709606 0.152605
0.653971 0.712825 0.133654
0.692485 0.714748 0.117723
0.734066 0.715526 0.104387
0.778103 0.715297 0.094377
0.823957 0.714275 0.0872969
0.872175 0.712703 0.0790723
0.922698 0.710567 0.0703136
0.975387 0.70782 0.0614328
0.465827 0.48719 0.516457
0.473793 0.494911 0.522713
0.481331 0.502846 0.528603
0.48748 0.511376 0.533165
0.492287 0.520516 0.536187
0.495644 0.530327 0.537331
