luts/Action Red 01.cube
TITLE "Generated by Resolve"
LUT_3D_SIZE 5
0 0 0.0393225
0.0627451 0 0.0404517
0.211627 0 0.037644
0.433127 0 0.0267033
0.742184 0 0.00273136
0.0703136 0.0835737 0.139055
0.110033 0.127245 0.120302
0.312078 0.128252 0.102098
0.64329 0.0972 0.0708934
1 0.0400244 0.0188296
0.206897 0.228992 0.2934
0.223575 0.295613 0.281285
0.325917 0.353811 0.140627
0.655467 0.340581 0.0760815
1 0.291859 0.0191958
0.387915 0.411276 0.454719
0.415625 0.485634 0.458991
0.427222 0.583917 0.306615
0.612619 0.636896 0.122667
0.996704 0.622599 0.0497597
0.605005 0.621729 0.62565
0.646647 0.70071 0.647669
0.639673 0.810575 0.535271
0.698131 0.916091 0.300389
0.94876 0.963409 0.10248
0 0.00225834 0.0428626
0.0158541 0.0200504 0.0682689
0.136202 0.0186313 0.111788
0.370748 0 0.115816
0.693919 0 0.0985428
0.0819257 0.0962234 0.153124
0.119249 0.136278 0.19707
0.341558 0.130816 0.200702
0.67953 0.0982681 0.180194
1 0.0422217 0.130755
0.223148 0.24593 0.309834
0.273823 0.297765 0.357961
0.338521 0.364508 0.256535
0.70135 0.343771 0.180652
1 0.291768 0.129503
0.408377 0.431342 0.471122
0.470802 0.491997 0.520363
0.488075 0.578256 0.481224
0.628702 0.649866 0.25478
1 0.632197 0.153414
0.628458 0.644358 0.644053
0.699168 0.712291 0.699611
0.730968 0.800076 0.701106
0.7449 0.91606 0.502739
0.967834 0.978759 0.24271
0 0.00735485 0.0493477
0.0229648 0.0290684 0.0780041
0.0534676 0.0578012 0.117159
0.193362 0.0578927 0.191974
0.497261 0.0188449 0.233234
0.0939651 0.109377 0.167849
0.132784 0.150759 0.21326
0.18172 0.193668 0.265217
0.497307 0.157504 0.361563
0.977981 0.0867018 0.357397
0.239689 0.263249 0.326299
0.291783 0.316075 0.374212
0.347692 0.371664 0.421866
0.733806 0.340261 0.395056
1 0.292348 0.347692
0.429084 0.451743 0.487678
0.492531 0.513146 0.537469
0.55848 0.576837 0.589166
0.641184 0.659266 0.436179
1 0.632441 0.330617
0.652079 0.667247 0.662669
0.723629 0.735836 0.718914
0.797284 0.806378 0.777142
0.816312 0.90692 0.725689
0.98323 0.990478 0.432456
0.00646983 0.0135958 0.0581369
0.0307469 0.0388037 0.0896773
0.0606851 0.0705119 0.127993
0.104845 0.10396 0.17641
0.264683 0.104005 0.273457
0.106523 0.123003 0.183185
0.146777 0.165667 0.229816
0.192218 0.211475 0.279438
0.254871 0.255848 0.337636
0.562097 0.22356 0.476493
0.25658 0.280934 0.342962
0.309972 0.334722 0.39089
0.367346 0.391073 0.4392
0.439124 0.44593 0.495323
0.905623 0.379309 0.62591
0.449943 0.472435 0.504509
0.514321 0.53463 0.55491
0.581201 0.599023 0.607187
0.650507 0.665537 0.661357
1 0.625513 0.624262
0.675822 0.69041 0.681575
0.748196 0.75964 0.738445
0.822675 0.830793 0.79733
0.899107 0.903822 0.858167
0.995377 0.998993 0.666575
0.0147402 0.0210422 0.0680552
0.0395972 0.0491493 0.102022
0.071397 0.0826886 0.141787
0.110445 0.120073 0.187137
0.167712 0.156405 0.244984
0.11957 0.137087 0.199023
0.161212 0.180987 0.246677
0.207645 0.228061 0.296574
0.26099 0.277317 0.348257
0.338186 0.322362 0.411719
0.273945 0.298939 0.359808
0.328664 0.353613 0.407904
0.387381 0.410758 0.456672
0.451362 0.469596 0.507927
0.537499 0.523781 0.572641
0.471031 0.4934 0.521813
0.536248 0.556359 0.572931
0.603967 0.621469 0.626032
0.674388 0.688502 0.681636
0.760601 0.752575 0.748196
0.699672 0.713832 0.700877
0.772778 0.783719 0.758389
0.848005 0.855497 0.817899
0.925246 0.929107 0.879286
1 1 0.942519
