luts/AGFA_NEGATIVE_XTR250_S-Log3_Rec709.cube.cube
TITLE "Exported for the Shot "C0097" by Colourlab Ai on 2023-10-24"
LUT_3D_SIZE 5
0.0000557363 0.0000616304 0.0000430522
0.0390408263 0.0121872202 0.0112948176
0.4015261531 0.0060045766 0.0325502977
0.9781080484 0.0130433161 0.0031783897
1.0000000000 0.2513054609 0.1509522498
0.0115059186 0.0643727854 0.0223733541
0.0742763653 0.0844185799 0.0146775655
0.4365438521 0.0237003565 0.0305069648
0.9781680107 0.0130463494 0.0031494263
1.0000000000 0.2513054609 0.1509522498
0.0202848464 0.5071629286 0.0061526927
0.0869331360 0.5501021743 0.0000000000
0.6255032420 0.5973584652 0.0000000000
0.9981971383 0.3799186051 0.0000000000
1.0000000000 0.2513115704 0.1509806365
0.1766670048 0.9693133235 0.3031147718
0.2495135516 0.9702982903 0.3072214723
0.5102809668 0.9729086757 0.3125263453
0.9065899849 0.9602734447 0.1727930903
1.0000000000 0.5960875750 0.1702223718
0.6774028540 0.9996613860 0.6428178549
0.6823113561 0.9996720552 0.6430024505
0.7146907449 0.9997390509 0.6441407204
0.8480856419 1.0000000000 0.6423885822
0.9923145175 1.0000000000 0.5188905597
0.0031504200 0.0032608332 0.0276320968
0.0385254957 0.0072150221 0.0469076447
0.4077210426 0.0026445105 0.0600568615
0.9781275988 0.0130443107 0.0031689391
1.0000000000 0.2513054609 0.1509522498
0.0098569067 0.0685415193 0.0821623206
0.0462141372 0.0781776384 0.0805127770
0.4408522844 0.0119902249 0.0646563023
0.9781680107 0.0130463494 0.0031494263
1.0000000000 0.2513054609 0.1509522498
0.0277901739 0.5090850592 0.1143980473
0.0315789320 0.5524239540 0.0797266960
0.6114029288 0.5936353803 0.0041658320
0.9981758595 0.3817469180 0.0000000000
1.0000000000 0.2513115704 0.1509806365
0.1791694760 0.9688076973 0.3640531301
0.2526714206 0.9698560834 0.3677473962
0.5133801699 0.9723930955 0.3732048571
0.9080051184 0.9603621960 0.2551877499
1.0000000000 0.5961999297 0.1702305824
0.6780689955 0.9996688962 0.6464353204
0.6829792857 0.9996796250 0.6466339827
0.7152847052 0.9997453094 0.6477882862
0.8483152986 1.0000000000 0.6453796625
0.9924071431 1.0000000000 0.5359190702
0.0002165346 0.0312986784 0.2592151463
0.0135968179 0.0323507264 0.2946252823
0.4270548522 0.0000000000 0.3710303903
0.9672640562 0.0000000000 0.4078881443
1.0000000000 0.2513054609 0.1509522498
0.0004977362 0.0938365087 0.3271524608
0.0102221426 0.0933939293 0.3597207367
0.4510072768 0.0000000000 0.3929147124
0.9673066139 0.0000000000 0.4092020988
1.0000000000 0.2513074279 0.1509616971
0.0440561064 0.5037832856 0.5040529370
0.0804446936 0.5390183926 0.5261541605
0.5451655984 0.5734876990 0.5505509973
0.9988113046 0.2663571537 0.4864771366
1.0000000000 0.2513115704 0.1509806365
0.1880535930 0.9650084972 0.5849170685
0.2621311247 0.9661961198 0.5880723000
0.5254883170 0.9686528444 0.5961571336
0.9149264693 0.9563132524 0.5649917126
1.0000000000 0.5970720649 0.1702947468
0.6831545830 0.9997262359 0.6729766130
0.6880461574 0.9997369647 0.6731919050
0.7195888758 0.9997979999 0.6743583083
0.8504959941 1.0000000000 0.6732272506
0.9926773906 1.0000000000 0.5903285146
0.0000000000 0.3230972290 0.8697219491
0.0368164405 0.3406027853 0.8871076107
0.4445524514 0.3003770411 0.9054010510
0.9610341787 0.1403531879 0.8956987262
1.0000000000 0.3066856563 0.7225269675
0.0000000000 0.3654202819 0.8835699558
0.0285685863 0.3854145408 0.8989306688
0.4678737521 0.3756733239 0.9214596748
0.9610590935 0.1404799819 0.8957659602
1.0000000000 0.3067427576 0.7226305008
0.0000000000 0.5132203698 0.9177296162
0.0233639665 0.5307728052 0.9301725626
0.5278100371 0.5365563035 0.9509413242
0.9827386141 0.3975094855 0.9331845641
1.0000000000 0.3072346151 0.7234168649
0.2039491981 0.9476925135 0.9204053283
0.2776187956 0.9487450123 0.9222665429
0.5379903316 0.9507578611 0.9286432266
0.9216479063 0.9370449781 0.9276136160
1.0000000000 0.7082573771 0.7929140329
0.7243174911 0.9998820424 0.8355895877
0.7284015417 0.9998786449 0.8358728886
0.7561768889 0.9998559952 0.8376201391
0.8697481155 0.9998391271 0.8406234384
0.9937611222 0.9995697737 0.8056791425
0.6588369608 0.8511148691 0.9996936917
0.6895513535 0.8528675437 0.9997184277
0.7681575418 0.8570690751 0.9997773767
0.8844144344 0.8512384892 0.9998612404
1.0000000000 0.5970521569 0.9988968968
0.6602880955 0.8534852266 0.9997012615
0.6904696226 0.8552554250 0.9997259378
0.7684911489 0.8595392704 0.9997848868
0.8850709796 0.8562325239 0.9998751283
1.0000000000 0.5970521569 0.9988968968
0.6699607968 0.8679379821 0.9997493029
0.6970540881 0.8696069121 0.9997719526
0.7706734538 0.8743268251 0.9998292923
0.8888757825 0.8810868263 0.9999436140
1.0000000000 0.5971214175 0.9988987446
0.7196488976 0.9140164852 0.9999145865
0.7339025140 0.9147462845 0.9999291301
0.7852210999 0.9173774123 0.9999853969
0.8982231021 0.9292102456 1.0000000000
1.0000000000 0.8677619100 0.9990184307
0.7837002873 0.9988246560 0.9964255095
0.7878467441 0.9988287091 0.9964352846
0.8158020973 0.9988425970 0.9965152740
0.9051062465 0.9988007545 0.9966815710
0.9922028184 0.9966847301 0.9945850968
