luts/AGFA_NEGATIVE_XTR250_S-Log3_Rec709.cube.cube
TITLE "Exported for the Shot "C0097" by Colourlab Ai on 2023-10-24"
LUT_3D_SIZE 33
0.0000557363 0.0000616304 0.0000430522
0.0001447000 0.0000744177 0.0000560376
0.0005607799 0.0002683737 0.0002398162
0.0018514696 0.0010198409 0.0009763053
0.0071621179 0.0023959912 0.0024531984
0.0119483471 0.0042909118 0.0046706884
0.0180604458 0.0059414976 0.0064910250
0.0262176022 0.0087940674 0.0089340294
0.0390408263 0.0121872202 0.0112948176
0.0591486506 0.0152612841 0.0133967251
0.0858324170 0.0196031816 0.0147296358
0.1201344877 0.0226690453 0.0170958843
0.1632742286 0.0241278708 0.0196398832
0.2161736935 0.0225264374 0.0224483814
0.2730791271 0.0165007282 0.0253610853
0.3343389928 0.0092982780 0.0281835757
0.4015261531 0.0060045766 0.0325502977
0.4761323929 0.0044080303 0.0348698199
0.5582326651 0.0047785975 0.0345375091
0.6457986832 0.0059733232 0.0298104249
0.7349621654 0.0047048572 0.0267894194
0.8171077371 0.0007289051 0.0245374441
0.8829175234 0.0002090416 0.0187180657
0.9365472794 0.0019256660 0.0102319205
0.9781080484 0.0130433161 0.0031783897
0.9965080023 0.0502029844 0.0085640531
0.9996771216 0.1009843200 0.0520064943
0.9993608594 0.1501607299 0.0744717345
0.9992095828 0.1890023798 0.0913817510
0.9993626475 0.2190105319 0.1016435102
0.9997812510 0.2373535931 0.1089006215
1.0000000000 0.2457111776 0.1262623370
1.0000000000 0.2513054609 0.1509522498
0.0003303295 0.0003975279 0.0002704550
0.0004817819 0.0004478294 0.0003256984
0.0008949820 0.0006595578 0.0005218962
0.0026679123 0.0013740013 0.0012310894
0.0074245804 0.0032477060 0.0028142422
0.0124636237 0.0048696781 0.0048938445
0.0185059886 0.0062925625 0.0066113360
0.0269108769 0.0093654636 0.0091290064
0.0396659635 0.0125797046 0.0114296470
0.0597614571 0.0155368149 0.0134652462
0.0861936137 0.0197476167 0.0147458483
0.1203033328 0.0226784721 0.0171054006
0.1634339094 0.0241267979 0.0196481794
0.2163068801 0.0225162935 0.0224557705
0.2731663287 0.0164874271 0.0253649577
0.3344036043 0.0092936046 0.0281870048
0.4016006887 0.0060015484 0.0325530171
0.4762126803 0.0044037215 0.0348707065
0.5582758784 0.0047792392 0.0345350541
0.6458430886 0.0059750448 0.0298089013
0.7350038886 0.0047023147 0.0267885569
0.8171432614 0.0007290912 0.0245347377
0.8829488158 0.0002122183 0.0187141765
0.9365472794 0.0019256660 0.0102319205
0.9781275988 0.0130443107 0.0031689391
0.9965080023 0.0502029844 0.0085640531
0.9996769428 0.1010051593 0.0520173870
0.9993608594 0.1501607299 0.0744717345
0.9992095828 0.1890023798 0.0913817510
0.9993626475 0.2190105319 0.1016435102
0.9997812510 0.2373535931 0.1089006215
1.0000000000 0.2457111776 0.1262623370
1.0000000000 0.2513054609 0.1509522498
0.0013053791 0.0016987305 0.0011852598
0.0013461588 0.0016731002 0.0011692896
0.0016343751 0.0017314160 0.0012632908
0.0051863338 0.0043052300 0.0022302652
0.0088217063 0.0061650136 0.0041297842
0.0143323885 0.0079841018 0.0057812277
0.0197088793 0.0105172284 0.0079080369
0.0300295390 0.0127071682 0.0101697464
0.0430699699 0.0148751223 0.0121602798
0.0623951741 0.0178062487 0.0137056122
0.0875440016 0.0205365755 0.0149394087
0.1214128360 0.0231049955 0.0172249097
0.1638131887 0.0242207292 0.0196731631
0.2164138407 0.0225081518 0.0224616993
0.2732844949 0.0164694060 0.0253702067
0.3345026672 0.0092864353 0.0281922668
0.4016728997 0.0059986142 0.0325556397
0.4762553573 0.0044014333 0.0348711759
0.5583218336 0.0047799232 0.0345324539
0.6458874345 0.0059767594 0.0298073813
0.7350457311 0.0046997555 0.0267877094
0.8171432614 0.0007290912 0.0245347377
0.8829488158 0.0002122183 0.0187141765
0.9365472794 0.0019256660 0.0102319205
0.9781275988 0.0130443107 0.0031689391
0.9965080023 0.0502029844 0.0085640531
0.9996769428 0.1010051593 0.0520173870
0.9993608594 0.1501607299 0.0744717345
0.9992095828 0.1890023798 0.0913817510
0.9993626475 0.2190105319 0.1016435102
0.9997814894 0.2373584062 0.1089066416
1.0000000000 0.2457111776 0.1262623370
1.0000000000 0.2513054609 0.1509522498
0.0035310099 0.0074034808 0.0036487016
0.0038442428 0.0074061314 0.0036190799
0.0047492073 0.0080188438 0.0039053806
0.0061599314 0.0095603876 0.0044568162
0.0102345217 0.0112356143 0.0054135676
0.0150632951 0.0129933618 0.0070313197
0.0224364568 0.0149693787 0.0093803694
0.0339953676 0.0167377442 0.0114842895
0.0489618406 0.0197869111 0.0130478926
0.0680745542 0.0228952784 0.0143095702
0.0949535519 0.0250044111 0.0160991158
0.1274735481 0.0257237740 0.0178915821
0.1655009985 0.0248874296 0.0197979193
0.2171117812 0.0228299629 0.0225176066
0.2733736038 0.0164558087 0.0253741704
0.3345693648 0.0092816092 0.0281958096
0.4017475247 0.0059955814 0.0325583592
0.4763357341 0.0043971166 0.0348720700
0.5583649874 0.0047805752 0.0345299952
0.6459345818 0.0059785945 0.0298057590
0.7350457311 0.0046997555 0.0267877094
0.8171432614 0.0007290912 0.0245347377
0.8829488158 0.0002122183 0.0187141765
0.9365472794 0.0019256660 0.0102319205
0.9781275988 0.0130443107 0.0031689391
0.9965080023 0.0502029844 0.0085640531
0.9996769428 0.1010051593 0.0520173870
0.9993608594 0.1501794159 0.0744798034
0.9992095828 0.1890170425 0.0913877338
0.9993628263 0.2190200239 0.1016457677
0.9997814894 0.2373584062 0.1089066416
1.0000000000 0.2457111776 0.1262623370
1.0000000000 0.2513054609 0.1509522498
0.0024339729 0.0153876785 0.0066535878
0.0026523131 0.0154326372 0.0066801822
0.0032748936 0.0159476213 0.0070435940
0.0052377153 0.0165180881 0.0074641635
0.0105939200 0.0171848703 0.0079064956
0.0158440135 0.0181822013 0.0090900417
0.0252673998 0.0205352549 0.0107702725
0.0368190259 0.0234410297 0.0124484291
0.0545596890 0.0260176919 0.0138161983
0.0758923292 0.0284000095 0.0157065913
0.1026248187 0.0299997125 0.0174048357
0.1371065974 0.0311922655 0.0189107768
0.1761412024 0.0296232682 0.0206152312
0.2206312865 0.0250451788 0.0227905512
0.2740023732 0.0167614017 0.0254051629
0.3346684575 0.0092744436 0.0282010753
0.4018196464 0.0059926524 0.0325609781
0.4763756990 0.0043949708 0.0348725133
0.5584082007 0.0047812168 0.0345275402
0.6459345818 0.0059785945 0.0298057590
0.7350876331 0.0046971990 0.0267868489
0.8171810508 0.0007292908 0.0245318431
0.8829820752 0.0002156073 0.0187100284
0.9365717173 0.0019231802 0.0102270935
0.9781275988 0.0130443107 0.0031689391
0.9965099692 0.0502247177 0.0085853096
0.9996769428 0.1010051593 0.0520173870
0.9993608594 0.1501794159 0.0744798034
0.9992095828 0.1890170425 0.0913877338
0.9993628263 0.2190200239 0.1016457677
0.9997814894 0.2373584062 0.1089066416
1.0000000000 0.2457111776 0.1262623370
1.0000000000 0.2513054609 0.1509522498
0.0029491023 0.0226381756 0.0104871895
0.0036039473 0.0227414425 0.0105065787
0.0051282416 0.0234849229 0.0107049430
0.0071129403 0.0243874826 0.0109296525
0.0099581936 0.0255020969 0.0111246388
0.0160114449 0.0268070232 0.0113330651
0.0266279429 0.0285550952 0.0120717930
0.0408899784 0.0306939390 0.0133230453
0.0594424903 0.0327606723 0.0153626623
0.0832654610 0.0355093740 0.0170939583
0.1111911982 0.0380272903 0.0185042005
0.1462688744 0.0393847562 0.0196863543
0.1878308803 0.0376080386 0.0213983804
0.2320047170 0.0321932584 0.0231175963
0.2774639428 0.0186611451 0.0255432539
0.3347330391 0.0092697702 0.0282045063
0.4018942714 0.0059896223 0.0325636975
0.4764585495 0.0043905238 0.0348734185
0.5584511757 0.0047818595 0.0345251076
0.6459789872 0.0059803091 0.0298042390
0.7350876331 0.0046971990 0.0267868489
0.8171810508 0.0007292908 0.0245318431
0.8829820752 0.0002156073 0.0187100284
0.9365717173 0.0019231802 0.0102270935
0.9781484604 0.0130453557 0.0031588767
0.9965099692 0.0502247177 0.0085853096
0.9996769428 0.1010051593 0.0520173870
0.9993608594 0.1501794159 0.0744798034
0.9992095828 0.1890170425 0.0913877338
0.9993628263 0.2190200239 0.1016457677
0.9997814894 0.2373584062 0.1089066416
1.0000000000 0.2457111776 0.1262623370
1.0000000000 0.2513054609 0.1509522498
0.0059682792 0.0321842693 0.0137994811
0.0062905708 0.0324880928 0.0138004571
0.0069408123 0.0334485210 0.0139245279
0.0077605341 0.0345591307 0.0140991388
0.0099654058 0.0358511582 0.0142649421
0.0155459745 0.0378106497 0.0142251235
0.0263702925 0.0402041934 0.0143209249
0.0438710116 0.0427492671 0.0150737558
0.0644330010 0.0454793237 0.0165233184
0.0904373005 0.0481515229 0.0180031601
0.1226239875 0.0500889830 0.0193049666
0.1595980674 0.0508410297 0.0206806250
0.2031892985 0.0493365526 0.0221408345
0.2485848516 0.0436415821 0.0238000732
0.2932695448 0.0310593490 0.0261944830
0.3372385204 0.0105218645 0.0281410832
0.4019663930 0.0059866933 0.0325663164
0.4764987230 0.0043883659 0.0348738655
0.5585404634 0.0047831847 0.0345200337
0.6460230947 0.0059820237 0.0298027247
0.7351321578 0.0046944772 0.0267859343
0.8172166348 0.0007294769 0.0245291311
0.8829820752 0.0002156073 0.0187100284
0.9365717173 0.0019231802 0.0102270935
0.9781484604 0.0130453557 0.0031588767
0.9965099692 0.0502247177 0.0085853096
0.9996769428 0.1010051593 0.0520173870
0.9993608594 0.1501794159 0.0744798034
0.9992095828 0.1890170425 0.0913877338
0.9993628263 0.2190200239 0.1016457677
0.9997814894 0.2373584062 0.1089066416
1.0000000000 0.2457111776 0.1262623370
1.0000000000 0.2513054609 0.1509522498
0.0084512411 0.0458164476 0.0186940115
0.0092598088 0.0464562550 0.0185912941
0.0104594780 0.0479240082 0.0185367335
0.0113194613 0.0496766269 0.0183838420
0.0116532706 0.0517616309 0.0179627445
0.0136291645 0.0540976115 0.0173271559
0.0228592325 0.0565468110 0.0168853998
0.0449622087 0.0588339269 0.0165948700
0.0704223290 0.0624131672 0.0166530088
0.0990546569 0.0664259568 0.0173354074
0.1343390346 0.0698282644 0.0187166296
0.1772926599 0.0720656216 0.0199256074
0.2239077538 0.0714361742 0.0222192165
0.2717571557 0.0657206401 0.0249921810
0.3190177381 0.0509695522 0.0272623282
0.3615743220 0.0266865455 0.0294918548
0.4041673541 0.0061978977 0.0322945081
0.4766217768 0.0043817633 0.0348752178
0.5586267114 0.0047844755 0.0345151387
0.6461148262 0.0059855799 0.0297995862
0.7351740599 0.0046919151 0.0267850757
0.8172520399 0.0007296641 0.0245264154
0.8830132484 0.0002187841 0.0187061410
0.9365978241 0.0019205265 0.0102219367
0.9781484604 0.0130453557 0.0031588767
0.9965099692 0.0502247177 0.0085853096
0.9996769428 0.1010051593 0.0520173870
0.9993608594 0.1501794159 0.0744798034
0.9992095828 0.1890170425 0.0913877338
0.9993628263 0.2190200239 0.1016457677
0.9997814894 0.2373584062 0.1089066416
1.0000000000 0.2457111776 0.1262623370
1.0000000000 0.2513054609 0.1509522498
0.0115059186 0.0643727854 0.0223733541
0.0123719051 0.0652924329 0.0220792480
0.0133487228 0.0671684742 0.0215698797
0.0138727911 0.0694350749 0.0208355431
0.0134138446 0.0720885992 0.0197878387
0.0114086568 0.0749274194 0.0184552483
0.0172999855 0.0782495141 0.0171291959
0.0421055891 0.0815203562 0.0157091413
0.0742763653 0.0844185799 0.0146775655
0.1091695577 0.0879410952 0.0148143256
0.1478656828 0.0931635424 0.0148671782
0.1934279054 0.0973191932 0.0176314842
0.2449161112 0.0982397571 0.0203921292
0.2979233265 0.0947630033 0.0232976153
0.3494873047 0.0836151764 0.0270926133
0.3965529799 0.0599846840 0.0290511139
0.4365438521 0.0237003565 0.0305069648
0.4784608483 0.0043429798 0.0344238766
0.5587158799 0.0047858013 0.0345100835
0.6462033391 0.0059890165 0.0297965501
0.7352576256 0.0046868133 0.0267833658
0.8172875047 0.0007298502 0.0245237090
0.8830445409 0.0002219684 0.0187022351
0.9365978241 0.0019205265 0.0102219367
0.9781680107 0.0130463494 0.0031494263
0.9965119958 0.0502464883 0.0086065335
0.9996767044 0.1010275856 0.0520290248
0.9993608594 0.1501794159 0.0744798034
0.9992095828 0.1890170425 0.0913877338
0.9993628263 0.2190200239 0.1016457677
0.9997814894 0.2373584062 0.1089066416
1.0000000000 0.2457134277 0.1262710989
1.0000000000 0.2513054609 0.1509522498
0.0124266678 0.0886217207 0.0252986271
0.0144921197 0.0896653607 0.0244722590
0.0166809391 0.0915551260 0.0231998265
0.0179886371 0.0943100676 0.0214551892
0.0181681551 0.0974065661 0.0193269346
0.0162252039 0.1004577130 0.0172868632
0.0182102527 0.1044123843 0.0149871754
0.0406690948 0.1085530967 0.0126682594
0.0775935352 0.1125526130 0.0106912265
0.1165503040 0.1166678667 0.0089010447
0.1614738405 0.1216754019 0.0093634753
0.2108021080 0.1259453148 0.0089433463
0.2646459639 0.1293012351 0.0135509977
0.3208595216 0.1279057711 0.0167540535
0.3780146539 0.1205840334 0.0209615193
0.4326722324 0.1039730310 0.0244815201
0.4814076126 0.0719719157 0.0234315228
0.5186594129 0.0196518283 0.0260835364
0.5601266026 0.0046767234 0.0339020528
0.6462948322 0.0059925658 0.0297934059
0.7353439927 0.0046815379 0.0267816074
0.8173253536 0.0007300499 0.0245208088
0.8830757141 0.0002251375 0.0186983589
0.9366222620 0.0019180407 0.0102171116
0.9781680107 0.0130463494 0.0031494263
0.9965119958 0.0502464883 0.0086065335
0.9996767044 0.1010275856 0.0520290248
0.9993607998 0.1501980871 0.0744878799
0.9992095828 0.1890170425 0.0913877338
0.9993628263 0.2190200239 0.1016457677
0.9997814894 0.2373584062 0.1089066416
1.0000000000 0.2457134277 0.1262710989
1.0000000000 0.2513054609 0.1509522498
0.0152391940 0.1194510311 0.0276330132
0.0174004044 0.1212365925 0.0257579088
0.0193503108 0.1236639246 0.0233119372
0.0205625184 0.1263692081 0.0205177572
0.0208076686 0.1292699277 0.0175220631
0.0194900557 0.1322931945 0.0144943679
0.0223640669 0.1359846741 0.0113793286
0.0435949005 0.1406680942 0.0081746941
0.0831038356 0.1454248130 0.0056850966
0.1269045472 0.1506850570 0.0041526123
0.1734003276 0.1567210406 0.0026138783
0.2272647470 0.1630017012 0.0016532247
0.2840733826 0.1674089283 0.0023762365
0.3432611227 0.1682000011 0.0068964707
0.4041688144 0.1645908952 0.0120543903
0.4640140831 0.1543916166 0.0150711490
0.5208618641 0.1329714656 0.0133841494
0.5720583797 0.0930114836 0.0084599759
0.6080066562 0.0172632094 0.0142507413
0.6472992897 0.0059760190 0.0293611437
0.7354304194 0.0046762545 0.0267798342
0.8173963428 0.0007304242 0.0245153792
0.8831090927 0.0002285341 0.0186941959
0.9366467595 0.0019155458 0.0102122640
0.9781876206 0.0130473431 0.0031399827
0.9965140224 0.0502681918 0.0086276811
0.9996765256 0.1010485888 0.0520399809
0.9993607998 0.1501980871 0.0744878799
0.9992096424 0.1890307367 0.0913933218
0.9993628263 0.2190200239 0.1016457677
0.9997814894 0.2373584062 0.1089066416
1.0000000000 0.2457134277 0.1262710989
1.0000000000 0.2513074279 0.1509616971
0.0189187881 0.1566251963 0.0277363528
0.0217756275 0.1591855586 0.0246324856
0.0239798874 0.1621024907 0.0211716909
0.0249989163 0.1653161198 0.0173233431
0.0250851754 0.1687560230 0.0133578992
0.0237889085 0.1724593788 0.0092275133
0.0270032063 0.1768291444 0.0032486343
0.0484860577 0.1815089285 0.0000000000
0.0883955210 0.1862169504 0.0000000000
0.1380122453 0.1918236464 0.0000000000
0.1892165393 0.1987648606 0.0000000000
0.2441091985 0.2066758424 0.0000000000
0.3031202257 0.2137749642 0.0000000000
0.3660913110 0.2182894051 0.0022570868
0.4295200706 0.2178876549 0.0030933737
0.4926723540 0.2132042944 0.0044071376
0.5534238219 0.2008287609 0.0040295240
0.6122078300 0.1758397818 0.0022606815
0.6666516066 0.1312688440 0.0027624408
0.7054540515 0.0358256362 0.0060652099
0.7360005379 0.0047196671 0.0265036803
0.8175053596 0.0007309961 0.0245070588
0.8831715584 0.0002348875 0.0186864249
0.9366972446 0.0019104176 0.0102022849
0.9782084227 0.0130484141 0.0031299302
0.9965161085 0.0502914190 0.0086503467
0.9996765256 0.1010485888 0.0520399809
0.9993607998 0.1501980871 0.0744878799
0.9992096424 0.1890307367 0.0913933218
0.9993630052 0.2190302014 0.1016481668
0.9997814894 0.2373584062 0.1089066416
1.0000000000 0.2457134277 0.1262710989
1.0000000000 0.2513074279 0.1509616971
0.0215425808 0.2014437914 0.0218419135
0.0236525536 0.2046665996 0.0168250054
0.0252889562 0.2082887441 0.0119748656
0.0259157363 0.2121907920 0.0079515642
0.0252342876 0.2163484693 0.0056141531
0.0246083159 0.2207130194 0.0034506107
0.0297089331 0.2255516201 0.0003494358
0.0558251999 0.2310834676 0.0000000000
0.0972655341 0.2371930629 0.0000000000
0.1491328478 0.2435228676 0.0000000000
0.2047147602 0.2508737147 0.0000000000
0.2617293894 0.2595343292 0.0000000000
0.3231330812 0.2686777413 0.0000000000
0.3873711824 0.2762738168 0.0000000000
0.4534128010 0.2802237570 0.0000000000
0.5190300345 0.2794419527 0.0000000000
0.5819258094 0.2744778991 0.0000000000
0.6426941156 0.2612474561 0.0000000000
0.7028650045 0.2358374447 0.0001515031
0.7594456077 0.1880659163 0.0000000000
0.8000191450 0.0847372934 0.0000000000
0.8176139593 0.0007315690 0.0244987439
0.8832673430 0.0002446375 0.0186744854
0.9367461801 0.0019054437 0.0101926289
0.9782474637 0.0130504072 0.0031110654
0.9965181351 0.0503130853 0.0086715128
0.9996762872 0.1010695025 0.0520508401
0.9993607402 0.1502166539 0.0744959638
0.9992096424 0.1890307367 0.0913933218
0.9993630052 0.2190302014 0.1016481668
0.9997816682 0.2373630553 0.1089122370
1.0000000000 0.2457134277 0.1262710989
1.0000000000 0.2513074279 0.1509616971
0.0222759414 0.2567855716 0.0115443328
0.0248004477 0.2609978616 0.0089887287
0.0262604933 0.2655235827 0.0067441831
0.0263351500 0.2703791857 0.0045550084
0.0262291450 0.2753450572 0.0021917573
0.0273385625 0.2804732025 0.0003086349
0.0343606099 0.2859104276 0.0002181221
0.0627888218 0.2924440503 0.0000000000
0.1050174758 0.2993117571 0.0000000000
0.1613965034 0.3063654602 0.0000000000
0.2196912766 0.3144146204 0.0000000000
0.2790006697 0.3232938051 0.0000000000
0.3404936790 0.3329573274 0.0000000000
0.4066902697 0.3425716162 0.0000000000
0.4735957682 0.3500453532 0.0000000000
0.5397279263 0.3540333211 0.0000000000
0.6047136188 0.3533941209 0.0000000000
0.6664010286 0.3489479125 0.0003484446
0.7268822789 0.3358587027 0.0005111570
0.7863460183 0.3099096119 0.0001515724
0.8391485810 0.2588054240 0.0000000000
0.8757011890 0.1465063393 0.0007751475
0.8833630681 0.0002543800 0.0186625607
0.9367966652 0.0019003132 0.0101826526
0.9782879353 0.0130524393 0.0030915234
0.9965201020 0.0503348857 0.0086927367
0.9996761084 0.1010904759 0.0520617589
0.9993606806 0.1502365321 0.0745046064
0.9992095828 0.1890444905 0.0913989246
0.9993631244 0.2190396488 0.1016504914
0.9997816682 0.2373630553 0.1089122370
1.0000000000 0.2457156032 0.1262792945
1.0000000000 0.2513074279 0.1509616971
0.0237174239 0.3262853622 0.0041852538
0.0235912595 0.3315616846 0.0031794072
0.0230060872 0.3370115459 0.0021550497
0.0227589030 0.3426050246 0.0010362619
0.0210825708 0.3485022485 0.0002747096
0.0257949457 0.3541512489 0.0001706817
0.0382713862 0.3600959480 0.0000548110
0.0683597177 0.3670698702 0.0000000000
0.1141424850 0.3744234145 0.0000000000
0.1677934527 0.3821931183 0.0000000000
0.2291588336 0.3902833760 0.0000000000
0.2917357385 0.3986561298 0.0000000000
0.3558406830 0.4075546563 0.0000000000
0.4215054214 0.4166133702 0.0000000000
0.4885043502 0.4253253341 0.0000000000
0.5546145439 0.4321056008 0.0000000000
0.6192571521 0.4360783696 0.0000000000
0.6820085645 0.4359536171 0.0000000000
0.7420191765 0.4316471517 0.0000000000
0.8013293743 0.4187071323 0.0000000000
0.8546541929 0.3921857476 0.0000000000
0.8994030952 0.3387752473 0.0000000000
0.9337153435 0.2210294306 0.0010294081
0.9368960857 0.0018902021 0.0101630101
0.9783270359 0.0130544342 0.0030726586
0.9965242743 0.0503797829 0.0087365499
0.9996756911 0.1011337787 0.0520843267
0.9993606806 0.1502551287 0.0745126978
0.9992095828 0.1890581846 0.0914045125
0.9993631244 0.2190396488 0.1016504914
0.9997819066 0.2373675555 0.1089179143
1.0000000000 0.2457156032 0.1262792945
1.0000000000 0.2513095140 0.1509710997
0.0175290592 0.4116947651 0.0032211393
0.0184143074 0.4172296822 0.0010829995
0.0186666064 0.4229901135 0.0007754111
0.0199923664 0.4289176762 0.0007236777
0.0218794607 0.4349507093 0.0006566875
0.0272423085 0.4403817356 0.0005963620
0.0409999788 0.4460931420 0.0002860519
0.0683561787 0.4528261125 0.0000000000
0.1083213836 0.4600044489 0.0000000000
0.1639165729 0.4673509002 0.0000000000
0.2316825390 0.4749698043 0.0000000000
0.2968426645 0.4824373126 0.0000000000
0.3634942472 0.4901442826 0.0000000000
0.4304276109 0.4977614582 0.0000000000
0.4965498149 0.5050907731 0.0000000000
0.5623366237 0.5116511583 0.0000000000
0.6262095571 0.5172280669 0.0000000000
0.6889771819 0.5207886696 0.0000000000
0.7495982647 0.5211339593 0.0000000000
0.8068098426 0.5168576837 0.0000000000
0.8596321344 0.5036722422 0.0000000000
0.9071796536 0.4766260982 0.0001004632
0.9488143325 0.4210632741 0.0000000000
0.9805423021 0.2987136841 0.0000000000
0.9784064889 0.0130584799 0.0030343016
0.9965302348 0.0504449941 0.0088001778
0.9996752739 0.1011756584 0.0521061309
0.9993605614 0.1502924412 0.0745288357
0.9992095828 0.1890727729 0.0914105028
0.9993633032 0.2190491855 0.1016527787
0.9997819066 0.2373675555 0.1089179143
1.0000000000 0.2457177192 0.1262874752
1.0000000000 0.2513095140 0.1509710997
0.0202848464 0.5071629286 0.0061526927
0.0215261020 0.5124979019 0.0046008993
0.0218667351 0.5179269910 0.0019899930
0.0217279438 0.5232972503 0.0003006619
0.0212437212 0.5286466479 0.0002110357
0.0236101169 0.5333092809 0.0001248660
0.0278742369 0.5380445123 0.0000466650
0.0489853285 0.5438175201 0.0000000000
0.0869331360 0.5501021743 0.0000000000
0.1416019797 0.5565348268 0.0000000000
0.2113741189 0.5630620718 0.0000000000
0.2908284068 0.5696122646 0.0000000000
0.3603823781 0.5759451985 0.0000000000
0.4302133024 0.5822792649 0.0000000000
0.4960924983 0.5877231956 0.0000000000
0.5618382096 0.5929331183 0.0000000000
0.6255032420 0.5973584652 0.0000000000
0.6881027222 0.6017383933 0.0000000000
0.7494673133 0.6047680974 0.0000000000
0.8077748418 0.6047539711 0.0000000000
0.8590524793 0.5993495584 0.0000000000
0.9052210450 0.5844392180 0.0000000000
0.9490170479 0.5549455285 0.0000000000
0.9845005274 0.4984107912 0.0000000000
0.9981971383 0.3799186051 0.0000000000
0.9965363741 0.0505116880 0.0088652344
0.9996748567 0.1012189984 0.0521286540
0.9993605018 0.1503309160 0.0745455772
0.9992095828 0.1891001314 0.0914217010
0.9993634820 0.2190593779 0.1016551927
0.9997820854 0.2373721898 0.1089235842
1.0000000000 0.2457177192 0.1262874752
1.0000000000 0.2513115704 0.1509806365
0.0082123131 0.6041455865 0.0008516178
0.0106066540 0.6086758375 0.0006600564
0.0130070942 0.6134591103 0.0004573715
0.0155877192 0.6182830334 0.0002354894
0.0179956220 0.6224159598 0.0000396600
0.0212481003 0.6258551478 0.0000000000
0.0241612848 0.6298675537 0.0000000000
0.0402816311 0.6341077685 0.0000000000
0.0728941709 0.6391459107 0.0000000000
0.1224630326 0.6445219517 0.0000000000
0.1896023154 0.6499654055 0.0000000000
0.2675574422 0.6551937461 0.0000000000
0.3445520997 0.6602022052 0.0000000000
0.4171527922 0.6650307178 0.0000000000
0.4875791669 0.6696056724 0.0000000000
0.5536652207 0.6729860306 0.0000000000
0.6190863252 0.6763558388 0.0000000000
0.6810414791 0.6788119674 0.0000000000
0.7427659631 0.6814978123 0.0000000000
0.8034114242 0.6825299263 0.0000000000
0.8551877737 0.6801034212 0.0000000000
0.9011230469 0.6719834208 0.0000000000
0.9439711571 0.6541686058 0.0000000000
0.9795584679 0.6222971082 0.0000000000
0.9953067899 0.5663175583 0.0000000000
0.9999795556 0.4495611787 0.0232831948
0.9996740222 0.1013042778 0.0521730706
0.9993603826 0.1503681540 0.0745617300
0.9992095828 0.1891284287 0.0914332867
0.9993637800 0.2190783918 0.1016597450
0.9997825623 0.2373815626 0.1089352220
1.0000000000 0.2457198501 0.1262957305
1.0000000000 0.2513136864 0.1509907097
0.0043684943 0.6951231360 0.0017528398
0.0080861663 0.6992130280 0.0015666683
0.0128227957 0.7033844590 0.0013004404
0.0173270144 0.7068733573 0.0009750071
0.0222351719 0.7097414732 0.0006580861
0.0263223853 0.7124738693 0.0003830636
0.0365722403 0.7151961923 0.0002968674
0.0549985133 0.7187021971 0.0001946604
0.0796302855 0.7223477364 0.0000829150
0.1222092956 0.7265015244 0.0000000000
0.1801197082 0.7308351398 0.0000000000
0.2516250312 0.7351251245 0.0000000000
0.3249645531 0.7390258312 0.0000000000
0.3990094066 0.7426461577 0.0000000000
0.4709752500 0.7458866835 0.0000000000
0.5409133434 0.7487867475 0.0000000000
0.6067015529 0.7506007552 0.0000000000
0.6701648235 0.7520636916 0.0000000000
0.7310991287 0.7524135709 0.0000000000
