luts/Aggressive Highlighted recovery.cube
TITLE "Generated by Resolve"
LUT_3D_SIZE 5
0 0 0
0.0165866 0.00491341 0.00497444
0.232181 0.0505074 0.0505074
0.553811 0.12047 0.12047
0.553811 0.12047 0.12047
0.0344244 0.17911 0.0344244
0.168322 0.156634 0.000549325
0.453147 0.131441 0.113207
0.553811 0.12047 0.12047
0.553811 0.12047 0.12047
0.111971 0.582666 0.111971
0.0958419 0.498787 0.0958419
0.416159 0.386496 0.00144961
0.645014 0.299153 0.204807
0.603662 0.230335 0.174487
0.176043 0.916091 0.176043
0.164172 0.854383 0.164172
0.132967 0.691936 0.132967
0.620417 0.581811 0.00163272
0.820386 0.492882 0.212802
0.1785 0.928923 0.1785
0.1785 0.928923 0.1785
0.1785 0.928923 0.1785
0.233722 0.831678 0.115984
0.783825 0.738109 0.00183108
0 0 0
0.0442817 0.000640879 0.0443122
0.298695 0.0432898 0.132692
0.582757 0.119814 0.187076
0.574441 0.120638 0.172595
0.0663157 0.150729 0.156542
0.13489 0.124193 0.135851
0.41088 0.0973831 0.101808
0.553811 0.12047 0.12047
0.553811 0.12047 0.12047
0.103441 0.538323 0.103441
0.0882734 0.459342 0.0882734
0.375998 0.348089 0.00143435
0.6271 0.271351 0.193256
0.588037 0.199207 0.159411
0.171084 0.890288 0.171084
0.159548 0.83032 0.159548
0.129412 0.673457 0.129412
0.6047 0.566705 0.00163272
0.807446 0.48072 0.218204
0.1785 0.928923 0.1785
0.1785 0.928923 0.1785
0.1785 0.928923 0.1785
0.222248 0.832364 0.12285
0.783825 0.738109 0.00183108
0 0 0
0.061387 0 0.147951
0.463951 0 0.467964
0.92874 0.0252537 0.638453
0.908156 0.0320745 0.593194
0.00178531 0.13579 0.642329
0.0906996 0.0821241 0.716442
0.678538 0 0.684672
0.872618 0.0435645 0.528679
0.826062 0.0581216 0.461143
0.204196 0.464439 0.484764
0.171283 0.389807 0.408103
0.312398 0.287282 0.315511
0.610132 0.226459 0.234806
0.568978 0.14609 0.153048
0.162631 0.824399 0.171923
0.148455 0.768734 0.150072
0.117205 0.609918 0.117205
0.53341 0.498497 0.00155642
0.748577 0.423484 0.230884
0.1785 0.928923 0.1785
0.1785 0.928923 0.1785
0.170703 0.888365 0.170703
0.171725 0.768994 0.133577
0.727459 0.684123 0.00177005
0 0 0.00337224
0.0710002 0 0.295583
0.490105 0 0.875227
1 0 1
1 0 1
0 0.0975204 1
0.04271 0.0364691 1
0.630686 0 1
1 0 1
1 0 1
0.0789197 0.43682 0.877897
0.0394903 0.363424 0.921569
0.240665 0.217868 1
0.989807 0.0563973 0.991638
0.99295 0.00271611 0.900359
0.322866 0.733944 0.763256
0.301366 0.68513 0.712963
0.234058 0.532341 0.555428
0.46952 0.437369 0.474037
0.69482 0.390402 0.403311
0.31487 0.892378 0.555398
0.298177 0.895827 0.512505
0.215427 0.824765 0.322881
0.140261 0.7075 0.141253
0.663859 0.623346 0.00169375
0 0 0.00337224
0.0648661 0 0.278737
0.471611 0 0.858961
1 0 1
1 0 1
0 0.0874189 1
0.0335241 0.0276493 1
0.602289 0 1
1 0 1
1 0 1
0.0585031 0.402808 0.898375
0.0288396 0.335012 0.936812
0.205798 0.184466 1
0.966827 0.0202945 1
1 0 1
0.284688 0.694591 0.823072
0.254612 0.653635 0.816022
0.137194 0.513619 0.836942
0.406287 0.375967 1
1 0.247089 1
0.390402 0.885893 0.890455
0.390402 0.885893 0.890455
0.336675 0.76527 0.795651
0.277699 0.631403 0.65745
0.596796 0.559045 0.602441
