luts/Aggressive Highlighted recovery.cube
TITLE "Generated by Resolve"
LUT_3D_SIZE 9
0 0 0
0 0 0
0.0165866 0.00491341 0.00497444
0.0939498 0.0204318 0.0204318
0.232181 0.0505074 0.0505074
0.429023 0.0933242 0.0933242
0.553811 0.12047 0.12047
0.553811 0.12047 0.12047
0.553811 0.12047 0.12047
0.00798047 0.0340887 0.00794995
0.0468147 0.0448157 6.10361e-05
0.108934 0.0524758 0.0350347
0.205371 0.0541543 0.0489052
0.35584 0.077409 0.077409
0.537011 0.116823 0.116823
0.553811 0.12047 0.12047
0.553811 0.12047 0.12047
0.553811 0.12047 0.12047
0.0344244 0.17911 0.0344244
0.0325475 0.169375 0.0325475
0.168322 0.156634 0.000549325
0.297047 0.143572 0.0956283
0.453147 0.131441 0.113207
0.553811 0.12047 0.12047
0.553811 0.12047 0.12047
0.553811 0.12047 0.12047
0.553811 0.12047 0.12047
0.0728618 0.379187 0.0728618
0.0686656 0.357305 0.0686656
0.0616464 0.312856 0.0592355
0.298482 0.276005 0.00117494
0.466316 0.245258 0.151324
0.597238 0.217914 0.168521
0.563348 0.143877 0.132067
0.553811 0.12047 0.12047
0.553811 0.12047 0.12047
0.111971 0.582666 0.111971
0.108324 0.563729 0.108324
0.0958419 0.498787 0.0958419
0.108949 0.440528 0.070161
0.416159 0.386496 0.00144961
0.604212 0.342351 0.185901
0.645014 0.299153 0.204807
0.609949 0.241932 0.17995
0.603662 0.230335 0.174487
0.145785 0.758663 0.145785
0.143221 0.745327 0.143221
0.130495 0.679088 0.130495
0.11548 0.600961 0.11548
0.186999 0.553674 0.0606088
0.522042 0.487724 0.00154116
0.730785 0.432761 0.201785
0.707103 0.379141 0.228244
0.694621 0.364645 0.225483
0.176043 0.916091 0.176043
0.174289 0.90695 0.174289
0.164172 0.854383 0.164172
0.148089 0.770642 0.148089
0.132967 0.691936 0.132967
0.267002 0.654414 0.0515602
0.620417 0.581811 0.00163272
0.843397 0.51812 0.193362
0.820386 0.492882 0.212802
0.1785 0.928923 0.1785
0.1785 0.928923 0.1785
0.1785 0.928923 0.1785
0.178164 0.927199 0.178164
0.165988 0.863767 0.165988
0.154177 0.788754 0.150072
0.356527 0.757687 0.043534
0.721691 0.678645 0.00175479
0.90161 0.628779 0.0858778
0.1785 0.928923 0.1785
0.1785 0.928923 0.1785
0.1785 0.928923 0.1785
0.1785 0.928923 0.1785
0.1785 0.928923 0.1785
0.166949 0.868818 0.166949
0.233722 0.831678 0.115984
0.505837 0.793912 0.0169528
0.783825 0.738109 0.00183108
0 0 0
0 0 0
0.0263828 0.00422675 0.0137484
0.106401 0.020264 0.0390021
0.238666 0.0509194 0.0665293
0.428122 0.0929885 0.0954757
0.553811 0.12047 0.12047
0.553811 0.12047 0.12047
0.553811 0.12047 0.12047
0.0149996 0.0321355 0.032578
0.0417487 0.0395666 0.041886
0.100114 0.0476081 0.0480812
0.19379 0.046128 0.0480507
0.340291 0.0740215 0.0740215
0.523445 0.113863 0.113863
0.553811 0.12047 0.12047
0.553811 0.12047 0.12047
0.553811 0.12047 0.12047
0.0330205 0.168109 0.0345922
0.0299687 0.155932 0.0299687
0.152987 0.142 0.000534066
0.276829 0.130587 0.0884413
0.430869 0.11928 0.105119
0.553811 0.12047 0.12047
0.553811 0.12047 0.12047
0.553811 0.12047 0.12047
0.553811 0.12047 0.12047
0.0695506 0.361944 0.0695506
0.0655833 0.341283 0.0655833
0.0580606 0.297704 0.0567178
0.286625 0.264866 0.00114443
0.456092 0.2383 0.14815
0.595682 0.214832 0.167041
0.562036 0.140673 0.130465
0.553811 0.12047 0.12047
0.553811 0.12047 0.12047
0.109682 0.570779 0.109682
0.106935 0.556497 0.106935
0.0950179 0.494453 0.0950179
0.106157 0.43592 0.0704051
0.411963 0.382483 0.00144961
0.599329 0.338842 0.185031
0.642908 0.29601 0.203571
0.607202 0.236927 0.1776
0.601022 0.225284 0.172076
0.144701 0.753033 0.144701
0.142107 0.739559 0.142107
0.129763 0.675303 0.129763
0.114778 0.597269 0.114778
0.183734 0.549645 0.0610971
0.517388 0.483238 0.00154116
0.724987 0.428672 0.201343
0.704143 0.375738 0.227665
0.69041 0.359609 0.224338
0.175494 0.913268 0.175494
0.173083 0.900694 0.173083
0.163302 0.849805 0.163302
0.147311 0.766567 0.147311
0.132296 0.688502 0.132296
0.263981 0.650538 0.0518196
0.616678 0.578195 0.00163272
0.840604 0.515129 0.195651
0.815579 0.48835 0.214923
0.1785 0.928923 0.1785
0.1785 0.928923 0.1785
0.1785 0.928923 0.1785
0.17821 0.927367 0.17821
0.165362 0.860533 0.165362
0.152316 0.784848 0.14995
0.353262 0.754025 0.0437934
0.718105 0.675242 0.00175479
0.904463 0.623835 0.0929122
0.1785 0.928923 0.1785
0.1785 0.928923 0.1785
0.1785 0.928923 0.1785
0.1785 0.928923 0.1785
0.1785 0.928923 0.1785
0.16733 0.870756 0.16733
0.227878 0.832044 0.119463
0.495598 0.795865 0.0187381
0.783825 0.738109 0.00183108
0 0 0
0 0 3.0518e-05
0.0442817 0.000640879 0.0443122
0.164172 0.00828565 0.0992447
0.298695 0.0432898 0.132692
0.477195 0.0920424 0.172061
0.582757 0.119814 0.187076
0.578408 0.120287 0.179797
0.574441 0.120638 0.172595
0.00340276 0.0331884 0.0861677
0.0362554 0.0347295 0.121553
0.146807 0.0252537 0.147585
0.261936 0.0248722 0.135134
0.373266 0.0690318 0.141314
0.538369 0.112886 0.162661
0.562982 0.12108 0.147738
0.560143 0.121004 0.140185
0.559182 0.120958 0.137407
0.0663157 0.150729 0.156542
0.0604257 0.137362 0.142885
0.13489 0.124193 0.135851
0.258442 0.115099 0.119219
0.41088 0.0973831 0.101808
0.553811 0.12047 0.12047
0.553811 0.12047 0.12047
0.553811 0.12047 0.12047
0.553811 0.12047 0.12047
0.0776989 0.335714 0.104326
0.0664988 0.317174 0.0783551
0.0522469 0.271931 0.0522469
0.254795 0.234363 0.00112917
0.414252 0.2065 0.13431
0.580697 0.185138 0.152407
0.55404 0.120958 0.120714
0.553811 0.12047 0.12047
0.553811 0.12047 0.12047
0.103441 0.538323 0.103441
0.100694 0.523964 0.100694
0.0882734 0.459342 0.0882734
0.0846571 0.396429 0.0711681
0.375998 0.348089 0.00143435
0.55819 0.308873 0.176699
0.6271 0.271351 0.193256
0.59292 0.209277 0.16434
0.588037 0.199207 0.159411
0.138537 0.720928 0.138537
0.136339 0.709514 0.136339
0.124498 0.647883 0.124498
0.109911 0.571984 0.109911
0.163577 0.522286 0.0636912
0.492714 0.459617 0.00151064
0.697383 0.408896 0.198657
0.690806 0.360067 0.224445
0.677562 0.343679 0.220157
0.171084 0.890288 0.171084
0.168673 0.877745 0.168673
0.159548 0.83032 0.159548
0.144076 0.749783 0.144076
0.129412 0.673457 0.129412
0.251835 0.636194 0.0531624
0.6047 0.566705 0.00163272
0.833021 0.5075 0.200687
0.807446 0.48072 0.218204
0.1785 0.928923 0.1785
0.1785 0.928923 0.1785
0.1785 0.928923 0.1785
0.177615 0.9243 0.177615
0.163775 0.852323 0.163775
0.149508 0.778027 0.149508
0.349386 0.749416 0.0440528
0.71458 0.671824 0.00175479
0.906996 0.618875 0.100313
0.1785 0.928923 0.1785
0.1785 0.928923 0.1785
0.1785 0.928923 0.1785
0.1785 0.928923 0.1785
0.1785 0.928923 0.1785
0.167712 0.872755 0.167712
0.222248 0.832364 0.12285
0.485435 0.797787 0.0206149
0.783825 0.738109 0.00183108
0 0 0
0 0 0.00337224
0.0536507 0 0.0883803
0.200565 0 0.201968
0.415778 0.0126802 0.279652
0.614115 0.0617227 0.310887
0.719158 0.0893263 0.339742
0.704997 0.0931563 0.325444
0.691463 0.0967422 0.311894
0.000137331 0.0304417 0.160098
0.0300145 0.029099 0.212345
0.141131 0.0146334 0.284901
0.328115 0 0.33051
0.524498 0.0236057 0.325139
0.659861 0.0848707 0.307759
0.67921 0.0999161 0.299657
0.66566 0.103288 0.285649
0.654536 0.105974 0.274266
0.0175479 0.150744 0.37116
0.0119173 0.135424 0.375418
0.113527 0.103853 0.416464
0.379065 0.0543069 0.382223
0.551461 0.051133 0.286885
0.632395 0.111025 0.250797
0.598581 0.117556 0.21033
0.584543 0.1196 0.189929
0.580911 0.120027 0.184024
0.134524 0.30602 0.31957
0.125963 0.286549 0.299321
0.105303 0.239811 0.251759
0.227527 0.208026 0.229679
0.386526 0.187289 0.195026
0.563256 0.16025 0.166323
0.554391 0.120363 0.12076
0.553811 0.12047 0.12047
0.553811 0.12047 0.12047
0.145693 0.497124 0.235294
0.139376 0.484474 0.222766
0.101122 0.426673 0.139178
0.0762036 0.364294 0.0766461
0.342947 0.316564 0.00140383
0.518303 0.279316 0.166949
0.61178 0.245258 0.181491
0.579385 0.180728 0.150317
0.574868 0.170733 0.145388
0.132433 0.689204 0.132433
0.130236 0.677714 0.130236
0.118685 0.617609 0.118685
0.103975 0.541085 0.103975
0.137713 0.4851 0.0668498
0.456703 0.425177 0.00148013
0.652842 0.377218 0.193515
0.669459 0.333196 0.216983
0.656062 0.315038 0.210819
0.164569 0.856413 0.164569
0.162158 0.843854 0.162158
0.153368 0.798093 0.153368
0.137987 0.718059 0.137987
0.123125 0.640726 0.123125
0.222095 0.599451 0.0564889
0.568399 0.531929 0.0016022
0.792905 0.476677 0.20502
0.777035 0.45156 0.227054
0.1785 0.928923 0.1785
0.1785 0.928923 0.1785
0.1785 0.928923 0.1785
0.173053 0.900542 0.173053
0.157427 0.819257 0.157427
0.142931 0.743801 0.142931
0.31664 0.712566 0.0468605
0.679133 0.637858 0.00172427
0.874846 0.585687 0.110765
0.1785 0.928923 0.1785
0.1785 0.928923 0.1785
0.1785 0.928923 0.1785
0.1785 0.928923 0.1785
0.17586 0.91516 0.17586
0.162997 0.848203 0.162997
0.19826 0.803967 0.128389
0.452003 0.775204 0.0235294
0.761013 0.716243 0.00180056
0 0 0
3.0518e-05 0 0.0102083
0.061387 0 0.147951
0.214115 0 0.318853
0.463951 0 0.467964
0.772778 0.0156405 0.559762
0.92874 0.0252537 0.638453
0.919127 0.0284581 0.616373
0.908156 0.0320745 0.593194
0 0.0268101 0.242145
0.0232853 0.0226596 0.311528
0.13286 0.00396735 0.431647
0.32253 0 0.526452
0.58114 0 0.586145
0.854948 0.0221256 0.593088
0.915129 0.0297856 0.60766
0.904204 0.0333715 0.585275
0.884932 0.0396277 0.549264
0.00178531 0.13579 0.642329
0.000137331 0.118456 0.654444
0.0906996 0.0821241 0.716442
0.358465 0.0278019 0.722347
0.678538 0 0.684672
0.908537 0.0317388 0.594751
0.872618 0.0435645 0.528679
0.842069 0.0531777 0.482856
0.826062 0.0581216 0.461143
0.0491493 0.307286 0.655131
0.0424506 0.287297 0.635721
0.0227054 0.236362 0.631632
0.195041 0.176684 0.645106
0.552468 0.10219 0.557687
0.751842 0.080354 0.409949
0.699229 0.0946975 0.319661
0.65124 0.106752 0.270848
0.643244 0.108598 0.262455
0.204196 0.464439 0.484764
0.198596 0.451759 0.471656
0.171283 0.389807 0.408103
0.142214 0.323522 0.339849
0.312398 0.287282 0.315511
0.481041 0.26453 0.274952
0.610132 0.226459 0.234806
0.574212 0.156497 0.163317
0.568978 0.14609 0.153048
0.22002 0.634775 0.385016
0.21413 0.624033 0.373053
0.183719 0.570626 0.31104
0.14226 0.500404 0.225788
0.132876 0.445914 0.133867
0.423545 0.393622 0.0114748
0.612268 0.34818 0.187304
0.650721 0.307469 0.208011
0.637201 0.287373 0.200061
0.162631 0.824399 0.171923
0.160983 0.811337 0.172152
0.148455 0.768734 0.150072
0.132235 0.688151 0.132235
0.117205 0.609918 0.117205
0.194644 0.563851 0.059678
0.53341 0.498497 0.00155642
0.748699 0.445411 0.202991
0.748577 0.423484 0.230884
0.1785 0.928923 0.1785
0.1785 0.928923 0.1785
0.178454 0.928664 0.178454
0.167102 0.869596 0.167102
0.151339 0.787533 0.151339
0.136599 0.710857 0.136599
0.285481 0.676402 0.0497444
0.642832 0.603113 0.00167849
0.83917 0.551293 0.121462
0.1785 0.928923 0.1785
0.1785 0.928923 0.1785
0.1785 0.928923 0.1785
0.1785 0.928923 0.1785
0.170703 0.888365 0.170703
0.157671 0.820508 0.157671
0.171725 0.768994 0.133577
0.411017 0.74435 0.0272221
0.727459 0.684123 0.00177005
0 0 0
0.00225834 0 0.0243839
0.0675059 0 0.223804
0.224201 0 0.456275
0.479912 0 0.667643
0.825895 0 0.833097
0.999268 0.000289921 0.980743
0.998398 0.00062562 0.965255
0.996826 0.00123598 0.94226
0 0.0222171 0.331884
0.0161898 0.0155337 0.418524
0.123781 0 0.586526
0.311849 0 0.731365
0.576501 0 0.840513
0.901061 0 0.909346
0.998398 0.00062562 0.965087
0.998077 0.000747692 0.960204
0.994308 0.0021973 0.9131
0 0.117067 0.916686
0 0.0993057 0.933913
0.0670787 0.059266 1
0.330816 0.00248722 1
0.659617 0 1
0.993378 0 0.995666
0.999237 0.00030518 0.980072
0.997971 0.000793469 0.958419
0.995895 0.0016022 0.930648
0.0146792 0.284276 0.961486
0.0107271 0.265049 0.969772
0.00263981 0.208423 0.990707
0.160983 0.144167 1
0.524681 0.0653697 1
0.897429 0 0.906081
0.976974 0.00857557 0.797223
0.956008 0.0159609 0.714397
0.950103 0.0179904 0.695842
0.102556 0.46714 0.84947
0.0951247 0.454932 0.84802
0.0669718 0.392325 0.810651
0.0406806 0.321691 0.763836
0.27715 0.252842 0.776104
0.661311 0.172854 0.667704
0.844236 0.1411 0.513237
0.781186 0.0852979 0.410971
0.77023 0.0816052 0.396246
0.266377 0.605692 0.630991
0.261524 0.59469 0.619699
0.237797 0.540841 0.564202
0.204746 0.465827 0.486839
0.19408 0.400412 0.419089
0.391302 0.362631 0.395117
0.560403 0.33933 0.351583
0.644526 0.293095 0.303319
0.63241 0.269596 0.279194
0.287007 0.759976 0.522957
0.280873 0.748196 0.510216
0.260807 0.709865 0.468727
0.22034 0.635325 0.385687
0.179355 0.563149 0.302113
0.203616 0.521324 0.204669
0.501961 0.468635 0.0547646
0.707469 0.416449 0.200809
0.723415 0.397208 0.230457
0.223728 0.915053 0.317403
0.219684 0.91519 0.306294
0.209171 0.906813 0.279728
0.169787 0.839506 0.188251
0.145678 0.758144 0.145678
0.130694 0.680156 0.130694
0.256718 0.641779 0.0525673
0.608164 0.569986 0.00163272
0.803128 0.518105 0.132158
0.180652 0.928237 0.185702
0.1785 0.928923 0.1785
0.1785 0.928923 0.1785
0.178317 0.927932 0.178317
0.16585 0.86305 0.16585
0.152621 0.794232 0.152621
0.151797 0.73637 0.135454
0.371756 0.71429 0.0313268
0.694865 0.652934 0.00173953
0 0 0.00337224
0.00395209 0 0.0423285
0.0710002 0 0.295583
0.22948 0 0.590311
0.490105 0 0.875227
0.838636 0 1
1 0 1
1 0 1
1 0 1
0 0.0172274 0.418692
0.00924697 0.00813306 0.527443
0.113008 0 0.748699
0.299168 0 0.936522
0.566079 0 1
0.888853 0 1
1 0 1
1 0 1
1 0 1
0 0.0975204 1
0 0.0799725 1
0.04271 0.0364691 1
0.303029 0 1
0.630686 0 1
0.981933 0 1
1 0 1
1 0 1
1 0 1
0.00891127 0.254917 0.973877
0.00607309 0.236637 0.980896
0 0.177218 1
0.126864 0.111482 1
0.486702 0.032578 1
0.861799 0 1
1 0 1
1 0 1
1 0 1
0.0789197 0.43682 0.877897
0.0713207 0.424872 0.885069
0.0394903 0.363424 0.921569
0.0160983 0.290501 0.958679
0.240665 0.217868 1
0.632181 0.134737 1
0.989807 0.0563973 0.991638
0.99469 0.00213626 0.917235
0.99295 0.00271611 0.900359
0.207614 0.595636 0.815152
0.199237 0.585809 0.816281
0.15874 0.538766 0.827192
0.103456 0.467826 0.847379
0.0755779 0.398108 0.827329
0.355657 0.327703 0.860792
0.743755 0.245869 0.750881
0.896406 0.199054 0.61059
0.878035 0.17702 0.574121
0.322866 0.733944 0.763256
0.317708 0.722225 0.751156
0.301366 0.68513 0.712963
0.26746 0.608179 0.633661
0.234058 0.532341 0.555428
0.26302 0.475654 0.496437
0.46952 0.437369 0.474037
0.637934 0.412757 0.42681
0.69482 0.390402 0.403311
0.348959 0.881605 0.653788
0.343862 0.871382 0.642939
0.333394 0.85124 0.62031
0.295842 0.776944 0.541451
0.255344 0.699672 0.457435
0.215885 0.627298 0.376593
0.275395 0.595468 0.27689
0.577539 0.540978 0.121279
0.756008 0.492195 0.207309
0.31487 0.892378 0.555398
0.306722 0.894011 0.534325
0.298177 0.895827 0.512505
0.26453 0.887053 0.431266
0.215427 0.824765 0.322881
0.16875 0.764965 0.213855
0.140261 0.7075 0.141253
0.335439 0.685893 0.0357214
0.663859 0.623346 0.00169375
0 0 0.00337224
0.00300603 0 0.0360723
0.0679789 0 0.287251
0.223087 0 0.581506
0.480858 0 0.867094
0.82707 0 1
1 0 1
1 0 1
1 0 1
0 0.0156863 0.388083
0.00888075 0.00758373 0.487098
0.106218 0 0.715084
0.286381 0 0.924071
0.547051 0 1
0.86743 0 1
1 0 1
1 0 1
1 0 1
0 0.09131 1
0 0.0740673 1
0.0353399 0.0293431 1
0.288792 0 1
0.612726 0 1
0.96968 0 1
1 0 1
1 0 1
1 0 1
0.0062562 0.237873 0.980438
0.00389105 0.219715 0.986923
0 0.158816 1
0.105043 0.0906844 1
0.457511 0.0105745 1
0.829831 0 1
1 0 1
1 0 1
1 0 1
0.0611276 0.407553 0.895521
0.0553597 0.396918 0.9019
0.0298619 0.337987 0.935225
0.0103914 0.263279 0.970489
0.209964 0.188418 1
0.597559 0.10399 1
0.969833 0.024506 1
1 0 1
1 0 1
0.186542 0.571038 0.818738
0.176654 0.559319 0.821118
0.134188 0.510033 0.838514
0.0770886 0.434012 0.879576
0.0396124 0.361196 0.923491
0.316884 0.290562 1
0.713771 0.207935 1
1 0.12987 1
1 0.100282 1
0.28983 0.702007 0.824796
0.284794 0.694743 0.823102
0.264851 0.667155 0.817853
0.210834 0.599451 0.814817
0.151843 0.5308 0.83003
0.13959 0.47306 0.880079
0.433249 0.401755 0.943481
0.823529 0.317433 0.831357
0.954116 0.287388 0.752071
0.378576 0.8589 0.874128
0.374044 0.848936 0.870634
0.36495 0.829175 0.859342
0.33167 0.753918 0.783963
0.296651 0.674449 0.702022
0.263416 0.598993 0.62414
0.33431 0.549477 0.572305
0.544106 0.508644 0.549294
0.668055 0.490257 0.506737
0.386557 0.88922 0.818616
0.384329 0.888457 0.80235
0.381826 0.8878 0.786114
0.35848 0.84715 0.716762
0.322698 0.778454 0.628626
0.286168 0.712581 0.541787
0.249775 0.652415 0.458518
0.353002 0.641962 0.355047
0.636057 0.59707 0.187671
0 0 0.00337224
0.00205997 0 0.0298161
0.0648661 0 0.278737
0.216892 0 0.572885
0.471611 0 0.858961
0.815747 0 1
1 0 1
1 0 1
1 0 1
0 0.0141604 0.35819
0.00798047 0.00723278 0.44741
0.0995651 0 0.674998
0.273899 0 0.893019
0.526986 0 1
0.844434 0 1
1 0 1
1 0 1
1 0 1
0 0.0874189 1
0 0.0712139 1
0.0335241 0.0276493 1
0.281666 0 1
0.602289 0 1
0.956924 0 1
1 0 1
1 0 1
1 0 1
0.00537118 0.231479 0.982773
0.00331121 0.214664 0.988632
0 0.154818 1
0.101335 0.0872206 1
0.451621 0.00958267 1
0.822919 0 1
1 0 1
1 0 1
1 0 1
0.0585031 0.402808 0.898375
0.0530251 0.392416 0.904601
0.0288396 0.335012 0.936812
0.00968948 0.259388 0.972091
0.205798 0.184466 1
0.593011 0.0999771 1
0.966827 0.0202945 1
1 0 1
1 0 1
0.182208 0.566033 0.819791
0.172381 0.554421 0.8224
0.130343 0.505425 0.84062
0.0738842 0.428977 0.882597
0.0356298 0.352972 0.927703
0.303563 0.277806 1
0.695003 0.190845 1
1 0.112505 1
1 0.0800183 1
0.284688 0.694591 0.823072
0.276661 0.683268 0.820691
0.254612 0.653635 0.816022
0.198047 0.584405 0.816464
0.137194 0.513619 0.836942
0.112428 0.450782 0.889662
0.406287 0.375967 1
0.80174 0.289036 1
1 0.247089 1
0.369421 0.839521 0.871473
0.36376 0.827909 0.86685
0.35462 0.809949 0.859861
0.316106 0.742214 0.835996
0.265293 0.66775 0.817945
0.214649 0.595987 0.795392
0.247044 0.544137 0.799176
0.511574 0.47657 0.87985
0.820676 0.412421 0.828412
0.390402 0.885893 0.890455
0.390402 0.885893 0.890455
0.390402 0.885893 0.890455
0.368292 0.836957 0.868711
0.336675 0.76527 0.795651
0.306264 0.696269 0.724483
0.277699 0.631403 0.65745
0.395743 0.597513 0.621576
0.596796 0.559045 0.602441
