luts/Aggressive Highlighted recovery.cube
TITLE "Generated by Resolve"
LUT_3D_SIZE 33
0 0 0
0 0 0
0 0 0
0 0 0
0 0 0
0 0 0
0.00030518 6.10361e-05 6.10361e-05
0.00549325 0.00148013 0.00149538
0.0165866 0.00491341 0.00497444
0.0311284 0.00846876 0.00854505
0.0484016 0.0114443 0.0115358
0.068925 0.0149996 0.0149996
0.0939498 0.0204318 0.0204318
0.122744 0.0267033 0.0267033
0.155276 0.0337835 0.0337835
0.191989 0.0417639 0.0417639
0.232181 0.0505074 0.0505074
0.275975 0.060029 0.060029
0.323491 0.0703746 0.0703746
0.374212 0.0814069 0.0814069
0.429023 0.0933242 0.0933242
0.49041 0.106676 0.106676
0.54815 0.119249 0.119249
0.553811 0.12047 0.12047
0.553811 0.12047 0.12047
0.553811 0.12047 0.12047
0.553811 0.12047 0.12047
0.553811 0.12047 0.12047
0.553811 0.12047 0.12047
0.553811 0.12047 0.12047
0.553811 0.12047 0.12047
0.553811 0.12047 0.12047
0.553811 0.12047 0.12047
0 0 0
0 0 0
0 0 0
0 0 0
0.000244144 0.000106813 7.62951e-05
0.00393683 0.00183108 0.00149538
0.00898756 0.00416571 0.00352483
0.0150301 0.00590524 0.00503548
0.0246586 0.00828565 0.00730907
0.0366674 0.0107881 0.0099794
0.0509651 0.0127871 0.0124666
0.0675059 0.0149538 0.0149386
0.087602 0.0190585 0.0190585
0.115663 0.0251621 0.0251621
0.147524 0.0320897 0.0320897
0.183017 0.0398108 0.0398108
0.222477 0.0484016 0.0484016
0.265522 0.0577554 0.0577554
0.312016 0.0678721 0.0678721
0.362158 0.0787823 0.0787823
0.415824 0.0904555 0.0904555
0.475059 0.103349 0.103349
0.53576 0.116548 0.116548
0.553811 0.12047 0.12047
0.553811 0.12047 0.12047
0.553811 0.12047 0.12047
0.553811 0.12047 0.12047
0.553811 0.12047 0.12047
0.553811 0.12047 0.12047
0.553811 0.12047 0.12047
0.553811 0.12047 0.12047
0.553811 0.12047 0.12047
0.553811 0.12047 0.12047
0.000457771 0.00117494 0.000457771
0.000808728 0.00144961 0.000503548
0.00134279 0.00144961 0.000381476
0.0065156 0.00462348 0.00251774
0.0133669 0.00885023 0.00595102
0.0207828 0.0122225 0.00856031
0.0301366 0.0154879 0.0110323
0.0412299 0.0184939 0.0135348
0.0544137 0.0210727 0.0163119
0.0698711 0.0231022 0.0187991
0.0872816 0.0245823 0.0214847
0.107607 0.0256046 0.0243839
0.131426 0.0286717 0.0286259
0.158694 0.0345159 0.0345159
0.189197 0.0411536 0.0411536
0.222446 0.0483864 0.0483864
0.258259 0.0561837 0.0561837
0.297307 0.0646677 0.0646677
0.338766 0.0737011 0.0737011
0.382956 0.083299 0.083299
0.429877 0.0935073 0.0935073
0.481071 0.104646 0.104646
0.528969 0.115068 0.115068
0.553811 0.12047 0.12047
0.553811 0.12047 0.12047
0.553811 0.12047 0.12047
0.553811 0.12047 0.12047
0.553811 0.12047 0.12047
0.553811 0.12047 0.12047
0.553811 0.12047 0.12047
0.553811 0.12047 0.12047
0.553811 0.12047 0.12047
0.553811 0.12047 0.12047
0.00404364 0.0117037 0.00399786
0.00514229 0.0123293 0.0037232
0.0119326 0.0175479 0.00357061
0.0221256 0.0214389 0.00350958
0.0344701 0.024155 0.0061799
0.0446784 0.0272374 0.0115053
0.054902 0.030518 0.0176699
0.0677043 0.0334325 0.0219883
0.0829633 0.0357977 0.0255283
0.100938 0.0374456 0.0287327
0.12163 0.0384985 0.0317998
0.144671 0.0389563 0.0348058
0.170809 0.0393225 0.0381018
0.20116 0.0438392 0.0437934
0.235355 0.051194 0.051194
0.272618 0.0592966 0.0592966
0.311894 0.0678416 0.0678416
0.353857 0.0769818 0.0769818
0.398444 0.0866712 0.0866712
0.445014 0.0968032 0.0968032
0.49366 0.107393 0.107393
0.534447 0.116258 0.116258
0.552972 0.120287 0.120287
0.553811 0.12047 0.12047
0.553811 0.12047 0.12047
0.553811 0.12047 0.12047
0.553811 0.12047 0.12047
0.553811 0.12047 0.12047
0.553811 0.12047 0.12047
0.553811 0.12047 0.12047
0.553811 0.12047 0.12047
0.553811 0.12047 0.12047
0.553811 0.12047 0.12047
0.00798047 0.0340887 0.00794995
0.00828565 0.0325628 0.00773632
0.0158694 0.0386816 0.00471504
0.0288548 0.0427558 0.000885023
0.0468147 0.0448157 6.10361e-05
0.0664225 0.0453498 0.00729381
0.0793469 0.0475013 0.0209506
0.092546 0.0502937 0.0296788
0.108934 0.0524758 0.0350347
0.128618 0.0540475 0.0390784
0.151568 0.0547799 0.0425574
0.177111 0.0547646 0.0457465
0.205371 0.0541543 0.0489052
0.236942 0.0540169 0.0526284
0.273182 0.0595407 0.0594797
0.312886 0.0680705 0.0680705
0.35584 0.077409 0.077409
0.400427 0.0871138 0.0871138
0.446921 0.0972152 0.0972152
0.495933 0.107881 0.107881
0.537011 0.116823 0.116823
0.553811 0.12047 0.12047
0.553811 0.12047 0.12047
0.553811 0.12047 0.12047
0.553811 0.12047 0.12047
0.553811 0.12047 0.12047
0.553811 0.12047 0.12047
0.553811 0.12047 0.12047
0.553811 0.12047 0.12047
0.553811 0.12047 0.12047
0.553811 0.12047 0.12047
0.553811 0.12047 0.12047
0.553811 0.12047 0.12047
0.01178 0.0612802 0.01178
0.0113069 0.0588693 0.0113069
0.0147555 0.0630808 0.0105592
0.0271611 0.0693217 0.00590524
0.0469825 0.0711986 0.00129702
0.0741131 0.0704356 0.000122072
0.101167 0.068452 0.0118868
0.116365 0.0691234 0.0317388
0.13254 0.0711376 0.042771
0.153017 0.0725872 0.0489815
0.176791 0.0731975 0.053315
0.204105 0.0730602 0.0569924
0.234302 0.0721599 0.0603799
0.266957 0.070573 0.0636454
0.302937 0.0696422 0.0675517
0.343511 0.0749676 0.0748302
0.38822 0.0844434 0.0844434
0.435248 0.0946822 0.0946822
0.484123 0.105318 0.105318
0.531212 0.115557 0.115557
0.551385 0.119951 0.119951
0.553811 0.12047 0.12047
0.553811 0.12047 0.12047
0.553811 0.12047 0.12047
0.553811 0.12047 0.12047
0.553811 0.12047 0.12047
0.553811 0.12047 0.12047
0.553811 0.12047 0.12047
0.553811 0.12047 0.12047
0.553811 0.12047 0.12047
0.553811 0.12047 0.12047
0.553811 0.12047 0.12047
0.553811 0.12047 0.12047
0.018616 0.096849 0.018616
0.0180056 0.0937057 0.0180056
0.0180819 0.0941024 0.0180819
0.0228428 0.0988785 0.0167086
0.0396887 0.102281 0.00886549
0.0674449 0.103014 0.0019379
0.106188 0.099794 0.000259403
0.142382 0.0955825 0.0176699
0.161379 0.0955978 0.0445258
0.180896 0.0966049 0.0584726
0.204913 0.0968338 0.065507
0.232715 0.0962539 0.070161
0.263981 0.0948043 0.0738537
0.297368 0.0926223 0.0770886
0.333165 0.0899062 0.0802472
0.371756 0.0875715 0.0838331
0.414298 0.0906233 0.0903334
0.461387 0.100374 0.100374
0.509896 0.110918 0.110918
0.550561 0.119768 0.119768
0.553811 0.12047 0.12047
0.553811 0.12047 0.12047
0.553811 0.12047 0.12047
0.553811 0.12047 0.12047
0.553811 0.12047 0.12047
0.553811 0.12047 0.12047
0.553811 0.12047 0.12047
0.553811 0.12047 0.12047
0.553811 0.12047 0.12047
0.553811 0.12047 0.12047
0.553811 0.12047 0.12047
0.553811 0.12047 0.12047
0.553811 0.12047 0.12047
0.0260014 0.135302 0.0260014
0.025391 0.132128 0.025391
0.0251011 0.130648 0.0251011
0.0253147 0.131762 0.0253147
0.0307164 0.132464 0.0223239
0.0521859 0.134691 0.0117189
0.0877699 0.133639 0.00248722
0.136767 0.127779 0.000396735
0.180316 0.121035 0.0224002
0.202106 0.11989 0.055436
0.224323 0.120287 0.0724041
0.252003 0.120043 0.0807813
0.284047 0.118791 0.0861067
0.319646 0.116747 0.0902419
0.357839 0.114107 0.0939193
0.398016 0.110796 0.0973831
0.440528 0.106996 0.100786
0.487007 0.1084 0.106981
0.534447 0.116258 0.116258
0.553811 0.12047 0.12047
0.553811 0.12047 0.12047
0.553811 0.12047 0.12047
0.553811 0.12047 0.12047
0.553811 0.12047 0.12047
0.553811 0.12047 0.12047
0.553811 0.12047 0.12047
0.553811 0.12047 0.12047
0.553811 0.12047 0.12047
0.553811 0.12047 0.12047
0.553811 0.12047 0.12047
0.553811 0.12047 0.12047
0.553811 0.12047 0.12047
0.553811 0.12047 0.12047
0.0344244 0.17911 0.0344244
0.0336767 0.175235 0.0336767
0.0330663 0.172091 0.0330663
0.03299 0.171725 0.03299
0.0325475 0.169375 0.0325475
0.0393835 0.167666 0.0279545
0.065919 0.168704 0.0144503
0.10988 0.165316 0.00289921
0.168322 0.156634 0.000549325
0.219074 0.147555 0.0265507
0.243442 0.145037 0.0655833
0.267094 0.144579 0.0858473
0.297047 0.143572 0.0956283
0.331548 0.141665 0.101579
0.369711 0.138796 0.105928
0.410391 0.135378 0.109682
0.453147 0.131441 0.113207
0.497444 0.127016 0.116594
0.544396 0.124437 0.121065
0.554284 0.121447 0.120943
0.553811 0.12047 0.12047
0.553811 0.12047 0.12047
0.553811 0.12047 0.12047
0.553811 0.12047 0.12047
0.553811 0.12047 0.12047
0.553811 0.12047 0.12047
0.553811 0.12047 0.12047
0.553811 0.12047 0.12047
0.553811 0.12047 0.12047
0.553811 0.12047 0.12047
0.553811 0.12047 0.12047
0.553811 0.12047 0.12047
0.553811 0.12047 0.12047
0.043183 0.224704 0.043183
0.0424201 0.220783 0.0424201
0.0416724 0.216861 0.0416724
0.0412909 0.214862 0.0412909
0.0406653 0.211582 0.0406653
0.0396277 0.206256 0.0396277
0.0485542 0.202869 0.0332799
0.0813458 0.202777 0.0165255
0.133593 0.197238 0.00315862
0.200855 0.186282 0.000732433
0.258244 0.17496 0.030045
0.285588 0.17116 0.0749523
0.310643 0.170184 0.0991226
0.342046 0.16849 0.110643
0.378317 0.165911 0.117311
0.418067 0.162463 0.122011
0.460548 0.158343 0.125856
0.504814 0.153613 0.12929
0.549935 0.148486 0.132494
0.559808 0.135164 0.127718
0.555596 0.124331 0.122347
0.553964 0.12079 0.120623
0.553811 0.12047 0.12047
0.553811 0.12047 0.12047
0.553811 0.12047 0.12047
0.553811 0.12047 0.12047
0.553811 0.12047 0.12047
0.553811 0.12047 0.12047
0.553811 0.12047 0.12047
0.553811 0.12047 0.12047
0.553811 0.12047 0.12047
0.553811 0.12047 0.12047
0.553811 0.12047 0.12047
0.05243 0.272831 0.05243
0.0516518 0.268772 0.0516518
0.0508278 0.26453 0.0508278
0.0501869 0.261128 0.0501869
0.0493324 0.256733 0.0493324
0.0480507 0.250034 0.0480507
0.0464637 0.241764 0.0464637
0.0587472 0.237446 0.0378119
0.0979629 0.236347 0.0180362
0.158389 0.228473 0.00323491
0.232639 0.215381 0.000885023
0.295933 0.202167 0.0324407
0.326192 0.196826 0.0827955
0.351751 0.195224 0.11104
0.383993 0.193164 0.124651
0.421302 0.190158 0.132311
0.462287 0.186221 0.137484
0.505852 0.181704 0.141543
0.551232 0.176638 0.145068
0.572412 0.16553 0.142779
0.564965 0.147814 0.134005
0.558297 0.131273 0.125795
0.554955 0.12285 0.121614
0.553811 0.12047 0.12047
0.553811 0.12047 0.12047
0.553811 0.12047 0.12047
0.553811 0.12047 0.12047
0.553811 0.12047 0.12047
0.553811 0.12047 0.12047
0.553811 0.12047 0.12047
0.553811 0.12047 0.12047
0.553811 0.12047 0.12047
0.553811 0.12047 0.12047
0.062562 0.325536 0.062562
0.0616159 0.320623 0.0616159
0.0607004 0.315908 0.0607004
0.0597391 0.310842 0.0597391
0.0585641 0.304799 0.0585641
0.057145 0.297383 0.057145
0.0556954 0.28986 0.0556954
0.0539559 0.27892 0.0533913
0.0721447 0.274266 0.0411078
0.117632 0.27126 0.0188296
0.185031 0.261112 0.00326543
0.265461 0.24564 0.00102235
0.333974 0.230304 0.0343481
0.366995 0.223316 0.0890211
0.392447 0.220798 0.121981
0.424094 0.21799 0.137881
0.46157 0.214435 0.146654
0.502815 0.210269 0.152422
0.546807 0.205356 0.15671
0.582956 0.197833 0.15819
0.579538 0.181079 0.1505
0.571359 0.162768 0.141436
0.563531 0.14432 0.13228
0.557397 0.128969 0.124651
0.554711 0.122347 0.121386
0.553811 0.12047 0.12047
0.553811 0.12047 0.12047
0.553811 0.12047 0.12047
0.553811 0.12047 0.12047
0.553811 0.12047 0.12047
0.553811 0.12047 0.12047
0.553811 0.12047 0.12047
0.553811 0.12047 0.12047
0.0728618 0.379187 0.0728618
0.0720531 0.374975 0.0720531
0.0712444 0.370764 0.0712444
0.0702831 0.365774 0.0702831
0.0686656 0.357305 0.0686656
0.0668193 0.347738 0.0668193
0.0646982 0.336675 0.0646982
0.0623636 0.324514 0.0623636
0.0616464 0.312856 0.0592355
0.0866255 0.309209 0.0432746
0.138643 0.304555 0.0189517
0.212543 0.292744 0.00315862
0.298482 0.276005 0.00117494
0.371832 0.259342 0.0354009
0.408774 0.250935 0.0941329
0.434623 0.248005 0.132174
0.466316 0.245258 0.151324
0.503639 0.241566 0.161776
0.544396 0.236988 0.168246
0.58793 0.231754 0.172885
0.597238 0.217914 0.168521
0.58822 0.199603 0.159609
0.579538 0.181094 0.1505
0.571237 0.162493 0.141299
0.563348 0.143877 0.132067
0.55697 0.127886 0.124102
0.554971 0.122881 0.121645
0.554116 0.121096 0.120775
0.553811 0.12047 0.12047
0.553811 0.12047 0.12047
0.553811 0.12047 0.12047
0.553811 0.12047 0.12047
0.553811 0.12047 0.12047
0.0833143 0.4336 0.0833143
0.0824292 0.428977 0.0824292
0.0815442 0.424353 0.0815442
0.0806134 0.419532 0.0806134
0.078645 0.409247 0.078645
0.076463 0.39794 0.076463
0.074052 0.385336 0.074052
0.0714275 0.371679 0.0714275
0.0687266 0.357671 0.0687266
0.0692149 0.345068 0.064622
0.102388 0.342123 0.0441901
0.160204 0.335836 0.0186465
0.239307 0.322286 0.00300603
0.328771 0.304143 0.00128176
0.405859 0.286152 0.0357824
0.446006 0.276417 0.0967117
0.471855 0.272663 0.139834
0.502419 0.269642 0.162112
0.538766 0.265934 0.17435
0.579278 0.261402 0.181918
0.617472 0.255268 0.186099
0.607446 0.237369 0.177813
0.59794 0.219318 0.169207
0.588907 0.201022 0.160296
0.580392 0.18294 0.151415
0.572473 0.165316 0.142687
0.565133 0.148196 0.134203
0.56054 0.136934 0.128603
0.55938 0.133989 0.127138
0.55816 0.130907 0.125612
0.557717 0.129778 0.125048
0.557336 0.128817 0.124575
0.556954 0.127855 0.124102
0.0932479 0.485252 0.0932479
0.0924544 0.481086 0.0924544
0.0916152 0.476753 0.0916152
0.0908064 0.472587 0.0908064
0.0889143 0.462669 0.0889143
0.0864424 0.449866 0.0864424
0.0838331 0.436271 0.0838331
0.0810254 0.421683 0.0810254
0.0781262 0.406561 0.0781262
0.0751812 0.391226 0.0751812
0.0780346 0.378637 0.0696727
0.121172 0.37612 0.0441138
0.184649 0.367666 0.0178378
0.267567 0.352392 0.00280766
0.35964 0.333043 0.00135805
0.439307 0.313634 0.0353857
0.48278 0.302235 0.0978866
0.508415 0.297566 0.145617
0.537255 0.294011 0.171557
0.571984 0.290059 0.185855
0.611032 0.285527 0.194568
0.629511 0.275257 0.194949
0.618921 0.257755 0.187228
0.608988 0.240208 0.179141
0.599557 0.222461 0.170718
0.590768 0.204868 0.162188
0.58262 0.187762 0.153796
0.575982 0.17322 0.146609
0.574517 0.169955 0.144991
0.573144 0.166827 0.14345
0.571756 0.163699 0.141894
0.570443 0.160662 0.140383
0.569131 0.15761 0.138872
0.10277 0.534768 0.10277
0.101961 0.530556 0.101961
0.101167 0.526482 0.101167
0.100389 0.522408 0.100389
0.0986648 0.51342 0.0986648
0.096025 0.499702 0.096025
0.0931868 0.484932 0.0931868
0.0901808 0.469306 0.0901808
0.0870375 0.452979 0.0870375
0.0838941 0.436545 0.0838941
0.0807965 0.420478 0.0807965
0.0924849 0.410437 0.0707866
0.140856 0.406714 0.0428321
0.208835 0.396994 0.0168765
0.295354 0.380545 0.00256352
0.389013 0.360693 0.00141909
0.471183 0.340795 0.0345159
0.518349 0.328283 0.0970779
0.544594 0.322881 0.149722
0.572519 0.319371 0.179782
0.605554 0.315648 0.19675
0.643137 0.311238 0.207126
0.643412 0.296773 0.203876
0.631952 0.279164 0.196612
0.621073 0.261448 0.188891
0.611185 0.244175 0.181003
0.602106 0.227359 0.173053
0.593774 0.211002 0.165179
0.591775 0.206943 0.163195
0.590356 0.204028 0.161776
0.588952 0.201114 0.160342
0.587488 0.198077 0.158862
0.586099 0.195148 0.157427
0.111971 0.582666 0.111971
0.111208 0.578729 0.111208
0.11046 0.574792 0.11046
0.109651 0.570657 0.109651
0.108324 0.563729 0.108324
0.105455 0.54876 0.105455
0.102449 0.533104 0.102449
0.0992294 0.516365 0.0992294
0.0958419 0.498787 0.0958419
0.0925002 0.481346 0.0925002
0.0891737 0.464057 0.0891737
0.0860151 0.447608 0.0860151
0.108949 0.440528 0.070161
0.161486 0.435355 0.04094
0.233509 0.424109 0.0156558
0.321553 0.406882 0.00234989
0.416159 0.386496 0.00144961
0.499626 0.365988 0.0332952
0.550103 0.352346 0.0952163
0.577585 0.346151 0.151583
0.604212 0.342351 0.185901
0.635966 0.338704 0.205753
0.663859 0.332464 0.215396
0.65716 0.316564 0.211353
0.645014 0.299153 0.204807
0.633722 0.281956 0.197803
0.623301 0.265202 0.19057
0.61384 0.248905 0.183185
0.609949 0.241932 0.17995
0.608377 0.239078 0.178607
0.606744 0.236088 0.177203
0.605203 0.233204 0.175845
0.603662 0.230335 0.174487
0.120974 0.629526 0.120974
0.120256 0.625849 0.120256
0.119524 0.622019 0.119524
0.118822 0.618341 0.118822
0.117983 0.613993 0.117983
0.114809 0.597436 0.114809
0.111513 0.58027 0.111513
0.10811 0.5626 0.10811
0.104555 0.54406 0.104555
0.100893 0.525078 0.100893
0.0973831 0.506783 0.0973831
0.0939651 0.489006 0.0939651
0.0907607 0.472343 0.0907607
0.12607 0.467781 0.0683604
0.182345 0.461479 0.0386969
0.257099 0.449226 0.0145724
0.346838 0.431342 0.00213626
0.441642 0.410834 0.00146487
0.526299 0.390219 0.0319829
0.580255 0.375586 0.0932631
0.609323 0.368658 0.152499
0.635462 0.364813 0.191012
0.665995 0.361227 0.21384
0.682887 0.352605 0.222004
0.671641 0.33608 0.217884
0.658961 0.319066 0.212253
0.64712 0.302251 0.206027
0.636469 0.286229 0.199588
0.630213 0.276371 0.195422
0.628382 0.273442 0.194156
0.626642 0.270619 0.192935
0.624903 0.267796 0.191714
0.623102 0.264851 0.190417
0.129717 0.675059 0.129717
0.128939 0.671016 0.128939
0.128191 0.66714 0.128191
0.127459 0.663249 0.127459
0.126711 0.659373 0.126711
0.123796 0.644205 0.123796
0.120333 0.626184 0.120333
0.116747 0.607569 0.116747
0.113039 0.588251 0.113039
0.109316 0.568902 0.109316
0.105653 0.549813 0.105653
0.102052 0.53106 0.102052
0.0986191 0.513207 0.0986191
0.103075 0.49955 0.0918441
0.144686 0.495399 0.0659953
0.204318 0.487861 0.0364691
0.281712 0.47451 0.013489
0.371984 0.456184 0.00198367
0.467155 0.435218 0.00148013
0.552941 0.41416 0.0310674
0.609506 0.398733 0.0908827
0.64036 0.390738 0.152865
0.665827 0.386481 0.195148
0.69453 0.382727 0.22063
0.699992 0.371328 0.226719
0.686107 0.35436 0.223056
0.672892 0.337682 0.218387
0.660777 0.321553 0.213123
0.65153 0.308629 0.208453
0.649729 0.306035 0.207477
0.647929 0.303441 0.206485
0.646082 0.300725 0.205432
0.644327 0.298131 0.20441
0.138109 0.718685 0.138109
0.137438 0.715221 0.137438
0.136797 0.71191 0.136797
0.136156 0.708583 0.136156
0.1355 0.705119 0.1355
0.133165 0.693019 0.133165
0.129564 0.674235 0.129564
0.125795 0.654627 0.125795
0.121996 0.634882 0.121996
0.118151 0.614878 0.118151
0.114351 0.595102 0.114351
0.110597 0.575509 0.110597
0.106966 0.556634 0.106966
0.103517 0.53872 0.103517
0.117189 0.527687 0.0920424
0.164263 0.523064 0.0635538
0.22681 0.514107 0.0343633
0.306081 0.49955 0.0125582
0.397192 0.480797 0.00181582
0.492775 0.459709 0.00151064
0.579416 0.4383 0.0301061
0.638849 0.422095 0.0888075
0.671733 0.413367 0.152377
0.697185 0.40882 0.198535
0.720317 0.403693 0.224994
0.717037 0.390356 0.22974
0.702419 0.37377 0.227314
0.688609 0.357397 0.223804
0.675914 0.341573 0.219547
0.673716 0.33875 0.218692
0.671519 0.335912 0.217838
0.669429 0.333181 0.216983
0.667369 0.330449 0.216098
0.145785 0.758663 0.145785
0.145159 0.755367 0.145159
0.144518 0.752071 0.144518
0.143862 0.748623 0.143862
0.143221 0.745327 0.143221
0.141573 0.736767 0.141573
0.137926 0.717739 0.137926
0.134234 0.698589 0.134234
0.130495 0.679088 0.130495
0.12668 0.659251 0.12668
0.122866 0.639384 0.122866
0.119142 0.619989 0.119142
0.11548 0.600961 0.11548
0.11194 0.582559 0.11194
0.110262 0.566033 0.107912
0.135882 0.558816 0.0903944
0.186999 0.553674 0.0606088
0.253147 0.544076 0.0321355
0.334783 0.529107 0.0116426
0.426657 0.509514 0.00166323
0.522042 0.487724 0.00154116
0.609323 0.465705 0.029099
0.671 0.448356 0.0861219
0.705821 0.438132 0.151431
0.730785 0.432761 0.201785
0.746838 0.42562 0.227619
0.735897 0.410452 0.231113
0.720897 0.394476 0.230228
0.707103 0.379141 0.228244
0.701961 0.373251 0.227222
0.699504 0.370382 0.226673
0.697047 0.367514 0.226093
0.694621 0.364645 0.225483
0.15346 0.798581 0.15346
0.152819 0.7953 0.152819
0.152163 0.791867 0.152163
0.151537 0.788586 0.151537
0.150896 0.78529 0.150896
0.149935 0.78024 0.149935
0.146288 0.761273 0.146288
0.142596 0.742107 0.142596
0.138857 0.722591 0.138857
0.134981 0.702449 0.134981
0.131136 0.682445 0.131136
0.127352 0.66273 0.127352
0.123598 0.643168 0.123598
0.119966 0.624262 0.119966
0.116472 0.606104 0.116472
0.119127 0.591226 0.110384
0.153155 0.585763 0.088365
0.206851 0.579889 0.0582437
0.275563 0.569345 0.0304723
0.359213 0.553536 0.0108797
0.451896 0.534066 0.00154116
0.548135 0.512657 0.00157168
0.636561 0.490761 0.0282902
0.701091 0.473167 0.0838178
0.738781 0.462379 0.150103
0.7635 0.456245 0.203067
0.770352 0.446403 0.226734
0.755398 0.43035 0.230365
0.73994 0.414664 0.231144
0.731533 0.405875 0.230991
0.72903 0.40322 0.230869
0.726528 0.400549 0.230701
0.723918 0.397757 0.230503
0.161059 0.838148 0.161059
0.160403 0.83476 0.160403
0.159777 0.831495 0.159777
0.159152 0.828244 0.159152
0.158511 0.824842 0.158511
0.15787 0.821591 0.15787
0.154604 0.804547 0.154604
0.150912 0.785367 0.150912
0.147158 0.765774 0.147158
0.143313 0.745785 0.143313
0.139467 0.725811 0.139467
0.135363 0.704417 0.135363
0.131609 0.684916 0.131609
0.127932 0.665751 0.127932
0.1243 0.64683 0.1243
0.120867 0.628962 0.120867
0.129656 0.61648 0.111879
0.170352 0.612009 0.0862898
0.226825 0.605249 0.0559091
0.298146 0.593896 0.0288396
0.382895 0.577691 0.0102846
0.476631 0.557824 0.00141909
0.572854 0.536294 0.00158694
0.661799 0.514321 0.0274662
0.728557 0.495918 0.0819409
0.768261 0.484443 0.148806
0.792493 0.477485 0.20267
0.791272 0.465492 0.223041
0.774914 0.449516 0.227497
0.763043 0.437934 0.229496
0.760372 0.435294 0.229831
0.757595 0.432547 0.230152
0.754955 0.429908 0.230411
0.168719 0.878019 0.168719
0.168032 0.874434 0.168032
0.167391 0.871092 0.167391
0.166735 0.867689 0.166735
0.16611 0.864424 0.16611
0.165484 0.861158 0.165484
0.16289 0.847669 0.16289
0.159152 0.828244 0.159152
0.155398 0.808682 0.155398
0.151537 0.788632 0.151537
0.147616 0.768154 0.147616
0.143694 0.747753 0.143694
0.139803 0.72752 0.139803
0.135973 0.707622 0.135973
0.13225 0.688243 0.13225
0.128649 0.669474 0.128649
0.126116 0.652064 0.124834
0.142901 0.641962 0.111772
0.187701 0.6374 0.0840467
0.246677 0.629816 0.0536965
0.319936 0.617502 0.0274357
0.406073 0.600671 0.00970474
0.499794 0.580636 0.00134279
0.596429 0.558846 0.00161746
0.686183 0.53666 0.0269627
0.754543 0.518013 0.0798657
0.796994 0.505928 0.146899
0.819287 0.497932 0.200061
0.811231 0.484276 0.216724
0.79559 0.469581 0.22237
0.792981 0.466896 0.223026
0.790387 0.464347 0.223728
0.787717 0.461799 0.224475
0.176043 0.916091 0.176043
0.175723 0.914473 0.175723
0.175418 0.912871 0.175418
0.174975 0.910536 0.174975
0.174289 0.90695 0.174289
0.173587 0.903365 0.173587
0.171664 0.893355 0.171664
0.167971 0.874113 0.167971
0.164172 0.854383 0.164172
0.160235 0.83386 0.160235
0.156222 0.813001 0.156222
0.152163 0.791867 0.152163
0.148089 0.770642 0.148089
0.144106 0.749905 0.144106
0.140276 0.730022 0.140276
0.136584 0.71075 0.136584
0.132967 0.691936 0.132967
0.132204 0.675425 0.128389
0.157382 0.667781 0.111009
0.205814 0.662791 0.0816663
0.267002 0.654414 0.0515602
0.342275 0.641459 0.0261234
0.429435 0.624033 0.00918593
0.523598 0.603754 0.00125124
0.620417 0.581811 0.00163272
0.710384 0.559365 0.026276
0.780606 0.540185 0.0785382
0.825498 0.527687 0.14493
0.843397 0.51812 0.193362
0.831357 0.503258 0.207507
0.826139 0.498299 0.210117
0.823331 0.495644 0.211444
0.820386 0.492882 0.212802
0.1785 0.928923 0.1785
0.1785 0.928923 0.1785
0.1785 0.928923 0.1785
0.1785 0.928923 0.1785
0.1785 0.928923 0.1785
0.178225 0.927443 0.178225
0.177813 0.925353 0.177813
0.176226 0.917082 0.176226
0.172915 0.89984 0.172915
0.169162 0.880278 0.169162
0.165286 0.860121 0.165286
0.161334 0.839612 0.161334
0.157351 0.818875 0.157351
0.153445 0.79855 0.153445
0.149599 0.778515 0.149599
0.145769 0.758587 0.145769
0.14197 0.738796 0.14197
0.138308 0.719753 0.138308
0.142077 0.704433 0.131456
0.175998 0.698116 0.109178
0.226841 0.691798 0.079118
0.290257 0.681697 0.0492256
0.366659 0.667338 0.0247959
0.454032 0.648875 0.0087129
0.548119 0.627527 0.00117494
0.644129 0.604486 0.00166323
0.734798 0.581827 0.0258335
0.806638 0.562722 0.0766461
0.854459 0.550103 0.142657
0.867323 0.539239 0.184207
0.860059 0.531243 0.190539
0.857176 0.528359 0.192447
0.854398 0.525582 0.194263
0.1785 0.928923 0.1785
0.1785 0.928923 0.1785
0.1785 0.928923 0.1785
0.1785 0.928923 0.1785
0.1785 0.928923 0.1785
0.1785 0.928923 0.1785
0.1785 0.928923 0.1785
0.17847 0.928725 0.17847
0.177935 0.925978 0.177935
0.176699 0.919509 0.176699
0.173541 0.903105 0.173541
0.169558 0.882368 0.169558
0.16556 0.861555 0.16556
0.161593 0.84097 0.161593
0.157671 0.820493 0.157671
0.153826 0.800534 0.153826
0.150072 0.780972 0.150072
0.14638 0.761776 0.14638
0.143206 0.743725 0.142748
0.154314 0.731685 0.132525
0.194491 0.72694 0.107057
0.248631 0.720546 0.0763104
0.314946 0.710567 0.0469978
0.394003 0.696345 0.0234836
0.483818 0.678172 0.00814832
0.579065 0.657542 0.00108339
0.676204 0.635157 0.00170901
0.766629 0.61149 0.0251774
0.839078 0.590677 0.0747845
0.886381 0.576211 0.138186
