luts/Asset.cube
LUT_3D_SIZE 6
-0.106567 -0.106567 -0.106567
0.132216 -0.106567 -0.106567
0.309148 -0.106569 -0.106569
0.496850 -0.106572 -0.106572
0.695394 -0.106577 -0.106577
0.897756 -0.106579 -0.106579
-0.106568 0.141044 -0.106568
0.132216 0.141044 -0.106568
0.309148 0.145334 -0.106570
0.496850 0.151354 -0.106573
0.695394 0.155694 -0.106578
0.897755 0.158151 -0.106580
-0.106573 0.326449 -0.106573
0.136258 0.326449 -0.106573
0.309147 0.326448 -0.106575
0.496849 0.338975 -0.106578
0.695393 0.348309 -0.106578
0.897755 0.354000 -0.106585
-0.106579 0.515740 -0.106579
0.141922 0.515740 -0.106579
0.321346 0.515740 -0.106581
0.496847 0.515739 -0.106584
0.695391 0.529894 -0.106589
0.897754 0.538557 -0.106595
-0.106595 0.709409 -0.106595
0.146019 0.709409 -0.106596
0.330444 0.709408 -0.106597
0.511139 0.709408 -0.106600
0.695431 0.709406 -0.106605
0.897752 0.721073 -0.106611
-0.106618 0.902954 -0.106618
0.148320 0.902954 -0.106619
0.335994 0.902954 -0.106617
0.519960 0.902954 -0.106620
0.707566 0.902953 -0.106625
0.897749 0.902952 -0.106624
-0.106567 -0.106567 0.141044
0.132216 -0.106567 0.141044
0.309148 -0.106569 0.145335
0.496850 -0.106572 0.151354
0.695394 -0.106577 0.155695
0.897756 -0.106579 0.158152
-0.106568 0.141044 0.141044
0.132216 0.141044 0.141044
0.331732 0.120019 0.120019
0.522035 0.097390 0.097390
0.717001 0.083828 0.083828
0.915368 0.076355 0.076355
-0.106573 0.326449 0.145333
0.089650 0.331300 0.095756
0.310147 0.327479 0.090683
0.507240 0.334746 0.083647
0.708245 0.339209 0.077737
0.910374 0.341549 0.073658
-0.106579 0.515740 0.151348
0.072212 0.519339 0.077156
0.311860 0.518205 0.076077
0.497622 0.516522 0.074371
0.700497 0.528458 0.072459
0.904960 0.535171 0.070929
-0.106595 0.709409 0.155688
0.066349 0.712065 0.070903
0.316289 0.711604 0.070673
0.506908 0.710742 0.070303
0.695967 0.709898 0.069885
0.900734 0.720396 0.069580
-0.106618 0.902954 0.158119
0.065025 0.904835 0.069490
0.319749 0.904633 0.069498
0.513194 0.904268 0.069515
0.705363 0.903777 0.069595
0.898229 0.903280 0.069796
-0.106568 -0.106568 0.326449
0.136261 -0.106568 0.326449
0.309148 -0.106569 0.326449
0.496850 -0.106572 0.338976
0.695394 -0.106577 0.348310
0.897755 -0.106580 0.354002
-0.106569 0.145335 0.326449
0.125388 0.133793 0.355779
0.328031 0.114583 0.345836
0.519731 0.095252 0.343575
0.715657 0.083000 0.343081
0.914801 0.076008 0.343314
-0.106574 0.326448 0.326448
0.087838 0.329873 0.329873
0.309147 0.326448 0.326448
0.527930 0.311095 0.311095
0.749521 0.285806 0.285806
0.951570 0.271510 0.271510
-0.106579 0.515740 0.338974
0.071844 0.518958 0.329752
0.260090 0.526135 0.275627
0.499332 0.518200 0.264124
0.722901 0.518062 0.249139
0.938386 0.513510 0.233643
-0.106596 0.709409 0.348307
0.066272 0.711845 0.333947
0.216788 0.721531 0.230360
0.482370 0.717588 0.225114
0.698049 0.711983 0.217865
0.916642 0.716054 0.209822
-0.106619 0.902954 0.353990
0.065025 0.904799 0.337404
0.189632 0.913883 0.201777
0.471617 0.911782 0.199334
0.691702 0.908724 0.195768
0.900189 0.905198 0.191380
-0.106569 -0.106569 0.515743
0.141929 -0.106569 0.515743
0.321348 -0.106570 0.515742
0.496850 -0.106573 0.515742
0.695394 -0.106578 0.529855
0.897755 -0.106581 0.538559
-0.106570 0.151356 0.515743
0.111576 0.119102 0.563202
0.333893 0.105694 0.549696
0.515690 0.091618 0.534348
0.713557 0.081492 0.537984
0.913683 0.075371 0.540167
-0.106575 0.338976 0.515742
0.084394 0.339632 0.532819
0.304188 0.321312 0.551644
0.525109 0.305675 0.543622
0.746482 0.281051 0.539685
0.951131 0.266474 0.528515
-0.106580 0.515740 0.515740
0.071174 0.518189 0.518189
0.256122 0.523336 0.523336
0.496846 0.515739 0.515739
0.730322 0.501832 0.501832
0.945729 0.489785 0.489785
-0.106597 0.709409 0.529892
0.066125 0.711618 0.526266
0.215045 0.719979 0.503655
0.447726 0.721679 0.466919
0.698611 0.712480 0.452854
0.933614 0.706196 0.437263
-0.106617 0.902954 0.538552
0.065029 0.904620 0.532085
0.188781 0.913223 0.491703
0.392420 0.921037 0.411338
0.667498 0.914981 0.402559
0.902035 0.906944 0.391374
-0.106570 -0.106570 0.709417
0.146039 -0.106571 0.709417
0.330449 -0.106572 0.709416
0.511145 -0.106575 0.709416
0.695393 -0.106580 0.709414
0.897755 -0.106582 0.721079
-0.106572 0.155698 0.709417
0.097848 0.104493 0.759818
0.335590 0.096576 0.748176
0.525360 0.087094 0.734552
0.710808 0.079511 0.724163
0.911958 0.074489 0.728927
-0.106577 0.348310 0.709415
0.080520 0.345408 0.733265
0.296013 0.312876 0.772263
0.530255 0.296682 0.766773
0.741883 0.274068 0.754121
0.950315 0.257935 0.744810
-0.106582 0.529853 0.709412
0.070173 0.531221 0.718156
0.250125 0.529239 0.747865
0.492149 0.511094 0.748864
0.727265 0.496946 0.740056
0.944670 0.485512 0.727793
-0.106599 0.709408 0.709408
0.065927 0.711012 0.711012
0.212346 0.717889 0.717889
0.442830 0.718628 0.718628
0.695430 0.709405 0.709405
0.931902 0.697094 0.697094
-0.106618 0.902954 0.721071
0.065036 0.904420 0.719425
0.187523 0.912054 0.708669
0.389368 0.918961 0.686609
0.648034 0.915728 0.663664
0.901220 0.906189 0.649304
-0.106573 -0.106573 0.902960
0.148340 -0.106573 0.902960
0.336005 -0.106574 0.902960
0.519969 -0.106578 0.902959
0.707577 -0.106578 0.902959
0.897755 -0.106585 0.902958
-0.106574 0.158149 0.902960
0.087392 0.093345 0.949182
0.334956 0.088844 0.941234
0.529480 0.082791 0.930520
0.719869 0.077377 0.921449
0.910104 0.073463 0.914573
-0.106579 0.354004 0.902959
0.076805 0.347773 0.929390
0.293887 0.310691 0.957738
0.522265 0.299907 0.956543
0.736365 0.280143 0.954648
0.948846 0.245097 0.951408
-0.106585 0.538559 0.902958
0.069143 0.538600 0.915385
0.254063 0.529478 0.953863
0.488824 0.507803 0.952245
0.720116 0.496973 0.950045
0.943241 0.479035 0.946140
-0.106601 0.721076 0.902956
0.065700 0.722180 0.907947
0.209150 0.725305 0.931567
0.446007 0.718544 0.943044
0.691264 0.705411 0.939253
0.929446 0.692689 0.933008
-0.106621 0.902954 0.902954
0.065063 0.904186 0.904186
0.185859 0.910442 0.910442
0.385199 0.915942 0.915942
0.643044 0.912519 0.912519
0.897749 0.902952 0.902952
