luts/Asset.cube
LUT_3D_SIZE 16
-0.106567 -0.106567 -0.106567
-0.091873 -0.106567 -0.106567
0.063280 -0.106567 -0.106567
0.132216 -0.106567 -0.106567
0.191345 -0.106568 -0.106568
0.249788 -0.106568 -0.106568
0.309148 -0.106569 -0.106569
0.370048 -0.106570 -0.106570
0.432682 -0.106571 -0.106571
0.496850 -0.106572 -0.106572
0.562230 -0.106573 -0.106573
0.628543 -0.106575 -0.106575
0.695394 -0.106577 -0.106577
0.762866 -0.106579 -0.106579
0.830370 -0.106577 -0.106577
0.897756 -0.106579 -0.106579
-0.106567 -0.091873 -0.106567
-0.091873 -0.091873 -0.106567
0.063280 -0.093319 -0.106567
0.132216 -0.094410 -0.106567
0.191345 -0.094549 -0.106568
0.249788 -0.094507 -0.106568
0.309148 -0.094405 -0.106569
0.370048 -0.094312 -0.106570
0.432682 -0.094212 -0.106571
0.496850 -0.094133 -0.106572
0.562230 -0.094068 -0.106573
0.628543 -0.094038 -0.106575
0.695394 -0.094015 -0.106577
0.762866 -0.094015 -0.106579
0.830370 -0.094042 -0.106577
0.897756 -0.094081 -0.106579
-0.106568 0.067624 -0.106568
-0.093319 0.067624 -0.106568
0.063279 0.067624 -0.106568
0.132216 0.060520 -0.106568
0.191345 0.060018 -0.106568
0.249788 0.061013 -0.106569
0.309148 0.062381 -0.106569
0.370048 0.063789 -0.106570
0.432682 0.065136 -0.106571
0.496850 0.066397 -0.106572
0.562230 0.067442 -0.106574
0.628543 0.068251 -0.106575
0.695394 0.068870 -0.106577
0.762866 0.069331 -0.106579
0.830370 0.069629 -0.106577
0.897756 0.069697 -0.106580
-0.106568 0.141044 -0.106568
-0.094411 0.141044 -0.106568
0.056623 0.141044 -0.106568
0.132216 0.141044 -0.106568
0.191345 0.141483 -0.106569
0.249788 0.143258 -0.106569
0.309148 0.145334 -0.106570
0.370047 0.147427 -0.106571
0.432682 0.149440 -0.106572
0.496850 0.151354 -0.106573
0.562230 0.153033 -0.106574
0.628543 0.154484 -0.106576
0.695394 0.155694 -0.106578
0.762866 0.156730 -0.106580
0.830370 0.157557 -0.106578
0.897755 0.158151 -0.106580
-0.106569 0.203579 -0.106569
-0.094552 0.203579 -0.106569
0.056153 0.203579 -0.106569
0.132633 0.203578 -0.106570
0.191344 0.203578 -0.106570
0.249788 0.206072 -0.106570
0.309148 0.208922 -0.106571
0.370047 0.211789 -0.106572
0.432682 0.214524 -0.106573
0.496850 0.217116 -0.106574
0.562230 0.219468 -0.106576
0.628543 0.221484 -0.106577
0.695394 0.223212 -0.106579
0.762866 0.224672 -0.106577
0.830370 0.225904 -0.106579
0.897755 0.226786 -0.106581
-0.106571 0.264878 -0.106571
-0.094511 0.264878 -0.106571
0.057086 0.264878 -0.106571
0.134304 0.264878 -0.106571
0.193699 0.264878 -0.106572
0.249787 0.264878 -0.106572
0.309147 0.268465 -0.106573
0.370046 0.272077 -0.106574
0.432681 0.275567 -0.106575
0.496849 0.278858 -0.106576
0.562230 0.281810 -0.106577
0.628543 0.284367 -0.106579
0.695393 0.286593 -0.106576
0.762866 0.288476 -0.106578
0.830370 0.290014 -0.106581
0.897755 0.291230 -0.106583
-0.106573 0.326449 -0.106573
-0.094412 0.326449 -0.106573
0.058361 0.326449 -0.106573
0.136258 0.326449 -0.106573
0.196391 0.326448 -0.106574
0.253228 0.326448 -0.106574
0.309147 0.326448 -0.106575
0.370045 0.330803 -0.106576
0.432681 0.334998 -0.106577
0.496849 0.338975 -0.106578
0.562229 0.342527 -0.106579
0.628543 0.345668 -0.106577
0.695393 0.348309 -0.106578
0.762866 0.350603 -0.106581
0.830370 0.352527 -0.106583
0.897755 0.354000 -0.106585
-0.106576 0.388692 -0.106576
-0.094322 0.388692 -0.106576
0.059678 0.388692 -0.106576
0.138231 0.388692 -0.106576
0.199118 0.388692 -0.106576
0.256693 0.388692 -0.106577
0.313395 0.388691 -0.106578
0.370044 0.388691 -0.106578
0.432681 0.393621 -0.106579
0.496848 0.398255 -0.106576
0.562229 0.402468 -0.106578
0.628542 0.406094 -0.106579
0.695392 0.409269 -0.106581
0.762865 0.411946 -0.106583
0.830369 0.414151 -0.106586
0.897754 0.415902 -0.106588
-0.106579 0.451852 -0.106579
-0.094226 0.451852 -0.106579
0.060938 0.451852 -0.106579
0.140129 0.451852 -0.106580
0.201712 0.451852 -0.106580
0.260045 0.451852 -0.106580
0.317476 0.451852 -0.106577
0.374897 0.451852 -0.106577
0.432680 0.451852 -0.106578
0.496847 0.457150 -0.106580
0.562229 0.461929 -0.106581
0.628542 0.466088 -0.106583
0.695392 0.469710 -0.106585
0.762865 0.472827 -0.106587
0.830369 0.475387 -0.106589
0.897754 0.477380 -0.106591
-0.106579 0.515740 -0.106579
-0.094138 0.515740 -0.106579
0.062116 0.515740 -0.106579
0.141922 0.515740 -0.106579
0.204185 0.515740 -0.106580
0.263200 0.515740 -0.106580
0.321346 0.515740 -0.106581
0.379459 0.515740 -0.106581
0.437978 0.515739 -0.106582
0.496847 0.515739 -0.106584
0.562229 0.521085 -0.106585
0.628542 0.525822 -0.106587
0.695391 0.529894 -0.106589
0.762864 0.533412 -0.106591
0.830369 0.536285 -0.106593
0.897754 0.538557 -0.106595
-0.106584 0.580098 -0.106584
-0.094082 0.580098 -0.106584
0.063086 0.580098 -0.106584
0.143514 0.580098 -0.106584
0.206416 0.580098 -0.106584
0.266026 0.580098 -0.106585
0.324804 0.580098 -0.106585
0.383620 0.580098 -0.106586
0.442738 0.580098 -0.106587
0.502271 0.580098 -0.106588
0.562228 0.580097 -0.106590
0.628541 0.585315 -0.106592
0.695390 0.589859 -0.106593
0.762864 0.593728 -0.106595
0.830368 0.596995 -0.106598
0.897753 0.599442 -0.106600
-0.106589 0.644738 -0.106589
-0.094059 0.644738 -0.106589
0.063842 0.644738 -0.106589
0.144877 0.644738 -0.106589
0.208328 0.644738 -0.106590
0.268485 0.644738 -0.106590
0.327860 0.644738 -0.106591
0.387173 0.644738 -0.106592
0.446913 0.644738 -0.106593
0.507025 0.644738 -0.106594
0.567560 0.644738 -0.106595
0.628541 0.644738 -0.106597
0.695389 0.649733 -0.106599
0.762864 0.654065 -0.106601
0.830367 0.657658 -0.106603
0.897752 0.660377 -0.106606
-0.106595 0.709409 -0.106595
-0.094043 0.709409 -0.106595
0.064417 0.709409 -0.106595
0.146019 0.709409 -0.106596
0.209968 0.709409 -0.106596
0.270642 0.709408 -0.106596
0.330444 0.709408 -0.106597
0.390325 0.709408 -0.106598
0.450551 0.709408 -0.106599
0.511139 0.709408 -0.106600
0.572209 0.709407 -0.106602
0.633710 0.709407 -0.106603
0.695431 0.709406 -0.106605
0.762863 0.714108 -0.106607
0.830367 0.717985 -0.106609
0.897752 0.721073 -0.106611
-0.106602 0.774221 -0.106602
-0.094050 0.774221 -0.106602
0.064843 0.774221 -0.106602
0.146995 0.774221 -0.106603
0.211364 0.774221 -0.106603
0.272468 0.774221 -0.106603
0.332662 0.774221 -0.106604
0.392970 0.774221 -0.106605
0.453669 0.774221 -0.106606
0.514699 0.774221 -0.106607
0.576168 0.774221 -0.106609
0.638145 0.774220 -0.106610
0.700310 0.774220 -0.106612
0.762862 0.774220 -0.106614
0.830366 0.778565 -0.106616
0.897751 0.781810 -0.106619
-0.106610 0.838721 -0.106610
-0.094067 0.838721 -0.106610
0.065112 0.838721 -0.106610
0.147775 0.838721 -0.106610
0.212530 0.838721 -0.106611
0.273936 0.838721 -0.106611
0.334556 0.838721 -0.106611
0.395163 0.838721 -0.106613
0.456245 0.838721 -0.106614
0.517670 0.838721 -0.106615
0.579496 0.838721 -0.106616
0.641821 0.838721 -0.106618
0.704300 0.838720 -0.106616
0.767404 0.838720 -0.106618
0.830365 0.838720 -0.106621
0.897750 0.842176 -0.106623
-0.106618 0.902954 -0.106618
-0.094121 0.902954 -0.106618
0.065154 0.902954 -0.106618
0.148320 0.902954 -0.106619
0.213380 0.902954 -0.106619
0.275107 0.902954 -0.106619
0.335994 0.902954 -0.106617
0.396931 0.902954 -0.106618
0.458219 0.902954 -0.106619
0.519960 0.902954 -0.106620
0.582017 0.902953 -0.106621
0.644658 0.902953 -0.106623
0.707566 0.902953 -0.106625
0.770805 0.902953 -0.106627
0.834081 0.902953 -0.106629
0.897749 0.902952 -0.106624
-0.106567 -0.106567 -0.091873
-0.091873 -0.106567 -0.091873
0.063280 -0.106567 -0.093319
0.132216 -0.106567 -0.094410
0.191345 -0.106568 -0.094549
0.249788 -0.106568 -0.094507
0.309148 -0.106569 -0.094405
0.370048 -0.106570 -0.094312
0.432682 -0.106571 -0.094212
0.496850 -0.106572 -0.094133
0.562230 -0.106573 -0.094068
0.628543 -0.106575 -0.094038
0.695394 -0.106577 -0.094015
0.762866 -0.106579 -0.094015
0.830370 -0.106577 -0.094042
0.897756 -0.106579 -0.094081
-0.106567 -0.091873 -0.091873
-0.091873 -0.091873 -0.091873
0.063280 -0.091873 -0.091873
0.132216 -0.091874 -0.091874
0.191345 -0.091874 -0.091874
0.249788 -0.091875 -0.091875
0.309148 -0.091876 -0.091876
0.370048 -0.091869 -0.091869
0.432682 -0.091871 -0.091871
0.496850 -0.091873 -0.091873
0.562230 -0.091875 -0.091875
0.628543 -0.091878 -0.091878
0.695394 -0.091881 -0.091881
0.762866 -0.091884 -0.091884
0.830370 -0.091888 -0.091888
0.897756 -0.091892 -0.091892
-0.106568 0.067624 -0.093319
-0.091874 0.067624 -0.091874
0.063279 0.067624 -0.091874
0.132216 0.062877 -0.091874
0.191345 0.063211 -0.091875
0.249788 0.064401 -0.091875
0.309148 0.065747 -0.091869
0.370048 0.067063 -0.091870
0.432682 0.068303 -0.091872
0.496850 0.069458 -0.091874
0.562230 0.070427 -0.091876
0.628543 0.071211 -0.091879
0.695394 0.071823 -0.091881
0.762866 0.072315 -0.091885
0.830370 0.072652 -0.091889
0.897756 0.072807 -0.091893
-0.106568 0.141044 -0.094411
-0.091875 0.141044 -0.091875
0.058830 0.141044 -0.091875
0.132216 0.141044 -0.091875
0.191345 0.142108 -0.091876
0.249788 0.144100 -0.091869
0.309148 0.146258 -0.091870
0.370047 0.148376 -0.091871
0.432682 0.150405 -0.091873
0.496850 0.152289 -0.091875
0.562230 0.153978 -0.091877
0.628543 0.155426 -0.091880
0.695394 0.156639 -0.091883
0.762866 0.157696 -0.091886
0.830370 0.158540 -0.091890
0.897755 0.159168 -0.091894
-0.106569 0.203579 -0.094552
-0.091869 0.203579 -0.091869
0.059144 0.203579 -0.091869
0.133217 0.203579 -0.091869
0.191344 0.203578 -0.091870
0.249788 0.206361 -0.091870
0.309148 0.209328 -0.091872
0.370047 0.212260 -0.091873
0.432682 0.215051 -0.091875
0.496850 0.217651 -0.091877
0.562230 0.219997 -0.091879
0.628543 0.222003 -0.091882
0.695394 0.223761 -0.091885
0.762866 0.225230 -0.091888
0.830370 0.226455 -0.091892
0.897755 0.227366 -0.091886
-0.106571 0.264878 -0.094511
-0.091871 0.264878 -0.091871
0.060255 0.264878 -0.091872
0.135100 0.264878 -0.091872
0.193974 0.264878 -0.091872
0.249787 0.264878 -0.091873
0.309147 0.268644 -0.091874
0.370046 0.272350 -0.091876
0.432681 0.275882 -0.091877
0.496849 0.279177 -0.091879
0.562230 0.282148 -0.091882
0.628543 0.284728 -0.091884
0.695393 0.286958 -0.091887
0.762866 0.288872 -0.091891
0.830370 0.290426 -0.091894
0.897755 0.291604 -0.091888
-0.106573 0.326449 -0.094412
-0.091875 0.326449 -0.091875
0.061516 0.326449 -0.091875
0.137126 0.326449 -0.091875
0.196796 0.326448 -0.091876
0.253397 0.326448 -0.091877
0.309147 0.326448 -0.091878
0.370045 0.330903 -0.091879
0.432681 0.335192 -0.091881
0.496849 0.339174 -0.091883
0.562229 0.342754 -0.091885
0.628543 0.345889 -0.091888
0.695393 0.348569 -0.091891
0.762865 0.350894 -0.091894
0.830370 0.352795 -0.091888
0.897755 0.354306 -0.091892
-0.106576 0.388692 -0.094322
-0.091879 0.388692 -0.091879
0.062746 0.388692 -0.091879
0.139132 0.388692 -0.091880
0.199566 0.388692 -0.091880
0.256948 0.388692 -0.091881
0.313487 0.388691 -0.091882
0.370044 0.388691 -0.091883
0.432681 0.393710 -0.091885
0.496848 0.398402 -0.091887
0.562229 0.402627 -0.091890
0.628542 0.406271 -0.091892
0.695392 0.409436 -0.091885
0.762865 0.412168 -0.091889
0.830369 0.414374 -0.091892
0.897754 0.416136 -0.091889
-0.106579 0.451852 -0.094226
-0.091885 0.451852 -0.091885
0.063907 0.451852 -0.091885
0.141040 0.451852 -0.091885
0.202215 0.451852 -0.091886
0.260329 0.451852 -0.091887
0.317641 0.451852 -0.091888
0.374990 0.451852 -0.091889
0.432680 0.451852 -0.091891
0.496847 0.457206 -0.091893
0.562229 0.462016 -0.091885
0.628542 0.466216 -0.091888
0.695392 0.469841 -0.091891
0.762865 0.472980 -0.091886
0.830369 0.475558 -0.091890
0.897754 0.477530 -0.091894
-0.106579 0.515740 -0.094138
-0.091892 0.515740 -0.091892
0.064984 0.515740 -0.091892
0.142821 0.515740 -0.091892
0.204709 0.515740 -0.091893
0.263519 0.515740 -0.091893
0.321539 0.515740 -0.091894
0.379607 0.515740 -0.091886
0.438022 0.515739 -0.091887
0.496847 0.515739 -0.091889
0.562229 0.521153 -0.091892
0.628542 0.525900 -0.091887
0.695391 0.530009 -0.091890
0.762864 0.533499 -0.091893
0.830369 0.536391 -0.091897
0.897754 0.538667 -0.091901
-0.106584 0.580098 -0.094082
-0.091889 0.580098 -0.091889
0.065881 0.580098 -0.091889
0.144408 0.580098 -0.091890
0.206916 0.580098 -0.091890
0.266371 0.580098 -0.091891
0.325026 0.580098 -0.091892
0.383754 0.580098 -0.091886
0.442855 0.580098 -0.091887
0.502338 0.580098 -0.091889
0.562228 0.580097 -0.091892
0.628541 0.585345 -0.091894
0.695390 0.589884 -0.091897
0.762864 0.593798 -0.091901
0.830368 0.597066 -0.091905
0.897753 0.599549 -0.091908
-0.106589 0.644738 -0.094059
-0.091890 0.644738 -0.091890
0.066613 0.644738 -0.091891
0.145760 0.644738 -0.091891
0.208857 0.644738 -0.091891
0.268840 0.644738 -0.091892
0.328075 0.644738 -0.091893
0.387383 0.644738 -0.091895
0.447053 0.644738 -0.091896
0.507141 0.644738 -0.091898
0.567588 0.644738 -0.091900
0.628541 0.644738 -0.091903
0.695389 0.649761 -0.091906
0.762863 0.654087 -0.091910
0.830367 0.657685 -0.091913
0.897752 0.660434 -0.091917
-0.106595 0.709409 -0.094043
-0.091900 0.709409 -0.091900
0.067185 0.709409 -0.091901
0.146917 0.709409 -0.091901
0.210507 0.709409 -0.091901
0.270988 0.709408 -0.091902
0.330709 0.709408 -0.091904
0.390486 0.709408 -0.091905
0.450676 0.709408 -0.091906
0.511266 0.709408 -0.091908
0.572248 0.709407 -0.091911
0.633770 0.709407 -0.091913
0.695431 0.709406 -0.091916
0.762863 0.714167 -0.091920
0.830367 0.718090 -0.091916
0.897752 0.721089 -0.091919
-0.106602 0.774221 -0.094050
-0.091912 0.774221 -0.091912
0.067636 0.774221 -0.091912
0.147908 0.774221 -0.091912
0.211900 0.774221 -0.091913
0.272823 0.774221 -0.091914
0.332981 0.774221 -0.091915
0.393181 0.774221 -0.091916
0.453827 0.774221 -0.091918
0.514827 0.774221 -0.091920
0.576256 0.774220 -0.091914
0.638168 0.774220 -0.091917
0.700284 0.774220 -0.091919
0.762862 0.774220 -0.091923
0.830366 0.778575 -0.091926
0.897751 0.781740 -0.091930
-0.106610 0.838721 -0.094067
-0.091916 0.838721 -0.091916
0.067947 0.838721 -0.091917
0.148697 0.838721 -0.091917
0.213075 0.838721 -0.091918
0.274337 0.838721 -0.091918
0.334826 0.838721 -0.091919
0.395405 0.838721 -0.091920
0.456402 0.838721 -0.091922
0.517767 0.838721 -0.091924
0.579574 0.838721 -0.091926
0.641858 0.838721 -0.091929
0.704375 0.838720 -0.091932
0.767414 0.838720 -0.091935
0.830365 0.838720 -0.091939
0.897750 0.842201 -0.091942
-0.106618 0.902954 -0.094121
-0.091929 0.902954 -0.091929
0.068079 0.902954 -0.091930
0.149279 0.902954 -0.091930
0.213945 0.902954 -0.091931
0.275479 0.902954 -0.091931
0.336268 0.902954 -0.091932
0.397103 0.902954 -0.091934
0.458384 0.902954 -0.091935
0.520065 0.902954 -0.091937
0.582158 0.902953 -0.091940
0.644709 0.902953 -0.091942
0.707579 0.902953 -0.091945
0.770733 0.902953 -0.091937
0.834106 0.902953 -0.091940
0.897749 0.902952 -0.091945
-0.106567 -0.106567 0.067625
-0.093318 -0.106567 0.067625
0.063280 -0.106567 0.067625
0.132216 -0.106567 0.060520
0.191345 -0.106568 0.060019
0.249788 -0.106568 0.061014
0.309148 -0.106569 0.062379
0.370048 -0.106570 0.063790
0.432682 -0.106571 0.065137
0.496850 -0.106572 0.066397
0.562230 -0.106573 0.067443
0.628543 -0.106575 0.068252
0.695394 -0.106577 0.068871
0.762866 -0.106579 0.069332
0.830370 -0.106577 0.069630
0.897756 -0.106579 0.069698
-0.106567 -0.093319 0.067625
-0.091873 -0.091873 0.067625
0.063280 -0.091873 0.067625
0.132216 -0.091874 0.062878
0.191345 -0.091874 0.063212
0.249788 -0.091875 0.064401
0.309148 -0.091868 0.065747
0.370048 -0.091869 0.067064
0.432682 -0.091871 0.068307
0.496850 -0.091873 0.069458
0.562230 -0.091875 0.070428
0.628543 -0.091878 0.071212
0.695394 -0.091881 0.071824
0.762866 -0.091884 0.072315
0.830370 -0.091888 0.072653
0.897756 -0.091892 0.072808
-0.106568 0.067624 0.067624
-0.091874 0.067624 0.067624
0.063279 0.067624 0.067624
0.141374 0.059496 0.059496
0.202272 0.050719 0.050719
0.259950 0.044471 0.044471
0.318181 0.040303 0.040303
0.377968 0.037551 0.037551
0.439562 0.035758 0.035758
0.503012 0.034620 0.034620
0.567639 0.033941 0.033941
0.633392 0.033598 0.033598
0.699781 0.033501 0.033501
0.766798 0.033589 0.033589
0.834049 0.033822 0.033822
0.901044 0.034171 0.034171
-0.106568 0.141044 0.060519
-0.091875 0.141044 0.062876
0.045219 0.143299 0.048343
0.132659 0.141511 0.045803
0.195588 0.141821 0.042789
0.255369 0.142238 0.040048
0.315086 0.142891 0.037844
0.375886 0.143757 0.036177
0.438157 0.144770 0.034997
0.502011 0.145881 0.034207
0.566957 0.146956 0.033749
0.632895 0.147948 0.033532
0.699349 0.148843 0.033514
0.766614 0.149667 0.033653
0.833818 0.150370 0.033917
0.900764 0.150918 0.034286
-0.106569 0.203579 0.060018
-0.091869 0.203579 0.063209
0.037154 0.205436 0.039719
0.130525 0.204784 0.038947
0.191694 0.203964 0.037949
0.252079 0.206375 0.036809
0.312519 0.208687 0.035758
0.373851 0.210834 0.034896
0.436649 0.212962 0.034241
0.500846 0.215002 0.033811
0.566056 0.216798 0.033570
0.632227 0.218442 0.033500
0.698779 0.219849 0.033580
0.766100 0.221111 0.033779
0.833540 0.222214 0.034080
0.900464 0.222991 0.034482
-0.106571 0.264878 0.061012
-0.091871 0.264878 0.064396
0.033558 0.266292 0.035878
0.130580 0.266020 0.035610
0.192731 0.265626 0.035246
0.250060 0.265168 0.034834
0.310641 0.268727 0.034381
0.372226 0.272027 0.034000
0.435306 0.275141 0.033720
0.499694 0.278035 0.033552
0.565172 0.280605 0.033500
0.631459 0.282869 0.033563
0.698184 0.284804 0.033732
0.765645 0.286471 0.033995
0.833029 0.287912 0.034342
0.900287 0.288996 0.034762
-0.106573 0.326449 0.062374
-0.091875 0.326449 0.065743
0.031942 0.327570 0.034148
0.131502 0.327459 0.034065
0.194503 0.327205 0.033945
0.252673 0.326962 0.033812
0.309376 0.326663 0.033679
0.371027 0.330988 0.033564
0.434230 0.335000 0.033502
0.498778 0.338760 0.033518
0.564351 0.342065 0.033608
0.630708 0.344881 0.033773
0.697632 0.347365 0.034010
0.765250 0.349500 0.034328
0.832753 0.351279 0.034715
0.899919 0.352587 0.035155
-0.106576 0.388692 0.063781
-0.091879 0.388692 0.067060
0.031376 0.389594 0.033546
0.132768 0.389525 0.033530
0.196574 0.389455 0.033513
0.255515 0.389258 0.033500
0.313056 0.389124 0.033502
0.370228 0.388865 0.033534
0.433419 0.393800 0.033608
0.498029 0.398346 0.033731
0.563660 0.402352 0.033908
0.630230 0.405749 0.034148
0.697111 0.408745 0.034449
0.764782 0.411291 0.034799
0.832275 0.413466 0.035210
0.899519 0.415045 0.035671
-0.106579 0.451852 0.065127
-0.091885 0.451852 0.068295
0.031424 0.452602 0.033595
0.134190 0.452574 0.033613
0.198715 0.452453 0.033643
0.258413 0.452365 0.033691
0.316687 0.452275 0.033761
0.374703 0.452139 0.033859
0.432807 0.451974 0.033994
0.497454 0.457314 0.034183
0.563114 0.461979 0.034425
0.629615 0.466027 0.034710
0.696568 0.469461 0.035038
0.764278 0.472519 0.035416
0.831940 0.475042 0.035843
0.899188 0.476877 0.036315
-0.106579 0.515740 0.066383
-0.091892 0.515740 0.069447
0.031875 0.516383 0.034078
0.135626 0.516379 0.034109
0.200875 0.516404 0.034163
0.261248 0.516278 0.034239
0.320232 0.516222 0.034344
0.378971 0.516124 0.034483
0.437805 0.515997 0.034654
0.497019 0.515887 0.034858
0.562678 0.521241 0.035128
0.629158 0.525807 0.035438
0.696254 0.529788 0.035790
0.763949 0.533227 0.036179
0.831576 0.536133 0.036608
0.898974 0.538330 0.037079
-0.106584 0.580098 0.067419
-0.091889 0.580098 0.070401
0.032615 0.580646 0.034869
0.136986 0.580626 0.034905
0.202855 0.580612 0.034972
0.263855 0.580572 0.035059
0.323459 0.580519 0.035179
0.382792 0.580415 0.035330
0.442337 0.580379 0.035518
0.502161 0.580285 0.035742
0.562324 0.580206 0.036005
0.628862 0.585354 0.036329
0.695950 0.589884 0.036688
0.763620 0.593688 0.037081
0.831222 0.596919 0.037513
0.898655 0.599350 0.037975
-0.106589 0.644738 0.068224
-0.091890 0.644738 0.071183
0.033564 0.645205 0.035884
0.138228 0.645187 0.035928
0.204633 0.645215 0.035992
0.266149 0.645143 0.036088
0.326306 0.645094 0.036210
0.386156 0.645030 0.036368
0.446280 0.644964 0.036564
0.506739 0.644928 0.036790
0.567454 0.644875 0.037059
0.628573 0.644797 0.037369
0.695565 0.649744 0.037726
0.763406 0.654082 0.038116
0.830960 0.657654 0.038542
0.898489 0.660384 0.038985
-0.106595 0.709409 0.068841
-0.091900 0.709409 0.071792
0.034675 0.709801 0.037073
0.139359 0.709870 0.037110
0.206189 0.709796 0.037178
0.268155 0.709759 0.037270
0.328783 0.709798 0.037394
0.389150 0.709706 0.037554
0.449725 0.709699 0.037746
0.510649 0.709564 0.037971
0.571922 0.709581 0.038237
0.633650 0.709591 0.038543
0.695398 0.709420 0.038886
0.763093 0.714154 0.039269
0.830810 0.718069 0.039683
0.898263 0.721098 0.040112
-0.106602 0.774221 0.069296
-0.091912 0.774221 0.072275
0.035910 0.774661 0.038391
0.140386 0.774648 0.038431
0.207592 0.774628 0.038495
0.269958 0.774600 0.038591
0.330944 0.774563 0.038713
0.391717 0.774520 0.038866
0.452733 0.774469 0.039049
0.514086 0.774450 0.039272
0.575847 0.774517 0.039535
0.637962 0.774461 0.039828
0.700271 0.774409 0.040153
0.762976 0.774338 0.040533
0.830616 0.778628 0.040924
0.898039 0.781755 0.041347
-0.106610 0.838721 0.069579
-0.091916 0.838721 0.072610
0.037238 0.839072 0.039807
0.141302 0.839060 0.039848
0.208791 0.839042 0.039908
0.271476 0.839103 0.039999
0.332822 0.839071 0.040111
0.393945 0.839031 0.040266
0.455296 0.839030 0.040450
0.517024 0.838978 0.040660
0.579066 0.838920 0.040911
0.641491 0.838858 0.041192
0.704205 0.838849 0.041523
0.767326 0.838781 0.041873
0.830404 0.838757 0.042268
0.897830 0.842197 0.042668
-0.106618 0.902954 0.069629
-0.091929 0.902954 0.072754
0.038639 0.903115 0.041305
0.142068 0.903104 0.041347
0.209764 0.903204 0.041405
0.272643 0.903182 0.041490
0.334221 0.903151 0.041603
0.395599 0.903115 0.041750
0.457232 0.903072 0.041922
0.519197 0.903062 0.042127
0.581504 0.903009 0.042368
0.644284 0.902950 0.042638
0.707278 0.903063 0.042941
0.770701 0.902999 0.043283
0.834097 0.903018 0.043664
0.897805 0.903005 0.044071
-0.106567 -0.106567 0.141044
-0.094410 -0.106567 0.141044
0.056625 -0.106567 0.141044
0.132216 -0.106567 0.141044
0.191345 -0.106568 0.141484
0.249788 -0.106568 0.143258
0.309148 -0.106569 0.145335
0.370048 -0.106570 0.147427
0.432682 -0.106571 0.149440
0.496850 -0.106572 0.151354
0.562230 -0.106573 0.153034
0.628543 -0.106575 0.154485
0.695394 -0.106577 0.155695
0.762866 -0.106579 0.156730
0.830370 -0.106577 0.157558
0.897756 -0.106579 0.158152
-0.106567 -0.094410 0.141044
-0.091873 -0.091873 0.141044
0.058832 -0.091873 0.141044
0.132216 -0.091874 0.141044
0.191345 -0.091874 0.142108
0.249788 -0.091875 0.144100
0.309148 -0.091868 0.146259
0.370048 -0.091870 0.148376
0.432682 -0.091871 0.150406
0.496850 -0.091873 0.152289
0.562230 -0.091876 0.153978
0.628543 -0.091878 0.155427
0.695394 -0.091881 0.156639
0.762866 -0.091884 0.157697
0.830370 -0.091888 0.158540
0.897756 -0.091892 0.159168
-0.106568 0.060520 0.141044
-0.091874 0.062877 0.141044
0.060747 0.064923 0.152800
0.140063 0.057142 0.149366
0.201225 0.049500 0.146558
0.259327 0.043857 0.144852
0.317779 0.039984 0.144327
0.377667 0.037380 0.144567
0.439435 0.035671 0.145248
0.502917 0.034571 0.146165
0.567576 0.033917 0.147132
0.633322 0.033589 0.148038
0.699726 0.033500 0.148916
0.766744 0.033597 0.149698
0.833999 0.033834 0.150390
0.900997 0.034181 0.150934
-0.106568 0.141044 0.141044
-0.091875 0.141044 0.141044
0.044340 0.142631 0.142631
0.132216 0.141044 0.141044
0.201290 0.136239 0.136239
0.267206 0.128875 0.128875
0.331732 0.120019 0.120019
0.395018 0.111493 0.111493
0.458274 0.103887 0.103887
0.522035 0.097390 0.097390
0.586408 0.091966 0.091966
0.651446 0.087493 0.087493
0.717001 0.083828 0.083828
0.783171 0.080802 0.080802
0.849388 0.078349 0.078349
0.915368 0.076355 0.076355
-0.106569 0.203579 0.141483
-0.091869 0.203579 0.142108
0.036897 0.205225 0.139579
0.116578 0.207330 0.124426
0.192195 0.204496 0.120131
0.259147 0.203210 0.114682
0.323734 0.201480 0.108842
0.387877 0.199686 0.103066
0.452170 0.198087 0.097662
0.517037 0.196830 0.092832
0.582366 0.195834 0.088627
0.648234 0.195071 0.085027
0.714215 0.194482 0.082000
0.781072 0.194070 0.079452
0.847544 0.193741 0.077343
0.913907 0.193391 0.075597
-0.106571 0.264878 0.143257
-0.091872 0.264878 0.144099
0.033469 0.266212 0.139424
0.100957 0.269797 0.107803
0.184813 0.268101 0.105398
0.250824 0.265960 0.102381
0.316169 0.267122 0.098796
0.381025 0.268007 0.095102
0.446141 0.268724 0.091461
0.511879 0.269408 0.088072
0.578047 0.269993 0.084984
0.644619 0.270463 0.082268
