luts/b over lut.cube
# VEGAS Pro LUT
TITLE "b over lut"
LUT_3D_SIZE 5
-0.00515513 -0.00097991 -0.00038338
0.12068626 0.02755977 0.01205740
0.44063312 0.12840594 0.08144188
0.66538519 0.22779903 0.14074293
0.83259583 0.32263905 0.23373303
-0.00649716 0.07936218 0.01152117
0.07018020 0.10534234 0.03364410
0.46685946 0.24266326 0.08121766
0.67399615 0.30920762 0.15588933
0.84516847 0.39456648 0.25252685
0.21611436 0.33397266 0.08142015
0.36451170 0.35278159 0.08740344
0.30299127 0.35854113 0.17600948
0.69344091 0.45534289 0.18912041
0.85915601 0.51026380 0.27545425
0.43534118 0.54576296 0.15211855
0.56886184 0.55468822 0.14538474
0.58504719 0.56452954 0.20095427
0.54685521 0.56764388 0.29615986
0.86331570 0.65802872 0.32231283
0.65482551 0.76243657 0.26498085
0.72518742 0.74625963 0.25195009
0.81714028 0.75303543 0.27648139
0.78748190 0.77629799 0.35805622
0.80557024 0.79195374 0.49470171
-0.00575150 0.00577333 0.08156718
0.05117598 0.01895955 0.09729731
0.40701491 0.13254336 0.16206320
0.64442790 0.24246557 0.24124138
0.82873255 0.33468029 0.31425166
-0.00515513 0.08983187 0.10259861
0.06334513 0.13829662 0.14501049
0.43080401 0.24432865 0.20612907
0.66295028 0.32009560 0.25553125
0.84378505 0.40452296 0.32993412
0.04281569 0.32911527 0.20024481
0.29574627 0.35609579 0.18830961
0.32195908 0.37430343 0.25863272
0.68282759 0.45662197 0.27929908
0.85726237 0.51325572 0.34612870
0.32938170 0.54713053 0.24728858
0.50025243 0.55691195 0.23889670
0.59679139 0.56597626 0.26601982
0.55423701 0.57142365 0.35429448
0.86623365 0.65785921 0.37649301
0.60439450 0.76708210 0.33338773
0.68781328 0.74996805 0.31722879
0.82690859 0.75483382 0.32247841
0.79500532 0.77813554 0.40671408
0.80643833 0.79597300 0.53557462
-0.00664629 0.07551824 0.23445459
0.04296634 0.10015211 0.25463331
0.31085968 0.15687218 0.30848503
0.60670215 0.26522380 0.35711423
0.82685059 0.34462196 0.41210106
0.00723228 0.18507740 0.27519062
0.07572582 0.21347485 0.29439902
0.34426585 0.26249182 0.34632245
0.62309361 0.33849835 0.37762129
0.84138376 0.40926257 0.42940062
0.05978188 0.33580869 0.33736989
0.11983205 0.35816452 0.35515827
0.37848717 0.40374145 0.38078654
0.65009379 0.45787984 0.40800583
0.85540974 0.52069175 0.45376045
0.07114604 0.54100043 0.39055473
0.13345157 0.55664575 0.38978460
0.56405675 0.57429111 0.37487695
0.57977414 0.58092529 0.43965331
0.87318856 0.65331185 0.46391353
0.30317393 0.77014238 0.45072311
0.50997704 0.75996077 0.43935043
0.74477679 0.76564109 0.42741990
0.81937414 0.78248316 0.47654724
0.81331384 0.79889649 0.59176850
0.03717632 0.21787025 0.43056908
0.10116608 0.24002585 0.44422930
0.20146872 0.27036899 0.47691849
0.57760936 0.30971307 0.49406245
0.80232465 0.40402490 0.54067379
0.07046609 0.30727220 0.45883259
0.12712470 0.32880729 0.47201657
0.22131675 0.35160601 0.49759334
0.59097469 0.38070461 0.51251525
0.80866188 0.46049100 0.55092853
0.11414765 0.42382130 0.49262014
0.16510907 0.43670654 0.50061649
0.31641811 0.46284232 0.51539540
0.60324764 0.47920945 0.53020787
0.82652360 0.54010248 0.56719565
0.15865472 0.54192990 0.52194643
0.20599321 0.55568272 0.53107458
0.37878782 0.57414162 0.53854251
0.63182366 0.60284382 0.55613464
0.86445624 0.65242237 0.59022641
0.19699323 0.74615252 0.60129333
0.22733709 0.74540257 0.58967614
0.27010232 0.77255517 0.56781942
0.80652851 0.79150259 0.58116770
0.82749546 0.80806029 0.66987246
0.18727820 0.41582334 0.66432470
0.23408768 0.43126649 0.66579473
0.30392599 0.44620505 0.67800909
0.58487552 0.45877951 0.69095242
0.80825853 0.48801753 0.70735264
0.19676283 0.46799368 0.66640306
0.24235724 0.48023081 0.67012399
0.31287587 0.49973041 0.68476909
0.59133977 0.51197040 0.69899768
0.81201947 0.53503489 0.71503043
0.19333735 0.52635866 0.67601460
0.24159451 0.54060018 0.67868716
0.31762889 0.56352532 0.69124705
0.59876233 0.58413929 0.70916814
0.81829149 0.60232776 0.72850025
0.22022082 0.62488335 0.69890368
0.25985640 0.63469696 0.70163727
0.31911469 0.64397061 0.71003884
0.60524380 0.67657816 0.72709036
0.83271575 0.69532502 0.75287503
0.26035237 0.74690431 0.74765015
0.29798031 0.75840598 0.75139594
0.35160616 0.77281451 0.75973576
0.59017265 0.79524547 0.77326512
0.84909570 0.82461804 0.79596126
