luts/b over lut.cube
# VEGAS Pro LUT
TITLE "b over lut"
LUT_3D_SIZE 33
-0.00515513 -0.00097991 -0.00038338
-0.00403676 -0.00097991 -0.00038338
-0.00291841 -0.00097991 -0.00038338
-0.00180005 -0.00097991 -0.00038338
-0.00068168 -0.00097991 -0.00038338
0.00420079 -0.00008320 -0.00002466
0.01495939 0.00221335 0.00089404
0.06911862 0.01410085 0.00673673
0.12068626 0.02755977 0.01205740
0.16229901 0.03904761 0.01692390
0.19647741 0.04903838 0.02226484
0.23409581 0.06168211 0.02993983
0.27508953 0.07537684 0.04036693
0.32376173 0.09303445 0.05222750
0.36611950 0.10765924 0.06168002
0.40275270 0.11740070 0.07217720
0.44063312 0.12840594 0.08144188
0.47451985 0.14101481 0.09027170
0.50216395 0.15362735 0.09691608
0.53198814 0.16647221 0.10510393
0.56077385 0.17945285 0.11145559
0.58819187 0.19241391 0.11825595
0.61482811 0.20437023 0.12581921
0.63846058 0.21626896 0.13271120
0.66538519 0.22779903 0.14074293
0.68944633 0.23937041 0.15127081
0.70971775 0.25114807 0.16451912
0.72971654 0.26453966 0.17584731
0.74961120 0.27528748 0.18752195
0.77145231 0.28719437 0.19846195
0.79118985 0.29696101 0.21136934
0.81087565 0.30917954 0.22075418
0.83259583 0.32263905 0.23373303
-0.00575150 -0.00045792 -0.00097991
-0.00405540 0.00070708 -0.00026965
-0.00291841 0.00070708 -0.00026965
-0.00180005 0.00070708 -0.00026965
-0.00068168 0.00070708 -0.00026965
0.00413957 0.00155735 0.00006062
0.02856635 0.00676956 0.00302181
0.08525635 0.01978181 0.00777133
0.13131973 0.03415482 0.01370375
0.17241114 0.04670282 0.01903510
0.20623459 0.05813088 0.02702366
0.24225774 0.07007924 0.03363951
0.28677431 0.08505405 0.04383114
0.33141702 0.09948843 0.05558005
0.37327194 0.11384922 0.06508827
0.41004872 0.12350705 0.07360908
0.44410545 0.13532333 0.08228227
0.47533906 0.14906965 0.08931732
0.50647509 0.16246535 0.09766454
0.53347808 0.17451958 0.10376769
0.56203276 0.18744376 0.11066705
0.58944762 0.20038262 0.11827916
0.61619520 0.21230474 0.12426549
0.64211345 0.22317933 0.13152739
0.66546911 0.23456383 0.14181565
0.68955553 0.24685475 0.15324555
0.70981824 0.26043141 0.16682342
0.73010403 0.27160430 0.17884943
0.75161552 0.28147459 0.18790179
0.77346247 0.29331863 0.20077284
0.79327136 0.30509368 0.21185976
0.81097609 0.31516442 0.22305238
0.83262527 0.32660761 0.23602995
-0.00575150 0.00337293 -0.00043737
-0.00461450 0.00641869 0.00064906
-0.00291841 0.00641869 0.00064906
-0.00180005 0.00641869 0.00064906
-0.00124078 0.00641869 0.00064906
-0.00012243 0.00641869 0.00064906
0.04815420 0.01639287 0.00542562
0.09872777 0.03053367 0.01186480
0.14067352 0.04159873 0.01717548
0.17733872 0.05356625 0.02247914
0.21434647 0.06579895 0.02840739
0.25128585 0.07716818 0.03617979
0.29036775 0.09066714 0.04697486
0.33731747 0.10558927 0.05682044
0.37808651 0.11929689 0.06614663
0.41386417 0.13088760 0.07469113
0.44722271 0.14412613 0.08168410
0.47652400 0.15732527 0.08970054
0.50786722 0.17054325 0.09634896
0.53456408 0.18335301 0.10286822
0.56340599 0.19557668 0.11087850
0.59107876 0.20715950 0.11712568
0.61657375 0.21951288 0.12417825
0.64279705 0.23184833 0.13317977
0.66929370 0.24455386 0.14496818
0.69175065 0.25659919 0.15663961
0.71193910 0.26761532 0.16846964
0.73187840 0.27773446 0.17927301
0.75361860 0.28766662 0.19020495
0.77376640 0.29927459 0.20109507
0.79534262 0.31154418 0.21262386
0.81303596 0.32151440 0.22383094
0.83469194 0.33507711 0.23701337
-0.00575150 0.00908454 0.00048133
-0.00463315 0.01213030 0.00156777
-0.00351478 0.01213030 0.00156777
-0.00239642 0.01213030 0.00156777
-0.00127805 0.01213030 0.00156777
0.01239003 0.01444971 0.00239938
0.06920516 0.02653504 0.00793533
0.10992913 0.03864672 0.01360390
0.15130889 0.04952758 0.01846168
0.18598430 0.06068344 0.02385516
0.22340599 0.07298338 0.02996183
0.26041952 0.08514469 0.03837643
0.30048880 0.09903593 0.04929495
0.34053326 0.11228076 0.05801072
0.37959480 0.12707435 0.06687453
0.41629010 0.14261168 0.07406022
0.44780940 0.15540028 0.08098739
0.47908682 0.16767891 0.08757420
0.50848258 0.18050882 0.09553219
0.53738177 0.19300304 0.10231394
0.56475866 0.20481609 0.10879383
0.59227306 0.21676379 0.11667091
0.61937141 0.22988269 0.12626497
0.64748245 0.24295026 0.13685073
0.67075545 0.25496504 0.14801128
0.69185972 0.26567501 0.15989292
0.71388906 0.27588287 0.16929930
0.73380917 0.28588957 0.18001878
0.75564557 0.29572964 0.19088495
0.77750087 0.30783123 0.20385200
0.79742879 0.31984434 0.21543293
0.81512427 0.33004087 0.22669280
0.83674777 0.34181511 0.24014492
-0.00575150 0.01746117 0.00235066
-0.00463315 0.01784188 0.00248647
-0.00351478 0.01784188 0.00248647
-0.00239642 0.01784188 0.00248647
-0.00127805 0.01784188 0.00248647
0.00383668 0.01856010 0.00274399
0.05230998 0.02816259 0.00760525
0.10359760 0.04068884 0.01136055
0.13943623 0.05171802 0.01679556
0.17490426 0.06286947 0.02170908
0.21042618 0.07369092 0.02995218
0.24704021 0.08561529 0.03681994
0.28716764 0.10083993 0.04557151
0.32963282 0.11813655 0.05477905
0.36935431 0.13337806 0.06361982
0.40605670 0.14909641 0.07005835
0.43940413 0.16212013 0.07824972
0.47022605 0.17552674 0.08418915
0.50143170 0.18756898 0.09214345
0.53177071 0.20034322 0.10036173
0.56109357 0.21344024 0.10811249
0.59106755 0.22746897 0.11753587
0.62050998 0.24110605 0.12820204
0.64823532 0.25352243 0.14003274
0.67165583 0.26387030 0.14952704
0.69252229 0.27243027 0.16015086
0.71263778 0.28215277 0.16937158
0.73281842 0.29201925 0.18012986
0.75467491 0.30343607 0.19095227
0.77473748 0.31366497 0.20202357
0.79648769 0.32606238 0.21388382
0.81445360 0.33673239 0.22581778
0.83756924 0.35046679 0.24136451
-0.00575150 0.02050773 0.00231874
-0.00463315 0.02355349 0.00340518
-0.00351478 0.02355349 0.00340518
-0.00239642 0.02355349 0.00340518
-0.00127805 0.02355349 0.00340518
0.01700933 0.02673763 0.00454684
0.07226840 0.04296743 0.01045690
0.11417855 0.05514316 0.01554795
0.15135036 0.06676263 0.01864721
0.18451089 0.07681936 0.02397022
0.21677306 0.08878411 0.02965336
0.25272921 0.10266645 0.03655756
0.29483619 0.11885711 0.04551198
0.33424187 0.13423480 0.05499431
0.37277812 0.15033755 0.06283832
0.41077179 0.16464549 0.06941422
0.44241345 0.17643969 0.07727229
0.47278193 0.18919937 0.08285993
0.50710404 0.20426720 0.09285972
0.53807569 0.21787475 0.10336460
0.56991148 0.23130351 0.11265817
0.60071808 0.24526253 0.12263533
0.62597501 0.25492823 0.13216861
0.64938366 0.26396972 0.14160928
0.67243385 0.27403134 0.15177709
0.69427788 0.28256518 0.16117230
0.71429199 0.29212630 0.17123535
0.73419452 0.30163267 0.18156746
0.75427920 0.31122768 0.19056693
0.77584815 0.32295507 0.20360541
0.79727948 0.33405393 0.21602653
0.81491995 0.34424692 0.22735937
0.83688623 0.35803670 0.24119377
-0.00623618 0.04165640 0.00537825
-0.00463315 0.03930920 0.00567621
-0.00351478 0.04147585 0.00595181
-0.00239642 0.04165640 0.00597478
-0.00079350 0.04454450 0.00634214
0.02671615 0.05460164 0.00922964
0.05435786 0.06596968 0.01300076
0.11477366 0.08399952 0.01586049
0.15455693 0.09254234 0.01940353
0.19065064 0.10069256 0.02457658
0.22698100 0.11301268 0.03083681
0.26561496 0.12558490 0.03614410
0.30411482 0.14074585 0.04697946
0.33978909 0.15443662 0.05470867
0.37855899 0.16856802 0.06125963
0.41436714 0.18160526 0.06950504
0.45228887 0.19917260 0.07992005
0.48799205 0.21263267 0.08914769
0.52209026 0.22818470 0.09984031
0.55213732 0.23984197 0.10849957
0.57787639 0.25019816 0.11577639
0.60275120 0.25878358 0.12436058
0.62760007 0.26683146 0.13511392
0.65014207 0.27668890 0.14415400
0.67433131 0.28443843 0.15275323
0.69629216 0.29414734 0.16300620
0.71607739 0.30238348 0.17203578
0.73633730 0.31195700 0.18258911
0.75781059 0.32194716 0.19371948
0.77817476 0.33357632 0.20509475
0.79937214 0.34484819 0.21892487
0.81739235 0.35498235 0.22938761
0.83897352 0.36903444 0.24494931
-0.00634803 0.06761685 0.00860499
-0.00521103 0.06761685 0.00920137
-0.00351478 0.06761685 0.00920137
-0.00193051 0.07025706 0.00975635
0.03493032 0.07714555 0.01210146
0.06634518 0.08266598 0.01401565
0.04606188 0.08219822 0.01511701
0.05884042 0.08772584 0.02685231
0.13610040 0.11502485 0.02471165
0.18704070 0.12778430 0.02507684
0.23118787 0.13836554 0.02929903
0.27652711 0.15484321 0.03761953
0.31816000 0.16929886 0.04856209
0.35798997 0.18449476 0.05786560
0.39895889 0.19986121 0.06792214
0.43507868 0.21366024 0.07613009
0.46964145 0.22650045 0.08522218
0.50035381 0.23671348 0.09153081
0.52667046 0.24588203 0.10029230
0.55491388 0.25558597 0.10998517
0.57895684 0.26364461 0.11901426
0.60425049 0.27184287 0.12794328
0.62814844 0.27963069 0.13644673
0.65095174 0.28878206 0.14475542
0.67524898 0.29688591 0.15556991
0.69741601 0.30481389 0.16430795
0.71820521 0.31399125 0.17437355
0.73852807 0.32376516 0.18467933
0.75992858 0.33413434 0.19598368
0.78170526 0.34486240 0.20882809
0.80187577 0.35802507 0.22179225
0.82098210 0.36732513 0.23406625
0.84262598 0.38068718 0.24780582
-0.00649716 0.07936218 0.01152117
-0.00509917 0.08163865 0.01214879
-0.00399945 0.08154763 0.01212966
-0.00017842 0.08154763 0.01212966
0.04384707 0.09014601 0.01444229
0.08346991 0.09904081 0.01640419
0.07579820 0.10129531 0.01658799
0.05711080 0.10034907 0.02145622
0.07018020 0.10534234 0.03364410
0.14529231 0.13504171 0.03522005
0.20895353 0.15866157 0.03697288
0.27181524 0.17764296 0.04177982
0.32636172 0.19492567 0.04945698
0.36681402 0.20958775 0.05787089
0.40103331 0.22094576 0.06611670
0.43625563 0.23235576 0.07461572
0.46685946 0.24266326 0.08121766
0.49508226 0.25029510 0.09130497
0.52355629 0.25946537 0.10076609
0.55055273 0.26839042 0.11052004
0.57618219 0.27673271 0.11972681
0.60180795 0.28482863 0.12855740
0.62696713 0.29267079 0.13770069
0.65003902 0.30070847 0.14657411
0.67399615 0.30920762 0.15588933
0.69803345 0.31723452 0.16530117
0.71979368 0.32695428 0.17549586
0.73973888 0.33552736 0.18638551
0.76155037 0.34657869 0.19900596
0.78179461 0.35745686 0.21161914
0.80348265 0.36917940 0.22510254
0.82107562 0.37932879 0.23669609
0.84516847 0.39456648 0.25252685
-0.00275056 0.10348994 0.01653911
-0.00222873 0.10004163 0.01672349
0.00022650 0.09998661 0.01667700
0.02798442 0.10592112 0.01710480
0.07008988 0.11533172 0.01917554
0.10423380 0.12112707 0.01996969
0.10503154 0.12723145 0.02165398
0.09354123 0.12934002 0.02218495
0.07744306 0.12790924 0.03471785
0.09204486 0.13686186 0.04927062
0.16284642 0.16415484 0.04858743
0.23783454 0.19385840 0.05196822
0.30716532 0.21732175 0.05768160
0.36448830 0.23431203 0.06119018
0.40133917 0.24414927 0.06661686
0.43427804 0.25198013 0.07610966
0.46493310 0.26038235 0.08496407
0.49355286 0.26911011 0.09360276
0.52368414 0.27674037 0.10285899
0.54983342 0.28462401 0.11214115
0.57585680 0.29300734 0.12203176
0.60170674 0.30097803 0.13154466
0.62698227 0.30866817 0.14056113
0.65060377 0.31599787 0.14923644
0.67548311 0.32354239 0.15839148
0.70016611 0.33224711 0.16812158
0.72245961 0.34051055 0.17972425
0.74242324 0.35051161 0.19105381
0.76218593 0.35969839 0.20154265
0.78264964 0.37007138 0.21468116
0.80355257 0.38162529 0.22644079
0.82312757 0.39064759 0.23838025
0.84668684 0.40481693 0.25480595
0.02352927 0.14012542 0.02307925
0.02712080 0.13771445 0.02331544
0.04277239 0.13655585 0.02269769
0.07932139 0.14042220 0.02375426
0.11892521 0.14841387 0.02495595
0.13903388 0.15438655 0.02607804
0.13678627 0.15684769 0.02710512
0.13023244 0.16153684 0.02836987
0.11810297 0.16239415 0.02975304
0.09556591 0.15829208 0.04773346
0.10989004 0.16668066 0.06345660
0.18469384 0.19220212 0.06236723
0.26703423 0.22694996 0.07086530
0.33408973 0.25064388 0.07617895
0.38823146 0.26412031 0.07756449
0.43300498 0.27359167 0.08056838
0.46514708 0.28080118 0.08926969
0.49482936 0.28801057 0.09824482
0.52250075 0.29625592 0.10764987
0.55083883 0.30260822 0.11669633
0.57723933 0.31078324 0.12539142
0.60414505 0.31726670 0.13486104
0.62942594 0.32479373 0.14452903
0.65508693 0.33301950 0.15427384
0.68035650 0.34117660 0.16397960
0.70359445 0.34919858 0.17466538
0.72469580 0.35807192 0.18555564
0.74458611 0.36579847 0.19503587
0.76521122 0.37537917 0.20587197
0.78601152 0.38525450 0.21706499
0.80764693 0.39565104 0.23030868
0.82584554 0.40581897 0.24221399
0.84875262 0.41917273 0.25692728
0.06772299 0.17261755 0.03006056
0.08076189 0.17081265 0.02953626
0.09811782 0.16959891 0.02940825
0.12481864 0.17272416 0.03025633
0.15656620 0.17899251 0.03166039
0.16938144 0.18419322 0.03329990
0.16947740 0.18673700 0.03425720
0.16268125 0.18831182 0.03526229
0.15568130 0.19261344 0.03809730
0.14176914 0.19211136 0.04763995
0.12092699 0.18755139 0.06443068
0.13748831 0.19516571 0.07682374
0.21562380 0.22405978 0.08140041
0.29568589 0.25625843 0.08948963
0.36493057 0.28267866 0.09232810
0.41847330 0.29546919 0.09624118
0.46567845 0.30398595 0.09708352
0.49791873 0.31112608 0.10431377
0.52798229 0.31770971 0.11449583
0.55522698 0.32583064 0.12376043
0.58174008 0.33175343 0.13227880
0.60893136 0.33829778 0.14187433
0.63441014 0.34557351 0.15065029
0.65860319 0.35305154 0.16034499
0.68312097 0.35894242 0.16927652
0.70559460 0.36613047 0.17783982
0.72764456 0.37345904 0.18829238
0.74778467 0.38221937 0.19889897
0.76849902 0.39060834 0.20954101
0.79016656 0.40055382 0.22087933
0.81178945 0.41116253 0.23436889
0.82932514 0.42055637 0.24626777
0.85279226 0.43329960 0.26120925
0.08201603 0.19408967 0.03568773
0.10466290 0.19491634 0.03605418
0.12557684 0.19586849 0.03618972
0.14612435 0.19815925 0.03682934
0.17466912 0.20305552 0.03808499
0.19646406 0.20752002 0.03980371
0.19895396 0.21123806 0.04144237
0.19558124 0.21538638 0.04552576
0.18768221 0.21645759 0.04844110
0.17857619 0.21856366 0.05382330
0.16146304 0.21868639 0.06449202
0.14280370 0.21243502 0.07969853
0.16132322 0.22316507 0.09341116
0.24434537 0.25477147 0.09953555
0.32986599 0.29057845 0.10928044
0.40528882 0.31949270 0.11491542
0.45312256 0.33044165 0.11680631
0.49634135 0.33670813 0.11762249
0.53107083 0.34237161 0.12184843
0.55766261 0.34726572 0.12942541
0.58375955 0.35235268 0.13713448
0.60985571 0.35742450 0.14593825
0.63455278 0.36469391 0.15471375
0.66008794 0.36969903 0.16330634
0.68440866 0.37684387 0.17271352
0.70906711 0.38392773 0.18159014
0.73001325 0.39076534 0.19155236
0.75127482 0.39791143 0.20087528
0.77095610 0.40595263 0.21140906
0.79259765 0.41614738 0.22302872
0.81152940 0.42450413 0.23602051
0.83096665 0.43442369 0.24866861
0.85335088 0.44731337 0.26366246
0.11030462 0.22239918 0.04256909
0.12341891 0.22078513 0.04270577
0.14096801 0.21793400 0.04231914
0.16088144 0.22001311 0.04258984
0.19029988 0.22672623 0.04460446
0.22578892 0.23659040 0.04844579
0.23550576 0.24217957 0.05113307
0.23276219 0.24598978 0.05438879
0.22974586 0.24931905 0.05989828
0.22306310 0.25283656 0.06530559
0.21375942 0.25579622 0.07160314
0.19016731 0.25186107 0.08364114
0.16878107 0.24261826 0.09887969
0.19931301 0.25959617 0.11547226
0.28701401 0.29510638 0.12425192
0.36751378 0.32522878 0.13040522
0.43400890 0.34934363 0.13230744
0.48080194 0.35897517 0.13388839
0.51983547 0.36411208 0.13323721
0.55723572 0.36771783 0.13417585
0.58406401 0.37266746 0.14122443
0.61001670 0.37747827 0.14958921
0.63652331 0.38235545 0.15805314
0.66071963 0.38858852 0.16632168
0.68544912 0.39401671 0.17543271
0.70979178 0.40011144 0.18402678
0.73200899 0.40689358 0.19300798
0.75323117 0.41401544 0.20329081
0.77289832 0.42146811 0.21409649
0.79348940 0.42975631 0.22572643
0.81403595 0.44029236 0.23935266
0.83351123 0.45126912 0.25231037
0.85893387 0.46578005 0.26921725
0.14521775 0.25765288 0.05299383
0.15531336 0.25522894 0.05478372
0.16825497 0.24907668 0.05139927
0.19364150 0.25552943 0.05415175
0.22602710 0.26385298 0.05602846
0.25966680 0.27382055 0.05993182
0.28069174 0.28106290 0.06373493
0.28381807 0.28589985 0.06853289
0.28250492 0.28985262 0.07471324
0.27734998 0.29525188 0.08113831
0.26992089 0.29792884 0.08862752
0.25527471 0.30144548 0.09596373
0.23096952 0.29326048 0.10956366
0.20914999 0.28618196 0.12539674
0.23733152 0.30048072 0.14129417
0.32091773 0.32897633 0.14324406
0.39358637 0.35320970 0.14596507
0.45693827 0.37483865 0.14796132
0.50748813 0.38579679 0.14904106
0.54591280 0.39045179 0.14983818
0.58332139 0.39516386 0.14909554
0.61308718 0.39856735 0.15351117
0.63762087 0.40294966 0.16166452
0.66324526 0.40842521 0.17040971
0.68722928 0.41288444 0.17875585
0.71099448 0.41819674 0.18763766
0.73440069 0.42434496 0.19689249
0.75750971 0.43170840 0.20728585
0.77712512 0.43965769 0.21789970
0.79687285 0.44812340 0.23105858
0.81805784 0.45888421 0.24388090
0.83562672 0.46694669 0.25559083
0.86185861 0.48275858 0.27430341
0.18389788 0.29700172 0.06677382
0.19546254 0.29567102 0.06928439
0.20751509 0.29462162 0.06841438
0.23003536 0.29846108 0.06886767
0.26161426 0.30391723 0.06987116
0.29471648 0.31244203 0.07260690
0.32383177 0.31592241 0.07467620
0.32880345 0.32173315 0.07739779
0.32646704 0.32398877 0.08253424
0.32120135 0.32571715 0.08984748
0.31282803 0.33012646 0.09605636
0.30146801 0.33176279 0.10543067
0.28805351 0.33251792 0.11313039
0.26425278 0.32714456 0.12951538
0.24304354 0.31886706 0.14659242
0.27252194 0.33148265 0.15984762
0.34767544 0.35686249 0.15897804
0.41876245 0.37952179 0.16188082
0.48344132 0.39884067 0.16418794
0.53325009 0.41242561 0.16463527
0.57186395 0.41731051 0.16556735
0.60842454 0.42159691 0.16482660
0.64067370 0.42537165 0.16768175
0.66572994 0.42937282 0.17531481
0.68959552 0.43396011 0.18351527
0.71347761 0.43867671 0.19287139
0.73868561 0.44453210 0.20199907
0.76146424 0.45126647 0.21296965
0.78137296 0.45925307 0.22466499
0.80179840 0.46885559 0.23712334
0.81924188 0.47448313 0.24815804
0.83674997 0.48250404 0.25786850
0.86198491 0.49733558 0.27742323
0.21611436 0.33397266 0.08142015
0.23076388 0.33284083 0.08150155
0.24510115 0.33210567 0.08059614
0.26856679 0.33525950 0.07961517
0.29315975 0.33930036 0.08004954
0.32279456 0.34363300 0.08043449
0.35393381 0.34648132 0.08152571
0.36668754 0.35075152 0.08411328
0.36451170 0.35278159 0.08740344
0.35785353 0.35461700 0.09379134
0.35000795 0.35579681 0.10167599
0.33924556 0.35782635 0.10986636
0.32667512 0.35930482 0.11722423
0.31319529 0.36002830 0.12880734
0.29082641 0.35287863 0.14606380
0.27424702 0.34782198 0.16295865
0.30299127 0.35854113 0.17600948
0.37457302 0.38195491 0.17442439
0.44569656 0.40407673 0.17707628
0.50687826 0.42295161 0.18070985
0.55873132 0.43890780 0.18151638
0.59769255 0.44487244 0.18255958
0.63333154 0.44802603 0.18303022
0.66681683 0.45066443 0.18226698
0.69344091 0.45534289 0.18912041
0.71720558 0.45983097 0.19892518
0.74238259 0.46567956 0.20807856
0.76428527 0.47194156 0.21838833
0.78459746 0.47815204 0.22920787
0.80223125 0.48434576 0.23910278
0.82046103 0.49206659 0.25035250
0.83792394 0.49793079 0.26093760
0.85915601 0.51026380 0.27545425
0.24496111 0.36110252 0.08986028
0.25962168 0.36014101 0.08895614
0.27065849 0.35845932 0.08776840
0.29039133 0.36074102 0.08727248
0.31394976 0.36468714 0.08722503
0.34203389 0.36883759 0.08578414
0.37336588 0.37278822 0.08595358
0.39684507 0.37566760 0.08902344
0.40020934 0.37969390 0.09221071
0.39323232 0.38111696 0.09906864
0.38963884 0.38295603 0.10616234
0.38023257 0.38432324 0.11451478
0.37048513 0.38636985 0.12410142
0.35593152 0.38880283 0.13362467
0.33833587 0.38800183 0.14499404
0.31591186 0.38093820 0.16351806
0.30504435 0.37527606 0.18050475
0.33441716 0.38593799 0.19079515
0.40430704 0.40769616 0.18952364
0.46955687 0.42901775 0.19375364
0.52841049 0.44753623 0.19603385
0.58395267 0.46435201 0.19805627
0.62153506 0.47013393 0.19817449
0.65618730 0.47425124 0.19885524
0.68986577 0.47681919 0.19919336
0.71782613 0.47952256 0.20263128
0.74249291 0.48376021 0.21132822
0.76433545 0.48925734 0.22000842
0.78569818 0.49525493 0.23068780
0.80523062 0.50260592 0.24196860
0.82355589 0.50949872 0.25266546
0.84105361 0.51553094 0.26429775
0.86429268 0.52929008 0.28049797
0.27520654 0.38914877 0.09846432
0.28573847 0.38739842 0.09831651
0.29634506 0.38545728 0.09592801
0.31555998 0.38739684 0.09639625
0.33883765 0.39246452 0.09540830
0.36614579 0.39565891 0.09389195
0.39675957 0.39892244 0.09242211
0.42499444 0.40362415 0.09547195
0.43375427 0.40634817 0.09809939
0.43172473 0.40844110 0.10530633
0.42526531 0.40997025 0.11261290
0.41884351 0.41166222 0.12084906
0.40981928 0.41364828 0.12981834
0.39904812 0.41559693 0.13914807
0.38736528 0.41742417 0.14869133
0.36592433 0.41506657 0.16292220
0.34592837 0.40797511 0.18025458
0.33672315 0.40490451 0.19742331
0.36534989 0.41557890 0.20783363
0.43670702 0.43597865 0.20633727
0.49821818 0.45561928 0.21053264
0.55734420 0.47433525 0.21288437
0.60911560 0.48960394 0.21350482
0.64654458 0.49601313 0.21486038
0.67978752 0.49993056 0.21414351
0.71243697 0.50228506 0.21425426
0.74310732 0.50480682 0.21506411
0.76720071 0.50954020 0.22366585
0.78975540 0.51475739 0.23450080
0.80837816 0.52152717 0.24566212
0.82467330 0.52692986 0.25472474
0.84127063 0.53270513 0.26604518
0.86447334 0.54533440 0.28195864
0.30597198 0.42029431 0.11020461
0.31632048 0.41861898 0.11001786
0.32669857 0.41672984 0.10749206
0.34609741 0.41865712 0.10611849
0.36791447 0.42320958 0.10583556
0.39472365 0.42567474 0.10404075
0.41995588 0.42769620 0.10258627
0.44792610 0.43083254 0.10269455
0.46610248 0.43239230 0.10529825
0.46544066 0.43459892 0.11104494
0.46045339 0.43540281 0.11943908
0.45419401 0.43696758 0.12807317
0.44702822 0.43893555 0.13611160
0.43837428 0.44097999 0.14476582
0.42789143 0.44331542 0.15352875
0.41586125 0.44601071 0.16314015
0.39716238 0.44328463 0.17961483
0.37648785 0.43686181 0.19677138
0.37120581 0.43526360 0.21540639
0.40001172 0.44658455 0.22515413
0.46588516 0.46479505 0.22252823
0.52510309 0.48080674 0.22622365
0.57888329 0.49814466 0.22839294
0.63147724 0.51297718 0.22811222
0.67085367 0.52143914 0.22912264
0.70454746 0.52440590 0.23015094
0.73578095 0.52893317 0.23059765
0.76695901 0.53197813 0.23262703
0.79217035 0.53438860 0.23937666
0.80946314 0.53927171 0.24805322
0.82615596 0.54467851 0.25792801
0.84344131 0.55045658 0.26859999
0.86661190 0.56165284 0.28505868
0.33635509 0.45053291 0.12113976
0.34809366 0.44988489 0.11900425
0.35955751 0.44913280 0.11899222
0.37804058 0.44954675 0.11698304
0.39596522 0.45184612 0.11533400
0.41964462 0.45264691 0.11240407
0.44235116 0.45401704 0.11099967
0.46619850 0.45463306 0.10873397
0.48923168 0.45555064 0.10986821
0.49511087 0.45770845 0.11304986
0.49199530 0.45882893 0.12346013
0.48634273 0.46064204 0.13272202
0.48082769 0.46251664 0.14130841
0.47274041 0.46430746 0.15000719
0.46316195 0.46718082 0.15964481
0.45449665 0.46952775 0.16836137
0.44133386 0.47204018 0.17749089
0.42239636 0.46793979 0.19376273
0.40708315 0.46238899 0.21152249
0.39824072 0.46067658 0.22876242
0.42971978 0.47149283 0.23869844
0.49296683 0.48719007 0.23726779
0.54828840 0.50363934 0.24076250
0.60260993 0.51983529 0.24210002
0.65149373 0.53544527 0.24463458
0.69340456 0.54590172 0.24523875
0.72697192 0.55098629 0.24808726
0.75799775 0.55416948 0.24846900
0.78813243 0.55596256 0.24931672
0.81161737 0.55878502 0.25317872
0.82899326 0.56414807 0.26304418
0.84513336 0.56967103 0.27287441
0.86505604 0.57771063 0.28769803
0.35845923 0.47373679 0.12792911
0.37225673 0.47474021 0.12749995
0.38205332 0.47287580 0.12586927
0.39936110 0.47399670 0.12400513
0.42045054 0.47536242 0.12243865
0.44065067 0.47634345 0.12054620
0.46282727 0.47759473 0.11894887
0.48631391 0.47907004 0.11667053
0.50905049 0.48077914 0.11522643
0.52475089 0.48142833 0.11801062
0.52290595 0.48342818 0.12658581
0.51907682 0.48377380 0.13735330
0.51258987 0.48562145 0.14570116
0.50536364 0.48654288 0.15537889
0.49767706 0.48846886 0.16314222
0.48681596 0.49024367 0.17171720
0.47704825 0.49207571 0.17996034
0.46240282 0.49326745 0.18937314
0.44365126 0.48947051 0.20770392
0.42880863 0.48403111 0.22396544
0.42482316 0.48261711 0.24103695
0.45603690 0.49142697 0.24913935
0.51428676 0.50713784 0.24753457
0.56914246 0.52333474 0.25326312
0.62211430 0.54056358 0.25534233
0.67231905 0.55671549 0.25927433
0.71756446 0.57075292 0.26296371
0.74883878 0.57560098 0.26481605
0.77996922 0.57991695 0.26728100
0.80766678 0.58155525 0.26775330
