luts/b over lut.cube
# VEGAS Pro LUT
TITLE "b over lut"
LUT_3D_SIZE 9
-0.00515513 -0.00097991 -0.00038338
-0.00068168 -0.00097991 -0.00038338
0.12068626 0.02755977 0.01205740
0.27508953 0.07537684 0.04036693
0.44063312 0.12840594 0.08144188
0.56077385 0.17945285 0.11145559
0.66538519 0.22779903 0.14074293
0.74961120 0.27528748 0.18752195
0.83259583 0.32263905 0.23373303
-0.00575150 0.01746117 0.00235066
-0.00127805 0.01784188 0.00248647
0.13943623 0.05171802 0.01679556
0.28716764 0.10083993 0.04557151
0.43940413 0.16212013 0.07824972
0.56109357 0.21344024 0.10811249
0.67165583 0.26387030 0.14952704
0.75467491 0.30343607 0.19095227
0.83756924 0.35046679 0.24136451
-0.00649716 0.07936218 0.01152117
0.04384707 0.09014601 0.01444229
0.07018020 0.10534234 0.03364410
0.32636172 0.19492567 0.04945698
0.46685946 0.24266326 0.08121766
0.57618219 0.27673271 0.11972681
0.67399615 0.30920762 0.15588933
0.76155037 0.34657869 0.19900596
0.84516847 0.39456648 0.25252685
0.08201603 0.19408967 0.03568773
0.17466912 0.20305552 0.03808499
0.18768221 0.21645759 0.04844110
0.16132322 0.22316507 0.09341116
0.45312256 0.33044165 0.11680631
0.58375955 0.35235268 0.13713448
0.68440866 0.37684387 0.17271352
0.77095610 0.40595263 0.21140906
0.85335088 0.44731337 0.26366246
0.21611436 0.33397266 0.08142015
0.29315975 0.33930036 0.08004954
0.36451170 0.35278159 0.08740344
0.32667512 0.35930482 0.11722423
0.30299127 0.35854113 0.17600948
0.55873132 0.43890780 0.18151638
0.69344091 0.45534289 0.18912041
0.78459746 0.47815204 0.22920787
0.85915601 0.51026380 0.27545425
0.33635509 0.45053291 0.12113976
0.39596522 0.45184612 0.11533400
0.48923168 0.45555064 0.10986821
0.48082769 0.46251664 0.14130841
0.44133386 0.47204018 0.17749089
0.42971978 0.47149283 0.23869844
0.65149373 0.53544527 0.24463458
0.78813243 0.55596256 0.24931672
0.86505604 0.57771063 0.28769803
0.43534118 0.54576296 0.15211855
0.49577737 0.55244964 0.15225261
0.56886184 0.55468822 0.14538474
0.60901570 0.55772001 0.16344167
0.58504719 0.56452954 0.20095427
0.54040587 0.56795758 0.23656851
0.54685521 0.56764388 0.29615986
0.73283947 0.62137306 0.30533695
0.86331570 0.65802872 0.32231283
0.53008622 0.63928443 0.18742758
0.57870811 0.64272451 0.18819880
0.64014220 0.64366949 0.18463820
0.71073514 0.64491254 0.18063070
0.70457232 0.65413702 0.22618622
0.68114841 0.66334742 0.26434866
0.64756429 0.66845948 0.31174049
0.66814047 0.67131817 0.37261042
0.82324529 0.71890819 0.38802606
0.65482551 0.76243657 0.26498085
0.67391008 0.74535567 0.25193304
0.72518742 0.74625963 0.25195009
0.78909749 0.74747139 0.25322330
0.81714028 0.75303543 0.27648139
0.80541527 0.76471502 0.31944865
0.78748190 0.77629799 0.35805622
0.77041090 0.77996475 0.42081064
0.80557024 0.79195374 0.49470171
-0.00575150 -0.00157629 0.01855923
-0.00127805 -0.00157629 0.01855923
0.11318034 0.02393385 0.03223117
0.26314393 0.06602974 0.05674087
0.42218226 0.13324244 0.10110245
0.54478848 0.18437953 0.13884680
0.65515679 0.23157826 0.17927933
0.74758649 0.27919948 0.22360685
0.83064610 0.32701966 0.26797304
-0.00575150 0.01570584 0.02133211
-0.00127805 0.01570584 0.02172824
0.13052607 0.05278159 0.03873178
0.26924151 0.10944639 0.07301085
0.42997706 0.17167720 0.11197242
0.56018943 0.22480503 0.15248767
0.67004424 0.26997131 0.19247878
0.75606066 0.30983540 0.22951019
0.83964241 0.35721707 0.27567112
-0.00985218 0.08576196 0.03090263
0.03381558 0.09702910 0.04502090
0.05814278 0.11259209 0.07226394
0.30576593 0.19469163 0.10018380
0.45648199 0.24332526 0.13295862
0.57404530 0.28171113 0.16710646
0.67404342 0.31459454 0.19863111
0.76363212 0.35216957 0.23683247
0.84567314 0.39726025 0.28378773
0.02825806 0.19717780 0.08690396
0.12221386 0.20616582 0.08381283
0.20284152 0.22777265 0.09522597
0.17266829 0.23388678 0.13652909
0.45438409 0.33139887 0.15925360
0.58152694 0.35447031 0.18076880
0.68341786 0.37923294 0.21150999
0.77381319 0.40966213 0.24644333
0.85260934 0.44931388 0.29307604
0.14855558 0.32914948 0.12266976
0.24775606 0.33586407 0.12145185
0.37132213 0.35398546 0.11853465
0.33494037 0.36176914 0.15437725
0.30586454 0.36419442 0.20950839
0.56030726 0.44063830 0.21537855
0.69049072 0.45654908 0.22628593
0.78325212 0.47833651 0.26027834
0.85921484 0.51110440 0.30481288
0.29251701 0.44530520 0.15908481
0.35834908 0.44652826 0.15288833
0.46456754 0.45364475 0.14319980
0.48403940 0.46199444 0.17058563
0.44472119 0.47188130 0.20903900
0.43292481 0.47303110 0.26656225
0.65363407 0.53686672 0.27201483
0.78639776 0.55604351 0.27594891
0.86456752 0.57833105 0.31506145
0.40851742 0.54712939 0.18893135
0.46843493 0.55120206 0.18651256
0.55042881 0.55277193 0.17954077
0.61241961 0.55836976 0.18865320
0.58800519 0.56433409 0.22734891
0.54541093 0.57019180 0.26335222
0.54837108 0.56818914 0.32101402
0.73348922 0.62214148 0.32800683
0.86334306 0.65864319 0.34495997
0.51319981 0.64044148 0.22000682
0.56434876 0.64735937 0.22160718
0.62826002 0.64570051 0.21678972
0.70824301 0.64729774 0.21162088
0.70723975 0.65420550 0.24956796
0.68478853 0.66458255 0.28861541
0.64786285 0.66883105 0.33369946
0.66720617 0.67188305 0.39474398
0.82418722 0.72157419 0.40975404
0.64237267 0.76604390 0.29240841
0.66281164 0.74905360 0.28135973
0.71506459 0.74687457 0.27720988
0.78233933 0.75033611 0.28043807
0.82068545 0.75517637 0.29726636
0.80814850 0.76546943 0.34109163
0.78931832 0.77701128 0.38049734
0.77130568 0.78272301 0.43998370
0.80623794 0.79275638 0.51397657
-0.00575150 0.00577333 0.08156718
-0.00127805 0.00577333 0.08156718
0.05117598 0.01895955 0.09729731
0.22325101 0.06831785 0.12485571
0.40701491 0.13254336 0.16206320
0.53803670 0.18378809 0.19554442
0.64442790 0.24246557 0.24124138
0.74572122 0.28742564 0.27534541
0.82873255 0.33468029 0.31425166
-0.00522967 0.03006397 0.08676210
-0.00075623 0.03492223 0.08944916
0.05621569 0.06384853 0.11258173
0.23347504 0.11181613 0.14134054
0.41191265 0.17045778 0.17561500
0.54927433 0.23200032 0.22039217
0.65643728 0.27754083 0.25169125
0.75393665 0.31640053 0.28073630
0.83771771 0.36483949 0.32231876
-0.00515513 0.08983187 0.10259861
0.01184439 0.10232671 0.11501363
0.06334513 0.13829662 0.14501049
0.26155698 0.18887855 0.17408289
0.43080401 0.24432865 0.20612907
0.55723822 0.28551072 0.23178500
0.66295028 0.32009560 0.25553125
0.76148021 0.35897127 0.28768480
0.84378505 0.40452296 0.32993412
-0.00985221 0.20115910 0.14971030
0.00196914 0.20828971 0.14764032
0.17407463 0.23864111 0.16193007
0.19079016 0.25429174 0.20028934
0.44490033 0.32752252 0.22239758
0.56915951 0.35596606 0.24453580
0.67220002 0.38131359 0.26685938
0.77015823 0.41236424 0.29499966
0.85071594 0.45249841 0.33604404
0.04281569 0.32911527 0.20024481
0.08110926 0.33658206 0.20104489
0.29574627 0.35609579 0.18830961
0.35630357 0.36988208 0.20852326
0.32195908 0.37430343 0.25863272
0.56021607 0.43978733 0.26503518
0.68282759 0.45662197 0.27929908
0.77844667 0.47890416 0.30627233
0.85726237 0.51325572 0.34612870
0.14454326 0.44703856 0.23199904
0.25349510 0.44691145 0.22207862
0.39609647 0.45724803 0.21173148
0.50229013 0.46585327 0.21377529
0.45900887 0.47674498 0.25642207
0.44290429 0.47888863 0.30616757
0.65767545 0.53934193 0.31082350
0.78451639 0.55470753 0.31720081
0.86387378 0.57949334 0.35488942
0.32938170 0.54713053 0.24728858
0.40186274 0.55216122 0.24645737
0.50025243 0.55691195 0.23889670
0.61376220 0.55976427 0.22922480
0.59679139 0.56597626 0.26601982
0.55632007 0.57401246 0.30157980
0.55423701 0.57142365 0.35429448
0.73762566 0.62617666 0.36188841
0.86623365 0.65785921 0.37649301
0.46090844 0.64308494 0.27005172
0.51993001 0.64955664 0.27284124
0.59369683 0.65097463 0.26712278
0.68169749 0.65145528 0.26211110
0.71514559 0.65529650 0.28223488
0.69085586 0.66548342 0.32217956
0.65618950 0.67145044 0.36312330
0.66953975 0.67270273 0.42238700
0.82750374 0.72366655 0.43606398
0.60439450 0.76708210 0.33338773
0.63123387 0.75267678 0.32126862
0.68781328 0.74996805 0.31722879
0.75905466 0.75252062 0.31885344
0.82690859 0.75483382 0.32247841
0.81375319 0.76661652 0.36792895
0.79500532 0.77813554 0.40671408
0.77395034 0.78395444 0.46325701
0.80643833 0.79597300 0.53557462
-0.00515513 0.02886616 0.15313521
-0.00068168 0.02895805 0.15433414
0.03805631 0.05269033 0.17361541
0.16808815 0.07847383 0.20113714
0.35636616 0.14287330 0.23334083
0.50922155 0.19672371 0.26196969
0.63428235 0.23961081 0.28859049
0.74317235 0.28158849 0.31779957
0.82880998 0.33967155 0.36357313
-0.00530425 0.07398931 0.16331953
0.00538697 0.08112890 0.16822383
0.04652530 0.10411765 0.18984331
0.17792612 0.12317909 0.21533409
0.36790302 0.18948194 0.25528249
0.52890790 0.24160275 0.28311962
0.64582425 0.27548370 0.30222481
0.74936128 0.31495956 0.32862377
0.83558875 0.37444508 0.37601018
-0.00291843 0.14097957 0.19498666
0.01932833 0.15185496 0.20219298
0.06354938 0.17408295 0.22074473
0.19977063 0.19701211 0.24714158
0.38559315 0.25015908 0.27765605
0.53552186 0.28754500 0.29573941
0.64857817 0.32120740 0.31318864
0.75188619 0.36871016 0.34882519
0.84141427 0.41266382 0.38382119
0.01124255 0.21252644 0.22449413
0.03833139 0.22270745 0.23058461
0.08114921 0.23997527 0.24601629
0.21643288 0.28069952 0.27690879
0.40869659 0.32376695 0.30002677
0.54433095 0.35657763 0.31562173
0.65600461 0.38586754 0.33109608
0.75959039 0.41719306 0.35477090
0.84881747 0.45859000 0.38909817
0.03104221 0.32080117 0.27403992
0.05005126 0.32878128 0.27825555
0.08397256 0.35207254 0.28400216
0.33502534 0.37792876 0.27778330
0.34259504 0.38815361 0.31838959
0.55846292 0.43527409 0.32450190
0.66902709 0.45616737 0.34141225
0.77002233 0.48041940 0.36380371
0.85531330 0.51595390 0.39679495
0.04007724 0.44705123 0.30086809
0.08049816 0.44966060 0.30443931
0.17967215 0.45993978 0.31114477
0.43612456 0.47254553 0.28806773
0.48699808 0.48278734 0.31190830
0.46365681 0.48538414 0.35448745
0.65920275 0.53752714 0.35927516
0.77747118 0.55308789 0.37135947
0.86390769 0.58134967 0.40373746
0.14725727 0.54883265 0.33090085
0.20064345 0.55373657 0.32847434
0.37526435 0.56015384 0.31906006
0.53159177 0.56516349 0.30253080
0.61935592 0.56862128 0.30946410
0.57553053 0.57708305 0.34897906
0.56449127 0.57559723 0.39391381
0.74811947 0.63167465 0.40288645
0.87105429 0.65551174 0.41515994
0.33190271 0.64631110 0.33782071
0.41471758 0.65317243 0.34012532
0.50880796 0.65578508 0.33540505
0.62158459 0.65637082 0.32438803
0.72975099 0.65540242 0.31633577
0.70558351 0.66762739 0.36308587
0.67030555 0.67549163 0.39947596
0.67778426 0.67627323 0.45530158
0.83665979 0.72949344 0.47038382
0.52546614 0.76826102 0.38697773
0.56050372 0.75524855 0.37520003
0.63048786 0.75664121 0.37300962
0.71663731 0.75815672 0.36751115
0.80864090 0.76043642 0.36869979
0.82545131 0.76852775 0.39910680
0.80526978 0.77998215 0.44086349
0.78040910 0.78650546 0.48923817
0.80870962 0.79725683 0.56215417
-0.00664629 0.07551824 0.23445459
-0.00112900 0.07889105 0.23608546
0.04296634 0.10015211 0.25463331
0.10235062 0.12206696 0.27496690
0.31085968 0.15687218 0.30848503
0.48299587 0.21632537 0.33258879
0.60670215 0.26522380 0.35711423
0.72420967 0.30191064 0.37933820
0.82685059 0.34462196 0.41210106
-0.00426042 0.12738456 0.25323671
0.01287766 0.13381037 0.25882068
0.05567655 0.15529667 0.27811277
0.11128417 0.16981705 0.29905406
0.33397073 0.20857780 0.33352566
0.49507421 0.25830954 0.34979302
0.61365598 0.29535222 0.36604372
0.73214519 0.33120865 0.38821781
0.83459938 0.37318772 0.42077619
0.00723228 0.18507740 0.27519062
0.03471528 0.19583890 0.28239977
0.07572582 0.21347485 0.29439902
0.12451924 0.23391032 0.32084429
0.34426585 0.26249182 0.34632245
0.49456418 0.30289149 0.35904193
0.62309361 0.33849835 0.37762129
0.74019527 0.37103644 0.39897007
0.84138376 0.40926257 0.42940062
0.02978912 0.25185025 0.29906893
0.05599272 0.26077032 0.30467203
0.09619975 0.28245088 0.32350683
0.16605440 0.31482014 0.34975141
0.35850391 0.33348811 0.36686352
0.50734127 0.36578539 0.37811288
0.63472027 0.38960996 0.39058754
0.74875551 0.41780078 0.40846682
0.84666324 0.46306083 0.44316787
0.05978188 0.33580869 0.33736989
0.08346768 0.34222320 0.34268257
0.11983205 0.35816452 0.35515827
0.19731084 0.37991315 0.37043613
0.37848717 0.40374145 0.38078654
0.52899325 0.43131283 0.39401174
0.65009379 0.45787984 0.40800583
0.75630039 0.48390937 0.42374754
0.85540974 0.52069175 0.45376045
0.09836324 0.43495786 0.38361576
0.11471997 0.43866119 0.38559297
0.14058736 0.45296529 0.39012375
0.17483336 0.47275093 0.38963163
0.47607121 0.49111864 0.37414375
0.48527622 0.49494746 0.40816024
0.66306543 0.53063041 0.41173387
0.76776505 0.55106753 0.43018273
0.86269128 0.58096838 0.45789188
0.07114604 0.54100043 0.39055473
0.09285147 0.54899025 0.39185163
0.13345157 0.55664575 0.38978460
0.32777002 0.56720066 0.39661032
0.56405675 0.57429111 0.37487695
0.60135132 0.58118200 0.40076181
0.57977414 0.58092529 0.43965331
0.75975382 0.63386071 0.44860488
0.87318856 0.65331185 0.46391353
0.13332778 0.64546639 0.39720765
0.17026024 0.65368927 0.40362656
0.27469233 0.65843183 0.41180995
0.49166405 0.66291314 0.40763316
0.65195954 0.66459501 0.39012462
0.73105431 0.67224586 0.40353721
0.68951291 0.68023312 0.44321701
0.68580949 0.68040645 0.49192527
0.85040176 0.73563147 0.50787765
0.30317393 0.77014238 0.45072311
0.40364519 0.75888330 0.44234854
0.50997704 0.75996077 0.43935043
0.62578285 0.76361537 0.43443239
0.74477679 0.76564109 0.42741990
0.84560150 0.76950794 0.43034095
0.81937414 0.78248316 0.47654724
0.79278141 0.79055637 0.51928073
0.81331384 0.79889649 0.59176850
-0.00351489 0.13914928 0.32663843
0.01887686 0.14609981 0.33163419
0.06228583 0.16465032 0.34482107
0.11583048 0.18466595 0.36258405
0.22696416 0.20835114 0.39614487
0.45534283 0.23775408 0.40948331
0.58660287 0.27947041 0.41925049
0.70073920 0.33112627 0.44312638
0.81815821 0.37561992 0.47646731
0.00848557 0.18467598 0.34219009
0.03549003 0.19335808 0.35006654
0.07630381 0.20887931 0.36020204
0.12686679 0.22875616 0.38119620
0.24832371 0.24820699 0.40860543
0.46455061 0.27324289 0.41846067
0.59444273 0.31044248 0.42775512
0.70879084 0.36133680 0.45360699
0.82516438 0.40274197 0.48553097
0.03368227 0.23700036 0.35725266
0.05956400 0.24536140 0.36167049
0.09645084 0.26290050 0.37493548
0.14262217 0.28551909 0.40077010
0.26755792 0.30002376 0.41962987
0.47258666 0.32014200 0.42939964
0.60185194 0.35716149 0.44038445
0.71365649 0.39713588 0.46182087
0.83078551 0.43445522 0.49094698
0.05665781 0.30226246 0.38340712
0.08101127 0.31143516 0.38961378
0.11882758 0.32949349 0.40301827
0.16327155 0.34990254 0.42002362
0.30642498 0.36422056 0.43421221
0.48203689 0.37777913 0.44112825
0.60552347 0.40692255 0.45074952
0.72314924 0.43986398 0.47156534
0.84045440 0.47452801 0.49879411
0.08405746 0.37584752 0.41152599
0.10595660 0.38006768 0.41493431
0.13964424 0.39379755 0.42454174
0.18348543 0.41141436 0.43626666
0.35330218 0.43265423 0.44790569
0.49688837 0.44131514 0.45560911
0.61736739 0.46577802 0.46741274
0.73992598 0.48841271 0.48130614
0.85117698 0.51799613 0.50441456
0.11314109 0.44749197 0.43810233
0.13564447 0.45444378 0.44127521
0.16609335 0.46356282 0.44821846
0.20567736 0.47575009 0.45414066
0.38429981 0.49131161 0.45949763
0.51246274 0.50663823 0.46613318
0.64144421 0.52660763 0.47923031
0.75448263 0.55092752 0.49363256
0.85961866 0.58253253 0.51739740
0.15350130 0.52681786 0.46882582
0.17551936 0.53618491 0.47462875
0.19556277 0.54517990 0.47813493
0.22157393 0.55813968 0.48021731
0.34749788 0.57538122 0.47329062
0.59578729 0.58640379 0.45769486
0.60165244 0.59028339 0.49327925
0.77003253 0.62922275 0.50164908
0.87164116 0.65295917 0.52317375
0.12560576 0.63370222 0.48341128
0.14556801 0.64303303 0.48731482
0.16619228 0.65040267 0.48369902
0.19437167 0.66122180 0.47164536
0.45442578 0.67157435 0.48017973
0.68300867 0.67677963 0.46803468
0.71799713 0.68459934 0.49507627
0.70172709 0.68631077 0.53849024
0.86707342 0.74194121 0.55251920
0.10104248 0.76169240 0.47744459
0.13077071 0.75554109 0.47262996
0.18811901 0.76385665 0.47531688
0.34380257 0.77034050 0.49361026
0.61582255 0.77315652 0.50747287
0.77667272 0.77842319 0.49982172
0.84499276 0.78402996 0.51728952
0.81122243 0.79523808 0.55801278
0.81942290 0.80324292 0.62743849
0.03717632 0.21787025 0.43056908
0.06204461 0.22432816 0.43388584
0.10116608 0.24002585 0.44422930
0.14838064 0.26198262 0.46077842
0.20146872 0.27036899 0.47691849
0.41142288 0.27946678 0.48821121
0.57760936 0.30971307 0.49406245
0.69155145 0.34498709 0.50531662
0.80232465 0.40402490 0.54067379
0.05052096 0.25602871 0.44265717
0.07510353 0.26358533 0.44743022
0.11172131 0.28099102 0.45822778
0.15741163 0.29969370 0.47498339
0.20729595 0.30764303 0.48961169
0.42567900 0.31531119 0.49882397
0.58658564 0.34160560 0.50582355
0.69712090 0.37443423 0.51409012
0.80836636 0.43004155 0.54683679
0.07046609 0.30727220 0.45883259
0.09437503 0.31468201 0.46339574
0.12712470 0.32880729 0.47201657
0.17040011 0.34438717 0.48697343
0.22131675 0.35160601 0.49759334
0.43698847 0.35980037 0.50680089
0.59097469 0.38070461 0.51251525
0.70103246 0.41040671 0.52003473
0.80866188 0.46049100 0.55092853
0.09104079 0.36073563 0.47421017
0.11368485 0.36762732 0.47659975
0.14674397 0.38000363 0.48259676
0.18779013 0.39357451 0.49380401
0.25924098 0.40478277 0.50448442
0.45350009 0.41107962 0.51287818
0.59573281 0.42707944 0.52008909
0.70442855 0.45488700 0.53063232
0.81430900 0.49967331 0.56101048
0.11414765 0.42382130 0.49262014
0.13345069 0.42768767 0.49413022
0.16510907 0.43670654 0.50061649
0.20383562 0.44754696 0.50768560
0.31641811 0.46284232 0.51539540
0.47438711 0.47204894 0.52258015
0.60324764 0.47920945 0.53020787
0.71238375 0.50428593 0.54120231
0.82652360 0.54010248 0.56719565
0.13585699 0.48008832 0.50575364
0.15871738 0.48815617 0.51071942
0.18697058 0.49403465 0.51402801
0.22174075 0.50299770 0.51908296
0.34428051 0.51589197 0.52449185
0.50098699 0.53167647 0.53153467
0.61261046 0.53680575 0.54159486
0.72610134 0.56196064 0.55571765
0.84714627 0.58873695 0.57887447
0.15865472 0.54192990 0.52194643
0.18034756 0.55049741 0.52847165
0.20599321 0.55568272 0.53107458
0.23928666 0.56328905 0.53442913
0.37878782 0.57414162 0.53854251
0.52021605 0.58563119 0.54315037
0.63182366 0.60284382 0.55613464
0.75299072 0.62610865 0.57126713
0.86445624 0.65242237 0.59022641
0.19902566 0.62092978 0.55352318
0.22036743 0.62880534 0.55981869
0.24450950 0.63464236 0.56294650
0.27445683 0.64366084 0.56705230
0.36852580 0.65952748 0.57109046
0.49296290 0.67659098 0.56254125
0.71526009 0.69182670 0.55659527
0.72213411 0.69703603 0.59457988
0.88137048 0.73757344 0.60505611
0.19699323 0.74615252 0.60129333
0.20960695 0.73884201 0.59068042
0.22733709 0.74540257 0.58967614
0.24658123 0.75921053 0.58468676
0.27010232 0.77255517 0.56781942
0.57385778 0.78279644 0.57540333
0.80652851 0.79150259 0.58116770
0.83669025 0.79943538 0.60923749
0.82749546 0.80806029 0.66987246
0.10011262 0.31276256 0.54706448
0.12267655 0.32020950 0.55025458
0.15497576 0.33065942 0.55316681
0.19705524 0.34588632 0.56207639
0.24098045 0.35004002 0.57244885
0.39895645 0.35485959 0.57938147
0.57074589 0.36554512 0.58427376
0.69177037 0.38762617 0.59137970
0.79591769 0.42059508 0.60248423
0.10788192 0.34325913 0.55444407
0.13001093 0.34974939 0.55490363
0.16071796 0.35964993 0.55896175
0.20263818 0.37244737 0.56602818
0.24612576 0.37726915 0.57491136
0.40462807 0.38352689 0.58290899
0.57669014 0.39445400 0.58938646
0.69670904 0.41551456 0.59833658
0.79906470 0.44443232 0.60811269
0.12227084 0.38093480 0.55644321
0.14297272 0.38546842 0.55843043
0.17199291 0.39710066 0.56249326
0.21194494 0.40772399 0.57222778
0.25502163 0.41613123 0.58194822
0.41909096 0.42078024 0.58848655
0.57915694 0.42872936 0.59571707
0.70018935 0.44628328 0.60303807
0.80090243 0.47591105 0.61268270
0.13494319 0.42511836 0.56825769
0.15569934 0.43094948 0.56842190
0.18668455 0.44122112 0.57211876
0.22478868 0.45073241 0.57997048
0.26796702 0.46152064 0.58801585
0.44105470 0.46414441 0.59418327
0.58632153 0.47015914 0.60047501
0.70412362 0.48627359 0.60977238
0.80380142 0.51290983 0.62028265
0.14793757 0.47107089 0.57457197
0.16808030 0.47544396 0.57524145
0.19534630 0.48136294 0.57856584
0.23189217 0.48909420 0.58298618
0.29415286 0.50101060 0.58902991
0.45982134 0.51190847 0.59971243
0.59059435 0.51727813 0.60672140
0.70795482 0.52792531 0.61594951
0.81038618 0.55511230 0.62699622
0.16426948 0.52264237 0.58506489
0.18401662 0.52938998 0.58887869
0.21001014 0.53212214 0.59081590
0.24193442 0.53856367 0.59443200
0.29050446 0.54657573 0.59775567
0.47973514 0.56304485 0.60597044
0.60075551 0.57129353 0.61576229
0.71694750 0.58075070 0.62723559
0.82354909 0.60935640 0.64331430
0.18152475 0.57542688 0.59502381
0.20255500 0.58131862 0.59914845
0.22670607 0.58414537 0.60066473
0.25678933 0.59049237 0.60407776
0.30096084 0.59926933 0.60888183
0.48397961 0.61252820 0.61640120
0.62298769 0.62963891 0.62535518
0.73012376 0.63834959 0.64206451
0.83749509 0.66610694 0.66049021
0.20258436 0.63590127 0.61424291
0.22406298 0.64362794 0.61846268
0.24674511 0.64884162 0.62166953
0.27589294 0.65466565 0.62534273
0.32523385 0.66457933 0.62975425
0.50977319 0.67664748 0.63693118
0.63995379 0.69089878 0.64722288
0.75004572 0.71240968 0.66545320
0.86834264 0.73551989 0.68311071
0.25523594 0.73222172 0.66913128
0.26949501 0.72943836 0.66373163
0.29098096 0.73388839 0.66763783
0.31744456 0.74220270 0.67212570
0.35885352 0.75428563 0.67943084
0.47648212 0.76989549 0.68421292
0.60396218 0.79067981 0.67568791
0.83309722 0.80690408 0.67913514
0.83692229 0.81366014 0.72387844
0.18727820 0.41582334 0.66432470
0.20772636 0.42306861 0.66397846
0.23408768 0.43126649 0.66579473
0.26736480 0.43818861 0.67025739
0.30392599 0.44620505 0.67800909
0.42610452 0.45089591 0.68567747
0.58487552 0.45877951 0.69095242
0.70358282 0.46688879 0.69778824
0.80825853 0.48801753 0.70735264
0.19206971 0.44107035 0.66559082
0.21102722 0.44792387 0.66570872
0.23701933 0.45506430 0.66785604
0.27050346 0.46105468 0.67445624
0.30700713 0.47088355 0.68157101
0.42921278 0.47468910 0.68811506
0.58738035 0.48346716 0.69604766
0.71016687 0.49394530 0.70392174
0.81189173 0.51175690 0.71320581
0.19676283 0.46799368 0.66640306
0.21616372 0.47305626 0.66723061
0.24235724 0.48023081 0.67012399
0.27425480 0.48874062 0.67705882
0.31287587 0.49973041 0.68476909
0.43277687 0.50456208 0.69105184
0.59133977 0.51197040 0.69899768
0.71104872 0.51953578 0.70690918
0.81201947 0.53503489 0.71503043
0.19896109 0.49821278 0.66922837
0.22003335 0.50385970 0.67132133
0.24612646 0.51295936 0.67456782
0.27920485 0.51980025 0.68140352
0.31670627 0.53190362 0.68867201
0.43628785 0.54040575 0.69671673
0.59676868 0.54632574 0.70298702
0.71287626 0.55139977 0.71037465
0.81193131 0.56472087 0.71906000
0.19333735 0.52635866 0.67601460
0.21352515 0.53278059 0.67724049
0.24159451 0.54060018 0.67868716
0.27842626 0.55092275 0.68419254
0.31762889 0.56352532 0.69124705
0.45033514 0.57934493 0.70306164
0.59876233 0.58413929 0.70916814
0.71673828 0.59113562 0.71927804
0.81829149 0.60232776 0.72850025
0.20446843 0.57069308 0.68298012
0.22411263 0.57754028 0.68478185
0.24599645 0.58194435 0.68694812
0.27386668 0.58605999 0.68861794
0.31177273 0.59416217 0.69619417
0.42184487 0.61381584 0.70645308
0.60462815 0.62801546 0.71751505
0.71492428 0.63198662 0.72503525
0.82215858 0.64315045 0.73488420
0.22022082 0.62488335 0.69890368
0.23851767 0.63028884 0.70115733
0.25985640 0.63469696 0.70163727
0.28758979 0.63894314 0.70564842
0.31911469 0.64397061 0.71003884
0.37837207 0.65427500 0.71474534
0.60524380 0.67657816 0.72709036
0.72265333 0.68733239 0.74063379
0.83271575 0.69532502 0.75287503
0.23786025 0.68110228 0.71758217
0.25603312 0.68712968 0.72047323
0.27741760 0.69242632 0.72110987
0.30305991 0.69744182 0.72541291
0.33433193 0.70534056 0.73024422
0.37894541 0.71541411 0.73728609
0.58729404 0.72753847 0.74347353
0.72902936 0.74318552 0.75282687
0.83772284 0.74925518 0.76808619
0.26035237 0.74690431 0.74765015
0.27817357 0.75352067 0.74829572
0.29798031 0.75840598 0.75139594
0.32154423 0.76421726 0.75502551
0.35160616 0.77281451 0.75973576
0.38973385 0.78313845 0.76515287
0.59017265 0.79524547 0.77326512
0.73511779 0.80936545 0.78098279
0.84909570 0.82461804 0.79596126
