luts/Binapani HD.cube
TITLE "Generated by Resolve"
LUT_3D_SIZE 17
0.0584573 0.060502 0.0663767
0.113848 0.0582589 0.0579995
0.19173 0.0487678 0.050309
0.297307 0.0321508 0.0363012
0.37142 0.0251316 0.0305333
0.430655 0.0229038 0.0292821
0.485908 0.0232242 0.030457
0.539834 0.0253605 0.033402
0.595056 0.0294194 0.0382544
0.652171 0.0361944 0.0458228
0.710658 0.0454414 0.0558328
0.771603 0.0584573 0.0691997
0.833783 0.073167 0.0843061
0.895064 0.0863966 0.0985733
0.953079 0.0983597 0.111727
0.992813 0.109346 0.123156
0.999146 0.116472 0.13019
0.0421149 0.100801 0.0840162
0.104952 0.105623 0.0599069
0.183703 0.100267 0.049073
0.295521 0.0851453 0.037705
0.374182 0.0802777 0.0357061
0.441032 0.0832074 0.0404059
0.503471 0.0900587 0.0480812
0.565545 0.100175 0.0590219
0.62948 0.113024 0.0726329
0.693217 0.126284 0.0868238
0.755108 0.138827 0.0998703
0.81529 0.150378 0.112093
0.874052 0.161273 0.123735
0.929915 0.169299 0.132601
0.976883 0.175662 0.139864
0.999283 0.181735 0.145998
0.999252 0.185443 0.149645
0.0270848 0.153216 0.093904
0.0797131 0.165209 0.0723735
0.172366 0.172107 0.0531472
0.289662 0.16553 0.040116
0.381933 0.169345 0.0457313
0.457862 0.178988 0.0576181
0.525933 0.189792 0.0702678
0.590341 0.201022 0.0831006
0.652888 0.211353 0.0952163
0.713161 0.220279 0.105714
0.770535 0.226856 0.114412
0.826139 0.232639 0.122118
0.880385 0.23798 0.129213
0.93286 0.241566 0.134737
0.979538 0.244434 0.139147
0.99971 0.246479 0.142748
0.999695 0.247639 0.144961
0.00184634 0.242969 0.0780194
0.0502174 0.265385 0.0648661
0.150576 0.277409 0.0632029
0.277348 0.276768 0.0574807
0.371939 0.280522 0.0526436
0.448997 0.286442 0.0555886
0.515511 0.292576 0.0621805
0.576806 0.297612 0.0696727
0.635752 0.302205 0.0775158
0.692576 0.30605 0.0841993
0.747311 0.308293 0.0899519
0.800305 0.310338 0.0951858
0.852293 0.311513 0.0998703
0.903349 0.312139 0.104189
0.953155 0.312871 0.107912
0.989654 0.312947 0.111238
0.999847 0.312657 0.113695
0.00480659 0.34609 0.100603
0.0515755 0.36556 0.08748
0.144183 0.376089 0.0899367
0.270726 0.370718 0.0799268
0.368536 0.368139 0.0697337
0.438941 0.370794 0.0628367
0.499062 0.373251 0.0616159
0.555932 0.375128 0.0605478
0.610956 0.376745 0.0603647
0.66479 0.377417 0.0611124
0.71722 0.378058 0.0622568
0.768338 0.378378 0.06392
0.818418 0.378531 0.0659342
0.867643 0.37879 0.0677348
0.916579 0.378607 0.0697337
0.96524 0.378546 0.0714122
0.99646 0.377966 0.0725872
0.0115358 0.435462 0.132235
0.0547189 0.448417 0.115175
0.137346 0.454948 0.113832
0.254749 0.447166 0.0988174
0.364401 0.435462 0.0911574
0.435966 0.434058 0.0730755
0.492241 0.434562 0.0646372
0.544625 0.435447 0.0626535
0.596414 0.435874 0.0592508
0.648432 0.435813 0.0557412
0.699962 0.435752 0.053315
0.750286 0.43537 0.0518502
0.799695 0.435172 0.0513313
0.84831 0.434577 0.0510567
0.896635 0.433921 0.0511025
0.944595 0.433448 0.0515297
0.98941 0.432441 0.0516365
0.0105898 0.506813 0.160266
0.0495308 0.514321 0.138689
0.124331 0.51722 0.132372
0.234668 0.508751 0.120729
0.351995 0.493751 0.107088
0.43238 0.48719 0.0939803
0.489937 0.487373 0.0722515
0.540871 0.487465 0.0648203
0.590051 0.487434 0.0625467
0.639689 0.487327 0.0586404
0.689693 0.486702 0.0540627
0.739239 0.486305 0.0503853
0.78819 0.485451 0.0472419
0.836591 0.484535 0.0451972
0.88481 0.483818 0.0436713
0.932616 0.482765 0.0425422
0.980743 0.481498 0.0416266
0.00381476 0.564462 0.180713
0.0363622 0.569406 0.15761
0.106966 0.571374 0.149523
0.212299 0.564508 0.140871
0.332158 0.54876 0.121324
0.425422 0.536873 0.117205
0.486336 0.535286 0.0950942
0.53872 0.535515 0.0686198
0.586786 0.535378 0.0640421
0.634592 0.534707 0.061387
0.682826 0.534096 0.0574807
0.730953 0.533562 0.0528878
0.779171 0.532647 0.0484779
0.827375 0.531899 0.0446021
0.875563 0.5308 0.0415503
0.923735 0.529656 0.0391546
0.971969 0.528466 0.0372931
0 0.616663 0.197589
0.0207523 0.620096 0.176165
0.0860609 0.621683 0.167285
0.187045 0.616556 0.161105
0.309071 0.600717 0.14107
0.413855 0.586191 0.131655
0.480354 0.58114 0.124727
0.535195 0.580774 0.0935225
0.584665 0.580941 0.0649424
0.631647 0.580087 0.0623026
0.678645 0.579507 0.0598001
0.725612 0.578897 0.0562142
0.772702 0.578393 0.0519875
0.820142 0.5776 0.0473335
0.868009 0.576761 0.0430304
0.915984 0.575967 0.0394598
0.964446 0.574777 0.0362402
0 0.6663 0.212726
0.0103151 0.66833 0.194339
0.0610819 0.669398 0.18468
0.158038 0.666224 0.181079
0.280079 0.651743 0.163546
0.397528 0.634577 0.144213
0.47068 0.627237 0.143297
0.528405 0.62475 0.129168
0.580133 0.624811 0.0925612
0.628824 0.624826 0.066392
0.675685 0.624247 0.0601816
0.721843 0.623667 0.0580301
0.76791 0.623285 0.0547189
0.814328 0.622721 0.0508431
0.861326 0.622248 0.047013
0.908736 0.621347 0.0437324
0.956771 0.620249 0.0407568
0 0.713634 0.227131
0.00326543 0.714733 0.213001
0.0353704 0.714931 0.205203
0.126925 0.713664 0.202792
0.244144 0.702174 0.188952
0.375769 0.68246 0.163958
0.455482 0.674662 0.156054
0.5196 0.669841 0.152972
0.57409 0.668605 0.131701
0.624872 0.66862 0.092958
0.672908 0.668467 0.0662852
0.718975 0.668193 0.0594186
0.764309 0.667659 0.0586557
0.80975 0.667338 0.0569924
0.85565 0.666758 0.05449
0.902129 0.665995 0.0512398
0.949615 0.664988 0.0476844
0 0.759411 0.244099
0 0.759686 0.235172
0.00973526 0.759197 0.229419
0.0936904 0.758938 0.227771
0.207568 0.751232 0.217227
0.348013 0.730831 0.192233
0.437873 0.721523 0.176379
0.507424 0.71577 0.171344
0.56643 0.712505 0.164797
0.61941 0.711666 0.137591
0.669322 0.71194 0.0972305
0.716548 0.711833 0.0698558
0.761822 0.711376 0.0631418
0.806546 0.710994 0.0624704
0.851514 0.710414 0.0608682
0.897002 0.709941 0.0584573
0.94345 0.709041 0.0551461
0 0.803998 0.268498
0 0.803479 0.26331
0 0.80293 0.259831
0.0624857 0.802365 0.257969
0.169711 0.798444 0.252735
0.314061 0.778622 0.23154
0.416831 0.766796 0.214282
0.490669 0.761196 0.203281
0.554574 0.756756 0.196963
0.61149 0.754452 0.183658
0.663706 0.754055 0.148196
0.713024 0.754376 0.100847
0.759579 0.754513 0.0718853
0.804135 0.753948 0.0667735
0.848508 0.753552 0.0661936
0.893141 0.752819 0.0645609
0.93843 0.75201 0.0620584
0 0.847669 0.297642
0 0.84683 0.297887
0 0.845777 0.2981
0.0316167 0.844953 0.298283
0.12813 0.843259 0.297108
0.272068 0.826307 0.279713
0.39086 0.811566 0.261219
0.471977 0.804791 0.246464
0.538231 0.800732 0.234699
0.59939 0.797253 0.224857
0.655222 0.795407 0.20351
0.707012 0.79585 0.159396
0.756161 0.796551 0.100633
0.801892 0.796445 0.0725567
0.845869 0.795926 0.0702831
0.890196 0.795209 0.0695964
0.934829 0.794507 0.0680858
0 0.890471 0.337041
0 0.889509 0.33756
0 0.888365 0.337819
0.00817884 0.88751 0.33817
0.0875105 0.886397 0.338125
0.225223 0.87396 0.326238
0.358709 0.856977 0.307912
0.452918 0.847288 0.293523
0.520745 0.843549 0.281025
0.583169 0.840101 0.268482
0.643061 0.837018 0.254444
0.698543 0.836133 0.223728
0.750103 0.837217 0.170092
0.799146 0.838453 0.0928206
0.843854 0.838056 0.0741894
0.887617 0.837415 0.07364
0.931838 0.836576 0.0728923
0 0.933394 0.371618
0 0.93225 0.371923
0 0.931228 0.372488
0 0.930007 0.372778
0.0512703 0.928801 0.373114
0.17406 0.920882 0.366598
0.318074 0.904036 0.350347
0.431846 0.890211 0.334722
0.504051 0.885466 0.324788
0.566506 0.882475 0.312886
0.626978 0.879347 0.300755
0.685786 0.876204 0.285176
0.740383 0.876234 0.246067
0.792096 0.878309 0.179095
0.840558 0.879423 0.0996262
0.885176 0.879118 0.0789807
0.929152 0.878386 0.0766918
0 0.974655 0.398962
0 0.973953 0.3991
0 0.97322 0.399466
0 0.972457 0.399756
0.0253758 0.971405 0.399863
0.117937 0.967361 0.397314
0.266178 0.953613 0.384894
0.406851 0.933761 0.36524
0.485786 0.928069 0.357137
0.550439 0.924666 0.348898
0.610391 0.92192 0.339162
0.669718 0.918502 0.329213
0.727199 0.915923 0.310582
0.780957 0.916472 0.265858
0.832837 0.919005 0.186786
0.881315 0.920516 0.108492
0.926574 0.920211 0.0815747
0.0592508 0.0606088 0.114305
0.11165 0.0575265 0.111421
0.189395 0.0483101 0.103365
0.295964 0.0317388 0.0895247
0.370779 0.0246586 0.0834669
0.430838 0.0229343 0.0826886
0.486671 0.0234531 0.0836347
0.541161 0.0258946 0.0861372
0.597665 0.0310216 0.0920424
0.65539 0.0382239 0.100206
0.71487 0.0488746 0.111299
0.776654 0.0626688 0.125307
0.839048 0.0771954 0.14049
0.899794 0.0895399 0.154513
0.956207 0.101076 0.167315
0.993973 0.111925 0.178744
1 0.118242 0.184802
0.0492714 0.105303 0.113222
0.103334 0.105211 0.109712
0.18265 0.100511 0.099794
0.294636 0.0858778 0.0878157
0.374914 0.082063 0.0853895
0.442679 0.0860456 0.0907149
0.505592 0.0932784 0.0988174
0.568826 0.104326 0.110597
0.633173 0.1178 0.124697
0.696452 0.130571 0.13814
0.75816 0.142931 0.151125
0.818082 0.154192 0.163043
0.875868 0.163867 0.173404
0.931212 0.171588 0.181842
0.977707 0.177737 0.188602
0.998596 0.18349 0.194522
0.998566 0.186801 0.197696
0.00471504 0.150332 0.156817
0.0687724 0.156527 0.151019
0.173449 0.174334 0.102266
0.292729 0.169436 0.0909438
0.38529 0.173434 0.0976883
0.461372 0.183322 0.109316
0.52932 0.193896 0.121935
0.593545 0.204898 0.134401
0.655604 0.214725 0.145998
0.715084 0.222522 0.155779
0.772091 0.229038 0.163775
0.827497 0.234607 0.171359
0.8813 0.239521 0.177722
0.933349 0.242634 0.182696
0.980026 0.245045 0.18706
0.999023 0.247166 0.190112
0.999008 0.248188 0.192096
0 0.217227 0.208576
0.0463569 0.243183 0.183764
0.140261 0.273808 0.138842
0.276844 0.279332 0.108461
0.375723 0.284199 0.0996719
0.452567 0.289174 0.103777
0.518242 0.294682 0.110948
0.579248 0.299565 0.119066
0.637522 0.303853 0.126696
0.693706 0.30724 0.133165
0.748119 0.309148 0.138506
0.800931 0.311009 0.143252
0.85272 0.311971 0.147814
0.90367 0.31249 0.15172
0.953475 0.3131 0.155398
0.98909 0.3131 0.158541
0.999084 0.312703 0.1608
0 0.321691 0.241093
0.0547646 0.346746 0.217227
0.129229 0.371572 0.174456
0.258976 0.372793 0.135592
0.368322 0.369924 0.119203
0.440269 0.372305 0.108034
0.500603 0.374548 0.106188
0.557519 0.376028 0.105135
0.612253 0.377356 0.10573
0.66569 0.377813 0.106783
0.717922 0.378119 0.108568
0.768643 0.378637 0.110353
0.818448 0.378744 0.112306
0.86743 0.378958 0.114321
0.916152 0.378714 0.11606
0.96466 0.378378 0.117906
0.99559 0.377646 0.118868
0.0173037 0.416648 0.275166
0.0623026 0.434012 0.245212
0.122454 0.450553 0.202838
0.236622 0.447044 0.1691
0.358755 0.435645 0.146426
0.435325 0.434592 0.120226
0.492287 0.43537 0.108614
0.544869 0.436088 0.105882
0.596933 0.436286 0.102159
0.649119 0.436072 0.0990768
0.700572 0.435874 0.0970169
0.750759 0.435431 0.0962234
0.799908 0.435142 0.0958724
0.84831 0.434501 0.0958572
0.896498 0.433875 0.0963302
0.944213 0.433326 0.0966201
0.988632 0.432334 0.096788
0.0247959 0.491981 0.29897
0.0593729 0.502342 0.26331
0.110018 0.51223 0.224506
0.211917 0.508156 0.194247
0.337972 0.494331 0.167956
0.429221 0.486519 0.147814
0.489021 0.487465 0.117205
0.540291 0.487907 0.108049
0.589761 0.48777 0.10518
0.639704 0.487572 0.101076
0.689982 0.486854 0.0964828
0.73962 0.486076 0.0928054
0.788495 0.485359 0.0903334
0.836851 0.484443 0.0885481
0.88484 0.483635 0.0875105
0.93254 0.482582 0.0866865
0.98056 0.481346 0.0860914
0.018616 0.551812 0.311162
0.044831 0.559197 0.275059
0.0918288 0.565957 0.240864
0.185733 0.563531 0.215564
0.31397 0.548486 0.193286
0.418952 0.535775 0.175311
0.484169 0.534615 0.146426
0.538033 0.535744 0.111727
0.586221 0.535668 0.106752
0.634104 0.534951 0.103624
0.682506 0.534218 0.0994583
0.730983 0.533654 0.0947127
0.779416 0.532631 0.0902113
0.827649 0.531746 0.0867475
0.875807 0.530663 0.0840467
0.923751 0.529503 0.0821851
0.972137 0.528237 0.0805829
0.0087892 0.605081 0.324346
0.0259861 0.611032 0.286625
0.068452 0.615991 0.256275
0.15761 0.615076 0.236103
0.286564 0.600504 0.218235
0.40322 0.585092 0.19408
0.475837 0.579553 0.181369
0.533547 0.580148 0.142046
0.58381 0.581003 0.107698
0.630915 0.580209 0.104494
0.67808 0.579705 0.101671
0.72517 0.578973 0.0978866
0.772519 0.57821 0.0931563
0.820249 0.57763 0.0885786
0.868254 0.576715 0.084596
0.916213 0.575814 0.0811017
0.964675 0.574609 0.0784009
0.000869764 0.655116 0.339254
0.00936904 0.660075 0.299763
0.0389868 0.664088 0.270787
0.126482 0.663813 0.256962
0.25243 0.651835 0.243427
0.384176 0.632532 0.2159
0.462303 0.625711 0.203235
0.524773 0.623346 0.183246
0.578576 0.624399 0.139651
0.628046 0.624979 0.109499
0.674998 0.62443 0.102083
0.721248 0.62385 0.0995499
0.767514 0.623468 0.0962081
0.814099 0.622812 0.0919203
0.86128 0.622278 0.0873274
0.908873 0.621302 0.0829938
0.956954 0.620096 0.0788891
0 0.702617 0.355154
0 0.707027 0.317174
0.0144656 0.709972 0.289189
0.0930648 0.709834 0.281758
0.214206 0.701854 0.272755
0.359838 0.679744 0.245533
0.444068 0.672618 0.226413
0.512886 0.667918 0.212467
0.570916 0.667033 0.18407
0.623423 0.668284 0.139193
0.672114 0.668605 0.109133
0.718303 0.668345 0.0999771
0.763684 0.66775 0.0977188
0.809216 0.667185 0.0946365
0.855253 0.666758 0.0906081
0.901915 0.665919 0.0860761
0.949508 0.66482 0.081178
0 0.748638 0.371496
0 0.752544 0.336309
0.0016022 0.754711 0.310643
0.0595102 0.754543 0.307774
0.176364 0.749813 0.302876
0.328527 0.728084 0.277867
0.424918 0.718212 0.258412
0.497017 0.71339 0.24123
0.560372 0.710277 0.224948
0.616266 0.710124 0.188251
0.667872 0.711498 0.139071
0.71577 0.711849 0.106828
0.761059 0.71133 0.0979171
0.805844 0.710933 0.0957961
0.850904 0.710338 0.0928817
0.896468 0.709773 0.0889143
0.943038 0.708843 0.0841382
0 0.794034 0.386892
0 0.797375 0.355245
0 0.798947 0.335286
0.0310216 0.798184 0.333333
0.138918 0.795941 0.33048
0.29073 0.776776 0.309621
0.403006 0.763577 0.290211
0.480003 0.75819 0.273289
0.546014 0.754452 0.257237
0.606302 0.751888 0.237095
0.660914 0.752529 0.19234
0.711803 0.753918 0.13611
0.758801 0.754391 0.102693
0.803433 0.753826 0.0958724
0.847761 0.753185 0.0937819
0.8925 0.752651 0.0909133
0.937865 0.751827 0.0869612
0 0.839353 0.399069
0 0.841825 0.373632
0 0.842527 0.359045
0.0105745 0.841856 0.356497
0.102403 0.840925 0.355413
0.248844 0.825452 0.339574
0.376532 0.809659 0.320256
0.463584 0.801831 0.304417
0.530205 0.798291 0.289021
0.592645 0.795117 0.274205
0.65095 0.793149 0.249348
0.704631 0.794415 0.19617
0.755184 0.796185 0.128801
0.801129 0.796201 0.0972763
0.845197 0.795727 0.0936904
0.889311 0.794949 0.091722
0.934112 0.794171 0.0887312
0 0.884413 0.409842
0 0.885893 0.391882
0 0.886122 0.380957
0.000350958 0.885542 0.378363
0.0685893 0.884596 0.378012
0.202945 0.873701 0.367239
0.343633 0.856565 0.348989
0.445747 0.845335 0.333486
0.515129 0.841428 0.321126
0.577417 0.838331 0.307179
0.638132 0.835004 0.292012
0.694865 0.833951 0.261891
0.748012 0.835874 0.199466
0.798383 0.838163 0.114458
0.843107 0.837705 0.0935073
0.886885 0.836851 0.0912642
0.931182 0.836057 0.0891737
0 0.929046 0.422812
0 0.929686 0.410315
0 0.929778 0.402106
0 0.928771 0.399725
0.0398108 0.927474 0.399176
0.152209 0.921126 0.393668
0.30161 0.904875 0.3776
0.425055 0.889097 0.360143
0.499702 0.884031 0.349889
0.562692 0.881056 0.337743
0.623178 0.878157 0.325277
0.682414 0.87483 0.310628
0.737621 0.874495 0.274083
0.790311 0.877089 0.200916
0.839658 0.878904 0.116289
0.884504 0.878737 0.0926223
0.928481 0.877974 0.0886702
0 0.971908 0.436347
0 0.972259 0.427543
0 0.972381 0.420554
0 0.971801 0.418616
0.01738 0.970535 0.418097
0.100328 0.967193 0.415503
0.252049 0.95433 0.40351
0.400488 0.933227 0.382132
0.4822 0.927138 0.373114
0.547814 0.923644 0.364446
0.607965 0.921004 0.353765
0.667323 0.917647 0.343008
0.725063 0.914885 0.325429
0.779187 0.915282 0.281956
0.83151 0.918013 0.200549
0.880507 0.919905 0.118822
0.925933 0.919738 0.0890516
0.054902 0.057145 0.198444
0.107408 0.0546426 0.19382
0.184375 0.0457923 0.184741
0.291356 0.0296178 0.169314
0.366506 0.0227207 0.162676
0.427207 0.0215763 0.160479
0.483391 0.0223392 0.160204
0.538705 0.025391 0.163821
0.595972 0.0314794 0.169924
0.654261 0.0393378 0.17792
0.715328 0.0518654 0.189319
0.777707 0.0661021 0.202853
0.839612 0.0797589 0.216861
0.900313 0.0920424 0.229557
0.95581 0.102968 0.24123
0.992676 0.113619 0.251041
0.998718 0.119234 0.255467
0.0498817 0.105013 0.185626
0.10251 0.104707 0.183871
0.17911 0.0991073 0.178637
0.291722 0.0848859 0.1664
0.373404 0.0817121 0.165759
0.441962 0.0861982 0.170901
0.50631 0.0948043 0.179507
0.570474 0.106554 0.191608
0.635019 0.120012 0.204868
0.698253 0.13254 0.2177
0.759686 0.144167 0.229328
0.819608 0.155444 0.240391
0.87686 0.164401 0.249699
0.931762 0.171466 0.256626
0.978485 0.177432 0.262837
0.999023 0.182528 0.267231
0.999008 0.18555 0.269108
0.0351263 0.167971 0.164843
0.0909133 0.174212 0.173159
0.174228 0.176532 0.173022
0.292241 0.171633 0.170092
0.386053 0.176165 0.176181
0.462699 0.186023 0.187045
0.530266 0.196094 0.197955
0.594308 0.206516 0.20914
0.655955 0.21622 0.219608
0.714794 0.223346 0.227512
0.771618 0.229648 0.234623
0.826841 0.234989 0.240772
0.880262 0.239139 0.245731
0.932006 0.242298 0.249699
0.978973 0.244572 0.252766
0.998077 0.246525 0.254994
0.998062 0.247532 0.25597
0.00222782 0.23827 0.218982
0.0263523 0.242908 0.250187
0.127916 0.266789 0.243183
0.274983 0.279866 0.187518
0.378515 0.28603 0.169894
0.454154 0.290059 0.175235
0.518837 0.294774 0.182681
0.578988 0.299931 0.189731
0.636805 0.303868 0.196384
0.692622 0.306844 0.201236
0.746914 0.308583 0.205402
0.799771 0.309941 0.209476
0.851255 0.311086 0.212497
0.902251 0.31162 0.215747
0.952224 0.312169 0.218158
0.987655 0.312154 0.220295
0.998077 0.311742 0.221546
0 0.324849 0.285695
0.013962 0.327138 0.311788
0.0983902 0.353002 0.303273
0.238483 0.367544 0.243717
0.362417 0.37026 0.194308
0.439979 0.372625 0.171572
0.500938 0.374273 0.168475
0.557748 0.375418 0.168093
0.612039 0.376242 0.168704
0.664973 0.376944 0.169894
0.716823 0.377279 0.171038
0.767224 0.377783 0.172168
0.816815 0.37789 0.173571
0.865827 0.377874 0.174548
0.914534 0.377905 0.17554
0.963043 0.377554 0.176181
0.994369 0.376837 0.176135
0.00411994 0.407996 0.349645
0.02916 0.412512 0.357214
0.0987106 0.43006 0.334783
0.212985 0.438926 0.28896
0.340429 0.43534 0.227359
0.432212 0.433326 0.188479
0.490944 0.435065 0.167803
0.544045 0.43534 0.16347
0.596567 0.435554 0.159274
0.64889 0.435248 0.156054
0.70016 0.434974 0.15433
0.750088 0.434501 0.153155
0.799054 0.434028 0.152453
0.847227 0.433692 0.152193
0.895186 0.433082 0.151781
0.942763 0.432593 0.151659
0.987121 0.431495 0.15108
0.0136568 0.477958 0.396384
0.0485542 0.484291 0.386694
0.10518 0.495949 0.352148
0.195087 0.500313 0.308461
0.314092 0.492042 0.266209
0.422095 0.483635 0.225681
0.486671 0.486503 0.17821
0.538781 0.487465 0.163317
0.588342 0.487266 0.159136
0.638788 0.486748 0.153933
0.689433 0.486137 0.148791
0.739162 0.485328 0.145281
0.78793 0.484565 0.142397
0.836133 0.48365 0.140307
0.884047 0.482734 0.13901
0.931563 0.481941 0.137606
0.979629 0.480705 0.136385
0.02121 0.536706 0.421408
0.0576486 0.54313 0.402655
0.101625 0.552254 0.365591
0.170413 0.556161 0.32285
0.287129 0.546426 0.292683
0.405158 0.533501 0.255146
0.479118 0.531853 0.218158
0.536339 0.535195 0.165728
0.58468 0.534981 0.158145
0.632868 0.534539 0.154208
0.681743 0.533837 0.148714
0.730541 0.53286 0.142962
0.779202 0.532006 0.138308
0.827604 0.531014 0.134493
0.875669 0.530114 0.131746
0.923506 0.529 0.12929
0.971756 0.527901 0.127352
0.0228122 0.590951 0.434363
0.0544137 0.596567 0.412818
0.0853132 0.603601 0.378622
0.138766 0.608698 0.337072
0.254826 0.59939 0.314855
0.38674 0.58172 0.283955
0.46685 0.576379 0.258915
0.529625 0.577874 0.205768
0.582254 0.580514 0.157855
0.62977 0.580026 0.152407
0.677028 0.579263 0.148669
0.724407 0.578714 0.143526
0.772229 0.578027 0.137926
0.820249 0.577417 0.132906
0.86836 0.57644 0.128923
0.91632 0.575326 0.126162
0.964446 0.57406 0.123827
0.0134279 0.642267 0.441428
0.0370184 0.646708 0.42063
0.0601511 0.652522 0.390112
0.101411 0.658137 0.349065
0.217563 0.651118 0.335561
0.366476 0.628931 0.307347
0.449042 0.622522 0.285649
0.517357 0.619791 0.258152
0.575311 0.622721 0.197436
0.62652 0.62443 0.156649
0.67393 0.624445 0.146502
0.720211 0.623789 0.143938
0.766629 0.623163 0.140139
0.813535 0.622721 0.135622
0.860975 0.621897 0.131106
0.908675 0.621042 0.126741
0.957015 0.619791 0.122942
0.00366217 0.691417 0.447578
0.0120394 0.694926 0.427207
0.0282597 0.69958 0.400839
0.0589303 0.705348 0.361837
0.176562 0.702037 0.356832
0.338949 0.677165 0.330343
0.430854 0.668528 0.312184
0.501717 0.664958 0.29012
0.564797 0.663752 0.255879
0.620539 0.666743 0.195148
0.670832 0.668299 0.155215
0.717327 0.668101 0.144076
0.762798 0.667704 0.141802
0.80853 0.66714 0.138308
0.854749 0.666636 0.134142
0.901595 0.665705 0.129229
0.949416 0.664591 0.124392
0 0.73901 0.453803
0.000610361 0.742092 0.43473
0.00428778 0.745647 0.410727
0.0153811 0.75108 0.373907
0.139162 0.749249 0.372824
0.302556 0.727016 0.351385
0.410986 0.714977 0.334386
0.485786 0.710231 0.316579
0.551293 0.707134 0.296727
0.611017 0.70721 0.256046
0.665187 0.709926 0.193271
0.714534 0.711559 0.151995
0.760128 0.711299 0.14168
0.804974 0.710704 0.139544
0.85008 0.710246 0.136172
0.895827 0.709438 0.132052
0.942458 0.708507 0.127123
0 0.785611 0.460929
0 0.788235 0.442176
0 0.791165 0.419791
0.00331121 0.795224 0.390845
0.10486 0.794736 0.388128
0.261295 0.777173 0.371847
0.386572 0.761776 0.35491
0.470253 0.754803 0.340871
0.536049 0.751842 0.324437
0.598444 0.748989 0.304952
0.655909 0.749737 0.257557
0.709285 0.752728 0.188403
0.757519 0.754025 0.146807
0.802274 0.753765 0.139254
0.846647 0.753109 0.137163
0.891493 0.752575 0.133898
0.937179 0.75172 0.129717
0 0.831632 0.468254
0 0.833906 0.449821
0 0.836378 0.43032
0 0.839094 0.407935
0.0732891 0.839078 0.403754
0.21561 0.826551 0.393011
0.356466 0.809186 0.375677
0.453727 0.799313 0.362295
0.521859 0.795575 0.349676
0.58407 0.792554 0.335195
0.644297 0.790173 0.314839
0.700206 0.791516 0.259998
0.753292 0.795361 0.177493
0.800137 0.796109 0.140536
0.844221 0.795483 0.136873
0.88835 0.794858 0.134569
0.933272 0.794095 0.13138
0 0.877668 0.475212
0 0.879332 0.459419
0 0.881056 0.441764
0 0.882887 0.424414
0.0444648 0.882948 0.419074
0.166186 0.874937 0.413214
0.318898 0.85774 0.397101
0.435203 0.843595 0.381811
0.50779 0.83888 0.372595
0.570077 0.836133 0.360861
0.630594 0.832898 0.348257
0.688701 0.830823 0.326635
0.74345 0.832975 0.264134
0.796963 0.837598 0.160449
0.842039 0.837552 0.136599
0.885893 0.836774 0.134081
0.930098 0.836011 0.131899
0 0.922957 0.483116
0 0.924086 0.469581
0 0.925429 0.453895
0 0.92668 0.44004
0.0213016 0.926268 0.434409
0.116457 0.921798 0.431815
0.273732 0.906966 0.41883
0.413291 0.887907 0.400153
0.491981 0.882261 0.391806
0.556359 0.878996 0.382834
0.616434 0.876173 0.371878
0.675685 0.872923 0.361746
0.731853 0.871321 0.336126
0.785916 0.874418 0.262486
0.837797 0.878264 0.164767
0.88333 0.878462 0.135698
0.92752 0.877729 0.130968
0 0.967102 0.491203
0 0.96788 0.479728
0 0.969223 0.465461
0 0.970214 0.454688
0.00444038 0.969619 0.449165
0.067628 0.967117 0.448539
0.222904 0.956283 0.43949
0.386206 0.933013 0.417441
0.474357 0.925826 0.409155
0.542153 0.922042 0.401938
0.602808 0.919234 0.392813
0.661753 0.916243 0.38323
0.719509 0.913024 0.372107
0.774319 0.912322 0.339727
0.827741 0.915648 0.258534
0.878721 0.918975 0.167132
0.924804 0.919509 0.13193
0.0483558 0.0517891 0.310491
0.100206 0.0493477 0.307622
0.176516 0.0408637 0.29926
0.283833 0.0248875 0.285115
0.358846 0.0182193 0.27953
0.419806 0.0170596 0.278035
0.476493 0.0185397 0.278737
0.532692 0.022446 0.281453
0.590509 0.0291142 0.287114
0.650202 0.038941 0.294728
0.712032 0.0521859 0.305364
0.774868 0.0668498 0.318379
0.836576 0.079881 0.330343
0.897032 0.0919661 0.341817
0.952743 0.102464 0.351461
0.990188 0.112047 0.358968
0.996643 0.117174 0.361471
0.0437629 0.0996567 0.302373
0.0963455 0.099794 0.302815
0.172747 0.0946822 0.297459
0.284733 0.0804456 0.285161
0.368063 0.0795453 0.284077
0.437339 0.0847334 0.288289
0.502403 0.0938125 0.296605
0.567605 0.106783 0.307927
0.632013 0.119905 0.320073
0.695003 0.132342 0.330846
0.756313 0.143816 0.340871
0.81561 0.154238 0.350317
0.872328 0.162783 0.357244
0.926848 0.169268 0.362844
0.974594 0.175463 0.3673
0.996994 0.180179 0.369909
