luts/Binapani HD.cube
TITLE "Generated by Resolve"
LUT_3D_SIZE 9
0.0584573 0.060502 0.0663767
0.19173 0.0487678 0.050309
0.37142 0.0251316 0.0305333
0.485908 0.0232242 0.030457
0.595056 0.0294194 0.0382544
0.710658 0.0454414 0.0558328
0.833783 0.073167 0.0843061
0.953079 0.0983597 0.111727
0.999146 0.116472 0.13019
0.0270848 0.153216 0.093904
0.172366 0.172107 0.0531472
0.381933 0.169345 0.0457313
0.525933 0.189792 0.0702678
0.652888 0.211353 0.0952163
0.770535 0.226856 0.114412
0.880385 0.23798 0.129213
0.979538 0.244434 0.139147
0.999695 0.247639 0.144961
0.00480659 0.34609 0.100603
0.144183 0.376089 0.0899367
0.368536 0.368139 0.0697337
0.499062 0.373251 0.0616159
0.610956 0.376745 0.0603647
0.71722 0.378058 0.0622568
0.818418 0.378531 0.0659342
0.916579 0.378607 0.0697337
0.99646 0.377966 0.0725872
0.0105898 0.506813 0.160266
0.124331 0.51722 0.132372
0.351995 0.493751 0.107088
0.489937 0.487373 0.0722515
0.590051 0.487434 0.0625467
0.689693 0.486702 0.0540627
0.78819 0.485451 0.0472419
0.88481 0.483818 0.0436713
0.980743 0.481498 0.0416266
0 0.616663 0.197589
0.0860609 0.621683 0.167285
0.309071 0.600717 0.14107
0.480354 0.58114 0.124727
0.584665 0.580941 0.0649424
0.678645 0.579507 0.0598001
0.772702 0.578393 0.0519875
0.868009 0.576761 0.0430304
0.964446 0.574777 0.0362402
0 0.713634 0.227131
0.0353704 0.714931 0.205203
0.244144 0.702174 0.188952
0.455482 0.674662 0.156054
0.57409 0.668605 0.131701
0.672908 0.668467 0.0662852
0.764309 0.667659 0.0586557
0.85565 0.666758 0.05449
0.949615 0.664988 0.0476844
0 0.803998 0.268498
0 0.80293 0.259831
0.169711 0.798444 0.252735
0.416831 0.766796 0.214282
0.554574 0.756756 0.196963
0.663706 0.754055 0.148196
0.759579 0.754513 0.0718853
0.848508 0.753552 0.0661936
0.93843 0.75201 0.0620584
0 0.890471 0.337041
0 0.888365 0.337819
0.0875105 0.886397 0.338125
0.358709 0.856977 0.307912
0.520745 0.843549 0.281025
0.643061 0.837018 0.254444
0.750103 0.837217 0.170092
0.843854 0.838056 0.0741894
0.931838 0.836576 0.0728923
0 0.974655 0.398962
0 0.97322 0.399466
0.0253758 0.971405 0.399863
0.266178 0.953613 0.384894
0.485786 0.928069 0.357137
0.610391 0.92192 0.339162
0.727199 0.915923 0.310582
0.832837 0.919005 0.186786
0.926574 0.920211 0.0815747
0.054902 0.057145 0.198444
0.184375 0.0457923 0.184741
0.366506 0.0227207 0.162676
0.483391 0.0223392 0.160204
0.595972 0.0314794 0.169924
0.715328 0.0518654 0.189319
0.839612 0.0797589 0.216861
0.95581 0.102968 0.24123
0.998718 0.119234 0.255467
0.0351263 0.167971 0.164843
0.174228 0.176532 0.173022
0.386053 0.176165 0.176181
0.530266 0.196094 0.197955
0.655955 0.21622 0.219608
0.771618 0.229648 0.234623
0.880262 0.239139 0.245731
0.978973 0.244572 0.252766
0.998062 0.247532 0.25597
0 0.324849 0.285695
0.0983902 0.353002 0.303273
0.362417 0.37026 0.194308
0.500938 0.374273 0.168475
0.612039 0.376242 0.168704
0.716823 0.377279 0.171038
0.816815 0.37789 0.173571
0.914534 0.377905 0.17554
0.994369 0.376837 0.176135
0.0136568 0.477958 0.396384
0.10518 0.495949 0.352148
0.314092 0.492042 0.266209
0.486671 0.486503 0.17821
0.588342 0.487266 0.159136
0.689433 0.486137 0.148791
0.78793 0.484565 0.142397
0.884047 0.482734 0.13901
0.979629 0.480705 0.136385
0.0228122 0.590951 0.434363
0.0853132 0.603601 0.378622
0.254826 0.59939 0.314855
0.46685 0.576379 0.258915
0.582254 0.580514 0.157855
0.677028 0.579263 0.148669
0.772229 0.578027 0.137926
0.86836 0.57644 0.128923
0.964446 0.57406 0.123827
0.00366217 0.691417 0.447578
0.0282597 0.69958 0.400839
0.176562 0.702037 0.356832
0.430854 0.668528 0.312184
0.564797 0.663752 0.255879
0.670832 0.668299 0.155215
0.762798 0.667704 0.141802
0.854749 0.666636 0.134142
0.949416 0.664591 0.124392
0 0.785611 0.460929
0 0.791165 0.419791
0.10486 0.794736 0.388128
0.386572 0.761776 0.35491
0.536049 0.751842 0.324437
0.655909 0.749737 0.257557
0.757519 0.754025 0.146807
0.846647 0.753109 0.137163
0.937179 0.75172 0.129717
0 0.877668 0.475212
0 0.881056 0.441764
0.0444648 0.882948 0.419074
0.318898 0.85774 0.397101
0.50779 0.83888 0.372595
0.630594 0.832898 0.348257
0.74345 0.832975 0.264134
0.842039 0.837552 0.136599
0.930098 0.836011 0.131899
0 0.967102 0.491203
0 0.969223 0.465461
0.00444038 0.969619 0.449165
0.222904 0.956283 0.43949
0.474357 0.925826 0.409155
0.602808 0.919234 0.392813
0.719509 0.913024 0.372107
0.827741 0.915648 0.258534
0.924804 0.919509 0.13193
0.0449378 0.0491493 0.386038
0.172686 0.0387884 0.376425
0.355291 0.0168154 0.357107
0.473442 0.0175631 0.358724
0.588617 0.0294652 0.371023
0.711757 0.0548104 0.394141
0.835782 0.0817731 0.420813
0.951171 0.10309 0.443671
0.994888 0.116289 0.455375
0.0307774 0.16466 0.366537
0.171298 0.175723 0.378073
0.383597 0.177859 0.383124
0.526864 0.196414 0.404242
0.650309 0.213626 0.424002
0.764752 0.225467 0.437766
0.871855 0.233387 0.447913
0.97142 0.237888 0.454627
0.995804 0.240009 0.457191
0.0252842 0.363897 0.367636
0.145647 0.376394 0.389227
0.358907 0.367727 0.368307
0.494423 0.368139 0.362432
0.602747 0.369711 0.365942
0.706462 0.370413 0.368521
0.806317 0.370703 0.370642
0.903868 0.370214 0.371984
0.988785 0.369177 0.372534
0 0.490135 0.442771
0.0412451 0.486305 0.477638
0.266041 0.481712 0.45417
0.475166 0.480003 0.360098
0.581094 0.480232 0.340032
0.682338 0.477958 0.336065
0.77879 0.476295 0.334524
0.87332 0.474678 0.333104
0.968277 0.472602 0.331548
0 0.58381 0.518074
0.0298009 0.57818 0.541619
0.242908 0.575265 0.500618
0.439261 0.569085 0.424002
0.570871 0.573159 0.342046
0.667521 0.572274 0.328328
0.765438 0.570382 0.316304
0.861433 0.568307 0.309133
0.956832 0.566506 0.303395
0.00471504 0.669169 0.581399
0.0892805 0.673533 0.564095
0.228885 0.673869 0.513756
0.395193 0.66537 0.443458
0.546609 0.658106 0.405493
0.66009 0.661372 0.330297
0.75404 0.661631 0.307286
0.848264 0.660349 0.294163
0.944152 0.65803 0.282811
0.0142519 0.764187 0.594385
0.0785687 0.769345 0.571191
0.156466 0.77583 0.528603
0.336614 0.76257 0.465217
0.517815 0.747356 0.439155
0.643687 0.743435 0.400793
0.748791 0.748653 0.303197
0.839017 0.748333 0.285786
0.930953 0.746883 0.272709
0.00149538 0.859373 0.600717
0.0297398 0.862699 0.578637
0.0749371 0.870161 0.540825
0.250263 0.862623 0.492119
0.487114 0.836316 0.461418
0.617136 0.830152 0.441123
0.732601 0.826383 0.404425
0.834928 0.833371 0.274281
0.923964 0.832502 0.262638
0 0.952163 0.607248
0 0.954314 0.58732
0.0130922 0.959686 0.551995
0.145251 0.959319 0.516487
0.448844 0.924498 0.481315
0.591211 0.916457 0.46862
0.709361 0.91107 0.448096
0.818753 0.909972 0.386206
0.919371 0.916655 0.252888
0.0416266 0.0470283 0.496956
0.168719 0.037705 0.488685
0.352972 0.0167239 0.470878
0.47335 0.0195315 0.475822
0.591546 0.0360876 0.492836
0.716976 0.0634012 0.519738
0.838956 0.08748 0.546685
0.951797 0.107103 0.569024
0.992706 0.118944 0.580606
0.0340429 0.168063 0.487511
0.176272 0.182055 0.503532
0.388296 0.184298 0.509606
0.530678 0.201694 0.530709
0.651225 0.216632 0.549187
0.764187 0.227161 0.563577
0.86949 0.233082 0.573739
0.968643 0.236637 0.58117
0.993454 0.238453 0.584863
0.0378271 0.373892 0.486549
0.16701 0.383429 0.498268
0.363287 0.369299 0.487404
0.491981 0.367559 0.489265
0.599603 0.367987 0.494331
0.702876 0.367971 0.498375
0.80235 0.367788 0.502358
0.899611 0.367056 0.50576
0.986007 0.365393 0.508095
0.0352941 0.508904 0.503349
0.135927 0.508919 0.506493
0.323445 0.488212 0.490196
0.470603 0.478569 0.475257
0.577096 0.47718 0.468605
0.676646 0.474968 0.46833
0.772778 0.473167 0.468376
0.867185 0.471015 0.468055
0.962188 0.469047 0.467903
0 0.599863 0.545419
0.00939956 0.596902 0.560357
0.130205 0.586786 0.590311
0.413642 0.560372 0.545434
0.564385 0.570413 0.46743
0.664485 0.568551 0.455238
0.761273 0.566079 0.452857
0.85536 0.564065 0.452079
0.949447 0.561883 0.451072
0 0.682643 0.598688
0 0.67602 0.618418
0.0551614 0.665248 0.653193
0.356313 0.646937 0.598398
0.527611 0.651881 0.525826
0.65275 0.657191 0.466148
0.74818 0.657359 0.447913
0.843824 0.654978 0.440192
0.93872 0.652186 0.43679
0 0.758892 0.664805
0.00883497 0.753475 0.678264
0.104952 0.750408 0.675929
0.363394 0.736553 0.608026
0.493629 0.742473 0.547738
0.628901 0.740642 0.507698
0.740429 0.743511 0.452888
0.830854 0.742763 0.441138
0.924895 0.740658 0.430915
0 0.839704 0.718532
0.0381323 0.83949 0.711711
0.166491 0.84123 0.682109
0.342596 0.829374 0.618372
0.45391 0.833417 0.559655
0.600305 0.826932 0.53817
0.72398 0.823148 0.507164
0.825147 0.827161 0.44155
0.913939 0.825681 0.433402
0.00317388 0.930846 0.731929
0.0548714 0.932265 0.716854
0.14197 0.935515 0.690608
0.260426 0.931197 0.637644
0.392889 0.926101 0.569696
0.570214 0.914199 0.554376
0.697185 0.908705 0.533578
0.811246 0.906279 0.497887
0.908095 0.909209 0.432853
0.0398108 0.0462501 0.596155
0.16556 0.0380102 0.58909
0.352087 0.0181888 0.572198
0.475792 0.0238804 0.579828
0.597116 0.0447547 0.599924
0.72343 0.0722362 0.628214
0.843915 0.0941787 0.653971
0.953552 0.111681 0.673625
0.991043 0.122484 0.68455
0.038819 0.173175 0.593652
0.183566 0.190524 0.613397
0.394675 0.191928 0.618357
0.535576 0.207736 0.637675
0.653788 0.220249 0.654246
0.765087 0.229328 0.667323
0.869108 0.234409 0.676493
0.967971 0.237171 0.683146
0.99173 0.238346 0.686946
0.0417945 0.378225 0.59324
0.169284 0.386648 0.604074
0.363668 0.370794 0.591745
0.49189 0.368017 0.592248
0.598459 0.368338 0.596353
0.701106 0.368017 0.600397
0.800427 0.367285 0.604379
0.897276 0.366217 0.607691
0.983291 0.364706 0.610056
0.048249 0.511849 0.599878
0.159228 0.51046 0.599466
0.34493 0.487511 0.578531
0.472023 0.479179 0.571435
0.574609 0.476417 0.570703
0.673991 0.473976 0.571084
0.770214 0.471885 0.571542
0.86482 0.469718 0.572381
0.959625 0.467369 0.573373
0.0419928 0.613245 0.598825
0.143801 0.611109 0.596139
0.327855 0.586175 0.573022
0.457816 0.573754 0.565393
0.563027 0.570489 0.55877
0.662074 0.567437 0.556802
0.757961 0.565026 0.556268
0.851972 0.562737 0.555795
0.94609 0.560647 0.555535
0 0.695323 0.636393
0 0.69221 0.643839
0.0643626 0.687877 0.661494
0.307591 0.656962 0.663752
0.512154 0.646647 0.624979
0.647929 0.656046 0.562997
0.747356 0.655787 0.545739
0.841871 0.653147 0.543633
0.935241 0.650416 0.542657
0 0.773983 0.682429
0 0.76907 0.69395
0.000762951 0.76199 0.717754
0.149737 0.746029 0.747768
0.463004 0.722988 0.688518
0.609522 0.735683 0.616815
0.736675 0.742 0.55317
0.828717 0.741466 0.540154
0.923476 0.738445 0.532372
0 0.849302 0.742885
0 0.843488 0.755245
0 0.835279 0.779706
0.170642 0.824353 0.776059
0.453437 0.808423 0.71017
0.572213 0.822461 0.643778
0.710369 0.82031 0.603433
0.821149 0.825391 0.544411
0.910903 0.824231 0.535073
0 0.922148 0.812772
0 0.916655 0.823041
0.0501564 0.915175 0.818509
0.285237 0.899611 0.775067
0.463752 0.894621 0.716793
0.53727 0.911131 0.654154
0.678767 0.905791 0.63064
0.80296 0.90367 0.591363
0.904005 0.907393 0.538598
0.0382086 0.0456703 0.692775
0.163607 0.0387884 0.687114
0.352239 0.0200351 0.671138
0.479667 0.0299687 0.681636
0.604486 0.05449 0.705409
0.730068 0.0803388 0.733104
0.848798 0.100282 0.75729
0.95523 0.115587 0.774273
0.989593 0.125887 0.784543
0.0451209 0.179294 0.6981
0.190875 0.198978 0.720027
0.400732 0.199176 0.723995
0.540185 0.21265 0.740826
0.65684 0.224094 0.755871
0.766201 0.231434 0.767163
0.869184 0.23534 0.775311
0.967987 0.237598 0.78175
0.990234 0.238605 0.785153
0.0453346 0.382757 0.696239
0.171603 0.389914 0.705943
0.364294 0.372473 0.69221
0.49218 0.368658 0.691463
0.598184 0.368368 0.695094
0.700252 0.367864 0.698741
0.798703 0.367056 0.702327
0.895277 0.365896 0.705577
0.981125 0.363973 0.707942
0.0482338 0.51223 0.698817
0.157809 0.510842 0.698283
0.343069 0.487373 0.67715
0.470451 0.478645 0.669795
0.572808 0.475959 0.668299
0.671458 0.473564 0.668177
0.767254 0.471275 0.668696
0.861967 0.468986 0.669841
0.956909 0.466743 0.670604
0.0451514 0.61326 0.694835
0.146319 0.61062 0.692973
0.329076 0.58529 0.669596
0.459174 0.573709 0.65922
0.561517 0.569772 0.656107
0.659525 0.566613 0.654765
0.755367 0.564034 0.654612
0.849577 0.561868 0.655024
0.943587 0.55938 0.655314
0.0310979 0.705394 0.690517
0.106874 0.70312 0.690745
0.26894 0.683085 0.675334
0.423209 0.665492 0.663783
0.540429 0.658701 0.659312
0.647013 0.656718 0.648493
0.745251 0.654826 0.642206
0.838865 0.652293 0.64152
0.932296 0.649485 0.640528
0 0.785428 0.724559
0 0.782544 0.728313
0.0336919 0.779629 0.738293
0.191119 0.76524 0.751659
0.444968 0.732158 0.739086
0.60058 0.731914 0.707134
0.733547 0.741222 0.643977
0.827985 0.740307 0.631266
0.921874 0.736996 0.628336
0 0.863355 0.767071
0 0.859434 0.773007
0 0.854398 0.786892
0.0390326 0.846387 0.815534
0.283711 0.814939 0.836866
0.539574 0.802976 0.782071
0.686381 0.818662 0.704112
0.817914 0.824277 0.637873
0.909194 0.823255 0.625528
0 0.938384 0.820172
0 0.933654 0.82681
0 0.927169 0.842893
0 0.917311 0.874556
0.183932 0.902663 0.897993
0.531258 0.882795 0.809247
0.661097 0.896529 0.743206
0.787488 0.901259 0.687709
0.900465 0.905989 0.633326
0.0373083 0.0457465 0.78645
0.162325 0.040528 0.782467
0.353765 0.0237583 0.768322
0.48484 0.0377203 0.781781
0.612116 0.0640726 0.80795
0.736263 0.0872816 0.834272
0.85304 0.106477 0.856413
0.957687 0.119905 0.871534
0.988342 0.128328 0.880369
0.0525673 0.187366 0.800748
0.198306 0.207523 0.823224
0.407065 0.206653 0.826139
0.544228 0.21706 0.840177
0.659617 0.227283 0.853864
0.767269 0.233066 0.863294
0.869261 0.236454 0.870726
0.968261 0.2383 0.876783
0.988952 0.238697 0.879744
0.0488899 0.386923 0.795514
0.17319 0.392432 0.803876
0.364584 0.3738 0.788876
0.492485 0.369192 0.787533
0.597955 0.368673 0.790417
0.699611 0.367987 0.793606
0.79762 0.366735 0.796704
0.894087 0.365484 0.799847
0.979095 0.363653 0.802197
0.0480812 0.512871 0.794125
0.156878 0.511177 0.793561
0.341619 0.487556 0.772122
0.469306 0.478492 0.764324
0.571572 0.475441 0.762844
0.669917 0.472999 0.762295
0.765438 0.47068 0.762753
0.859846 0.468635 0.763897
0.954452 0.466194 0.764813
0.0440833 0.612818 0.789425
0.144579 0.610346 0.78764
0.326955 0.584558 0.764126
0.457511 0.573007 0.753887
0.559686 0.568948 0.75079
0.657603 0.566049 0.748943
0.752911 0.563653 0.74873
0.846815 0.561318 0.749218
0.940841 0.558999 0.749432
0.0363928 0.705501 0.780957
0.130282 0.703624 0.779873
0.307546 0.679103 0.757305
0.445853 0.665156 0.744747
0.549523 0.66038 0.740871
0.647532 0.65687 0.738399
0.74258 0.654017 0.736965
0.836378 0.651362 0.736934
0.929717 0.648417 0.736828
0.0226291 0.794568 0.779446
0.0909743 0.79266 0.778683
0.237873 0.775876 0.76437
0.401541 0.757183 0.74905
0.525154 0.74818 0.742031
0.630304 0.744121 0.737163
0.730861 0.741405 0.730251
0.826246 0.739422 0.724895
0.918914 0.736187 0.723507
0 0.874189 0.811185
0 0.871473 0.812818
0.0056611 0.868635 0.818341
0.111223 0.863005 0.829023
0.355077 0.829709 0.82536
0.542718 0.813367 0.818769
0.685695 0.812589 0.792111
0.814252 0.82359 0.726528
0.908736 0.82237 0.714076
0 0.951431 0.850202
0 0.948074 0.853132
0 0.943526 0.861357
0 0.937743 0.87892
0.130434 0.926757 0.910201
0.449088 0.880995 0.90219
0.632303 0.883345 0.859281
0.774823 0.896849 0.785519
0.8972 0.904814 0.724529
0.036347 0.0457923 0.87953
0.162264 0.0420539 0.876966
0.356847 0.0290379 0.865873
0.491783 0.0468299 0.882399
0.620066 0.0732738 0.909407
0.742702 0.094255 0.933547
0.856489 0.111254 0.950668
0.959686 0.123568 0.964004
0.987289 0.130816 0.971496
0.0611124 0.195926 0.903059
0.204837 0.215152 0.924636
0.412314 0.213016 0.926284
0.548089 0.221576 0.937911
0.662135 0.230198 0.94847
0.768536 0.234806 0.956405
0.869688 0.237186 0.96376
0.968215 0.238636 0.970245
0.987854 0.239017 0.972824
0.0526589 0.391012 0.893217
0.174685 0.394873 0.899779
0.365042 0.37528 0.884047
0.492912 0.36997 0.882002
0.598184 0.368811 0.884443
0.699428 0.367819 0.8869
0.796963 0.366629 0.889677
0.892897 0.365286 0.892561
0.977584 0.363119 0.894667
0.0480964 0.513313 0.887648
0.155596 0.511742 0.88719
0.339956 0.487633 0.865309
0.468055 0.478248 0.857435
0.570199 0.475151 0.85568
0.668406 0.472587 0.85481
0.763851 0.470314 0.8551
0.857969 0.46804 0.855863
0.952605 0.465965 0.856992
0.0432441 0.612619 0.882322
0.142565 0.609979 0.880583
0.324804 0.584344 0.857023
0.455726 0.572641 0.846693
0.558282 0.568521 0.843381
0.656214 0.565377 0.841611
0.751308 0.563058 0.840986
0.844785 0.560952 0.841184
0.938338 0.558511 0.841398
0.0350195 0.704952 0.87364
0.128832 0.703151 0.872633
0.304768 0.678981 0.850401
0.444236 0.664439 0.837491
0.548058 0.659617 0.8336
0.64593 0.656245 0.8309
0.740902 0.653452 0.829282
0.833844 0.65069 0.828809
0.927138 0.648005 0.82855
0.031632 0.795239 0.866163
0.120729 0.793194 0.864973
0.283543 0.772122 0.84538
0.433204 0.754437 0.829175
0.538186 0.74873 0.824323
0.635889 0.744625 0.82118
0.730999 0.741375 0.818631
0.823453 0.73846 0.817014
0.916487 0.735317 0.816602
0.0277562 0.883131 0.862943
0.0977188 0.880781 0.860288
0.244038 0.864271 0.844129
0.416892 0.842634 0.822492
0.52575 0.835508 0.816907
0.62153 0.830823 0.816129
0.717281 0.82652 0.815442
0.81355 0.824384 0.807813
0.90692 0.821378 0.805035
0 0.961593 0.896269
0 0.95877 0.896361
0 0.955749 0.899092
0.0576181 0.951171 0.905409
0.267567 0.931136 0.905211
0.480858 0.90251 0.902586
0.637949 0.893553 0.896925
0.769909 0.895125 0.867185
0.893706 0.904326 0.810437
0.0357366 0.0459144 0.949447
0.161578 0.0432593 0.950545
0.359152 0.0343633 0.945434
0.497398 0.0543832 0.967239
0.625666 0.079469 0.978363
0.747616 0.0992447 0.984314
0.859541 0.115084 0.988296
0.962005 0.126345 0.990356
0.987076 0.132433 0.990845
0.0680247 0.203006 0.975143
0.210712 0.221607 0.978424
0.416617 0.217945 0.980331
0.551751 0.224765 0.981918
0.664256 0.231891 0.983536
0.769909 0.235645 0.985367
0.870481 0.237705 0.98732
0.968688 0.238468 0.989395
0.987655 0.23856 0.989792
0.0559243 0.393896 0.977005
0.17554 0.39646 0.977783
0.364981 0.376181 0.975784
0.492988 0.370199 0.973175
0.598032 0.369055 0.973022
0.698985 0.367407 0.973404
0.796368 0.366171 0.974258
0.891981 0.36466 0.975433
0.976272 0.362493 0.976608
0.0479133 0.513878 0.973083
0.154238 0.511955 0.971649
0.338247 0.487877 0.959228
0.466728 0.477897 0.950942
0.569024 0.474662 0.948837
0.667216 0.471855 0.947753
0.762661 0.469657 0.947814
0.856535 0.467643 0.948363
0.95079 0.465431 0.949279
0.0421607 0.612116 0.96611
0.140841 0.609491 0.964828
0.322927 0.583902 0.950103
0.454078 0.571984 0.939483
0.55668 0.567895 0.936431
0.654582 0.564889 0.934478
0.749706 0.562387 0.93341
0.842924 0.560327 0.933257
0.9364 0.55816 0.933394
0.033875 0.70425 0.959411
0.127398 0.702419 0.958648
0.301534 0.678767 0.943145
0.442374 0.663981 0.930068
0.546349 0.6589 0.926177
0.644129 0.655421 0.923568
0.739147 0.652598 0.921798
0.831861 0.650111 0.920836
0.924758 0.647349 0.920302
0.0315557 0.794491 0.953887
0.119173 0.792584 0.95314
0.280201 0.771771 0.937713
0.43122 0.753613 0.921782
0.536568 0.747814 0.916579
0.634241 0.743908 0.913405
0.729274 0.740612 0.910826
0.821622 0.737591 0.909026
0.913893 0.734813 0.908049
0.0339513 0.883009 0.94931
0.111101 0.880446 0.948333
0.259297 0.862821 0.933181
0.420432 0.841398 0.913405
0.526879 0.834836 0.907713
0.624506 0.830381 0.904204
0.719615 0.826658 0.901015
0.812238 0.823636 0.898665
0.904402 0.820523 0.8972
0.0318456 0.969451 0.944472
0.0882887 0.966567 0.943465
0.199908 0.953948 0.933532
0.363439 0.932982 0.916243
0.492332 0.920729 0.908064
0.595529 0.914992 0.906371
0.695491 0.910521 0.903761
0.793256 0.906798 0.901411
0.892424 0.905272 0.891875
