luts/Binapani HD.cube
TITLE "Generated by Resolve"
LUT_3D_SIZE 5
0.0584573 0.060502 0.0663767
0.37142 0.0251316 0.0305333
0.595056 0.0294194 0.0382544
0.833783 0.073167 0.0843061
0.999146 0.116472 0.13019
0.00480659 0.34609 0.100603
0.368536 0.368139 0.0697337
0.610956 0.376745 0.0603647
0.818418 0.378531 0.0659342
0.99646 0.377966 0.0725872
0 0.616663 0.197589
0.309071 0.600717 0.14107
0.584665 0.580941 0.0649424
0.772702 0.578393 0.0519875
0.964446 0.574777 0.0362402
0 0.803998 0.268498
0.169711 0.798444 0.252735
0.554574 0.756756 0.196963
0.759579 0.754513 0.0718853
0.93843 0.75201 0.0620584
0 0.974655 0.398962
0.0253758 0.971405 0.399863
0.485786 0.928069 0.357137
0.727199 0.915923 0.310582
0.926574 0.920211 0.0815747
0.0449378 0.0491493 0.386038
0.355291 0.0168154 0.357107
0.588617 0.0294652 0.371023
0.835782 0.0817731 0.420813
0.994888 0.116289 0.455375
0.0252842 0.363897 0.367636
0.358907 0.367727 0.368307
0.602747 0.369711 0.365942
0.806317 0.370703 0.370642
0.988785 0.369177 0.372534
0 0.58381 0.518074
0.242908 0.575265 0.500618
0.570871 0.573159 0.342046
0.765438 0.570382 0.316304
0.956832 0.566506 0.303395
0.0142519 0.764187 0.594385
0.156466 0.77583 0.528603
0.517815 0.747356 0.439155
0.748791 0.748653 0.303197
0.930953 0.746883 0.272709
0 0.952163 0.607248
0.0130922 0.959686 0.551995
0.448844 0.924498 0.481315
0.709361 0.91107 0.448096
0.919371 0.916655 0.252888
0.0398108 0.0462501 0.596155
0.352087 0.0181888 0.572198
0.597116 0.0447547 0.599924
0.843915 0.0941787 0.653971
0.991043 0.122484 0.68455
0.0417945 0.378225 0.59324
0.363668 0.370794 0.591745
0.598459 0.368338 0.596353
0.800427 0.367285 0.604379
0.983291 0.364706 0.610056
0.0419928 0.613245 0.598825
0.327855 0.586175 0.573022
0.563027 0.570489 0.55877
0.757961 0.565026 0.556268
0.94609 0.560647 0.555535
0 0.773983 0.682429
0.000762951 0.76199 0.717754
0.463004 0.722988 0.688518
0.736675 0.742 0.55317
0.923476 0.738445 0.532372
0 0.922148 0.812772
0.0501564 0.915175 0.818509
0.463752 0.894621 0.716793
0.678767 0.905791 0.63064
0.904005 0.907393 0.538598
0.0373083 0.0457465 0.78645
0.353765 0.0237583 0.768322
0.612116 0.0640726 0.80795
0.85304 0.106477 0.856413
0.988342 0.128328 0.880369
0.0488899 0.386923 0.795514
0.364584 0.3738 0.788876
0.597955 0.368673 0.790417
0.79762 0.366735 0.796704
0.979095 0.363653 0.802197
0.0440833 0.612818 0.789425
0.326955 0.584558 0.764126
0.559686 0.568948 0.75079
0.752911 0.563653 0.74873
0.940841 0.558999 0.749432
0.0226291 0.794568 0.779446
0.237873 0.775876 0.76437
0.525154 0.74818 0.742031
0.730861 0.741405 0.730251
0.918914 0.736187 0.723507
0 0.951431 0.850202
0 0.943526 0.861357
0.130434 0.926757 0.910201
0.632303 0.883345 0.859281
0.8972 0.904814 0.724529
0.0357366 0.0459144 0.949447
0.359152 0.0343633 0.945434
0.625666 0.079469 0.978363
0.859541 0.115084 0.988296
0.987076 0.132433 0.990845
0.0559243 0.393896 0.977005
0.364981 0.376181 0.975784
0.598032 0.369055 0.973022
0.796368 0.366171 0.974258
0.976272 0.362493 0.976608
0.0421607 0.612116 0.96611
0.322927 0.583902 0.950103
0.55668 0.567895 0.936431
0.749706 0.562387 0.93341
0.9364 0.55816 0.933394
0.0315557 0.794491 0.953887
0.280201 0.771771 0.937713
0.536568 0.747814 0.916579
0.729274 0.740612 0.910826
0.913893 0.734813 0.908049
0.0318456 0.969451 0.944472
0.199908 0.953948 0.933532
0.492332 0.920729 0.908064
0.695491 0.910521 0.903761
0.892424 0.905272 0.891875
