luts/BLUE ICE.cube
LUT_3D_SIZE 16
0.009169 0.013382 0.027625
0.045229 0.018747 0.024174
0.091334 0.031895 0.024106
0.142979 0.043043 0.032793
0.198186 0.050820 0.039348
0.262901 0.055556 0.044674
0.330485 0.062371 0.060146
0.399533 0.072074 0.075338
0.469961 0.081048 0.089490
0.542187 0.091039 0.103353
0.616950 0.099060 0.117941
0.699555 0.114931 0.132242
0.777785 0.133308 0.144758
0.849739 0.147764 0.158220
0.911561 0.157623 0.171880
0.953505 0.182518 0.185994
0.006276 0.041319 0.027278
0.034243 0.045424 0.028424
0.086547 0.054013 0.023731
0.145375 0.062598 0.023241
0.208923 0.068841 0.021659
0.280330 0.072367 0.025991
0.353993 0.079439 0.040298
0.421784 0.090681 0.061492
0.491234 0.102621 0.080265
0.559786 0.115405 0.097403
0.634708 0.129444 0.114255
0.714661 0.148210 0.130953
0.790113 0.166258 0.145395
0.859144 0.183610 0.160242
0.919788 0.200076 0.174284
0.958204 0.223608 0.189430
0.006961 0.071531 0.033617
0.025519 0.075538 0.035552
0.070574 0.081963 0.039736
0.129562 0.092072 0.037476
0.201550 0.101900 0.021946
0.278130 0.108853 0.019325
0.357873 0.118859 0.024797
0.439389 0.127538 0.035817
0.519185 0.135798 0.052001
0.596473 0.146697 0.070183
0.676419 0.162297 0.088018
0.752196 0.180739 0.106726
0.822323 0.198742 0.125492
0.884073 0.219750 0.144014
0.936407 0.241176 0.161514
0.967606 0.261357 0.176617
0.005710 0.105355 0.036803
0.017332 0.109074 0.037243
0.049281 0.116039 0.039608
0.111823 0.126713 0.043740
0.184668 0.137735 0.042072
0.269518 0.149209 0.027815
0.354831 0.159217 0.022093
0.437677 0.170031 0.028237
0.522454 0.181322 0.043380
0.612211 0.191996 0.053339
0.706344 0.204739 0.058269
0.786816 0.219620 0.069183
0.854430 0.237343 0.087595
0.913078 0.256931 0.109763
0.956081 0.278885 0.130948
0.978808 0.301048 0.149430
0.003573 0.142766 0.043092
0.013658 0.145398 0.041151
0.034899 0.151587 0.040419
0.088270 0.162679 0.041867
0.170396 0.177640 0.048093
0.250274 0.188976 0.047965
0.347464 0.201779 0.036538
0.436597 0.213859 0.028695
0.522497 0.225485 0.037446
0.615200 0.238211 0.047033
0.712183 0.252996 0.051331
0.797087 0.269390 0.052720
0.872261 0.285670 0.060049
0.930861 0.301786 0.077364
0.967133 0.324100 0.101748
0.983737 0.352114 0.127803
0.001921 0.186630 0.055494
0.007651 0.189907 0.054288
0.017203 0.193743 0.050586
0.064066 0.205136 0.049251
0.150370 0.222370 0.053601
0.241597 0.238944 0.058648
0.330796 0.249856 0.056071
0.426463 0.261404 0.045451
0.522853 0.274247 0.038056
0.617676 0.288305 0.039277
0.715351 0.304779 0.040022
0.801091 0.323619 0.046539
0.876769 0.339006 0.052980
0.937516 0.353531 0.067000
0.971939 0.376757 0.082887
0.986201 0.408735 0.109031
0.001949 0.236116 0.068166
0.007170 0.240143 0.067188
0.014653 0.243512 0.062972
0.030918 0.253197 0.058324
0.115208 0.272521 0.057395
0.224514 0.291485 0.065107
0.323765 0.307560 0.067711
0.413508 0.316806 0.062296
0.510480 0.325991 0.051653
0.616472 0.339964 0.036852
0.716022 0.356317 0.028397
0.803936 0.374375 0.035357
0.880174 0.392085 0.042413
0.941167 0.412292 0.054200
0.973565 0.437937 0.070687
0.988450 0.466495 0.094731
0.002533 0.290443 0.079555
0.007887 0.294957 0.077600
0.015282 0.297189 0.071064
0.025801 0.304664 0.063823
0.072982 0.322875 0.060853
0.195550 0.344435 0.068569
0.312474 0.364523 0.073587
0.407050 0.376739 0.072928
0.501079 0.386297 0.068168
0.602195 0.393117 0.050624
0.712456 0.409240 0.037241
0.807249 0.429845 0.034243
0.883860 0.450977 0.035587
0.942900 0.472735 0.038170
0.974382 0.498208 0.052641
0.990697 0.522798 0.085087
0.003327 0.348881 0.088913
0.008803 0.356682 0.086758
0.015940 0.357082 0.077265
0.025082 0.363526 0.069318
0.054221 0.380455 0.067142
0.150773 0.402213 0.066624
0.288166 0.423839 0.072345
0.400889 0.442216 0.074437
0.493627 0.453908 0.074123
0.596199 0.464452 0.069490
0.702524 0.471607 0.057322
0.802315 0.487973 0.047705
0.885912 0.512944 0.033505
0.944298 0.535068 0.030891
0.976234 0.556701 0.050072
0.992780 0.578978 0.087227
0.004377 0.414626 0.095923
0.009939 0.424300 0.092371
0.017097 0.425323 0.083006
0.025178 0.429736 0.071262
0.040873 0.444441 0.068598
0.104344 0.467089 0.067624
0.247933 0.488977 0.069473
0.384414 0.509731 0.077455
0.490049 0.527664 0.083429
0.592626 0.538056 0.085462
0.702807 0.549279 0.076830
0.798176 0.557076 0.062772
0.879451 0.570113 0.048640
0.945480 0.593573 0.050577
0.979400 0.613957 0.071235
0.994567 0.635187 0.097473
0.005552 0.483876 0.111043
0.011133 0.493042 0.108823
0.018368 0.494139 0.094682
0.026684 0.497194 0.078423
0.040368 0.508991 0.069289
0.067126 0.529934 0.069435
0.201260 0.552916 0.075038
0.362565 0.575249 0.085957
0.482149 0.594816 0.090042
0.596157 0.611989 0.090075
0.703703 0.623052 0.087751
0.800502 0.633260 0.080556
0.881358 0.640274 0.078621
0.943499 0.649362 0.082793
0.981913 0.671441 0.094217
0.996079 0.693037 0.109665
0.006736 0.548999 0.124014
0.012325 0.557808 0.122335
0.019623 0.561095 0.110446
0.027739 0.563215 0.089031
0.040995 0.575291 0.076258
0.064519 0.596010 0.078138
0.171073 0.618795 0.083057
0.343242 0.641540 0.091787
0.476233 0.662156 0.090753
0.603745 0.682961 0.094050
0.709149 0.693863 0.106178
0.802656 0.704602 0.117008
0.882528 0.713596 0.115642
0.942768 0.719606 0.113242
0.979977 0.729058 0.112609
0.996647 0.745677 0.124290
0.007952 0.611832 0.131589
0.013514 0.619734 0.128539
0.020913 0.625468 0.118161
0.029109 0.627832 0.098122
0.042465 0.639013 0.089449
0.063163 0.657188 0.089151
0.123981 0.678668 0.088010
0.325123 0.699260 0.083981
0.473995 0.718020 0.086210
0.605329 0.738102 0.110653
0.720527 0.754731 0.133282
0.804774 0.760249 0.137312
0.883136 0.769649 0.136562
0.942876 0.775121 0.128664
0.980930 0.780911 0.124961
0.997203 0.791193 0.139387
0.009010 0.664907 0.138368
0.014542 0.671319 0.136213
0.022127 0.678476 0.129913
0.030665 0.680774 0.114779
0.044148 0.690898 0.106502
0.063331 0.706350 0.100580
0.110459 0.725447 0.100652
0.309710 0.744419 0.097945
0.469103 0.762289 0.109464
0.603278 0.780626 0.133967
0.720324 0.796359 0.149004
0.805076 0.803543 0.147657
0.882697 0.810657 0.146748
0.943030 0.816284 0.143170
0.979749 0.822158 0.140017
0.997312 0.831433 0.155909
0.010035 0.709495 0.151154
0.015636 0.714024 0.148417
0.023669 0.721082 0.146152
0.032748 0.723983 0.133382
0.046274 0.732645 0.117142
0.064231 0.746072 0.104298
0.120821 0.762592 0.104050
0.290045 0.779186 0.112510
0.454617 0.796080 0.131663
0.593814 0.812960 0.141967
0.709438 0.828265 0.153784
0.803363 0.840492 0.159010
0.876958 0.843854 0.160887
0.940747 0.849368 0.159873
0.980787 0.854002 0.155234
0.997662 0.862313 0.170031
0.011232 0.746280 0.167867
0.016804 0.750108 0.166955
0.025198 0.756541 0.166455
0.035596 0.760199 0.152652
0.049655 0.767707 0.127881
0.067187 0.778270 0.111382
0.122824 0.791618 0.115934
0.271790 0.805421 0.121555
0.443263 0.820922 0.138747
0.574808 0.835942 0.147109
0.689217 0.849639 0.154260
0.786157 0.863714 0.169161
0.863445 0.869877 0.174830
0.932272 0.875455 0.176997
0.978508 0.880427 0.172484
0.997307 0.889000 0.183569
0.010325 0.019696 0.084466
0.042056 0.022751 0.086268
0.102708 0.026347 0.077596
0.151628 0.036316 0.065065
0.202394 0.044712 0.061938
0.265491 0.050319 0.065790
0.332019 0.057426 0.076895
0.401600 0.066612 0.091380
0.472475 0.075393 0.105822
0.545573 0.085216 0.119870
0.623189 0.090931 0.134768
0.706996 0.108877 0.150180
0.783375 0.126866 0.163850
0.853252 0.142065 0.176936
0.912902 0.151996 0.191153
0.952037 0.177101 0.205227
0.005391 0.047317 0.080509
0.024235 0.049905 0.079908
0.088547 0.056144 0.074006
0.150574 0.067478 0.073400
0.219175 0.073062 0.070179
0.294231 0.078291 0.072185
0.361396 0.088845 0.087594
0.430121 0.100402 0.102355
0.502530 0.111127 0.116348
0.576803 0.122580 0.130458
0.658029 0.135805 0.146459
0.739585 0.154022 0.160439
0.814450 0.168808 0.172334
0.879388 0.188224 0.186548
0.930468 0.202815 0.199558
0.958363 0.227788 0.216756
0.004223 0.078959 0.081741
0.018035 0.081616 0.081364
0.062745 0.085465 0.082038
0.135853 0.096584 0.074439
0.224249 0.107172 0.061494
0.314689 0.110923 0.045758
0.394216 0.117079 0.058318
0.466037 0.127718 0.077113
0.535294 0.140427 0.096546
0.610165 0.155870 0.115180
0.686219 0.173952 0.134181
0.760599 0.194236 0.153516
0.829473 0.213154 0.169881
0.890691 0.234236 0.187526
0.940219 0.253135 0.202262
0.965451 0.274178 0.218677
0.004159 0.115480 0.080361
0.015689 0.117834 0.078781
0.043621 0.121452 0.080254
0.107433 0.130209 0.084096
0.189094 0.143592 0.079998
0.289684 0.155653 0.064222
0.389986 0.164696 0.056838
0.476921 0.174332 0.062235
0.563476 0.183518 0.071725
0.653044 0.195179 0.081200
0.732983 0.209853 0.098172
0.803004 0.227958 0.119760
0.864923 0.247569 0.141701
0.918565 0.267550 0.161324
0.957817 0.289274 0.180252
0.976142 0.311500 0.197359
0.002923 0.154928 0.083051
0.012760 0.156476 0.080583
0.030819 0.158976 0.080017
0.083333 0.167429 0.081638
0.167063 0.181281 0.086574
0.252166 0.194156 0.086799
0.360922 0.208985 0.073396
0.465629 0.221834 0.063987
0.563081 0.233302 0.065548
0.661297 0.245819 0.070771
0.752696 0.258428 0.072038
0.831501 0.273888 0.078886
0.893367 0.290539 0.096436
0.941096 0.310673 0.121746
0.970044 0.335069 0.146565
0.982905 0.359892 0.171315
0.001802 0.198578 0.092652
0.007234 0.201417 0.090506
0.016018 0.201975 0.086902
0.056686 0.210440 0.088249
0.142328 0.225608 0.091535
0.235620 0.242627 0.096048
0.329210 0.255134 0.094001
0.435036 0.268511 0.081591
0.546249 0.283964 0.068406
0.662823 0.299343 0.064875
0.758533 0.314220 0.064538
0.838187 0.330229 0.071192
0.903446 0.343047 0.081878
0.953415 0.360075 0.097515
0.977114 0.391497 0.127324
0.986590 0.417853 0.152229
0.001802 0.248241 0.103499
0.006791 0.252602 0.102856
0.013532 0.252079 0.097548
0.027627 0.258874 0.095804
0.102738 0.275879 0.097352
0.214828 0.294235 0.100999
0.319994 0.311609 0.102908
0.411272 0.321228 0.099651
0.514213 0.333192 0.087528
0.637545 0.348569 0.067406
0.753773 0.368129 0.058079
0.841102 0.385774 0.060863
0.907865 0.402612 0.072050
0.955652 0.423628 0.085442
0.978404 0.454257 0.113276
0.989054 0.474689 0.142085
0.001866 0.302129 0.113532
0.007129 0.307435 0.113073
0.014188 0.306385 0.107400
0.023445 0.310889 0.101700
0.062439 0.326586 0.102523
0.184178 0.347249 0.103609
0.304082 0.367321 0.108372
0.403339 0.381638 0.108345
0.497115 0.390386 0.102515
0.604273 0.397767 0.084479
0.727292 0.418687 0.068312
0.836176 0.444991 0.062739
0.911585 0.466259 0.059616
0.957289 0.487963 0.071712
0.980093 0.514867 0.099234
0.991277 0.530513 0.135546
0.002607 0.360969 0.124314
0.008123 0.368721 0.123993
0.015210 0.367415 0.115840
0.023883 0.370957 0.105939
0.048356 0.384320 0.104653
0.139524 0.405362 0.105209
0.276337 0.427026 0.110608
0.393309 0.446173 0.112039
0.488770 0.458809 0.109595
0.593539 0.467751 0.101113
0.703739 0.475465 0.084035
0.812896 0.497891 0.075542
0.904459 0.526417 0.060178
0.959312 0.550912 0.062672
0.983430 0.574509 0.097234
0.993335 0.586014 0.130794
0.003756 0.426695 0.133540
0.009323 0.435556 0.130758
0.016508 0.436138 0.120549
0.024422 0.438223 0.108101
0.038412 0.449612 0.106564
0.089350 0.471190 0.108702
0.231009 0.492517 0.106884
0.373581 0.512919 0.111444
0.484137 0.531153 0.115465
0.590134 0.542018 0.114265
0.701016 0.552147 0.101270
0.798546 0.559545 0.087830
0.887162 0.577545 0.080303
0.954283 0.604479 0.087374
0.986020 0.633029 0.112012
0.995098 0.642778 0.135083
0.005006 0.493796 0.144031
0.010581 0.502353 0.142455
0.017879 0.504324 0.131000
0.025890 0.505170 0.116635
0.038777 0.514805 0.110207
0.062490 0.534216 0.110859
0.180950 0.556484 0.109838
0.350811 0.578216 0.116617
0.474599 0.597878 0.121107
0.593955 0.616548 0.119753
0.701647 0.626608 0.116577
0.800034 0.636257 0.110104
0.883410 0.642261 0.106861
0.947042 0.653724 0.115394
0.985614 0.683788 0.128500
0.996641 0.700864 0.145047
0.006236 0.557584 0.156379
0.011844 0.565922 0.154672
0.019283 0.571370 0.146297
0.027079 0.571582 0.131412
0.039860 0.581606 0.118872
0.061684 0.600025 0.114186
0.153411 0.621839 0.114936
0.328465 0.644568 0.120562
0.467550 0.665551 0.122952
0.599213 0.686233 0.128363
0.707272 0.698060 0.137492
0.802443 0.708255 0.146786
0.884203 0.716824 0.141642
0.945148 0.721968 0.137538
0.981500 0.733370 0.141567
0.996940 0.751351 0.158897
0.007530 0.619529 0.164663
0.013143 0.627156 0.161118
0.020588 0.634727 0.154530
0.028479 0.635114 0.137166
0.041375 0.644476 0.123444
0.061144 0.660706 0.118252
0.111250 0.681368 0.118909
0.307077 0.701983 0.115385
0.466811 0.721106 0.120972
0.601172 0.741583 0.145154
0.718721 0.758211 0.163277
0.804899 0.764033 0.164162
0.884356 0.772910 0.161633
0.944772 0.778088 0.154473
0.981957 0.783947 0.153127
0.997723 0.795101 0.174443
0.008685 0.671061 0.170181
0.014241 0.677247 0.166563
0.021765 0.685093 0.160986
0.029970 0.686084 0.144816
0.043411 0.695274 0.134676
0.061630 0.709396 0.127593
0.102774 0.727844 0.131096
0.291466 0.746997 0.132765
0.463482 0.765493 0.143597
0.600122 0.783682 0.163452
0.718992 0.799467 0.176921
0.806214 0.807260 0.175541
0.884136 0.814224 0.174256
0.944787 0.819858 0.171414
0.980985 0.825119 0.167718
0.997771 0.835079 0.190056
0.009738 0.713868 0.172802
0.015400 0.718141 0.169663
0.023423 0.725472 0.167536
0.032413 0.728439 0.158257
0.045991 0.736413 0.144562
0.063139 0.748743 0.135348
0.112836 0.764838 0.139335
0.277147 0.781442 0.148757
0.452167 0.798933 0.162949
0.593377 0.815521 0.168280
0.709375 0.830903 0.180160
0.805519 0.843823 0.188647
0.878662 0.846820 0.189105
0.942908 0.852282 0.188482
0.982017 0.856967 0.184874
0.998023 0.865152 0.201768
0.010906 0.749397 0.184465
0.016701 0.753687 0.184047
0.025479 0.760765 0.184455
0.035903 0.764466 0.175606
0.049657 0.770876 0.157323
0.066535 0.780793 0.140307
0.118710 0.793799 0.145429
0.259643 0.807137 0.151130
0.440369 0.822673 0.164239
0.576241 0.837969 0.173017
0.690461 0.851778 0.179768
0.787404 0.866028 0.196830
0.864454 0.872508 0.203998
0.933250 0.877964 0.205085
0.979472 0.883012 0.199958
0.997530 0.891712 0.212109
0.009568 0.025114 0.145283
0.030041 0.026699 0.147398
0.087125 0.028872 0.151739
0.160023 0.030609 0.153427
0.232695 0.033705 0.136259
0.290471 0.036421 0.119276
0.343982 0.041166 0.111319
0.403124 0.048927 0.113422
0.466132 0.058919 0.123041
0.534841 0.070921 0.136246
0.606823 0.075606 0.150639
0.686778 0.089393 0.166183
0.764072 0.112489 0.182047
0.835708 0.126965 0.195589
0.898010 0.137676 0.209597
0.944821 0.163797 0.226150
0.005192 0.052775 0.141762
0.019959 0.054166 0.142375
0.072043 0.055680 0.143895
0.153648 0.057243 0.141576
0.226816 0.060545 0.114750
0.297052 0.060000 0.100263
0.360630 0.071987 0.107263
0.426141 0.084745 0.118661
0.498312 0.096688 0.134108
0.572577 0.108763 0.149231
0.655095 0.120304 0.165588
0.736622 0.141341 0.182713
0.811486 0.156861 0.196526
0.876070 0.177693 0.210226
0.926734 0.193052 0.223905
0.954517 0.216429 0.240228
0.003907 0.086662 0.141267
0.014731 0.089266 0.141274
0.044213 0.090018 0.140367
0.131291 0.096634 0.133094
0.206713 0.109509 0.128760
0.281550 0.120429 0.131013
0.362714 0.132012 0.137630
0.444273 0.143770 0.145594
0.528142 0.155082 0.155683
0.621035 0.168545 0.168306
0.707449 0.183678 0.182960
0.784268 0.201349 0.196543
0.852119 0.219106 0.209370
0.906108 0.236661 0.222394
0.938583 0.257707 0.239416
0.963721 0.285852 0.263267
0.002926 0.128924 0.145490
0.010937 0.132004 0.144213
0.025076 0.131237 0.141859
0.089089 0.135630 0.140713
0.187427 0.148872 0.132791
0.291081 0.162413 0.125510
0.392065 0.172702 0.122867
0.483525 0.179963 0.123388
0.571937 0.190021 0.132936
0.659882 0.204927 0.148684
0.738819 0.223746 0.168601
0.808235 0.243776 0.187486
0.869871 0.264158 0.205246
0.919432 0.285257 0.223154
0.951936 0.305690 0.238614
0.971467 0.333904 0.263205
0.002216 0.171994 0.145857
0.008937 0.174183 0.142675
0.021734 0.171991 0.138034
0.065703 0.175174 0.137560
0.153626 0.185171 0.142097
0.248361 0.201245 0.140414
0.361514 0.217071 0.128704
0.471012 0.229348 0.124475
0.583687 0.240240 0.120579
0.700280 0.250278 0.111751
0.787474 0.263510 0.119514
0.852102 0.281738 0.144656
0.902403 0.301844 0.170713
0.943823 0.322082 0.192625
0.966267 0.344604 0.214953
0.980408 0.374051 0.245225
0.001802 0.217273 0.151018
0.006830 0.220337 0.147848
0.015094 0.217165 0.140538
0.041137 0.219712 0.139077
0.123532 0.230206 0.143459
0.220586 0.245922 0.149838
0.320295 0.261329 0.150582
0.436316 0.276867 0.137499
0.552689 0.293218 0.129796
0.675431 0.310002 0.122186
0.788973 0.321424 0.110810
0.871218 0.332994 0.109668
0.923947 0.348776 0.130162
0.960300 0.374562 0.160448
0.976860 0.400586 0.185666
0.985825 0.429502 0.222058
0.001802 0.267451 0.158949
0.006790 0.271743 0.157575
0.013390 0.269085 0.150908
0.022966 0.269630 0.145804
0.077652 0.280621 0.150435
0.193546 0.296964 0.155029
0.303709 0.315191 0.160266
0.400176 0.328183 0.159995
0.514516 0.343339 0.147809
0.642964 0.360343 0.133591
0.767434 0.376871 0.123305
0.863722 0.393209 0.111922
0.929569 0.411735 0.114526
0.965737 0.441397 0.140211
0.979877 0.462491 0.169326
0.989640 0.485711 0.208765
0.001801 0.321446 0.169473
0.006789 0.326153 0.167882
0.013390 0.325152 0.161954
0.020674 0.322394 0.152831
0.048935 0.332212 0.156114
0.157320 0.350742 0.161553
0.280836 0.370157 0.165831
0.391255 0.387511 0.169583
0.487714 0.397246 0.167371
0.603725 0.408666 0.152401
0.736126 0.430313 0.135813
0.845992 0.454927 0.123659
0.923041 0.477219 0.113140
0.965742 0.505218 0.128043
0.981577 0.523681 0.162402
0.991715 0.541362 0.204355
0.001809 0.380859 0.180916
0.006906 0.387848 0.180200
0.013900 0.388485 0.174476
0.021462 0.383814 0.164026
0.038349 0.390719 0.162745
0.115988 0.408693 0.168715
0.250057 0.429146 0.168460
0.373612 0.449504 0.172650
0.477660 0.465778 0.174235
0.582663 0.475107 0.169399
0.702017 0.484708 0.153348
0.820442 0.510889 0.139968
0.911870 0.537313 0.126065
0.965093 0.559965 0.123427
0.984888 0.582114 0.157448
0.993797 0.597083 0.200313
0.002444 0.447323 0.192055
0.008034 0.455268 0.190899
0.015305 0.457637 0.184363
0.022776 0.452069 0.170324
0.034711 0.457754 0.163897
0.072417 0.474606 0.168379
0.194935 0.494770 0.167189
0.349649 0.516200 0.171860
0.465130 0.535041 0.178548
0.579618 0.549789 0.179740
0.694179 0.558355 0.166713
0.797229 0.567136 0.150853
0.893630 0.588621 0.148429
0.960401 0.613209 0.147495
0.988038 0.642436 0.163521
0.995595 0.652214 0.197458
0.003810 0.510686 0.200997
0.009420 0.517255 0.196394
0.016810 0.522171 0.187586
0.024512 0.518278 0.172437
0.036029 0.524084 0.165431
0.056496 0.539301 0.168819
0.134361 0.559999 0.172307
0.319317 0.581038 0.174803
0.453412 0.601240 0.182245
0.583722 0.622331 0.184355
0.693830 0.633400 0.180305
0.795060 0.642117 0.172186
0.882555 0.647324 0.166019
0.951814 0.662837 0.173023
0.987623 0.695133 0.179444
0.997058 0.709949 0.205234
0.005251 0.570924 0.205381
0.010904 0.578130 0.201510
0.018320 0.586041 0.196234
0.026099 0.584512 0.184313
0.037416 0.591502 0.177829
0.056863 0.606363 0.176231
0.119381 0.626218 0.176823
0.293626 0.647784 0.175146
0.446215 0.668659 0.181762
0.585480 0.689998 0.188932
0.701187 0.706537 0.197332
0.797169 0.714437 0.201115
0.883134 0.720816 0.189616
0.946958 0.725626 0.183628
0.983274 0.738845 0.194257
0.997603 0.758824 0.220457
0.006634 0.630806 0.212464
0.012264 0.637677 0.209091
0.019832 0.645373 0.202791
0.027606 0.646527 0.192373
0.038917 0.653426 0.184123
0.057485 0.666362 0.174305
0.092720 0.684795 0.173602
0.268724 0.704832 0.171945
0.449409 0.724944 0.182719
0.588418 0.745670 0.202074
0.709930 0.763152 0.215932
0.801372 0.770238 0.213058
0.883619 0.777619 0.208169
0.946010 0.781702 0.198145
0.983099 0.788203 0.201000
0.998224 0.801331 0.234152
0.007940 0.680601 0.217823
0.013584 0.685637 0.212357
0.021192 0.693241 0.205660
0.029226 0.695554 0.195811
0.041729 0.702808 0.182991
0.059037 0.714529 0.173116
0.092776 0.731570 0.177996
0.257475 0.750034 0.183748
0.449581 0.769802 0.198741
0.590393 0.788199 0.214695
0.712629 0.803873 0.226240
0.806458 0.813807 0.224395
0.884421 0.819954 0.223930
0.945807 0.825049 0.220337
0.982120 0.830045 0.216620
0.998313 0.841059 0.247649
0.009226 0.720973 0.212872
0.014793 0.724991 0.206744
0.022481 0.730832 0.199857
0.031780 0.735816 0.194759
0.045344 0.743093 0.184704
0.061376 0.753319 0.178237
0.103056 0.768826 0.186713
0.250640 0.784783 0.199874
0.440729 0.802481 0.209501
0.588339 0.819504 0.213690
0.706696 0.834668 0.227595
0.805912 0.848454 0.237786
0.879759 0.852012 0.237562
0.943918 0.857575 0.236603
0.983287 0.861901 0.233692
0.998261 0.870810 0.254340
0.010309 0.755498 0.213477
0.016142 0.759523 0.211414
0.024690 0.766068 0.211170
0.035216 0.770663 0.208808
0.049230 0.776550 0.198432
0.065059 0.785137 0.187161
0.113368 0.797502 0.192005
0.237994 0.810803 0.199046
0.431010 0.825782 0.205171
0.574478 0.841160 0.213575
0.689716 0.854946 0.221309
0.786209 0.869274 0.240771
0.864762 0.876338 0.247208
0.934002 0.882320 0.247851
0.980408 0.887421 0.245178
0.997937 0.896316 0.258839
0.006430 0.023854 0.206797
0.020945 0.023629 0.210124
0.063691 0.022795 0.215589
0.137383 0.024815 0.226179
0.219670 0.024573 0.232171
0.318451 0.021370 0.221968
0.379452 0.029283 0.199920
0.429995 0.039230 0.182602
0.484536 0.047640 0.174307
0.544220 0.058205 0.172999
0.609584 0.057631 0.178388
0.684641 0.072245 0.190053
0.759371 0.101118 0.205727
0.827042 0.117818 0.220973
0.886968 0.129558 0.234559
0.934237 0.151668 0.249289
0.004523 0.056269 0.207384
0.016861 0.055863 0.207347
0.044102 0.053740 0.208290
0.120942 0.054364 0.217412
0.209804 0.055945 0.221346
0.314869 0.055693 0.203301
0.384525 0.058951 0.177390
0.439927 0.065503 0.162580
0.499420 0.075318 0.160838
0.564414 0.088442 0.170544
0.638597 0.099849 0.184680
0.717609 0.122362 0.200577
0.788576 0.141706 0.214767
0.854323 0.158126 0.227985
0.911383 0.175206 0.242696
0.950768 0.207911 0.264589
0.002091 0.095502 0.208248
0.010391 0.096383 0.208383
0.027413 0.093879 0.208651
0.092907 0.094674 0.209127
0.200002 0.097677 0.204545
0.292852 0.103849 0.180525
0.369849 0.108608 0.163678
0.446795 0.122529 0.166788
0.523014 0.136170 0.176177
0.609186 0.151019 0.188298
0.694883 0.167699 0.203200
0.774240 0.185639 0.218064
0.843963 0.203938 0.232382
0.898517 0.224814 0.245912
0.932975 0.246880 0.264401
0.959296 0.272884 0.287144
0.001952 0.141442 0.213287
0.007321 0.143547 0.211405
0.016753 0.141484 0.208938
0.056486 0.140797 0.205786
0.172480 0.148481 0.199620
0.268076 0.162426 0.194276
0.349024 0.174758 0.194975
0.428194 0.189552 0.203555
0.514175 0.205449 0.212406
0.612322 0.220781 0.218779
0.711307 0.235462 0.226715
0.798544 0.251827 0.238047
0.870314 0.268789 0.249366
0.915617 0.288423 0.263148
0.946952 0.316673 0.287286
0.968442 0.349508 0.318147
0.001975 0.189559 0.215560
0.007556 0.191981 0.214299
0.016868 0.191876 0.212393
0.034180 0.187070 0.206564
0.120159 0.193510 0.208550
0.240802 0.208212 0.201901
0.355801 0.225015 0.196996
0.460519 0.239295 0.197184
0.561948 0.251126 0.195269
0.664970 0.263393 0.199124
0.755184 0.278296 0.209503
0.831717 0.296467 0.223693
0.892235 0.316603 0.240272
0.933577 0.336776 0.258082
0.961144 0.363398 0.284543
0.977072 0.399496 0.318870
0.001801 0.237874 0.219855
0.006789 0.241020 0.217477
0.013920 0.241869 0.214275
0.024428 0.235247 0.206295
0.082883 0.239839 0.206704
0.198909 0.251726 0.212571
0.312156 0.269457 0.211453
0.430463 0.286992 0.201343
0.550641 0.305496 0.200637
0.681577 0.319032 0.192990
0.793845 0.329350 0.178918
0.872175 0.340362 0.181063
0.923782 0.356187 0.200075
0.957536 0.379305 0.227868
0.973468 0.409090 0.262522
0.983924 0.443168 0.301021
0.001801 0.289777 0.226113
0.006789 0.293272 0.222631
0.013390 0.296215 0.218988
0.020308 0.286714 0.206167
0.049407 0.291354 0.206159
0.166332 0.302776 0.213957
0.284754 0.319034 0.221545
0.388984 0.334492 0.221328
0.509757 0.354656 0.210320
0.646233 0.372360 0.207624
0.772690 0.389207 0.198690
0.871405 0.400301 0.182317
0.935582 0.416104 0.176783
0.967388 0.445758 0.200003
0.980270 0.470554 0.238828
0.989155 0.496530 0.279944
0.001801 0.342762 0.231167
0.006789 0.347315 0.229655
0.013390 0.352087 0.227920
0.020115 0.340619 0.213530
0.037203 0.343301 0.211037
0.126045 0.356494 0.220211
0.254947 0.373641 0.226456
0.371034 0.391950 0.232757
