luts/Blue Shadows 01.cube
TITLE "Generated by Resolve"
LUT_3D_SIZE 9
0 0 0.0281834
0 0 0.0682078
0 0.0306706 0.127062
0.120256 0.114702 0.19556
0.456092 0.0917067 0.175174
0.807904 0.0530709 0.141817
1 0.0481575 0.136828
1 0.0611887 0.147005
1 0.0737774 0.156832
0.0880903 0.14403 0.219852
0.145617 0.194217 0.232303
0.277516 0.224308 0.158236
0.478065 0.229297 0.0744488
0.654429 0.230716 0.0414435
0.777676 0.239521 0.0498817
0.8963 0.247654 0.0557412
1 0.254414 0.0582742
1 0.262089 0.063798
0.0939193 0.340948 0.220691
0.20209 0.375555 0.0797131
0.365759 0.378988 0.0296483
0.511162 0.378851 0.0310063
0.639994 0.381491 0.0353857
0.756725 0.385885 0.0423285
0.868971 0.390753 0.0458228
0.986694 0.39408 0.0397955
1 0.398596 0.0408179
0 0.564126 0.0831464
0.204044 0.524193 0.0411536
0.374777 0.513832 0.0319677
0.516808 0.509972 0.0297398
0.642893 0.509087 0.0328985
0.756954 0.510338 0.0398566
0.863035 0.513115 0.0466163
0.975265 0.515373 0.0375525
1 0.517708 0.031693
0 0.691798 0.0865034
0.217853 0.646311 0.0473487
0.384726 0.6336 0.0361028
0.524025 0.627649 0.0305791
0.64921 0.624659 0.0288701
0.763485 0.623407 0.0335546
0.867369 0.623819 0.0442206
0.970367 0.625483 0.0431678
1 0.626734 0.0284581
0 0.804105 0.095613
0.231022 0.757778 0.0531014
0.395361 0.743221 0.0416114
0.533227 0.734615 0.0408179
0.655482 0.728985 0.0488594
0.76492 0.725902 0.0625467
0.862898 0.725017 0.0818952
0.960906 0.726818 0.0775921
1 0.728527 0.0342412
0 0.906828 0.106508
0.243671 0.861585 0.0585031
0.405112 0.846174 0.0448768
0.540536 0.837308 0.0375982
0.662943 0.830915 0.0379644
0.774914 0.825757 0.0492714
0.876097 0.822354 0.0687114
0.969131 0.821561 0.0841535
1 0.824018 0.0473182
0 1 0.119203
0.256397 0.959258 0.0643015
0.415457 0.943084 0.0496986
0.54931 0.933318 0.0415961
0.669902 0.926772 0.0365911
0.781811 0.921996 0.0352331
0.886503 0.91783 0.043061
0.982605 0.914366 0.0625162
1 0.914443 0.0579995
0.0421302 1 0.153368
0.270573 1 0.0720378
0.425284 1 0.0536965
0.558938 1 0.0474861
0.681666 1 0.0546426
0.794385 1 0.075227
0.895827 0.998749 0.100649
0.986893 0.994064 0.132784
1 0.996399 0.116396
0 0 0.0446784
0 0 0.0879683
0.0216831 0.0849928 0.171527
0.237675 0.105409 0.255268
0.58584 0.0615091 0.324025
0.866636 0.0326848 0.357397
0.998123 0.0456855 0.36965
1 0.0635233 0.379782
1 0.0817884 0.389609
0.112734 0.165957 0.237797
0.165667 0.210712 0.271611
0.313115 0.223255 0.276967
0.502388 0.219776 0.270573
0.64358 0.225711 0.274601
0.755962 0.236866 0.283543
0.854505 0.249744 0.293996
0.944381 0.26331 0.305013
1 0.276997 0.316091
0.0430304 0.366705 0.319661
0.189746 0.375875 0.274311
0.357794 0.372091 0.262348
0.502235 0.371817 0.262181
0.630014 0.374456 0.264973
0.744381 0.379263 0.270604
0.85098 0.385107 0.276432
0.95935 0.389792 0.27863
1 0.397559 0.286824
0 0.543145 0.322255
0.207797 0.511116 0.283711
0.365988 0.505348 0.265034
0.507027 0.501549 0.261784
0.632074 0.500816 0.263661
0.74493 0.502419 0.268315
0.848859 0.505699 0.274067
0.960037 0.507469 0.269062
1 0.509743 0.267018
0 0.675868 0.324834
0.219791 0.632731 0.288243
0.375937 0.623941 0.269551
0.513664 0.618479 0.261845
0.6383 0.61529 0.261204
0.750713 0.614237 0.266819
0.85066 0.615534 0.278233
0.948013 0.618006 0.282185
1 0.619684 0.275853
0 0.792584 0.328023
0.225803 0.746258 0.288106
0.387655 0.73228 0.276097
0.524117 0.724193 0.273152
0.645548 0.718975 0.278523
0.753689 0.716564 0.288838
0.849409 0.716625 0.304906
0.944839 0.718776 0.302724
1 0.719142 0.268147
0 0.889906 0.343008
0.245121 0.846662 0.298878
0.398581 0.834028 0.281147
0.530098 0.826749 0.269673
0.652903 0.819837 0.271824
0.764172 0.814908 0.281956
0.863966 0.812375 0.297093
0.954787 0.812421 0.310292
1 0.814267 0.278172
0 0.988144 0.349554
0.249073 0.947433 0.297292
0.406683 0.931533 0.282856
0.538125 0.922698 0.27219
0.658488 0.916106 0.267124
0.770779 0.910674 0.269017
0.874784 0.906325 0.278874
0.969329 0.903502 0.296284
1 0.904051 0.291112
0.0514382 1 0.377478
0.261234 1 0.302373
0.414771 1 0.284916
0.550347 1 0.281453
0.674739 1 0.290272
0.787381 0.992584 0.308171
0.887587 0.986862 0.328939
0.977005 0.983368 0.355276
1 0.986313 0.33959
0 0 0.060029
0 0.00755322 0.108125
0.0664988 0.108858 0.203494
0.341695 0.0904402 0.345418
0.670176 0.0434119 0.452049
0.875456 0.0345922 0.489097
0.992004 0.0509957 0.498527
1 0.0696422 0.505669
1 0.0881514 0.512825
0.128496 0.185534 0.256092
0.179522 0.221729 0.33434
0.337743 0.223239 0.383658
0.512047 0.219883 0.4
0.641016 0.228473 0.404227
0.749081 0.240635 0.409613
0.844068 0.254414 0.416495
0.93196 0.268452 0.424445
1 0.282414 0.433005
0.00541695 0.385992 0.409369
0.188922 0.378561 0.398642
0.358572 0.372747 0.392737
0.502098 0.372259 0.391791
0.628611 0.374899 0.393576
0.740597 0.380179 0.397726
0.843534 0.386831 0.402975
0.95169 0.391119 0.40589
1 0.3991 0.412253
0 0.542123 0.440833
0.210437 0.510765 0.407919
0.365759 0.504646 0.395239
0.50605 0.500725 0.391867
0.630228 0.500084 0.392493
0.741863 0.501961 0.395712
0.843702 0.50573 0.40058
0.954131 0.507134 0.398123
1 0.508843 0.396918
0 0.673609 0.451209
0.221469 0.631144 0.414786
0.374929 0.622477 0.399207
0.512062 0.6168 0.392401
0.636133 0.613504 0.391974
0.747082 0.612818 0.396689
0.845029 0.614832 0.405692
0.940627 0.6177 0.409247
1 0.618784 0.403342
0 0.789868 0.457069
0.226215 0.743816 0.417548
0.387823 0.72961 0.406271
0.523613 0.721599 0.402838
0.644251 0.716701 0.406195
0.751186 0.714748 0.414527
0.845045 0.715587 0.427939
0.942962 0.717571 0.420188
1 0.717159 0.397345
0 0.885496 0.469947
0.244953 0.844007 0.42649
0.39707 0.831418 0.410132
0.52874 0.823636 0.400931
0.651713 0.81651 0.40322
0.762203 0.811948 0.411399
0.860731 0.81001 0.423926
0.949676 0.810697 0.43563
1 0.812039 0.407507
0 0.982834 0.477531
0.247898 0.944274 0.427039
0.40441 0.928603 0.412451
0.535332 0.919738 0.402243
0.656077 0.912764 0.39823
0.768719 0.906889 0.40174
0.871977 0.902724 0.411093
0.965301 0.900511 0.425956
1 0.90135 0.42092
0.0641489 1 0.501198
0.259983 1 0.432319
0.413153 1 0.415976
0.550912 1 0.414237
0.676036 0.996414 0.422538
0.788251 0.987991 0.437949
0.887358 0.982849 0.456062
0.975296 0.980194 0.478843
1 0.985138 0.445945
0 0 0.0758526
0 0.0379492 0.133013
0.135485 0.113161 0.267292
0.433494 0.0739452 0.455879
0.725856 0.0334173 0.571283
0.875914 0.0414435 0.592309
0.987213 0.0584878 0.598962
1 0.0775158 0.603281
1 0.0961929 0.608133
0.128954 0.205585 0.289311
0.190036 0.22977 0.415045
0.356069 0.22388 0.489479
0.514946 0.224155 0.504417
0.640299 0.233356 0.505501
0.744793 0.246387 0.506935
0.836545 0.261006 0.510369
0.923064 0.275273 0.515908
1 0.289067 0.522667
0 0.400992 0.500954
0.193896 0.381552 0.499321
0.361501 0.37528 0.496269
0.504112 0.374594 0.494591
0.629206 0.377356 0.495048
0.738689 0.383246 0.497139
0.839948 0.390234 0.500832
0.946685 0.394491 0.50486
1 0.402487 0.509834
0 0.54342 0.533074
0.214969 0.512413 0.505577
0.36788 0.505867 0.498436
0.507347 0.501884 0.494652
0.630701 0.501366 0.493965
0.740978 0.503563 0.495689
0.840757 0.507866 0.499214
0.950607 0.508904 0.499062
1 0.509972 0.499062
0 0.673487 0.550301
0.223926 0.631998 0.514229
0.376211 0.62295 0.502052
0.512886 0.61706 0.49601
0.636332 0.613809 0.494926
0.745907 0.61355 0.497826
0.841947 0.616297 0.504219
0.935744 0.619577 0.507424
1 0.619883 0.502861
0 0.789151 0.55877
0.229343 0.743267 0.519692
0.390616 0.728939 0.508553
0.525505 0.721126 0.504265
0.645365 0.716533 0.50576
0.751141 0.715068 0.511894
0.84361 0.71664 0.521721
0.936019 0.719203 0.520974
1 0.717327 0.498985
0 0.88333 0.568933
0.246708 0.843442 0.527062
0.398138 0.830701 0.512184
0.530236 0.822431 0.504524
0.653086 0.815351 0.505821
0.762722 0.8112 0.511818
0.859998 0.809812 0.522057
0.94725 0.811154 0.531823
1 0.811917 0.508171
0.0099031 0.979431 0.577401
0.249088 0.943145 0.529442
0.404227 0.927764 0.514717
0.535058 0.918715 0.505165
0.656535 0.911284 0.502068
0.769345 0.905211 0.505791
0.871763 0.901396 0.513695
0.963882 0.899748 0.526192
1 0.900832 0.521767
0.0775464 1 0.596551
0.261357 1 0.534813
0.414908 1 0.519707
0.554543 1 0.51838
0.679896 0.993729 0.525185
0.791623 0.985656 0.538186
0.889586 0.98114 0.553628
0.976013 0.979599 0.570794
1 0.98323 0.557061
0 0 0.0928511
0.0267948 0.0895399 0.17525
0.210956 0.10724 0.363027
0.510658 0.0586862 0.577478
0.754421 0.0324102 0.67599
0.875792 0.0495155 0.681254
0.982635 0.0671092 0.684916
1 0.086305 0.686702
1 0.105333 0.68925
0.120119 0.224537 0.340993
0.198184 0.235752 0.508736
0.369039 0.22591 0.590875
0.51812 0.229496 0.59501
0.640253 0.239322 0.592371
0.741405 0.253239 0.589578
0.829969 0.268711 0.589487
0.915831 0.282918 0.593271
0.999359 0.296208 0.599023
0 0.412467 0.591913
0.200092 0.385336 0.586587
0.365408 0.378653 0.58703
0.507057 0.377813 0.584543
0.630564 0.380835 0.583185
0.737758 0.387381 0.58262
0.836667 0.394934 0.584665
0.942428 0.398993 0.589822
1 0.406836 0.593851
0 0.54583 0.612818
0.220462 0.514946 0.590509
0.371115 0.507973 0.588647
0.509712 0.503975 0.58439
0.632181 0.503594 0.58233
0.740978 0.506203 0.582208
0.838819 0.511086 0.583932
0.948135 0.511711 0.586252
1 0.512093 0.588037
0 0.674311 0.636286
0.229435 0.633127 0.601144
0.378622 0.624277 0.592309
0.514916 0.618204 0.586694
0.637675 0.615137 0.584176
0.745892 0.615396 0.584726
0.839918 0.618936 0.588235
0.931991 0.622614 0.591043
1 0.621958 0.588952
0 0.78912 0.647395
0.234134 0.743511 0.608728
0.394766 0.729213 0.597269
0.528618 0.721645 0.59205
0.647761 0.717372 0.591562
0.752316 0.716457 0.595056
0.843397 0.718746 0.601511
0.934295 0.721462 0.601877
1 0.718563 0.587289
0.00222782 0.882246 0.654505
0.249378 0.843839 0.615137
0.400778 0.830762 0.601617
0.533288 0.822126 0.59469
0.655756 0.815229 0.594339
0.764523 0.811505 0.598093
0.860502 0.810727 0.605783
0.946212 0.812711 0.613275
1 0.812848 0.595026
0.0221714 0.976837 0.663478
0.251438 0.942916 0.619135
0.405447 0.927718 0.604639
0.536217 0.918486 0.595651
0.658625 0.910613 0.592905
0.771374 0.904555 0.595758
0.872847 0.901167 0.601801
0.963714 0.900114 0.611978
1 0.901427 0.608301
0.0912795 1 0.678203
0.264652 1 0.624689
0.418875 1 0.610574
0.559899 1 0.608576
0.685161 0.992096 0.613321
0.796429 0.984421 0.623819
0.89305 0.980621 0.63621
0.97789 0.980056 0.649058
1 0.983825 0.63743
0 0.0121309 0.111879
0.0640879 0.114519 0.212802
0.284169 0.0961929 0.482887
0.571176 0.0470283 0.700191
0.761349 0.0396429 0.761349
0.868727 0.0608988 0.756024
0.977768 0.0766003 0.760769
1 0.0958419 0.760357
1 0.115251 0.760601
0.10547 0.241794 0.410178
0.204822 0.240513 0.609003
0.377295 0.230259 0.680751
0.521416 0.235538 0.676066
0.640528 0.246021 0.669291
0.73843 0.260884 0.662013
0.823941 0.277226 0.658335
0.909972 0.29102 0.661265
0.994842 0.303517 0.66688
0 0.421012 0.677241
0.206867 0.389654 0.665049
0.369879 0.382513 0.669505
0.510491 0.381628 0.665965
0.632303 0.385031 0.662211
0.737362 0.392233 0.65864
0.833783 0.400443 0.658701
0.938567 0.404334 0.665202
1 0.411749 0.66891
0 0.548928 0.684611
0.226673 0.517983 0.667094
0.375082 0.510643 0.670344
0.512734 0.506645 0.66566
0.634256 0.506462 0.661982
0.741695 0.509514 0.659678
0.83505 0.515892 0.658518
0.946075 0.515312 0.66424
1 0.514931 0.668406
0 0.675792 0.713802
0.234272 0.635187 0.679896
0.381888 0.626108 0.674434
0.5178 0.619928 0.668711
0.63978 0.617151 0.664149
0.746593 0.61799 0.661967
0.83856 0.622415 0.662181
0.929076 0.626429 0.664652
1 0.624613 0.6663
0 0.78938 0.727245
0.240131 0.744244 0.688991
0.399802 0.730114 0.676982
0.532601 0.722805 0.670802
0.651026 0.718883 0.668025
0.754345 0.718593 0.668528
0.844129 0.721553 0.671748
0.933242 0.724483 0.673442
1 0.720546 0.666743
0.011902 0.881895 0.731319
0.252781 0.844755 0.695323
0.404746 0.831235 0.682765
0.537438 0.822385 0.675807
0.659327 0.815793 0.673457
0.767239 0.812528 0.6748
0.861921 0.812436 0.679438
0.945251 0.815167 0.685756
1 0.814466 0.672953
0.0357366 0.974823 0.74023
0.254475 0.943267 0.700771
0.407233 0.928267 0.686625
0.538628 0.918654 0.678157
0.661906 0.91046 0.674952
0.774395 0.904601 0.676204
0.874846 0.901686 0.680201
0.964416 0.901259 0.687846
1 0.902785 0.6851
0.105486 1 0.750912
0.269841 1 0.706371
0.424598 1 0.692805
0.566461 1 0.689326
0.691539 0.99118 0.691707
0.802289 0.983932 0.699382
0.897322 0.980957 0.708522
0.980529 0.981292 0.717617
1 0.985107 0.708919
0 0.0409857 0.1355
0.109728 0.122652 0.297322
0.350576 0.08336 0.617578
0.613596 0.0409857 0.813825
0.764508 0.0485847 0.837171
0.873625 0.06804 0.831434
0.972992 0.0866102 0.828977
1 0.10605 0.826307
1 0.12575 0.82446
0.0880903 0.257115 0.493324
0.210803 0.244862 0.70898
0.383185 0.236439 0.758328
0.524773 0.2421 0.749584
0.640986 0.25333 0.738415
0.735653 0.269184 0.72636
0.818494 0.286275 0.719234
0.90544 0.299336 0.722393
0.991821 0.310903 0.728634
0 0.426459 0.748012
0.214084 0.394354 0.736904
0.374746 0.38674 0.745815
0.51426 0.385885 0.740856
0.634318 0.389776 0.734173
0.737301 0.397665 0.727352
0.831083 0.406683 0.725017
0.934997 0.4103 0.73315
1 0.417044 0.737377
0 0.552422 0.750561
0.233509 0.521401 0.737331
0.379553 0.51371 0.745708
0.516243 0.509743 0.740627
0.636728 0.50985 0.734951
0.742428 0.513527 0.7299
0.836866 0.519524 0.727367
0.944396 0.519509 0.735195
1 0.51841 0.742245
0 0.67776 0.785168
0.23946 0.637675 0.752834
0.385916 0.62829 0.750347
0.52137 0.622095 0.74403
0.642466 0.619699 0.736934
0.747799 0.62121 0.731624
0.837751 0.626551 0.728176
0.926879 0.630823 0.730541
1 0.62768 0.737255
0 0.789899 0.800336
0.250568 0.744457 0.76141
0.40557 0.731472 0.749889
0.537346 0.724437 0.742672
0.655009 0.720928 0.737179
0.757015 0.721294 0.734569
0.845518 0.724895 0.734829
0.932631 0.72813 0.737713
1 0.723079 0.739422
0.0221561 0.882002 0.801694
0.257115 0.845945 0.769696
0.409842 0.831983 0.757488
0.542397 0.823117 0.749981
0.663645 0.816876 0.745388
0.770703 0.814115 0.744015
0.863981 0.814725 0.745602
0.94696 0.817884 0.748714
1 0.816602 0.744076
0.0500496 0.973297 0.809903
0.257984 0.94403 0.776562
0.409705 0.929152 0.762936
0.542214 0.919066 0.754574
0.666148 0.910735 0.750134
0.778195 0.90518 0.749279
0.877577 0.902785 0.751095
0.96582 0.903029 0.755978
1 0.904707 0.754452
0.120699 1 0.816922
0.276341 1 0.781765
0.437308 1 0.768826
0.574121 1 0.762814
0.698894 0.990753 0.762585
0.808942 0.984054 0.767056
0.902159 0.981964 0.773007
0.983734 0.983108 0.779156
1 0.986877 0.773785
0.0299077 0.0923018 0.177508
0.157 0.121782 0.416251
0.407538 0.0712749 0.757321
0.637003 0.0424048 0.908263
0.767208 0.0578622 0.906905
0.871794 0.0781567 0.896071
0.96762 0.097322 0.890364
1 0.116869 0.885725
1 0.136584 0.882353
0.0702678 0.270527 0.586007
0.216968 0.249607 0.801465
0.389075 0.242985 0.829847
0.528176 0.249134 0.81677
0.64155 0.261143 0.800931
0.733028 0.278065 0.783886
0.813703 0.29572 0.773724
0.902052 0.307744 0.77821
0.989624 0.318441 0.78555
0 0.431952 0.814328
0.221485 0.399313 0.803861
0.379919 0.391241 0.81709
0.518242 0.390539 0.810224
0.636561 0.394995 0.800259
0.737438 0.403632 0.789868
0.828473 0.41352 0.784772
0.931746 0.416754 0.79501
1 0.422538 0.800748
0.00833143 0.556161 0.811658
0.240833 0.525093 0.802396
0.384436 0.517082 0.816037
0.520119 0.513176 0.810468
0.639536 0.513664 0.802335
0.743709 0.517937 0.794385
0.836591 0.524453 0.789639
0.94255 0.524346 0.800092
1 0.522423 0.810651
0 0.68014 0.851835
0.244968 0.640452 0.82121
0.390631 0.630747 0.821088
0.525521 0.624643 0.813703
0.64567 0.622705 0.803723
0.749447 0.624979 0.794842
0.837461 0.631235 0.787533
0.925399 0.63566 0.790204
1 0.631067 0.80322
0 0.790249 0.867247
0.254704 0.746777 0.830732
0.41178 0.733227 0.81738
0.542794 0.726421 0.808774
0.659556 0.723445 0.800275
0.760235 0.724453 0.794629
0.847379 0.728695 0.792065
0.932387 0.732326 0.795804
1 0.72607 0.806561
0.0333867 0.882353 0.866773
0.262608 0.847242 0.839277
0.41593 0.83299 0.826856
0.548028 0.824231 0.818448
0.66865 0.818387 0.811383
0.774792 0.816175 0.806882
0.866636 0.817533 0.805341
0.948363 0.82118 0.806775
1 0.819242 0.809735
0.0647288 0.972244 0.873884
0.261891 0.945098 0.847852
0.412985 0.93022 0.83476
0.546868 0.919676 0.825849
0.671183 0.91136 0.819547
0.782666 0.906218 0.81622
0.880949 0.904356 0.815671
0.967819 0.905318 0.817639
1 0.907088 0.817823
0.137362 1 0.877348
0.285863 1 0.851804
0.44004 1 0.838148
0.582422 1 0.830259
0.707134 0.990738 0.827146
0.816159 0.984726 0.828122
0.907423 0.98352 0.831235
0.987381 0.985336 0.835264
1 0.98909 0.833219
0.062562 0.12134 0.201389
0.201831 0.116274 0.556558
0.452705 0.0624552 0.890608
0.643198 0.0516976 0.977218
0.766888 0.0686503 0.96817
0.866987 0.0898604 0.952346
0.960662 0.109056 0.944839
1 0.128344 0.939239
1 0.147906 0.934798
0.0540627 0.2822 0.683146
0.22414 0.255528 0.879164
0.394949 0.249882 0.89575
0.531502 0.256611 0.87808
0.642405 0.269291 0.85803
0.717449 0.293446 0.819806
0.805112 0.307332 0.818662
0.898787 0.316548 0.829114
0.987228 0.326421 0.837949
0 0.436713 0.870115
0.230381 0.404547 0.863218
0.385763 0.39646 0.879545
0.521492 0.396521 0.869474
0.636515 0.402106 0.855558
0.733608 0.412085 0.841154
0.822293 0.422507 0.834974
0.928222 0.42388 0.851194
1 0.428138 0.860105
0.0205997 0.559792 0.867292
0.25066 0.528801 0.860075
0.391684 0.520836 0.876707
0.524895 0.517769 0.868147
0.640375 0.519814 0.855238
0.739284 0.526009 0.842969
0.827466 0.533944 0.836545
0.935927 0.531685 0.855833
1 0.52752 0.873411
0 0.68278 0.91458
0.251026 0.643412 0.885603
0.396307 0.633387 0.886809
0.530587 0.627527 0.87744
0.649363 0.626307 0.863645
0.750851 0.629664 0.850477
0.822049 0.643839 0.820523
0.911345 0.64625 0.833951
1 0.635828 0.863478
0.0102998 0.788586 0.924605
0.272236 0.746441 0.888457
0.429816 0.733089 0.871168
0.559136 0.72723 0.858122
0.670985 0.726238 0.844633
0.764019 0.7299 0.835279
0.841993 0.737118 0.829923
0.921477 0.741543 0.839109
1 0.730556 0.867475
0.0733196 0.875837 0.917342
0.274281 0.847379 0.902449
0.43267 0.831907 0.886625
0.567468 0.822782 0.873915
0.687007 0.817853 0.861448
0.787457 0.817975 0.851545
0.868559 0.822965 0.846006
0.937423 0.830274 0.848127
1 0.825956 0.866514
0.108965 0.963851 0.925307
0.266255 0.94638 0.915434
0.415839 0.931731 0.90309
0.553277 0.920272 0.892271
0.679835 0.911589 0.882826
0.791501 0.906737 0.876097
0.887816 0.905806 0.872358
0.966308 0.910079 0.867643
1 0.914199 0.874495
0.288762 1 0.907256
0.31989 1 0.912795
0.471885 1 0.899306
0.622232 0.99202 0.887953
0.750103 0.981445 0.881971
0.855894 0.976577 0.881056
0.938338 0.977844 0.884794
1 0.98381 0.891798
1 0.99234 0.895308
