luts/Blue Spring.cube
#Generated by Picture Instruments - Unlimited Filters
TITLE "CineMajic"
LUT_3D_SIZE 5
0.113725 0.0431373 0.027451
0.270588 0.0509804 0.0470588
0.470588 0.054902 0.054902
0.772549 0.0745098 0.0666667
0.952941 0.0784314 0.0627451
0.117647 0.262745 0.0627451
0.211765 0.247059 0.0392157
0.443137 0.215686 0.0588235
0.764706 0.219608 0.0666667
0.952941 0.219608 0.0627451
0.137255 0.454902 0.0823529
0.2 0.447059 0.0901961
0.352941 0.411765 0.054902
0.713725 0.419608 0.0627451
0.952941 0.407843 0.0627451
0.207843 0.67451 0.109804
0.282353 0.666667 0.121569
0.439216 0.654902 0.0862745
0.709804 0.67451 0.0666667
0.94902 0.678431 0.0666667
0.262745 0.858824 0.141176
0.341176 0.862745 0.137255
0.513725 0.878431 0.117647
0.72549 0.945098 0.0627451
0.945098 0.94902 0.0588235
0.0745098 0.121569 0.215686
0.192157 0.0666667 0.262745
0.419608 0.054902 0.239216
0.776471 0.0705882 0.247059
0.952941 0.0823529 0.243137
0.0784314 0.290196 0.196078
0.156863 0.270588 0.254902
0.423529 0.270588 0.290196
0.741176 0.247059 0.25098
0.964706 0.243137 0.258824
0.105882 0.470588 0.152941
0.117647 0.45098 0.184314
0.403922 0.458824 0.258824
0.72549 0.439216 0.278431
0.960784 0.439216 0.270588
0.145098 0.678431 0.145098
0.180392 0.67451 0.180392
0.470588 0.67451 0.282353
0.701961 0.682353 0.290196
0.960784 0.694118 0.286275
0.160784 0.866667 0.14902
0.223529 0.858824 0.180392
0.533333 0.866667 0.309804
0.745098 0.921569 0.305882
0.960784 0.956863 0.309804
0.0627451 0.164706 0.403922
0.101961 0.12549 0.454902
0.360784 0.0666667 0.431373
0.729412 0.0745098 0.435294
0.952941 0.0823529 0.435294
0.0588235 0.301961 0.352941
0.0627451 0.286275 0.4
0.341176 0.258824 0.482353
0.713725 0.27451 0.415686
0.956863 0.270588 0.447059
0.0666667 0.478431 0.356863
0.0588235 0.458824 0.372549
0.341176 0.439216 0.423529
0.74902 0.462745 0.427451
0.968627 0.462745 0.466667
0.109804 0.690196 0.313725
0.133333 0.682353 0.345098
0.427451 0.678431 0.380392
0.72549 0.694118 0.45098
0.972549 0.713725 0.505882
0.156863 0.870588 0.309804
0.207843 0.866667 0.333333
0.47451 0.870588 0.392157
0.768627 0.917647 0.529412
0.972549 0.972549 0.541176
0.0745098 0.239216 0.678431
0.113725 0.188235 0.690196
0.305882 0.141176 0.705882
0.701961 0.0745098 0.694118
0.956863 0.0823529 0.701961
0.0705882 0.360784 0.615686
0.0745098 0.337255 0.647059
0.309804 0.309804 0.694118
0.694118 0.294118 0.619608
0.964706 0.301961 0.713725
0.0705882 0.517647 0.619608
0.0705882 0.501961 0.631373
0.305882 0.478431 0.623529
0.721569 0.482353 0.611765
0.976471 0.509804 0.721569
0.0784314 0.741176 0.619608
0.0705882 0.721569 0.643137
0.34902 0.694118 0.639216
0.784314 0.729412 0.717647
0.980392 0.72549 0.733333
0.0941176 0.941176 0.611765
0.133333 0.937255 0.631373
0.407843 0.921569 0.627451
0.792157 0.945098 0.721569
0.984314 0.984314 0.776471
0.0862745 0.301961 0.94902
0.12549 0.247059 0.94902
0.266667 0.192157 0.956863
0.686275 0.14902 0.952941
0.952941 0.0823529 0.945098
0.0823529 0.419608 0.952941
0.0862745 0.392157 0.952941
0.25098 0.34902 0.952941
0.686275 0.345098 0.956863
0.968627 0.321569 0.964706
0.0823529 0.560784 0.952941
0.0862745 0.541176 0.94902
0.235294 0.529412 0.956863
0.67451 0.52549 0.964706
0.968627 0.537255 0.976471
0.0862745 0.760784 0.952941
0.0823529 0.74902 0.952941
0.266667 0.737255 0.94902
0.721569 0.741176 0.980392
0.984314 0.760784 0.984314
0.0862745 0.945098 0.94902
0.0862745 0.945098 0.945098
0.298039 0.956863 0.94902
0.764706 0.980392 0.980392
0.992157 0.992157 0.992157
