luts/Blue Spring.cube
#Generated by Picture Instruments - Unlimited Filters
TITLE "CineMajic"
LUT_3D_SIZE 17
0.113725 0.0431373 0.027451
0.152941 0.0431373 0.0313725
0.2 0.0431373 0.0352941
0.239216 0.0470588 0.0313725
0.270588 0.0509804 0.0470588
0.305882 0.0509804 0.0431373
0.360784 0.054902 0.0470588
0.415686 0.0588235 0.054902
0.470588 0.054902 0.054902
0.556863 0.0666667 0.0588235
0.635294 0.0627451 0.0627451
0.705882 0.0705882 0.0627451
0.772549 0.0745098 0.0666667
0.85098 0.0745098 0.0705882
0.894118 0.0745098 0.0588235
0.94902 0.0784314 0.0666667
0.952941 0.0784314 0.0627451
0.0941176 0.0980392 0.027451
0.12549 0.0980392 0.027451
0.188235 0.0980392 0.0352941
0.235294 0.0941176 0.0392157
0.270588 0.0980392 0.0470588
0.301961 0.0901961 0.0431373
0.352941 0.0901961 0.054902
0.411765 0.0823529 0.0431373
0.470588 0.0901961 0.054902
0.552941 0.0862745 0.054902
0.623529 0.0862745 0.054902
0.709804 0.0862745 0.0627451
0.768627 0.0901961 0.0627451
0.847059 0.0901961 0.0627451
0.894118 0.0941176 0.0666667
0.945098 0.0862745 0.0627451
0.952941 0.0862745 0.0588235
0.109804 0.14902 0.0431373
0.12549 0.14902 0.0470588
0.180392 0.141176 0.0431373
0.227451 0.133333 0.0392157
0.262745 0.137255 0.0470588
0.305882 0.129412 0.0470588
0.356863 0.129412 0.0509804
0.411765 0.12549 0.0588235
0.47451 0.12549 0.054902
0.556863 0.12549 0.0588235
0.639216 0.133333 0.0588235
0.705882 0.129412 0.0666667
0.768627 0.137255 0.0588235
0.85098 0.133333 0.0627451
0.898039 0.133333 0.0627451
0.952941 0.145098 0.0627451
0.956863 0.133333 0.0627451
0.113725 0.211765 0.054902
0.133333 0.203922 0.054902
0.156863 0.203922 0.0470588
0.203922 0.196078 0.0431373
0.247059 0.184314 0.0431373
0.286275 0.184314 0.0470588
0.352941 0.176471 0.054902
0.407843 0.168627 0.054902
0.478431 0.164706 0.0666667
0.556863 0.164706 0.0627451
0.635294 0.164706 0.0588235
0.705882 0.176471 0.0627451
0.776471 0.164706 0.0666667
0.85098 0.168627 0.0705882
0.894118 0.168627 0.0588235
0.94902 0.164706 0.0627451
0.952941 0.172549 0.0627451
0.117647 0.262745 0.0627451
0.12549 0.25098 0.0588235
0.145098 0.247059 0.0588235
0.180392 0.25098 0.0627451
0.211765 0.247059 0.0392157
0.262745 0.231373 0.0392157
0.313725 0.219608 0.0470588
0.388235 0.219608 0.0509804
0.443137 0.215686 0.0588235
0.545098 0.219608 0.0627451
0.615686 0.215686 0.0588235
0.709804 0.215686 0.0588235
0.764706 0.219608 0.0666667
0.847059 0.223529 0.0705882
0.898039 0.223529 0.0666667
0.94902 0.219608 0.0666667
0.952941 0.219608 0.0627451
0.133333 0.313725 0.0705882
0.137255 0.309804 0.0705882
0.152941 0.301961 0.0627451
0.180392 0.294118 0.0666667
0.203922 0.298039 0.0627451
0.235294 0.290196 0.0470588
0.298039 0.27451 0.0392157
0.34902 0.266667 0.0509804
0.419608 0.258824 0.054902
0.521569 0.262745 0.0588235
0.619608 0.266667 0.0627451
0.705882 0.270588 0.0627451
0.772549 0.262745 0.0666667
0.847059 0.270588 0.0666667
0.898039 0.266667 0.0627451
0.952941 0.262745 0.0666667
0.952941 0.266667 0.0627451
0.129412 0.356863 0.0666667
0.137255 0.356863 0.0784314
0.14902 0.34902 0.0784314
0.176471 0.345098 0.0745098
0.203922 0.341176 0.0745098
0.227451 0.333333 0.0705882
0.262745 0.32549 0.0470588
0.321569 0.309804 0.0470588
0.392157 0.309804 0.054902
0.486275 0.309804 0.054902
0.580392 0.305882 0.0627451
0.67451 0.313725 0.0666667
0.768627 0.321569 0.0745098
0.839216 0.305882 0.0627451
0.898039 0.317647 0.0666667
0.952941 0.317647 0.0627451
0.952941 0.317647 0.0627451
0.137255 0.411765 0.0745098
0.145098 0.411765 0.0784314
0.160784 0.407843 0.0901961
0.180392 0.403922 0.0862745
0.207843 0.4 0.0823529
0.235294 0.396078 0.0862745
0.270588 0.384314 0.0705882
0.305882 0.376471 0.054902
0.360784 0.352941 0.0509804
0.454902 0.352941 0.0588235
0.545098 0.356863 0.0666667
0.639216 0.356863 0.0666667
0.721569 0.352941 0.0627451
0.815686 0.360784 0.0588235
0.878431 0.364706 0.0588235
0.945098 0.368627 0.0627451
0.952941 0.360784 0.0627451
0.137255 0.454902 0.0823529
0.141176 0.454902 0.0823529
0.168627 0.454902 0.0941176
0.184314 0.454902 0.0980392
0.2 0.447059 0.0901961
0.243137 0.439216 0.0980392
0.278431 0.427451 0.0862745
0.309804 0.419608 0.0784314
0.352941 0.411765 0.054902
0.427451 0.407843 0.0509804
0.52549 0.407843 0.0627451
0.623529 0.411765 0.0588235
0.713725 0.419608 0.0627451
0.803922 0.411765 0.0666667
0.882353 0.419608 0.0666667
0.945098 0.415686 0.0627451
0.952941 0.407843 0.0627451
0.156863 0.505882 0.0901961
0.160784 0.501961 0.0901961
0.184314 0.501961 0.0980392
0.2 0.501961 0.101961
0.231373 0.498039 0.101961
0.270588 0.498039 0.105882
0.305882 0.494118 0.101961
0.333333 0.47451 0.0823529
0.380392 0.470588 0.0627451
0.443137 0.462745 0.0588235
0.529412 0.458824 0.0588235
0.619608 0.466667 0.0627451
0.709804 0.466667 0.0627451
0.803922 0.466667 0.0705882
0.882353 0.466667 0.0666667
0.94902 0.47451 0.0627451
0.956863 0.466667 0.0627451
0.172549 0.560784 0.0941176
0.180392 0.564706 0.0980392
0.196078 0.560784 0.109804
0.215686 0.564706 0.109804
0.235294 0.560784 0.105882
0.286275 0.552941 0.109804
0.313725 0.54902 0.101961
0.356863 0.541176 0.0862745
0.388235 0.517647 0.0745098
0.454902 0.537255 0.0627451
0.529412 0.52549 0.0627451
0.619608 0.533333 0.0627451
0.705882 0.529412 0.0627451
0.8 0.529412 0.0627451
0.870588 0.533333 0.0588235
0.945098 0.537255 0.0627451
0.956863 0.533333 0.0627451
0.188235 0.619608 0.0980392
0.203922 0.619608 0.101961
0.215686 0.615686 0.113725
0.227451 0.615686 0.117647
0.266667 0.615686 0.113725
0.294118 0.611765 0.109804
0.341176 0.611765 0.113725
0.372549 0.603922 0.101961
0.415686 0.596078 0.0784314
0.466667 0.6 0.0588235
0.52549 0.607843 0.0627451
0.615686 0.6 0.0666667
0.701961 0.611765 0.0627451
0.8 0.615686 0.0666667
0.87451 0.611765 0.0627451
0.933333 0.607843 0.0588235
0.94902 0.607843 0.0588235
0.207843 0.67451 0.109804
0.215686 0.67451 0.113725
0.231373 0.666667 0.121569
0.258824 0.670588 0.113725
0.282353 0.666667 0.121569
0.32549 0.662745 0.12549
0.376471 0.666667 0.121569
0.403922 0.654902 0.105882
0.439216 0.654902 0.0862745
0.490196 0.666667 0.0745098
0.545098 0.678431 0.0627451
0.615686 0.670588 0.054902
0.709804 0.67451 0.0666667
0.803922 0.666667 0.0705882
0.882353 0.67451 0.0705882
0.94902 0.678431 0.0666667
0.94902 0.678431 0.0666667
0.231373 0.721569 0.117647
0.235294 0.717647 0.117647
0.247059 0.721569 0.121569
0.270588 0.713725 0.12549
0.298039 0.713725 0.117647
0.337255 0.713725 0.121569
0.388235 0.713725 0.12549
0.427451 0.717647 0.109804
0.454902 0.709804 0.0980392
0.505882 0.72549 0.0862745
0.564706 0.74902 0.0666667
0.627451 0.764706 0.0666667
0.713725 0.752941 0.0666667
0.803922 0.741176 0.0705882
0.87451 0.752941 0.0627451
0.945098 0.74902 0.0627451
0.952941 0.74902 0.0627451
0.243137 0.780392 0.129412
0.247059 0.776471 0.129412
0.254902 0.772549 0.129412
0.278431 0.776471 0.121569
0.32549 0.776471 0.129412
0.356863 0.776471 0.133333
0.411765 0.772549 0.141176
0.447059 0.772549 0.121569
0.478431 0.776471 0.105882
0.517647 0.792157 0.0980392
0.580392 0.807843 0.0901961
0.639216 0.823529 0.0705882
0.721569 0.827451 0.0705882
0.8 0.827451 0.0666667
0.87451 0.823529 0.0666667
0.937255 0.827451 0.0627451
0.952941 0.823529 0.0588235
0.258824 0.823529 0.133333
0.258824 0.823529 0.133333
0.278431 0.819608 0.141176
0.298039 0.815686 0.141176
0.333333 0.819608 0.137255
0.372549 0.811765 0.133333
0.431373 0.815686 0.137255
0.458824 0.823529 0.129412
0.505882 0.843137 0.117647
0.54902 0.85098 0.0980392
0.6 0.858824 0.0823529
0.654902 0.882353 0.0666667
0.717647 0.882353 0.0666667
0.807843 0.886275 0.0666667
0.870588 0.886275 0.0666667
0.94902 0.886275 0.0627451
0.952941 0.886275 0.0627451
0.262745 0.858824 0.141176
0.270588 0.858824 0.133333
0.278431 0.858824 0.141176
0.301961 0.858824 0.141176
0.341176 0.862745 0.137255
0.396078 0.858824 0.137255
0.443137 0.858824 0.137255
0.47451 0.862745 0.129412
0.513725 0.878431 0.117647
0.560784 0.901961 0.105882
0.603922 0.909804 0.0941176
0.658824 0.933333 0.0705882
0.72549 0.945098 0.0627451
0.807843 0.94902 0.0627451
0.870588 0.94902 0.0666667
0.945098 0.94902 0.0627451
0.945098 0.94902 0.0588235
0.101961 0.0627451 0.0980392
0.137255 0.0588235 0.101961
0.180392 0.0470588 0.109804
0.227451 0.0470588 0.0980392
0.266667 0.0470588 0.0980392
0.301961 0.0509804 0.105882
0.356863 0.0509804 0.101961
0.411765 0.0509804 0.0941176
0.466667 0.0588235 0.0941176
0.556863 0.0627451 0.105882
0.635294 0.0627451 0.101961
0.709804 0.0666667 0.0941176
0.768627 0.0745098 0.0980392
0.847059 0.0784314 0.0941176
0.898039 0.0784314 0.0901961
0.956863 0.0823529 0.0941176
0.956863 0.0823529 0.0941176
0.109804 0.117647 0.0980392
0.133333 0.117647 0.105882
0.184314 0.113725 0.113725
0.219608 0.105882 0.113725
0.247059 0.105882 0.105882
0.282353 0.101961 0.109804
0.341176 0.0980392 0.109804
0.403922 0.0941176 0.105882
0.454902 0.0941176 0.0980392
0.541176 0.0941176 0.0941176
0.623529 0.0901961 0.105882
0.694118 0.0901961 0.0980392
0.756863 0.0901961 0.0941176
0.847059 0.0901961 0.0941176
0.898039 0.0901961 0.0901961
0.94902 0.0941176 0.0901961
0.956863 0.0941176 0.0941176
0.105882 0.176471 0.0901961
0.12549 0.176471 0.109804
0.160784 0.164706 0.109804
0.215686 0.160784 0.109804
0.247059 0.152941 0.113725
0.278431 0.14902 0.113725
0.337255 0.141176 0.105882
0.388235 0.133333 0.109804
0.454902 0.129412 0.105882
0.537255 0.133333 0.105882
0.619608 0.137255 0.105882
0.690196 0.129412 0.0980392
0.756863 0.137255 0.0941176
0.839216 0.141176 0.101961
0.898039 0.145098 0.101961
0.94902 0.141176 0.0901961
0.952941 0.141176 0.0901961
0.101961 0.219608 0.0862745
0.117647 0.215686 0.0901961
0.164706 0.211765 0.117647
0.192157 0.207843 0.109804
0.231373 0.203922 0.0941176
0.27451 0.203922 0.117647
0.333333 0.196078 0.109804
0.392157 0.188235 0.105882
0.45098 0.168627 0.109804
0.545098 0.172549 0.101961
0.623529 0.172549 0.101961
0.701961 0.172549 0.0980392
0.756863 0.172549 0.0941176
0.839216 0.176471 0.101961
0.901961 0.176471 0.0980392
0.956863 0.176471 0.101961
0.956863 0.176471 0.0980392
0.0980392 0.262745 0.0745098
0.117647 0.266667 0.0823529
0.160784 0.262745 0.109804
0.180392 0.258824 0.113725
0.219608 0.258824 0.113725
0.25098 0.254902 0.0980392
0.305882 0.243137 0.109804
0.372549 0.231373 0.105882
0.447059 0.223529 0.109804
0.537255 0.219608 0.105882
0.615686 0.219608 0.109804
0.698039 0.223529 0.109804
0.756863 0.219608 0.0941176
0.843137 0.227451 0.105882
0.894118 0.227451 0.0980392
0.94902 0.227451 0.0941176
0.952941 0.231373 0.0980392
0.101961 0.313725 0.0705882
0.117647 0.321569 0.0784314
0.133333 0.309804 0.0941176
0.176471 0.309804 0.109804
0.203922 0.305882 0.117647
0.239216 0.301961 0.117647
0.286275 0.301961 0.101961
0.337255 0.282353 0.105882
0.415686 0.270588 0.0980392
0.509804 0.270588 0.0980392
0.615686 0.270588 0.113725
0.678431 0.27451 0.113725
0.764706 0.270588 0.109804
0.839216 0.270588 0.0941176
0.894118 0.270588 0.105882
0.94902 0.27451 0.0941176
0.952941 0.270588 0.0980392
0.113725 0.364706 0.0666667
0.113725 0.364706 0.0745098
0.12549 0.356863 0.0901961
0.160784 0.360784 0.101961
0.2 0.352941 0.105882
0.235294 0.345098 0.117647
0.282353 0.345098 0.101961
0.32549 0.329412 0.0941176
0.392157 0.317647 0.0980392
0.486275 0.305882 0.101961
0.588235 0.313725 0.109804
0.686275 0.317647 0.113725
0.768627 0.321569 0.109804
0.835294 0.32549 0.0980392
0.894118 0.329412 0.0941176
0.952941 0.32549 0.0980392
0.956863 0.321569 0.0901961
0.117647 0.411765 0.0784314
0.121569 0.411765 0.0784314
0.129412 0.411765 0.0901961
0.156863 0.407843 0.101961
0.196078 0.403922 0.121569
0.223529 0.403922 0.117647
0.27451 0.392157 0.117647
0.313725 0.380392 0.105882
0.364706 0.368627 0.101961
0.454902 0.356863 0.0980392
0.54902 0.356863 0.0980392
0.643137 0.364706 0.105882
0.72549 0.364706 0.109804
0.819608 0.368627 0.113725
0.882353 0.368627 0.101961
0.94902 0.376471 0.0901961
0.956863 0.368627 0.0941176
0.129412 0.466667 0.0862745
0.12549 0.462745 0.0823529
0.12549 0.462745 0.0823529
0.141176 0.458824 0.0980392
0.184314 0.45098 0.117647
0.235294 0.45098 0.12549
0.282353 0.45098 0.137255
0.32549 0.439216 0.12549
0.356863 0.427451 0.105882
0.435294 0.407843 0.0941176
0.521569 0.407843 0.101961
0.619608 0.411765 0.113725
0.694118 0.415686 0.101961
0.796078 0.419608 0.117647
0.87451 0.423529 0.109804
0.941176 0.423529 0.0980392
0.952941 0.419608 0.0980392
0.133333 0.509804 0.0862745
0.133333 0.509804 0.0862745
0.141176 0.505882 0.0901961
0.172549 0.505882 0.101961
0.215686 0.505882 0.12549
0.247059 0.505882 0.12549
0.298039 0.498039 0.133333
0.341176 0.498039 0.121569
0.380392 0.478431 0.109804
0.427451 0.470588 0.0941176
0.517647 0.466667 0.0980392
0.607843 0.462745 0.113725
0.698039 0.466667 0.113725
0.792157 0.47451 0.113725
0.870588 0.47451 0.113725
0.941176 0.478431 0.101961
0.952941 0.47451 0.0980392
0.156863 0.572549 0.0941176
0.156863 0.572549 0.0941176
0.160784 0.552941 0.0980392
0.184314 0.564706 0.113725
0.235294 0.564706 0.129412
0.27451 0.560784 0.137255
0.329412 0.552941 0.141176
0.364706 0.556863 0.137255
0.396078 0.537255 0.113725
0.447059 0.521569 0.101961
0.529412 0.52549 0.109804
0.615686 0.529412 0.101961
0.701961 0.533333 0.121569
0.796078 0.533333 0.113725
0.87451 0.537255 0.109804
0.952941 0.545098 0.101961
0.952941 0.541176 0.101961
0.172549 0.627451 0.105882
0.164706 0.615686 0.101961
0.168627 0.619608 0.105882
0.215686 0.623529 0.133333
0.262745 0.623529 0.137255
0.286275 0.615686 0.141176
0.345098 0.615686 0.14902
0.388235 0.615686 0.145098
0.423529 0.603922 0.12549
0.470588 0.596078 0.105882
0.533333 0.607843 0.113725
0.615686 0.6 0.105882
0.701961 0.607843 0.113725
0.792157 0.603922 0.109804
0.878431 0.611765 0.113725
0.941176 0.611765 0.0941176
0.952941 0.607843 0.0941176
0.184314 0.678431 0.113725
0.192157 0.67451 0.113725
0.196078 0.67451 0.113725
0.235294 0.670588 0.129412
0.27451 0.666667 0.141176
0.313725 0.67451 0.145098
0.364706 0.670588 0.141176
0.407843 0.662745 0.152941
0.435294 0.654902 0.133333
0.498039 0.662745 0.129412
0.541176 0.67451 0.0980392
0.619608 0.67451 0.105882
0.698039 0.670588 0.113725
0.788235 0.678431 0.113725
0.870588 0.682353 0.117647
0.941176 0.682353 0.101961
0.956863 0.682353 0.0980392
0.211765 0.72549 0.113725
0.2 0.721569 0.117647
0.207843 0.721569 0.117647
0.258824 0.721569 0.141176
0.298039 0.721569 0.14902
0.333333 0.721569 0.152941
0.384314 0.717647 0.14902
0.427451 0.717647 0.14902
0.462745 0.709804 0.14902
0.509804 0.72549 0.12549
0.564706 0.737255 0.113725
0.647059 0.760784 0.109804
0.705882 0.745098 0.113725
0.796078 0.741176 0.109804
0.878431 0.74902 0.109804
0.945098 0.752941 0.105882
0.952941 0.752941 0.0941176
0.231373 0.776471 0.129412
0.223529 0.776471 0.12549
0.231373 0.776471 0.129412
0.27451 0.776471 0.152941
0.317647 0.776471 0.152941
0.356863 0.780392 0.14902
0.403922 0.772549 0.152941
0.443137 0.772549 0.160784
0.494118 0.776471 0.14902
0.529412 0.792157 0.137255
0.580392 0.8 0.12549
0.643137 0.819608 0.117647
0.709804 0.827451 0.113725
0.796078 0.827451 0.113725
0.870588 0.823529 0.109804
0.945098 0.823529 0.0901961
0.94902 0.827451 0.0980392
0.239216 0.823529 0.129412
0.235294 0.827451 0.133333
0.239216 0.819608 0.137255
0.286275 0.819608 0.145098
0.321569 0.823529 0.152941
0.364706 0.819608 0.156863
0.415686 0.811765 0.152941
0.462745 0.819608 0.168627
0.505882 0.827451 0.14902
0.545098 0.85098 0.145098
0.603922 0.862745 0.137255
0.65098 0.866667 0.121569
0.717647 0.890196 0.109804
0.796078 0.886275 0.0941176
0.870588 0.882353 0.117647
0.945098 0.894118 0.101961
0.952941 0.890196 0.101961
0.254902 0.858824 0.137255
0.254902 0.858824 0.137255
0.258824 0.854902 0.137255
0.294118 0.854902 0.14902
0.333333 0.854902 0.160784
0.380392 0.85098 0.160784
0.427451 0.847059 0.152941
0.47451 0.862745 0.164706
0.517647 0.870588 0.14902
0.568627 0.894118 0.145098
0.603922 0.901961 0.133333
0.670588 0.92549 0.121569
0.72549 0.941176 0.101961
0.807843 0.94902 0.0941176
0.870588 0.94902 0.105882
0.941176 0.952941 0.0980392
0.94902 0.952941 0.0980392
0.0862745 0.0941176 0.145098
0.121569 0.0745098 0.152941
0.156863 0.054902 0.152941
0.207843 0.0470588 0.164706
0.247059 0.0509804 0.156863
0.282353 0.054902 0.152941
0.341176 0.0509804 0.14902
0.388235 0.054902 0.145098
0.462745 0.0627451 0.14902
0.545098 0.0627451 0.145098
0.627451 0.0745098 0.14902
0.701961 0.0705882 0.141176
0.764706 0.0705882 0.14902
0.847059 0.0745098 0.145098
0.894118 0.0784314 0.141176
0.94902 0.0823529 0.141176
0.952941 0.0823529 0.141176
0.0941176 0.129412 0.14902
0.121569 0.133333 0.160784
0.160784 0.117647 0.172549
0.203922 0.109804 0.164706
0.239216 0.105882 0.168627
0.278431 0.105882 0.164706
0.333333 0.105882 0.160784
0.396078 0.0941176 0.156863
0.45098 0.0941176 0.152941
0.541176 0.0901961 0.141176
0.623529 0.0941176 0.14902
0.701961 0.0941176 0.14902
0.768627 0.0941176 0.14902
0.839216 0.0901961 0.14902
0.898039 0.0980392 0.145098
0.952941 0.101961 0.145098
0.956863 0.0980392 0.145098
0.0941176 0.180392 0.133333
0.121569 0.180392 0.152941
0.168627 0.176471 0.172549
0.203922 0.168627 0.180392
0.231373 0.168627 0.180392
0.270588 0.156863 0.172549
0.32549 0.14902 0.168627
0.380392 0.14902 0.172549
0.443137 0.145098 0.160784
0.533333 0.145098 0.156863
0.611765 0.141176 0.14902
0.690196 0.145098 0.156863
0.752941 0.141176 0.152941
0.831373 0.141176 0.14902
0.890196 0.145098 0.145098
0.952941 0.145098 0.145098
0.960784 0.145098 0.145098
0.0941176 0.227451 0.121569
0.109804 0.227451 0.133333
0.141176 0.223529 0.156863
0.176471 0.219608 0.156863
0.231373 0.223529 0.176471
0.254902 0.223529 0.180392
0.309804 0.215686 0.176471
0.372549 0.2 0.164706
0.435294 0.188235 0.160784
0.529412 0.180392 0.156863
0.607843 0.188235 0.156863
0.686275 0.184314 0.14902
0.74902 0.184314 0.152941
0.839216 0.184314 0.152941
0.886275 0.184314 0.156863
0.956863 0.184314 0.152941
0.956863 0.184314 0.14902
0.0980392 0.27451 0.113725
0.121569 0.270588 0.117647
0.129412 0.266667 0.137255
0.160784 0.262745 0.14902
0.219608 0.266667 0.172549
0.262745 0.262745 0.168627
0.305882 0.262745 0.176471
0.376471 0.25098 0.168627
0.439216 0.231373 0.168627
0.52549 0.227451 0.164706
0.611765 0.231373 0.156863
0.694118 0.223529 0.156863
0.764706 0.227451 0.152941
0.827451 0.227451 0.156863
0.886275 0.231373 0.156863
0.960784 0.235294 0.152941
0.960784 0.235294 0.156863
0.105882 0.321569 0.0980392
0.105882 0.313725 0.109804
0.12549 0.313725 0.117647
0.133333 0.313725 0.129412
0.176471 0.317647 0.137255
0.247059 0.309804 0.168627
0.298039 0.305882 0.160784
0.345098 0.305882 0.164706
0.427451 0.290196 0.164706
0.513725 0.27451 0.160784
0.611765 0.27451 0.168627
0.682353 0.27451 0.160784
0.74902 0.282353 0.156863
0.827451 0.27451 0.156863
0.886275 0.286275 0.160784
0.94902 0.282353 0.152941
0.956863 0.282353 0.152941
0.0980392 0.372549 0.0901961
0.109804 0.364706 0.0980392
0.113725 0.368627 0.109804
0.129412 0.364706 0.121569
0.152941 0.364706 0.121569
0.215686 0.360784 0.156863
0.290196 0.360784 0.172549
0.333333 0.360784 0.160784
0.392157 0.337255 0.160784
0.498039 0.321569 0.160784
0.572549 0.317647 0.152941
0.682353 0.321569 0.168627
0.741176 0.32549 0.168627
0.823529 0.321569 0.168627
0.886275 0.333333 0.164706
0.94902 0.32549 0.160784
0.960784 0.329412 0.160784
0.109804 0.419608 0.0941176
0.105882 0.415686 0.0901961
0.113725 0.415686 0.109804
0.129412 0.411765 0.113725
0.145098 0.411765 0.117647
0.207843 0.4 0.141176
0.290196 0.407843 0.172549
0.329412 0.4 0.164706
0.372549 0.388235 0.156863
0.470588 0.372549 0.152941
0.564706 0.364706 0.156863
0.658824 0.372549 0.164706
0.752941 0.376471 0.176471
0.831373 0.376471 0.176471
0.882353 0.376471 0.160784
0.956863 0.384314 0.160784
0.956863 0.376471 0.156863
0.109804 0.466667 0.0941176
0.113725 0.462745 0.101961
0.109804 0.458824 0.0980392
0.117647 0.454902 0.113725
0.133333 0.458824 0.113725
0.207843 0.454902 0.145098
0.282353 0.454902 0.160784
0.329412 0.447059 0.172549
0.368627 0.435294 0.160784
0.447059 0.419608 0.145098
0.54902 0.415686 0.164706
0.643137 0.415686 0.164706
0.72549 0.419608 0.168627
0.815686 0.423529 0.180392
0.882353 0.435294 0.188235
0.952941 0.431373 0.168627
0.956863 0.431373 0.164706
0.12549 0.513725 0.0862745
0.121569 0.509804 0.0941176
0.117647 0.513725 0.0980392
0.133333 0.513725 0.109804
0.152941 0.505882 0.121569
0.219608 0.505882 0.152941
0.298039 0.509804 0.172549
0.356863 0.505882 0.180392
0.396078 0.494118 0.168627
0.447059 0.482353 0.156863
0.529412 0.470588 0.152941
0.615686 0.470588 0.164706
0.705882 0.482353 0.180392
0.788235 0.478431 0.176471
0.87451 0.482353 0.184314
0.94902 0.482353 0.168627
0.952941 0.478431 0.152941
0.137255 0.572549 0.0980392
0.12549 0.572549 0.0941176
0.129412 0.576471 0.101961
0.145098 0.572549 0.105882
0.184314 0.568627 0.133333
0.262745 0.568627 0.168627
0.321569 0.564706 0.184314
0.368627 0.552941 0.176471
0.415686 0.556863 0.172549
0.462745 0.541176 0.168627
0.509804 0.52549 0.152941
0.619608 0.529412 0.160784
0.705882 0.537255 0.176471
0.796078 0.541176 0.180392
0.870588 0.545098 0.184314
0.937255 0.545098 0.176471
0.960784 0.545098 0.160784
0.141176 0.627451 0.101961
0.133333 0.627451 0.0980392
0.133333 0.627451 0.0980392
0.14902 0.615686 0.113725
0.215686 0.623529 0.141176
0.290196 0.619608 0.180392
0.34902 0.615686 0.188235
0.407843 0.607843 0.196078
0.443137 0.611765 0.188235
0.482353 0.611765 0.168627
0.533333 0.6 0.160784
0.619608 0.603922 0.172549
0.709804 0.607843 0.172549
0.796078 0.607843 0.184314
0.87451 0.615686 0.184314
0.952941 0.619608 0.164706
0.956863 0.619608 0.164706
0.156863 0.678431 0.109804
0.156863 0.678431 0.109804
0.145098 0.678431 0.113725
0.176471 0.67451 0.121569
0.231373 0.67451 0.14902
0.313725 0.67451 0.184314
0.356863 0.670588 0.188235
0.423529 0.662745 0.203922
0.470588 0.670588 0.203922
0.505882 0.662745 0.180392
0.54902 0.662745 0.160784
0.627451 0.67451 0.180392
0.705882 0.67451 0.176471
0.796078 0.682353 0.188235
0.87451 0.682353 0.180392
0.952941 0.690196 0.168627
0.956863 0.686275 0.168627
0.176471 0.729412 0.117647
0.168627 0.733333 0.117647
0.160784 0.721569 0.117647
0.188235 0.72549 0.137255
0.266667 0.72549 0.164706
0.32549 0.717647 0.188235
0.380392 0.721569 0.2
0.435294 0.713725 0.196078
0.482353 0.713725 0.207843
0.52549 0.721569 0.2
0.576471 0.72549 0.188235
0.635294 0.745098 0.176471
0.705882 0.752941 0.180392
0.8 0.752941 0.188235
0.878431 0.760784 0.180392
0.94902 0.772549 0.180392
0.956863 0.756863 0.176471
0.192157 0.780392 0.12549
0.188235 0.780392 0.12549
0.188235 0.780392 0.12549
0.215686 0.784314 0.145098
0.286275 0.776471 0.172549
0.345098 0.776471 0.192157
0.403922 0.772549 0.2
0.466667 0.776471 0.215686
0.494118 0.776471 0.203922
0.545098 0.780392 0.203922
0.596078 0.796078 0.196078
0.658824 0.815686 0.192157
0.721569 0.823529 0.188235
0.8 0.823529 0.188235
0.878431 0.831373 0.188235
0.952941 0.831373 0.172549
0.956863 0.835294 0.172549
0.203922 0.827451 0.129412
0.203922 0.827451 0.129412
0.192157 0.823529 0.133333
0.227451 0.815686 0.14902
0.309804 0.819608 0.184314
0.364706 0.815686 0.2
0.411765 0.819608 0.203922
0.466667 0.815686 0.219608
0.517647 0.819608 0.207843
0.568627 0.831373 0.211765
0.611765 0.839216 0.203922
0.662745 0.866667 0.196078
0.72549 0.886275 0.180392
0.807843 0.890196 0.188235
0.878431 0.890196 0.196078
0.94902 0.894118 0.172549
0.960784 0.890196 0.180392
0.219608 0.858824 0.133333
0.219608 0.862745 0.137255
0.211765 0.862745 0.133333
0.254902 0.862745 0.156863
0.32549 0.858824 0.192157
0.372549 0.854902 0.2
0.431373 0.858824 0.203922
0.482353 0.858824 0.223529
0.529412 0.870588 0.223529
0.568627 0.866667 0.211765
0.619608 0.886275 0.207843
0.678431 0.913725 0.196078
0.733333 0.941176 0.188235
0.807843 0.952941 0.184314
0.87451 0.94902 0.184314
0.94902 0.952941 0.176471
0.94902 0.952941 0.180392
0.0784314 0.109804 0.192157
0.109804 0.0941176 0.192157
0.137255 0.0745098 0.215686
0.180392 0.0588235 0.219608
0.227451 0.0509804 0.211765
0.262745 0.0470588 0.2
0.313725 0.0470588 0.192157
0.376471 0.054902 0.196078
0.435294 0.0627451 0.196078
0.533333 0.0627451 0.2
0.619608 0.0666667 0.192157
0.698039 0.0666667 0.196078
0.768627 0.0705882 0.196078
0.847059 0.0745098 0.184314
0.894118 0.0745098 0.188235
