luts/BLUE ICE.cube
LUT_3D_SIZE 6
0.009169 0.013382 0.027625
0.142979 0.043043 0.032793
0.330485 0.062371 0.060146
0.542187 0.091039 0.103353
0.777785 0.133308 0.144758
0.953505 0.182518 0.185994
0.005710 0.105355 0.036803
0.111823 0.126713 0.043740
0.354831 0.159217 0.022093
0.612211 0.191996 0.053339
0.854430 0.237343 0.087595
0.978808 0.301048 0.149430
0.001949 0.236116 0.068166
0.030918 0.253197 0.058324
0.323765 0.307560 0.067711
0.616472 0.339964 0.036852
0.880174 0.392085 0.042413
0.988450 0.466495 0.094731
0.004377 0.414626 0.095923
0.025178 0.429736 0.071262
0.247933 0.488977 0.069473
0.592626 0.538056 0.085462
0.879451 0.570113 0.048640
0.994567 0.635187 0.097473
0.007952 0.611832 0.131589
0.029109 0.627832 0.098122
0.123981 0.678668 0.088010
0.605329 0.738102 0.110653
0.883136 0.769649 0.136562
0.997203 0.791193 0.139387
0.011232 0.746280 0.167867
0.035596 0.760199 0.152652
0.122824 0.791618 0.115934
0.574808 0.835942 0.147109
0.863445 0.869877 0.174830
0.997307 0.889000 0.183569
0.006430 0.023854 0.206797
0.137383 0.024815 0.226179
0.379452 0.029283 0.199920
0.544220 0.058205 0.172999
0.759371 0.101118 0.205727
0.934237 0.151668 0.249289
0.001952 0.141442 0.213287
0.056486 0.140797 0.205786
0.349024 0.174758 0.194975
0.612322 0.220781 0.218779
0.870314 0.268789 0.249366
0.968442 0.349508 0.318147
0.001801 0.289777 0.226113
0.020308 0.286714 0.206167
0.284754 0.319034 0.221545
0.646233 0.372360 0.207624
0.935582 0.416104 0.176783
0.989155 0.496530 0.279944
0.001810 0.468232 0.254842
0.021159 0.471561 0.232326
0.153196 0.498146 0.235192
0.564453 0.556669 0.248535
0.899407 0.602119 0.222886
0.995654 0.664910 0.270098
0.005603 0.642724 0.261918
0.026310 0.657637 0.241799
0.075913 0.689532 0.238051
0.568944 0.748760 0.267939
0.879037 0.783534 0.273454
0.998494 0.807599 0.298684
0.009483 0.762971 0.256762
0.032853 0.776190 0.244174
0.107259 0.802210 0.239567
0.569239 0.844610 0.260698
0.867921 0.883166 0.300067
0.998175 0.901302 0.308565
0.002885 0.030346 0.381703
0.046444 0.028878 0.395673
0.321486 0.025661 0.424376
0.603405 0.021679 0.421511
0.799400 0.067103 0.382258
0.939099 0.105431 0.365211
0.001801 0.160928 0.405216
0.020738 0.162585 0.411175
0.277303 0.159891 0.428093
0.611141 0.176708 0.406170
0.850405 0.211088 0.345560
0.956863 0.289375 0.388788
0.001801 0.336803 0.430682
0.020065 0.353159 0.435091
0.150990 0.343192 0.426598
0.581555 0.388863 0.413092
0.878825 0.456713 0.430600
0.978964 0.552949 0.514264
0.001801 0.524086 0.449735
0.020065 0.549583 0.446582
0.049954 0.534738 0.419944
0.501993 0.574532 0.444930
0.908522 0.645513 0.442528
0.994851 0.705707 0.496046
0.001977 0.690177 0.443597
0.022143 0.705743 0.427860
0.048300 0.711588 0.405530
0.477373 0.758896 0.456091
0.851350 0.804854 0.479801
0.997880 0.835101 0.509217
0.006232 0.792027 0.412194
0.026326 0.799289 0.398245
0.069016 0.815636 0.392247
0.536494 0.856331 0.418275
0.859707 0.897736 0.475460
0.998327 0.921017 0.503794
0.004201 0.030312 0.537206
0.028838 0.034723 0.590846
0.197650 0.030611 0.606652
0.520780 0.028323 0.627345
0.818713 0.026178 0.632988
0.963586 0.101883 0.605160
0.001801 0.168142 0.608208
0.020107 0.169077 0.612242
0.120498 0.152014 0.625766
0.512160 0.159373 0.646013
0.846774 0.183983 0.643127
0.968749 0.267331 0.600711
0.001801 0.357747 0.629401
0.020065 0.371799 0.636895
0.042240 0.356215 0.646402
0.472442 0.369067 0.667433
0.866073 0.407000 0.636133
0.972522 0.475508 0.606558
0.001801 0.557750 0.647781
0.020065 0.591613 0.657431
0.040063 0.594427 0.661216
0.323560 0.606876 0.664591
0.857653 0.661306 0.652473
0.983214 0.750771 0.721502
0.001801 0.743696 0.657971
0.020065 0.762587 0.653334
0.040063 0.770448 0.647591
0.202898 0.786716 0.650346
0.798649 0.827718 0.688100
0.993803 0.869181 0.727189
0.001801 0.842624 0.631316
0.020439 0.845659 0.615066
0.042309 0.849770 0.598949
0.301617 0.863894 0.589537
0.816110 0.909753 0.638446
0.994592 0.945329 0.710317
0.006028 0.030927 0.688373
0.058607 0.031079 0.752965
0.178910 0.028827 0.751635
0.456856 0.034420 0.771376
0.747681 0.033619 0.776785
0.961293 0.070587 0.785009
0.003004 0.154980 0.766916
0.021947 0.156689 0.769014
0.059818 0.149985 0.771172
0.440422 0.145694 0.788877
0.764116 0.166622 0.795192
0.968559 0.211285 0.799123
0.001801 0.352322 0.775674
0.020065 0.363681 0.779866
0.040494 0.354531 0.786940
0.360361 0.340313 0.813020
0.771757 0.377500 0.815069
0.974753 0.425860 0.813566
0.001801 0.556011 0.792093
0.020065 0.587163 0.799676
0.040063 0.586028 0.806357
0.112828 0.588897 0.827820
0.767472 0.627903 0.837009
0.980856 0.676416 0.830503
0.001801 0.755346 0.806044
0.020065 0.778362 0.813329
0.040063 0.798734 0.820509
0.075846 0.818685 0.833359
0.757434 0.848334 0.846622
0.982645 0.885861 0.867443
0.001801 0.876280 0.817421
0.020065 0.883209 0.818281
0.040063 0.895276 0.821145
0.121310 0.911958 0.826238
0.824662 0.939422 0.850842
0.994205 0.974605 0.886116
0.010007 0.026762 0.798007
0.058993 0.037044 0.842320
0.170243 0.037183 0.842193
0.343922 0.041369 0.847777
0.688600 0.037074 0.852011
0.940225 0.060897 0.854515
0.001822 0.156657 0.852341
0.020737 0.153295 0.854603
0.069364 0.146511 0.857955
0.333125 0.134037 0.859984
0.697584 0.149482 0.863397
0.947565 0.188474 0.866547
0.001801 0.350888 0.853124
0.020065 0.350075 0.858536
0.040063 0.333988 0.865008
0.178093 0.311264 0.874589
0.703508 0.339809 0.879799
0.950610 0.399705 0.882556
0.001801 0.544361 0.859581
0.020065 0.560237 0.865634
0.040063 0.551475 0.871365
0.060246 0.539608 0.882427
0.719541 0.578701 0.902876
0.965194 0.623687 0.905358
0.001801 0.726089 0.865153
0.020065 0.745555 0.870977
0.040063 0.779083 0.886429
0.060119 0.795416 0.899940
0.739387 0.831313 0.919865
0.978057 0.855993 0.931768
0.001801 0.865271 0.881681
0.020065 0.873603 0.886205
0.040063 0.888512 0.893637
0.060101 0.909947 0.906412
0.697683 0.942332 0.926036
0.997849 0.993213 0.988658
