luts/Blue Shadows 01.cube
TITLE "Generated by Resolve"
LUT_3D_SIZE 33
0 0 0.0281834
0 0 0.0374762
0 0 0.0471046
0 0 0.0573129
0 0 0.0682078
0 0 0.0799573
0 0 0.0929274
0 0.00717174 0.10782
0 0.0306706 0.127062
0.00743114 0.0723278 0.161151
0.0326238 0.094728 0.179492
0.0650492 0.109224 0.191287
0.120256 0.114702 0.19556
0.191379 0.114076 0.194736
0.273579 0.109163 0.190341
0.362951 0.101335 0.183505
0.456092 0.0917067 0.175174
0.54992 0.0812238 0.166125
0.641566 0.0707713 0.157122
0.728374 0.0611582 0.148821
0.807904 0.0530709 0.141817
0.877852 0.0472267 0.136675
0.935912 0.0442359 0.133974
0.979583 0.0448463 0.134264
1 0.0481575 0.136828
1 0.0514382 0.139391
1 0.0546883 0.141924
1 0.0579385 0.144457
1 0.0611887 0.147005
1 0.0644236 0.149523
1 0.0675975 0.151995
1 0.0707256 0.154437
1 0.0737774 0.156832
0 0 0.0606851
0 0 0.0718242
0 0 0.083772
0 0 0.0972
0 0.01355 0.113039
0 0.0419165 0.136263
0.0160983 0.0800336 0.167468
0.0389868 0.100374 0.184115
0.0595712 0.116945 0.197467
0.0943008 0.12752 0.203845
0.144152 0.132631 0.204044
0.205921 0.13344 0.199741
0.276738 0.130968 0.192187
0.353902 0.12604 0.182452
0.434836 0.119478 0.171435
0.516991 0.112032 0.159976
0.597879 0.104402 0.148852
0.67509 0.0972915 0.13875
0.746258 0.091371 0.130373
0.809186 0.0872511 0.1243
0.861799 0.0855421 0.121126
0.902144 0.0867475 0.121324
0.934218 0.0898909 0.12372
0.966339 0.0927901 0.125872
0.998383 0.0955062 0.127855
1 0.098146 0.129793
1 0.100801 0.131746
1 0.103517 0.133791
1 0.106279 0.135912
1 0.109056 0.138064
1 0.111833 0.14023
1 0.11458 0.142367
1 0.117296 0.144488
0 0 0.101305
0 0.0201724 0.118471
0 0.0602426 0.151263
0.0229038 0.0860914 0.172412
0.0441291 0.104952 0.187854
0.0623636 0.121172 0.201129
0.0795148 0.135668 0.212528
0.104295 0.147295 0.216541
0.139147 0.155657 0.213458
0.183398 0.160967 0.205081
0.235828 0.163561 0.192859
0.294881 0.163867 0.178058
0.358831 0.162356 0.16173
0.425849 0.159503 0.144869
0.493996 0.155825 0.128405
0.561257 0.151873 0.113146
0.625635 0.14818 0.0999161
0.6851 0.145266 0.0894331
0.737652 0.143694 0.0823987
0.78143 0.143938 0.0793927
0.815244 0.146365 0.0807355
0.846357 0.149248 0.0830091
0.877714 0.151904 0.0849165
0.909377 0.154314 0.0864729
0.941146 0.156542 0.0877699
0.97261 0.158694 0.0890059
1 0.160876 0.0903487
1 0.163134 0.0918898
1 0.165484 0.0936141
1 0.167895 0.0954604
1 0.170336 0.0973526
1 0.172747 0.0992752
1 0.175158 0.101167
0.0299535 0.0923476 0.177539
0.0499123 0.110094 0.192065
0.0672618 0.125521 0.204685
0.0831617 0.139666 0.216266
0.0983139 0.15288 0.226261
0.116976 0.165057 0.228275
0.142229 0.175387 0.222721
0.174929 0.183536 0.21149
0.214893 0.189441 0.196109
0.261372 0.193256 0.17789
0.313222 0.195193 0.158022
0.36907 0.195621 0.137545
0.427375 0.194873 0.117449
0.486442 0.193393 0.0986648
0.544533 0.191623 0.0820478
0.599817 0.190005 0.0684367
0.650401 0.189044 0.0585946
0.694438 0.189212 0.0532692
0.730068 0.190982 0.0531472
0.761135 0.193591 0.0554665
0.791547 0.196201 0.0578012
0.82153 0.198764 0.0600443
0.851347 0.201251 0.062089
0.8813 0.203571 0.0637827
0.911482 0.205722 0.0651102
0.941787 0.207736 0.0661784
0.971817 0.209705 0.0672007
1 0.211704 0.0683452
1 0.213764 0.0697032
1 0.2159 0.0712291
1 0.218067 0.0728466
1 0.220233 0.0744945
1 0.2224 0.0761578
0.0880903 0.14403 0.219852
0.102602 0.156939 0.230411
0.115938 0.169146 0.239673
0.128634 0.182101 0.240024
0.145617 0.194217 0.232303
0.168887 0.204685 0.218753
0.198917 0.213184 0.200992
0.235386 0.219684 0.180407
0.277516 0.224308 0.158236
0.324239 0.227253 0.135576
0.374228 0.22884 0.11342
0.426032 0.229404 0.0927443
0.478065 0.229297 0.0744488
0.528649 0.228946 0.0593881
0.576074 0.228763 0.0483711
0.618585 0.229206 0.0421607
0.654429 0.230716 0.0414435
0.68632 0.232853 0.043473
0.717418 0.23505 0.0455787
0.747829 0.237278 0.0477302
0.777676 0.239521 0.0498817
0.807141 0.241733 0.0519112
0.836561 0.24387 0.0536507
0.866239 0.245853 0.0549325
0.8963 0.247654 0.0557412
0.926558 0.249317 0.0562142
0.956573 0.25095 0.0566567
0.985946 0.252628 0.0573129
1 0.254414 0.0582742
1 0.256291 0.0595102
1 0.258213 0.0608835
1 0.260151 0.0623331
1 0.262089 0.063798
0.133455 0.184375 0.252872
0.1411 0.197452 0.257176
0.146197 0.212573 0.246204
0.159457 0.225742 0.229175
0.179812 0.236896 0.208698
0.206989 0.24596 0.185657
0.24036 0.253025 0.161227
0.278996 0.258259 0.136507
0.321736 0.26186 0.112505
0.367254 0.264164 0.0901961
0.414084 0.265461 0.0705119
0.460685 0.266148 0.0542916
0.50544 0.266606 0.0424048
0.54667 0.267247 0.035584
0.582727 0.268467 0.0345617
0.615656 0.2701 0.0362249
0.64773 0.271824 0.0380102
0.679011 0.27361 0.0399023
0.70956 0.275456 0.041886
0.739437 0.277363 0.0439155
0.768795 0.279301 0.0459449
0.797818 0.281224 0.0478065
0.826841 0.283085 0.0493172
0.856199 0.284794 0.0502785
0.88603 0.286336 0.0506294
0.916182 0.287739 0.0505684
0.946181 0.289082 0.0504311
0.975601 0.290486 0.0505226
1 0.291981 0.0510109
1 0.293599 0.0518654
1 0.295277 0.0529641
1 0.297002 0.0541848
1 0.298756 0.0554665
0.151812 0.228092 0.265797
0.147463 0.245258 0.254398
0.154925 0.260792 0.224598
0.173312 0.272663 0.196231
0.198505 0.282185 0.16849
0.229786 0.28957 0.141131
0.266072 0.295048 0.114946
0.306127 0.298894 0.0908064
0.348592 0.301411 0.0695811
0.391989 0.302937 0.0521248
0.434775 0.303838 0.0392615
0.475364 0.304509 0.0317693
0.512169 0.305333 0.0303197
0.546563 0.306386 0.0314031
0.580011 0.307546 0.032639
0.612589 0.308812 0.0340124
0.644388 0.31017 0.0354772
0.675441 0.311604 0.0370489
0.705821 0.3131 0.0386969
0.735576 0.314672 0.0404059
0.764797 0.316274 0.0421302
0.793637 0.317906 0.0437476
0.822354 0.319509 0.0450904
0.85124 0.321019 0.0459449
0.880507 0.322408 0.0462348
0.910048 0.323674 0.0460517
0.939574 0.32488 0.0457313
0.968658 0.326116 0.0455634
0.997055 0.327428 0.0457465
1 0.328832 0.0463111
1 0.330312 0.0471656
1 0.331853 0.0482032
1 0.333425 0.0493324
0.134264 0.281575 0.25185
0.128161 0.299672 0.229313
0.146868 0.312535 0.186542
0.17322 0.321889 0.152346
0.204334 0.329076 0.122347
0.239979 0.334295 0.0954757
0.279011 0.337835 0.0721752
0.320043 0.340002 0.0531319
0.361624 0.341176 0.0390936
0.402213 0.341711 0.030808
0.440284 0.342 0.0288853
0.476356 0.342412 0.0294652
0.511284 0.342992 0.0302586
0.54519 0.343725 0.0312352
0.57818 0.344579 0.0323491
0.61033 0.345556 0.0335851
0.641703 0.346639 0.0349432
0.672358 0.347814 0.0364233
0.702312 0.349081 0.0380255
0.731609 0.350408 0.0397192
0.760342 0.351812 0.0414893
0.788647 0.353262 0.043183
0.816846 0.354696 0.0445411
0.845289 0.356054 0.0452735
0.87425 0.357275 0.0452583
0.903716 0.358343 0.0445563
0.933349 0.359335 0.0435492
0.962661 0.360327 0.0426795
0.991272 0.361379 0.0422217
1 0.36257 0.0423133
1 0.363851 0.0428168
1 0.365209 0.0436255
1 0.366613 0.0445869
0.0939193 0.340948 0.220691
0.092958 0.357565 0.191363
0.128359 0.36556 0.141817
0.16434 0.371374 0.107118
0.20209 0.375555 0.0797131
0.242283 0.378088 0.0579538
0.283879 0.379278 0.0420081
0.325521 0.379446 0.0323949
0.365759 0.378988 0.0296483
0.404135 0.378576 0.0296025
0.441032 0.378454 0.0298466
0.476646 0.378561 0.0303197
0.511162 0.378851 0.0310063
0.544656 0.379324 0.0318761
0.577249 0.379919 0.0328985
0.609018 0.380652 0.0340734
0.639994 0.381491 0.0353857
0.670222 0.382452 0.0368811
0.699718 0.383505 0.0385443
0.728527 0.384649 0.0403906
0.756725 0.385885 0.0423285
0.784497 0.387182 0.0441749
0.812192 0.388464 0.045594
0.840253 0.389685 0.0462043
0.868971 0.390753 0.0458228
0.898405 0.391669 0.0445106
0.928191 0.392462 0.04271
0.957794 0.393225 0.0409857
0.986694 0.39408 0.0397955
1 0.395056 0.0393072
1 0.396155 0.0394598
1 0.397345 0.0400244
1 0.398596 0.0408179
0.0420539 0.402457 0.180743
0.0511482 0.415732 0.148928
0.106325 0.417212 0.0990921
0.152758 0.418692 0.0690166
0.197452 0.419272 0.0487526
0.242176 0.418677 0.036286
0.286152 0.417151 0.0315404
0.328069 0.415686 0.0301366
0.367926 0.414664 0.029099
0.406149 0.413977 0.0283513
0.442985 0.413565 0.0278477
0.47866 0.413382 0.0275273
0.513313 0.413382 0.0273594
0.547066 0.41352 0.0273594
0.57998 0.413809 0.027512
0.612146 0.414206 0.027863
0.643549 0.41471 0.0284123
0.674235 0.41532 0.0292058
0.704219 0.416022 0.0302434
0.733501 0.416815 0.0315251
0.762112 0.417716 0.033051
0.790097 0.418692 0.0347448
0.817563 0.419745 0.0365148
0.844709 0.420859 0.0381323
0.871855 0.421942 0.0393072
0.899336 0.42298 0.0397192
0.927321 0.423911 0.0393378
0.955642 0.424735 0.0383917
0.983825 0.425559 0.0373999
1 0.426429 0.0367895
1 0.427405 0.0367285
1 0.428458 0.0370947
1 0.429572 0.0377508
0 0.462501 0.139696
0.0116732 0.470878 0.109834
0.0880446 0.464591 0.0665446
0.14519 0.461051 0.0462959
0.196872 0.457496 0.0378576
0.2448 0.454215 0.0349432
0.289006 0.451865 0.0327916
0.330571 0.450126 0.0311742
0.370092 0.448844 0.0299382
0.407996 0.447929 0.0289921
0.444541 0.447272 0.0283055
0.479927 0.44686 0.0278325
0.51429 0.446647 0.0275731
0.547723 0.446571 0.0275425
0.580316 0.446647 0.0277409
0.6121 0.44686 0.0282292
0.643091 0.447181 0.0289769
0.67335 0.447608 0.0300145
0.702876 0.448157 0.0313115
0.731701 0.448798 0.0328527
0.759854 0.449561 0.0346075
0.787427 0.450401 0.0364996
0.814511 0.451331 0.0383917
0.841352 0.452308 0.0400244
0.868299 0.453269 0.041001
0.895735 0.454154 0.041001
0.923842 0.454917 0.0399329
0.952392 0.455604 0.0381781
0.980835 0.456245 0.036408
1 0.456962 0.0351873
1 0.457771 0.0346838
1 0.458686 0.0347753
1 0.459678 0.0352483
0 0.517525 0.104845
0 0.519722 0.0814679
0.0808576 0.504768 0.0517891
0.147036 0.496437 0.0439155
0.200488 0.491417 0.0395361
0.248035 0.487907 0.0364233
0.291905 0.485313 0.0340887
0.33315 0.48336 0.0322728
0.372396 0.481865 0.030869
0.41001 0.48072 0.0298009
0.446281 0.479866 0.0290074
0.481392 0.47924 0.0285191
0.515465 0.478813 0.0283207
0.548592 0.478538 0.0284276
0.580819 0.478431 0.0288548
0.612222 0.478462 0.0295872
0.642817 0.478614 0.0306096
0.672663 0.478889 0.0319066
0.701793 0.479286 0.033463
0.73022 0.479789 0.0352178
0.758007 0.480415 0.0371557
0.785214 0.481132 0.0392004
0.811978 0.481926 0.0411994
0.838514 0.48278 0.0428473
0.865217 0.483635 0.0436866
0.892515 0.484428 0.0433356
0.920592 0.4851 0.0416876
0.949248 0.485664 0.0391699
0.97792 0.486183 0.0365606
1 0.486748 0.0345464
1 0.487404 0.0334173
1 0.488182 0.0330816
1 0.489036 0.0332647
0 0.564126 0.0831464
0 0.559014 0.0709087
0.0851606 0.538048 0.0531014
0.151019 0.529412 0.0457008
0.204044 0.524193 0.0411536
0.251255 0.520485 0.0378882
0.29482 0.517693 0.0354009
0.335805 0.515526 0.033463
0.374777 0.513832 0.0319677
0.412161 0.512489 0.0308537
0.448173 0.511421 0.0301213
0.483024 0.510597 0.0297551
0.516808 0.509972 0.0297398
0.54963 0.509529 0.0300755
0.581537 0.509239 0.0307317
0.612619 0.509087 0.031693
0.642893 0.509087 0.0328985
0.672435 0.509224 0.0343481
0.701259 0.509483 0.0360113
0.729427 0.50985 0.0378576
0.756954 0.510338 0.0398566
0.783917 0.510933 0.0419623
0.810407 0.511604 0.0440223
0.836637 0.512352 0.0457465
0.863035 0.513115 0.0466163
0.890013 0.513832 0.0461433
0.917876 0.514443 0.0441291
0.946471 0.514946 0.0409857
0.975265 0.515373 0.0375525
1 0.515816 0.0346532
1 0.51635 0.0327611
1 0.516976 0.0318608
1 0.517708 0.031693
0 0.599588 0.0800793
0 0.591302 0.0728771
0.0897536 0.570077 0.0549172
0.154925 0.561349 0.047425
0.207568 0.555962 0.042771
0.254475 0.552071 0.0393835
0.297795 0.549081 0.0368048
0.338537 0.546731 0.0348516
0.377295 0.544823 0.0334173
0.41445 0.543282 0.0324407
0.450233 0.542016 0.0319219
0.484825 0.540993 0.0318151
0.518334 0.540185 0.0320745
0.550851 0.539559 0.0326848
0.582467 0.539117 0.0336004
0.61323 0.538827 0.0347753
0.643198 0.538689 0.0361944
0.672419 0.538689 0.0378271
0.700954 0.538811 0.0396429
0.728801 0.539071 0.0416571
0.756008 0.539437 0.0438849
0.782589 0.539925 0.0462806
0.808637 0.540505 0.0487221
0.834394 0.541176 0.0508125
0.860288 0.541894 0.0519417
0.88687 0.542565 0.0514076
0.914534 0.543145 0.0488899
0.943206 0.543587 0.0447852
0.97232 0.543938 0.0400854
1 0.544274 0.0358892
1 0.544671 0.0328679
1 0.545159 0.0311742
1 0.545769 0.030518
0 0.631174 0.0823072
0 0.622599 0.0747997
0.094255 0.601175 0.0566567
0.158785 0.592355 0.0491493
0.211093 0.586816 0.044419
0.257755 0.582742 0.0410315
0.300862 0.579568 0.0385138
0.341421 0.577005 0.0366979
0.379995 0.574899 0.0354772
0.416953 0.573144 0.0347753
0.452506 0.571679 0.0345464
0.486854 0.570489 0.0347295
0.520104 0.569512 0.0352636
0.552346 0.568734 0.0361181
0.583673 0.568139 0.037232
0.614145 0.567727 0.0386053
0.643839 0.567452 0.0401923
0.672786 0.56733 0.0420081
0.700999 0.567346 0.0440528
0.728511 0.567483 0.0463874
0.755306 0.567742 0.0490425
0.78143 0.568124 0.0519722
0.806958 0.568627 0.0549783
0.832197 0.569238 0.057557
0.857603 0.569894 0.0589456
0.883818 0.57055 0.0582742
0.911315 0.571115 0.0551156
0.940063 0.571542 0.0498512
0.969528 0.571847 0.0436561
0.998825 0.572106 0.0378882
1 0.572381 0.0335241
1 0.572778 0.030869
1 0.573266 0.029633
0 0.661875 0.0844587
0 0.65304 0.0766308
0.0986191 0.631449 0.0583352
0.162524 0.622599 0.0507362
0.214466 0.616938 0.0458381
0.260807 0.612772 0.0421912
0.303609 0.609506 0.0393072
0.343877 0.606882 0.0369573
0.382193 0.60473 0.0350042
0.418952 0.60296 0.0333562
0.454414 0.60148 0.0319829
0.488762 0.600275 0.030808
0.522148 0.599268 0.0298161
0.554696 0.598428 0.0289921
0.58648 0.597772 0.0283207
0.617578 0.597238 0.0278172
0.648035 0.596811 0.027512
0.677882 0.596506 0.0274815
0.707118 0.596277 0.0277867
0.735714 0.596139 0.0285039
0.763684 0.596094 0.0296635
0.790982 0.596139 0.031281
0.817639 0.596292 0.0333104
0.843687 0.596536 0.0356603
0.869215 0.596872 0.038117
0.894469 0.597299 0.0402228
0.919829 0.597787 0.0413825
0.945754 0.598276 0.0410163
0.972442 0.598718 0.0389868
0.999725 0.599084 0.035874
1 0.59942 0.032639
1 0.599802 0.0301823
1 0.600229 0.0287938
0 0.691798 0.0865034
0 0.682689 0.0784009
0.102907 0.660975 0.059968
0.166232 0.652079 0.0523384
0.217853 0.646311 0.0473487
0.263951 0.642023 0.043595
0.306523 0.638636 0.0406043
0.346593 0.635874 0.0381476
0.384726 0.6336 0.0361028
0.421317 0.631708 0.0343633
0.456596 0.630106 0.0328832
0.490791 0.628779 0.031632
0.524025 0.627649 0.0305791
0.55642 0.626688 0.0297398
0.588052 0.625895 0.0291295
0.618967 0.625223 0.0288243
0.64921 0.624659 0.0288701
0.678798 0.624201 0.0293431
0.707698 0.623835 0.0302739
0.735927 0.623575 0.0316777
0.763485 0.623407 0.0335546
0.790372 0.623346 0.0358434
0.816602 0.623392 0.0384985
0.842222 0.62356 0.0413825
0.867369 0.623819 0.0442206
0.892302 0.624201 0.0464942
0.917494 0.624628 0.047425
0.943435 0.625086 0.0463569
0.970367 0.625483 0.0431678
0.998016 0.625803 0.0386206
1 0.626078 0.0340429
1 0.626383 0.030518
1 0.626734 0.0284581
0 0.720958 0.0885481
0 0.711635 0.0801404
0.107118 0.689815 0.0615549
0.169879 0.680888 0.0538949
0.221195 0.675029 0.0488289
0.267063 0.670634 0.0449836
0.309438 0.667124 0.0419013
0.349325 0.664256 0.039353
0.387274 0.66186 0.0372168
0.423697 0.659861 0.0354009
0.458839 0.658137 0.0338598
0.492882 0.656687 0.0325933
0.525979 0.655421 0.0316014
0.558236 0.654337 0.0309606
0.5897 0.653376 0.0307012
0.620432 0.652537 0.0308995
0.650431 0.65182 0.0315862
0.679713 0.651209 0.0327764
0.708293 0.650706 0.0344244
0.736171 0.650309 0.0365148
0.763363 0.650034 0.0390173
0.789883 0.649866 0.041886
0.815732 0.649836 0.0450446
0.841001 0.649912 0.0483406
0.865812 0.650111 0.0514839
0.890455 0.650431 0.0538643
0.915434 0.650843 0.054612
0.941268 0.651286 0.0529183
0.968246 0.651682 0.0486763
0.996124 0.652018 0.0427405
1 0.652277 0.0366979
1 0.652522 0.0318761
1 0.652796 0.028809
0 0.749371 0.0907301
0.00161746 0.73991 0.0818799
0.111254 0.718044 0.0631266
0.173449 0.709102 0.0553902
0.224491 0.703166 0.050248
0.270115 0.698665 0.0463111
0.312306 0.695048 0.0431525
0.352026 0.692073 0.0405127
0.389838 0.689586 0.0383001
0.426108 0.687449 0.0364691
0.461128 0.685603 0.0349889
0.495079 0.684001 0.0339055
0.528069 0.682567 0.0332494
0.560189 0.6813 0.0331121
0.591516 0.680156 0.0334936
0.622034 0.679149 0.0344091
0.651804 0.678264 0.0358282
0.680812 0.677501 0.037705
0.709087 0.676875 0.0399939
0.73666 0.676356 0.0426642
0.763531 0.67599 0.0456703
0.789715 0.675731 0.0489662
0.815259 0.675608 0.0525063
0.840208 0.675624 0.0561532
0.864683 0.675761 0.0596475
0.888975 0.676036 0.0623026
0.913588 0.676417 0.0631266
0.939116 0.676875 0.0611124
0.965972 0.677333 0.0560006
0.993957 0.677714 0.048661
1 0.677989 0.0408942
1 0.678218 0.0343786
1 0.678462 0.0299229
0 0.777066 0.09308
0.00624094 0.767544 0.0836805
0.115373 0.745678 0.0646982
0.17702 0.736736 0.0569009
0.227756 0.730739 0.051667
0.273182 0.726131 0.0476692
0.315206 0.722423 0.0444495
0.354772 0.719341 0.0418097
0.392477 0.716716 0.0396582
0.428672 0.714427 0.037995
0.46363 0.712413 0.0368505
0.49752 0.710613 0.0362554
0.530434 0.70898 0.0362554
0.562448 0.707515 0.0368353
0.593606 0.706188 0.0379644
0.623926 0.705013 0.0395972
0.653437 0.703975 0.0416876
0.682185 0.70309 0.0441596
0.710185 0.702342 0.0469825
0.737453 0.701732 0.0501106
0.764019 0.701274 0.0535286
0.789899 0.700938 0.0572518
0.815106 0.70074 0.061265
0.839673 0.700664 0.065507
0.863706 0.70074 0.0696574
0.887495 0.700954 0.0729534
0.911604 0.70135 0.0741436
0.936736 0.701839 0.0719158
0.963394 0.702388 0.0658122
0.99147 0.702861 0.0567483
1 0.703227 0.0467842
1 0.703487 0.038056
1 0.7037 0.0317998
0 0.804105 0.095613
0.0109255 0.794583 0.0855268
0.119463 0.772763 0.0662852
0.180545 0.763851 0.0583963
0.231022 0.757778 0.0531014
0.276265 0.753094 0.0490883
0.318166 0.749264 0.0459144
0.357671 0.746029 0.0434424
0.395361 0.743221 0.0416114
0.431571 0.740719 0.0404364
0.466529 0.738491 0.0399176
0.500389 0.736461 0.0400702
0.533227 0.734615 0.0408179
0.565118 0.732952 0.0421302
0.596094 0.731472 0.0439612
0.6262 0.730144 0.0462196
0.655482 0.728985 0.0488594
0.683955 0.727977 0.0518196
0.711681 0.727138 0.0550851
0.738659 0.726452 0.0586557
0.76492 0.725902 0.0625467
0.790463 0.725475 0.066865
0.815274 0.725185 0.0716564
0.839384 0.725017 0.0767987
0.862898 0.725017 0.0818952
0.886152 0.725185 0.0859541
0.909728 0.725582 0.0874952
0.934447 0.726146 0.0849317
0.960906 0.726818 0.0775921
0.989059 0.727443 0.0664683
1 0.727947 0.0539559
1 0.728283 0.0426642
1 0.728527 0.0342412
0 0.830518 0.0982834
0.0156863 0.821073 0.0874037
0.123522 0.799359 0.0678721
0.184024 0.790494 0.0598611
0.234211 0.784375 0.0544747
0.27924 0.779629 0.0503395
0.320912 0.775753 0.046952
0.360143 0.772503 0.0441138
0.397513 0.769741 0.0416724
0.433371 0.767346 0.0395666
0.467979 0.76527 0.037705
0.501503 0.763455 0.0360723
0.534096 0.761868 0.034638
0.565866 0.760464 0.0333562
0.596918 0.759228 0.0322271
0.627298 0.758144 0.03122
0.657084 0.757183 0.0303655
0.68632 0.756344 0.0296635
0.715053 0.755581 0.0292058
0.743282 0.75491 0.0290837
0.770993 0.754284 0.0294499
0.798169 0.753719 0.0304112
0.824781 0.753201 0.0320592
0.850782 0.752743 0.0344091
0.876158 0.752346 0.0373846
0.900923 0.752056 0.0408484
0.92517 0.751873 0.044419
0.949142 0.751827 0.0474403
0.97322 0.751934 0.0488899
0.997909 0.752148 0.0478828
1 0.752438 0.0442206
1 0.752728 0.0388037
1 0.752972 0.0332189
0 0.856916 0.100069
0.0201724 0.847211 0.0890211
0.127489 0.825528 0.0693828
0.187488 0.816678 0.0613107
0.237415 0.810513 0.0558633
0.282246 0.805692 0.051667
0.323751 0.80174 0.0482338
0.36286 0.798428 0.0453346
0.400092 0.795575 0.0428321
0.435828 0.793118 0.0406653
0.470314 0.790951 0.0387427
0.503716 0.789059 0.0370642
0.536217 0.787396 0.0355688
0.56788 0.785916 0.0342565
0.598825 0.784588 0.0331273
0.629129 0.783413 0.0322118
0.658824 0.782345 0.0315709
0.687968 0.781369 0.031281
0.716564 0.780453 0.0314641
0.74461 0.779614 0.0322271
0.772091 0.77882 0.0336461
0.798978 0.778073 0.0357671
0.825254 0.777401 0.0385748
0.850874 0.776822 0.0420233
0.875837 0.776318 0.0460212
0.900206 0.775937 0.05037
0.924056 0.775692 0.0545968
0.947692 0.775616 0.0578927
0.971572 0.775723 0.0590372
0.996246 0.775998 0.0569619
1 0.776379 0.0514992
1 0.776761 0.0439155
1 0.77705 0.036286
0 0.882277 0.102937
0.0251011 0.872694 0.0910048
0.131533 0.851194 0.0710155
0.190951 0.84242 0.0627909
0.240589 0.836225 0.0572518
0.285237 0.831342 0.0529793
0.326589 0.827329 0.0495003
0.36556 0.823941 0.04654
0.40267 0.821027 0.0439918
0.438285 0.818479 0.0417639
0.472663 0.816251 0.0398108
0.505974 0.814282 0.0381018
0.538369 0.812528 0.0366064
0.56997 0.810941 0.0353857
0.600855 0.809506 0.0344701
0.631098 0.808179 0.0339666
0.660731 0.806943 0.0339818
0.689784 0.805768 0.0345922
0.718257 0.804654 0.0358587
0.746105 0.803616 0.0377813
0.773342 0.80264 0.0403754
0.799939 0.80174 0.043595
0.825879 0.800946 0.047425
0.851148 0.800244 0.0518044
0.875761 0.799649 0.056611
0.899763 0.799191 0.0616312
0.923278 0.798901 0.0663462
0.946593 0.798795 0.0697948
0.97023 0.798947 0.0706188
0.994781 0.799313 0.0675364
1 0.799817 0.0604105
1 0.800336 0.05066
1 0.800748 0.0407874
0 0.906828 0.106508
0.0305486 0.897551 0.0934005
0.135714 0.876402 0.0728161
0.194385 0.867765 0.0642557
0.243671 0.861585 0.0585031
0.28809 0.856672 0.0541238
0.329274 0.852613 0.0505379
0.368109 0.849149 0.0474861
0.405112 0.846174 0.0448768
0.440635 0.843565 0.0425879
0.474907 0.841245 0.040589
0.508171 0.839185 0.0389258
0.540536 0.837308 0.0375982
0.572122 0.835584 0.0367437
0.603037 0.833951 0.0364538
0.63331 0.83241 0.0368353
0.662943 0.830915 0.0379644
0.691936 0.829496 0.039826
0.720272 0.828153 0.0423743
0.747936 0.826902 0.0455482
0.774914 0.825757 0.0492714
0.801221 0.824735 0.0534676
0.826856 0.823819 0.0581521
0.85182 0.823026 0.0632486
0.876097 0.822354 0.0687114
0.899763 0.821836 0.0742962
0.922927 0.8215 0.07953
0.945861 0.821393 0.0833448
0.969131 0.821561 0.0841535
0.993362 0.822034 0.080415
1 0.822705 0.0717784
1 0.823423 0.0597848
1 0.824018 0.0473182
0 0.930434 0.111116
0.0367895 0.921691 0.096437
0.14023 0.901061 0.0749828
0.197971 0.892653 0.0659342
0.24683 0.886534 0.0599222
0.29102 0.88159 0.0554055
0.332067 0.87747 0.0517586
0.370779 0.873945 0.0486763
0.407691 0.870893 0.0460517
0.443137 0.868177 0.0438392
0.477409 0.865751 0.0420386
0.510689 0.863523 0.0407416
0.54313 0.861448 0.0400549
0.574823 0.85948 0.0400854
0.605814 0.857572 0.0408942
0.636118 0.855756 0.0424964
0.665721 0.854017 0.0448768
0.694606 0.852369 0.0479438
0.722774 0.850843 0.0515908
0.750225 0.849439 0.0557259
0.776959 0.848173 0.0602884
0.802991 0.847044 0.0652171
0.828321 0.846052 0.0705272
0.852964 0.845182 0.0762341
0.876921 0.84445 0.0823529
0.900221 0.843854 0.0887312
0.922957 0.843442 0.0948043
0.945418 0.84329 0.0993668
0.968185 0.843503 0.100481
0.991989 0.844099 0.0961929
1 0.844984 0.0859236
1 0.845975 0.0713359
1 0.84683 0.0557412
0 0.953185 0.116655
0.0436866 0.94519 0.100008
0.144991 0.925231 0.0774395
0.201648 0.917144 0.0677195
0.250019 0.911101 0.0613718
0.293965 0.906157 0.0567178
0.33489 0.901976 0.0530251
0.373526 0.89836 0.0500191
0.410422 0.895186 0.0475624
0.445945 0.892317 0.0456855
0.480339 0.889662 0.0444953
0.513787 0.887175 0.0440681
0.54641 0.88481 0.0444648
0.578256 0.882521 0.045716
0.609339 0.880339 0.0477913
0.639643 0.878264 0.0506447
0.669169 0.87631 0.0541543
0.697917 0.874479 0.0582437
0.725902 0.872801 0.0628061
0.753109 0.871275 0.0677348
0.779568 0.869917 0.0729686
0.80531 0.868711 0.0785229
0.830335 0.867643 0.0844892
0.854643 0.866682 0.0909895
0.878248 0.865843 0.0980697
0.901122 0.865156 0.105562
0.923384 0.864652 0.112764
0.945327 0.864469 0.118196
0.967575 0.864729 0.119539
0.990936 0.865476 0.114504
1 0.866651 0.102327
1 0.867979 0.0847639
1 0.869169 0.0656138
0 0.975189 0.122896
0.051133 0.968109 0.104005
0.14995 0.948974 0.0801251
0.205402 0.941253 0.0696117
0.253239 0.935332 0.0628672
0.29691 0.930388 0.0580301
0.337667 0.926162 0.0542611
0.37615 0.92253 0.0511177
0.412833 0.919341 0.0484169
