luts/Blue Lift.cube
TITLE "Generated by Resolve"
LUT_3D_SIZE 9
0.0759136 0.0913252 0.0997787
0.0959945 0.0958267 0.100587
0.132174 0.10309 0.101457
0.255756 0.115923 0.0982834
0.493141 0.102037 0.0652323
0.695415 0.0115206 0.0227359
0.745678 0.00865187 0.011368
0.758389 0.0150149 0.0118257
0.765148 0.0303044 0.013489
0.0688182 0.110613 0.106355
0.096437 0.11577 0.107179
0.136751 0.124102 0.10782
0.268666 0.139895 0.103655
0.515312 0.138674 0.0673838
0.715389 0.0812695 0.0106966
0.764324 0.0802014 3.0518e-05
0.777935 0.0961624 4.57771e-05
0.785809 0.114611 0.00015259
0.0380255 0.158495 0.116289
0.0788434 0.164858 0.115984
0.135927 0.175921 0.115846
0.287999 0.19823 0.108568
0.55172 0.214557 0.0595407
0.757946 0.203021 1.5259e-05
0.80589 0.209232 0
0.819715 0.221683 0
0.828428 0.235019 0
3.0518e-05 0.29041 0.131136
4.57771e-05 0.300191 0.127428
0.0673686 0.316823 0.120348
0.318486 0.356497 0.0898604
0.629664 0.405905 0.010544
0.855436 0.425528 4.57771e-05
0.902907 0.435767 0
0.915984 0.448356 1.5259e-05
0.923644 0.460807 3.0518e-05
0 0.468406 0.117754
0 0.48397 0.104295
0.000198367 0.51014 0.0776532
0.318196 0.576196 0.00807202
0.709346 0.67599 0
0.962417 0.720958 0
0.999557 0.724819 0
1 0.727733 0
1 0.732204 0
0 0.558312 0.133547
0 0.575387 0.118807
0 0.604089 0.0906691
0.295964 0.677791 0.0125124
0.727825 0.796155 3.0518e-05
0.996109 0.860166 0
1 0.854963 0
1 0.85388 0
1 0.853712 0
0 0.592859 0.2047
0 0.608591 0.197436
0 0.63447 0.18027
0.306523 0.698741 0.112215
0.716609 0.801953 0.0059968
0.985718 0.868162 1.5259e-05
1 0.866682 0.000228885
1 0.865003 0.000228885
1 0.863905 0.000244144
0 0.622019 0.264408
0 0.636622 0.259907
0.000106813 0.660441 0.250309
0.335134 0.718685 0.221653
0.711757 0.804898 0.13669
0.967239 0.85951 0.051133
1 0.862119 0.0183108
1 0.860197 0.0167544
1 0.85922 0.0319524
0 0.632044 0.281956
0 0.646128 0.277729
0.000457771 0.669322 0.269535
0.34464 0.725994 0.246204
0.711711 0.808499 0.176806
0.962875 0.859754 0.0879225
1 0.863416 0.0733806
1 0.861372 0.0726177
1 0.860441 0.0779126
0.0654612 0.0956893 0.138155
0.09131 0.100008 0.139925
0.129503 0.107088 0.142489
0.256809 0.119631 0.144762
0.497047 0.105455 0.134508
0.698207 1.5259e-05 0.11809
0.747921 0 0.117189
0.759747 4.57771e-05 0.11899
0.766278 0.0200656 0.123293
0.0543984 0.116625 0.147265
0.0883192 0.121508 0.14876
0.132097 0.129503 0.151156
0.269322 0.145251 0.152758
0.519081 0.143755 0.14139
0.716121 0.069688 0.115358
0.76321 0.0634928 0.111681
0.776562 0.0805524 0.115114
0.784833 0.105104 0.120729
0.0166629 0.16701 0.162051
0.0507057 0.172915 0.162142
0.125475 0.183536 0.163928
0.287083 0.205921 0.163867
0.554269 0.220554 0.148455
0.755932 0.198672 0.116518
0.80174 0.201266 0.111284
0.815503 0.21474 0.115068
0.824262 0.229023 0.120684
0 0.303716 0.189471
1.5259e-05 0.313603 0.188052
0.0294652 0.329747 0.184405
0.310979 0.368292 0.175814
0.625467 0.410697 0.139727
0.843854 0.417472 0.0677958
0.890074 0.425574 0.0629587
0.902724 0.438254 0.0650492
0.910094 0.450996 0.0686809
0 0.485634 0.205188
0 0.500999 0.201205
0 0.526146 0.192233
0.286839 0.58471 0.154467
0.690867 0.669306 0.0439765
0.94464 0.710948 0.00677501
0.991669 0.717968 0.00476081
0.997574 0.72253 0.00596628
0.998718 0.727672 0.00714122
0 0.576394 0.240299
0 0.593118 0.23563
0 0.62092 0.225666
0.237522 0.686534 0.184817
0.703624 0.787503 0.0678569
0.975814 0.847944 0.00846876
1 0.848463 0.00442512
1 0.847181 0.00437934
1 0.846723 0.00654612
0 0.61059 0.299351
0 0.626307 0.296284
1.5259e-05 0.65211 0.289265
0.248341 0.713802 0.264912
0.699336 0.806531 0.21117
0.963668 0.858686 0.111192
1 0.86157 0.0893263
1 0.859709 0.0887312
1 0.859098 0.0948501
0 0.638331 0.349371
0 0.652903 0.347295
0 0.676692 0.342306
0.2925 0.733394 0.326421
0.701015 0.818647 0.298939
0.957305 0.867399 0.257984
1 0.871229 0.241199
1 0.869215 0.239902
1 0.868696 0.245701
0 0.647929 0.365179
0 0.66212 0.363302
0 0.6851 0.358755
0.307225 0.740215 0.345235
0.70161 0.822828 0.322957
0.955428 0.870985 0.289616
1 0.875517 0.276631
1 0.873442 0.275151
1 0.872953 0.279927
0.0486915 0.0990616 0.223835
0.0810559 0.103426 0.22707
0.124987 0.11017 0.232761
0.259068 0.121828 0.242298
0.503838 0.105226 0.247181
0.70634 1.5259e-05 0.248234
0.755474 0 0.252033
0.766964 0.00433356 0.254734
0.773602 0.0278325 0.258946
0.0264286 0.123735 0.236927
0.0647898 0.128939 0.239414
0.12285 0.136599 0.244999
0.270115 0.151781 0.254444
0.525261 0.149416 0.258824
0.723613 0.0777447 0.253086
0.770428 0.0737469 0.255116
0.783612 0.092134 0.259373
0.791867 0.11754 0.264836
0.00047303 0.179477 0.260487
0.0127871 0.185534 0.26099
0.0963455 0.195743 0.264256
0.284337 0.217716 0.273121
0.559197 0.231998 0.276066
0.762539 0.210498 0.268467
0.808286 0.21416 0.26978
0.822049 0.228611 0.274464
0.830411 0.242496 0.279713
0 0.325338 0.304311
0 0.335393 0.30515
0.00704967 0.351583 0.305135
0.295232 0.388266 0.306371
0.625483 0.430228 0.303929
0.845777 0.434897 0.290959
0.891417 0.44184 0.290501
0.903944 0.454902 0.294163
0.91136 0.468513 0.298665
0 0.513207 0.3402
0 0.528618 0.340459
1.5259e-05 0.554055 0.339529
0.221546 0.610254 0.327581
0.678233 0.68957 0.310338
0.929198 0.71902 0.28455
0.977722 0.724804 0.282063
0.988144 0.731655 0.285252
0.992355 0.73872 0.289921
0 0.604196 0.38088
0 0.620829 0.380285
0 0.648646 0.378424
0.160174 0.712306 0.363409
0.685557 0.808438 0.343038
0.956436 0.856336 0.311528
1 0.860349 0.303319
1 0.8589 0.302358
1 0.859266 0.305394
0 0.636133 0.430457
0 0.651972 0.430549
0 0.677775 0.42887
0.173175 0.737377 0.416983
0.68307 0.829694 0.406668
0.953216 0.879637 0.383963
0.999985 0.884642 0.375738
1 0.882567 0.374182
1 0.882048 0.376974
0 0.661585 0.469017
0 0.676097 0.468833
0 0.699886 0.467521
0.222461 0.754742 0.459007
0.685313 0.83949 0.454643
0.948379 0.887953 0.43946
0.999924 0.894621 0.433814
1 0.892454 0.431769
1 0.891829 0.433906
0 0.670268 0.481605
0 0.684337 0.481392
1.5259e-05 0.707607 0.480415
0.235187 0.760723 0.472755
0.686152 0.842847 0.470298
0.946578 0.890761 0.457328
0.999878 0.898024 0.452461
1 0.895842 0.450248
1 0.895216 0.452308
0.0182193 0.0863203 0.375692
0.0514229 0.0952926 0.381033
0.117433 0.101747 0.390814
0.264393 0.111254 0.4103
0.515541 0.076936 0.430274
0.722683 0 0.443732
0.770932 0 0.44979
0.781826 7.62951e-05 0.45333
0.787549 0.0212406 0.457359
0.000823987 0.118105 0.395682
0.018677 0.129686 0.399985
0.100084 0.140078 0.40885
0.271962 0.153765 0.42884
0.534874 0.147021 0.448417
0.735805 0.0724041 0.454139
0.782467 0.0709392 0.458747
0.795377 0.0919356 0.464027
0.803357 0.119997 0.469963
3.0518e-05 0.185733 0.431495
3.0518e-05 0.195392 0.434913
0.0379797 0.210056 0.4392
0.278218 0.232212 0.457786
0.565744 0.244785 0.47747
0.772045 0.223209 0.481376
0.817853 0.227619 0.484947
0.83125 0.243153 0.490562
0.839658 0.25951 0.496788
0 0.354009 0.498665
0 0.364645 0.50248
0 0.381796 0.506233
0.252628 0.418128 0.512291
0.621714 0.459144 0.531182
0.847913 0.463401 0.533165
0.894179 0.469871 0.535149
0.906554 0.483543 0.539391
0.913725 0.497292 0.544152
0 0.553201 0.554833
0 0.568658 0.558343
0 0.594324 0.563027
0.104204 0.648951 0.560433
0.656687 0.726589 0.573297
0.918776 0.755322 0.57261
0.969299 0.760998 0.572992
0.979843 0.76759 0.575448
0.984237 0.774151 0.578378
0 0.644114 0.59353
0 0.660945 0.596674
0 0.689128 0.600427
0.0407874 0.751095 0.59646
0.656046 0.844938 0.60618
0.940063 0.892943 0.603769
0.995377 0.900221 0.60325
1 0.900282 0.60267
1 0.900481 0.603326
0 0.671397 0.62681
0 0.687343 0.62948
0 0.713909 0.633356
0.0691234 0.772274 0.629282
0.655055 0.862654 0.641443
0.937102 0.912352 0.640818
0.995468 0.92079 0.639811
1 0.920012 0.638331
1 0.919127 0.638712
0 0.693706 0.649805
0 0.708247 0.651713
0 0.732326 0.654383
0.106233 0.785779 0.651347
0.660044 0.869215 0.665339
0.933593 0.917601 0.666819
0.99324 0.926268 0.665614
1 0.925963 0.664363
1 0.924743 0.664225
0 0.70106 0.657328
0 0.71574 0.659922
0 0.73875 0.661921
0.116167 0.790509 0.658961
0.661936 0.871443 0.673564
0.932326 0.91931 0.675761
0.992447 0.928054 0.674464
1 0.927932 0.673274
1 0.926589 0.673014
0.00851453 0.0321965 0.506462
0.0357824 0.0568399 0.513085
0.110307 0.0676127 0.525795
0.268162 0.0738994 0.552636
0.527062 0.0363012 0.585657
0.740978 1.5259e-05 0.607919
0.789853 3.0518e-05 0.614984
0.800549 0 0.618906
0.805478 0 0.622477
0.000198367 0.0831922 0.52726
0.00410468 0.109148 0.534752
0.0777752 0.130465 0.546563
0.271778 0.144015 0.573816
0.541772 0.127489 0.605707
0.748363 0.0278019 0.620295
0.796017 0.0223697 0.626108
0.809018 0.0737774 0.631479
0.816419 0.100374 0.636637
0 0.167773 0.567391
0 0.184146 0.57435
0.0124971 0.209506 0.583612
0.2701 0.236378 0.607874
0.568627 0.246815 0.640635
0.77998 0.222614 0.652903
0.827375 0.227665 0.657801
0.841001 0.244938 0.663355
0.849256 0.263539 0.668879
0 0.358618 0.650355
0 0.371633 0.656596
1.5259e-05 0.39176 0.664256
0.199176 0.432105 0.673457
0.613382 0.473045 0.707179
0.848035 0.47628 0.718654
0.896361 0.482155 0.721416
0.908873 0.495903 0.7252
0.916167 0.511162 0.729366
0 0.572869 0.7196
0 0.588907 0.725368
0 0.614633 0.733196
0.021912 0.669856 0.736721
0.633555 0.745922 0.763867
0.908965 0.774716 0.775006
0.962722 0.780133 0.776654
0.973968 0.786725 0.778302
0.978622 0.793484 0.779736
0 0.666423 0.750988
0 0.68365 0.755901
0 0.711818 0.763012
0 0.775036 0.767483
0.62649 0.867201 0.788754
0.926421 0.916182 0.801205
0.985687 0.92369 0.802197
0.997284 0.925826 0.802838
0.999924 0.926726 0.802838
0 0.691218 0.767208
0 0.707012 0.770993
0 0.733379 0.777386
0 0.792737 0.78056
0.627131 0.881956 0.802808
0.924392 0.933425 0.815503
0.986297 0.942336 0.816632
0.998566 0.944091 0.817014
1 0.943709 0.816266
0 0.711772 0.777859
0 0.726421 0.781231
0 0.750256 0.785718
0.0195468 0.803784 0.787121
0.635096 0.886702 0.810742
0.921752 0.936355 0.823529
0.985138 0.945693 0.824842
0.998154 0.947524 0.825254
0.999985 0.947143 0.82443
0 0.718761 0.781552
0 0.733028 0.784558
0 0.756436 0.78912
0.05832 0.807782 0.789899
0.638025 0.888273 0.813504
0.92079 0.93724 0.826307
0.98471 0.946715 0.82771
0.997971 0.948577 0.828107
0.999985 0.948241 0.827314
0.000167849 0.0579232 0.574319
0.00607309 0.0925307 0.581857
0.0786145 0.117861 0.594827
0.271092 0.128954 0.624414
0.540124 0.103059 0.661768
0.752102 0.019379 0.683101
0.801694 0.0180819 0.69015
0.813581 0.0408179 0.694331
0.82005 0.0652018 0.698604
0 0.109545 0.594446
0.000106813 0.13431 0.602716
0.0252842 0.164355 0.614389
0.270802 0.1841 0.643854
0.553735 0.182025 0.681468
0.764004 0.12224 0.698802
0.812924 0.122133 0.705058
0.826627 0.150149 0.710369
0.834943 0.177249 0.715694
0 0.19115 0.631876
0 0.207813 0.639506
0.00396735 0.233692 0.649958
0.262318 0.267384 0.674601
0.57467 0.281987 0.713161
0.792279 0.262913 0.729839
0.841428 0.266712 0.735439
0.855131 0.283345 0.740398
0.86334 0.301625 0.745327
0 0.372717 0.709743
0 0.385275 0.715862
0 0.406989 0.72546
0.169696 0.449577 0.735454
0.608942 0.491432 0.774777
0.849943 0.495247 0.791424
0.900893 0.500465 0.795163
0.913695 0.51339 0.798566
0.920806 0.527306 0.801999
0 0.578866 0.776684
0 0.594446 0.782757
0 0.620264 0.791485
0.000106813 0.675669 0.79823
0.620264 0.7505 0.82974
0.903044 0.779629 0.84744
0.959884 0.784558 0.850309
0.972168 0.791287 0.851652
0.977234 0.797986 0.852598
0 0.673228 0.803159
0 0.690166 0.808225
0 0.717784 0.816526
0 0.780453 0.824353
0.610681 0.871519 0.849714
0.918685 0.921492 0.868406
0.981323 0.929259 0.871046
0.993744 0.931395 0.871443
0.998428 0.93286 0.871595
0 0.697032 0.811231
0 0.712291 0.815747
0 0.738705 0.82359
0 0.797436 0.828748
0.611292 0.885985 0.854078
0.916823 0.938521 0.872679
0.98233 0.947845 0.87541
0.995514 0.949645 0.875669
0.99971 0.950118 0.875441
0 0.716167 0.817136
0 0.730953 0.821607
0 0.754589 0.826581
0 0.807584 0.83006
0.619486 0.889891 0.856168
0.91429 0.940978 0.874159
0.981247 0.950683 0.877104
0.995239 0.952605 0.87747
0.99971 0.953079 0.87718
0 0.723537 0.820172
0 0.73785 0.824109
0 0.760327 0.828
0 0.811093 0.830503
0.622477 0.891173 0.856901
0.913375 0.941711 0.874662
0.980819 0.951522 0.877699
0.995117 0.95349 0.87808
0.99971 0.953994 0.877791
0 0.154406 0.616922
0 0.172519 0.624567
0.0133516 0.200443 0.635111
0.26981 0.226047 0.663005
0.560159 0.235172 0.701549
0.774075 0.205463 0.719814
0.824155 0.206134 0.726131
0.838453 0.225467 0.731517
0.84712 0.246677 0.736843
0 0.189303 0.635279
0 0.207111 0.643
0.00700389 0.231724 0.652583
0.265461 0.263767 0.678248
0.570474 0.279133 0.717311
0.787976 0.259373 0.735286
0.838361 0.262318 0.741283
0.852491 0.279637 0.746365
0.860914 0.298985 0.751385
0 0.256458 0.667201
0 0.270375 0.674083
0 0.292256 0.682795
0.24947 0.330129 0.702617
0.585641 0.355062 0.742443
0.810513 0.346273 0.760128
0.86154 0.350713 0.76553
0.875319 0.365942 0.769985
0.883314 0.383413 0.774456
0 0.408057 0.72961
0 0.420706 0.73521
0 0.441566 0.744076
0.149187 0.484749 0.752773
0.608988 0.530343 0.791897
0.856809 0.538262 0.810101
0.909773 0.542687 0.813855
0.922881 0.554833 0.816876
0.929702 0.568185 0.819867
0 0.589151 0.78648
0 0.604517 0.792325
0 0.629694 0.800977
7.62951e-05 0.684382 0.807767
0.615702 0.758526 0.839124
0.900984 0.788785 0.857969
0.959701 0.793027 0.860945
0.972412 0.798978 0.862181
0.977905 0.805753 0.863249
0 0.677852 0.810849
0 0.694438 0.815747
0 0.721584 0.824323
0 0.782193 0.831342
0.605676 0.871473 0.857237
0.914672 0.921431 0.876921
0.979828 0.929366 0.88014
0.992615 0.931258 0.880369
0.996994 0.93228 0.879942
0 0.700465 0.817288
0 0.716014 0.822278
0 0.741238 0.829236
0 0.79884 0.834821
0.605493 0.88571 0.860349
0.91281 0.938567 0.880079
0.980468 0.948287 0.883345
0.994095 0.949859 0.883406
0.99881 0.950027 0.882902
0 0.720256 0.823728
0 0.73434 0.827665
0 0.757061 0.83212
0 0.808484 0.83563
0.613245 0.889525 0.86183
0.909972 0.940917 0.880735
0.978866 0.950744 0.883925
0.993667 0.952682 0.884321
0.999329 0.953445 0.884337
0 0.726528 0.825666
0 0.739651 0.828489
0 0.762478 0.83331
0 0.811872 0.835981
0.616098 0.890776 0.862348
0.908934 0.941604 0.880949
0.978271 0.951461 0.884108
0.9935 0.953521 0.884627
0.999512 0.954513 0.88484
0 0.154406 0.616922
0 0.172519 0.624567
0.0133516 0.200443 0.635111
0.26981 0.226047 0.663005
0.560159 0.235172 0.701549
0.774075 0.205463 0.719814
0.824155 0.206134 0.726131
0.838453 0.225467 0.731517
0.84712 0.246677 0.736843
0 0.189303 0.635279
0 0.207111 0.643
0.00700389 0.231724 0.652583
0.265461 0.263767 0.678248
0.570474 0.279133 0.717311
0.787976 0.259373 0.735286
0.838361 0.262318 0.741283
0.852491 0.279637 0.746365
0.860914 0.298985 0.751385
0 0.256458 0.667201
0 0.270375 0.674083
0 0.292256 0.682795
0.24947 0.330129 0.702617
0.585641 0.355062 0.742443
0.810513 0.346273 0.760128
0.86154 0.350713 0.76553
0.875319 0.365942 0.769985
0.883314 0.383413 0.774456
0 0.408057 0.72961
0 0.420706 0.73521
0 0.441566 0.744076
0.149187 0.484749 0.752773
0.608988 0.530343 0.791897
0.856809 0.538262 0.810101
0.909773 0.542687 0.813855
0.922881 0.554833 0.816876
0.929702 0.568185 0.819867
0 0.589151 0.78648
0 0.604517 0.792325
0 0.629694 0.800977
7.62951e-05 0.684382 0.807767
0.615702 0.758526 0.839124
0.900984 0.788785 0.857969
0.959701 0.793027 0.860945
0.972412 0.798978 0.862181
0.977905 0.805753 0.863249
0 0.677852 0.810849
0 0.694438 0.815747
0 0.721584 0.824323
0 0.782193 0.831342
0.605676 0.871473 0.857237
0.914672 0.921431 0.876921
0.979828 0.929366 0.88014
0.992615 0.931258 0.880369
0.996994 0.93228 0.879942
0 0.700465 0.817288
0 0.716014 0.822278
0 0.741238 0.829236
0 0.79884 0.834821
0.605493 0.88571 0.860349
0.91281 0.938567 0.880079
0.980468 0.948287 0.883345
0.994095 0.949859 0.883406
0.99881 0.950027 0.882902
0 0.720256 0.823728
0 0.73434 0.827665
0 0.757061 0.83212
0 0.808484 0.83563
0.613245 0.889525 0.86183
0.909972 0.940917 0.880735
0.978866 0.950744 0.883925
0.993667 0.952682 0.884321
0.999329 0.953445 0.884337
0 0.726528 0.825666
0 0.739651 0.828489
0 0.762478 0.83331
0 0.811872 0.835981
0.616098 0.890776 0.862348
0.908934 0.941604 0.880949
0.978271 0.951461 0.884108
0.9935 0.953521 0.884627
0.999512 0.954513 0.88484
0 0.154406 0.616922
0 0.172519 0.624567
0.0133516 0.200443 0.635111
0.26981 0.226047 0.663005
0.560159 0.235172 0.701549
0.774075 0.205463 0.719814
0.824155 0.206134 0.726131
0.838453 0.225467 0.731517
0.84712 0.246677 0.736843
0 0.189303 0.635279
0 0.207111 0.643
0.00700389 0.231724 0.652583
0.265461 0.263767 0.678248
0.570474 0.279133 0.717311
0.787976 0.259373 0.735286
0.838361 0.262318 0.741283
0.852491 0.279637 0.746365
0.860914 0.298985 0.751385
0 0.256458 0.667201
0 0.270375 0.674083
0 0.292256 0.682795
0.24947 0.330129 0.702617
0.585641 0.355062 0.742443
0.810513 0.346273 0.760128
0.86154 0.350713 0.76553
0.875319 0.365942 0.769985
0.883314 0.383413 0.774456
0 0.408057 0.72961
0 0.420706 0.73521
0 0.441566 0.744076
0.149187 0.484749 0.752773
0.608988 0.530343 0.791897
0.856809 0.538262 0.810101
0.909773 0.542687 0.813855
0.922881 0.554833 0.816876
0.929702 0.568185 0.819867
0 0.589151 0.78648
0 0.604517 0.792325
0 0.629694 0.800977
7.62951e-05 0.684382 0.807767
0.615702 0.758526 0.839124
0.900984 0.788785 0.857969
0.959701 0.793027 0.860945
0.972412 0.798978 0.862181
0.977905 0.805753 0.863249
0 0.677852 0.810849
0 0.694438 0.815747
0 0.721584 0.824323
0 0.782193 0.831342
0.605676 0.871473 0.857237
0.914672 0.921431 0.876921
0.979828 0.929366 0.88014
0.992615 0.931258 0.880369
0.996994 0.93228 0.879942
0 0.700465 0.817288
0 0.716014 0.822278
0 0.741238 0.829236
0 0.79884 0.834821
0.605493 0.88571 0.860349
0.91281 0.938567 0.880079
0.980468 0.948287 0.883345
0.994095 0.949859 0.883406
0.99881 0.950027 0.882902
0 0.720256 0.823728
0 0.73434 0.827665
0 0.757061 0.83212
0 0.808484 0.83563
0.613245 0.889525 0.86183
0.909972 0.940917 0.880735
0.978866 0.950744 0.883925
0.993667 0.952682 0.884321
0.999329 0.953445 0.884337
0 0.726528 0.825666
0 0.739651 0.828489
0 0.762478 0.83331
0 0.811872 0.835981
0.616098 0.890776 0.862348
0.908934 0.941604 0.880949
0.978271 0.951461 0.884108
0.9935 0.953521 0.884627
0.999512 0.954513 0.88484
