luts/Blue Spring.cube
#Generated by Picture Instruments - Unlimited Filters
TITLE "CineMajic"
LUT_3D_SIZE 9
0.113725 0.0431373 0.027451
0.2 0.0431373 0.0352941
0.270588 0.0509804 0.0470588
0.360784 0.054902 0.0470588
0.470588 0.054902 0.054902
0.635294 0.0627451 0.0627451
0.772549 0.0745098 0.0666667
0.894118 0.0745098 0.0588235
0.952941 0.0784314 0.0627451
0.109804 0.14902 0.0431373
0.180392 0.141176 0.0431373
0.262745 0.137255 0.0470588
0.356863 0.129412 0.0509804
0.47451 0.12549 0.054902
0.639216 0.133333 0.0588235
0.768627 0.137255 0.0588235
0.898039 0.133333 0.0627451
0.956863 0.133333 0.0627451
0.117647 0.262745 0.0627451
0.145098 0.247059 0.0588235
0.211765 0.247059 0.0392157
0.313725 0.219608 0.0470588
0.443137 0.215686 0.0588235
0.615686 0.215686 0.0588235
0.764706 0.219608 0.0666667
0.898039 0.223529 0.0666667
0.952941 0.219608 0.0627451
0.129412 0.356863 0.0666667
0.14902 0.34902 0.0784314
0.203922 0.341176 0.0745098
0.262745 0.32549 0.0470588
0.392157 0.309804 0.054902
0.580392 0.305882 0.0627451
0.768627 0.321569 0.0745098
0.898039 0.317647 0.0666667
0.952941 0.317647 0.0627451
0.137255 0.454902 0.0823529
0.168627 0.454902 0.0941176
0.2 0.447059 0.0901961
0.278431 0.427451 0.0862745
0.352941 0.411765 0.054902
0.52549 0.407843 0.0627451
0.713725 0.419608 0.0627451
0.882353 0.419608 0.0666667
0.952941 0.407843 0.0627451
0.172549 0.560784 0.0941176
0.196078 0.560784 0.109804
0.235294 0.560784 0.105882
0.313725 0.54902 0.101961
0.388235 0.517647 0.0745098
0.529412 0.52549 0.0627451
0.705882 0.529412 0.0627451
0.870588 0.533333 0.0588235
0.956863 0.533333 0.0627451
0.207843 0.67451 0.109804
0.231373 0.666667 0.121569
0.282353 0.666667 0.121569
0.376471 0.666667 0.121569
0.439216 0.654902 0.0862745
0.545098 0.678431 0.0627451
0.709804 0.67451 0.0666667
0.882353 0.67451 0.0705882
0.94902 0.678431 0.0666667
0.243137 0.780392 0.129412
0.254902 0.772549 0.129412
0.32549 0.776471 0.129412
0.411765 0.772549 0.141176
0.478431 0.776471 0.105882
0.580392 0.807843 0.0901961
0.721569 0.827451 0.0705882
0.87451 0.823529 0.0666667
0.952941 0.823529 0.0588235
0.262745 0.858824 0.141176
0.278431 0.858824 0.141176
0.341176 0.862745 0.137255
0.443137 0.858824 0.137255
0.513725 0.878431 0.117647
0.603922 0.909804 0.0941176
0.72549 0.945098 0.0627451
0.870588 0.94902 0.0666667
0.945098 0.94902 0.0588235
0.0862745 0.0941176 0.145098
0.156863 0.054902 0.152941
0.247059 0.0509804 0.156863
0.341176 0.0509804 0.14902
0.462745 0.0627451 0.14902
0.627451 0.0745098 0.14902
0.764706 0.0705882 0.14902
0.894118 0.0784314 0.141176
0.952941 0.0823529 0.141176
0.0941176 0.180392 0.133333
0.168627 0.176471 0.172549
0.231373 0.168627 0.180392
0.32549 0.14902 0.168627
0.443137 0.145098 0.160784
0.611765 0.141176 0.14902
0.752941 0.141176 0.152941
0.890196 0.145098 0.145098
0.960784 0.145098 0.145098
0.0980392 0.27451 0.113725
0.129412 0.266667 0.137255
0.219608 0.266667 0.172549
0.305882 0.262745 0.176471
0.439216 0.231373 0.168627
0.611765 0.231373 0.156863
0.764706 0.227451 0.152941
0.886275 0.231373 0.156863
0.960784 0.235294 0.156863
0.0980392 0.372549 0.0901961
0.113725 0.368627 0.109804
0.152941 0.364706 0.121569
0.290196 0.360784 0.172549
0.392157 0.337255 0.160784
0.572549 0.317647 0.152941
0.741176 0.32549 0.168627
0.886275 0.333333 0.164706
0.960784 0.329412 0.160784
0.109804 0.466667 0.0941176
0.109804 0.458824 0.0980392
0.133333 0.458824 0.113725
0.282353 0.454902 0.160784
0.368627 0.435294 0.160784
0.54902 0.415686 0.164706
0.72549 0.419608 0.168627
0.882353 0.435294 0.188235
0.956863 0.431373 0.164706
0.137255 0.572549 0.0980392
0.129412 0.576471 0.101961
0.184314 0.568627 0.133333
0.321569 0.564706 0.184314
0.415686 0.556863 0.172549
0.509804 0.52549 0.152941
0.705882 0.537255 0.176471
0.870588 0.545098 0.184314
0.960784 0.545098 0.160784
0.156863 0.678431 0.109804
0.145098 0.678431 0.113725
0.231373 0.67451 0.14902
0.356863 0.670588 0.188235
0.470588 0.670588 0.203922
0.54902 0.662745 0.160784
0.705882 0.67451 0.176471
0.87451 0.682353 0.180392
0.956863 0.686275 0.168627
0.192157 0.780392 0.12549
0.188235 0.780392 0.12549
0.286275 0.776471 0.172549
0.403922 0.772549 0.2
0.494118 0.776471 0.203922
0.596078 0.796078 0.196078
0.721569 0.823529 0.188235
0.878431 0.831373 0.188235
0.956863 0.835294 0.172549
0.219608 0.858824 0.133333
0.211765 0.862745 0.133333
0.32549 0.858824 0.192157
0.431373 0.858824 0.203922
0.529412 0.870588 0.223529
0.619608 0.886275 0.207843
0.733333 0.941176 0.188235
0.87451 0.94902 0.184314
0.94902 0.952941 0.180392
0.0745098 0.121569 0.215686
0.12549 0.101961 0.25098
0.192157 0.0666667 0.262745
0.298039 0.054902 0.254902
0.419608 0.054902 0.239216
0.615686 0.0666667 0.243137
0.776471 0.0705882 0.247059
0.898039 0.0784314 0.235294
0.952941 0.0823529 0.243137
0.0705882 0.203922 0.207843
0.117647 0.192157 0.247059
0.176471 0.176471 0.278431
0.290196 0.160784 0.282353
0.415686 0.145098 0.258824
0.607843 0.152941 0.243137
0.745098 0.160784 0.247059
0.886275 0.156863 0.25098
0.960784 0.152941 0.239216
0.0784314 0.290196 0.196078
0.117647 0.286275 0.219608
0.156863 0.270588 0.254902
0.282353 0.270588 0.298039
0.423529 0.270588 0.290196
0.592157 0.243137 0.258824
0.741176 0.247059 0.25098
0.882353 0.254902 0.254902
0.964706 0.243137 0.258824
0.0941176 0.372549 0.152941
0.105882 0.364706 0.176471
0.12549 0.364706 0.203922
0.262745 0.364706 0.25098
0.419608 0.372549 0.286275
0.6 0.337255 0.262745
0.745098 0.341176 0.266667
0.87451 0.345098 0.258824
0.960784 0.337255 0.258824
0.105882 0.470588 0.152941
0.101961 0.462745 0.160784
0.117647 0.45098 0.184314
0.227451 0.466667 0.203922
0.403922 0.458824 0.258824
0.552941 0.431373 0.258824
0.72549 0.439216 0.278431
0.87451 0.447059 0.278431
0.960784 0.439216 0.270588
0.133333 0.580392 0.145098
0.121569 0.576471 0.156863
0.152941 0.568627 0.176471
0.262745 0.572549 0.211765
0.439216 0.564706 0.266667
0.533333 0.533333 0.25098
0.717647 0.541176 0.278431
0.882353 0.556863 0.298039
0.960784 0.564706 0.294118
0.145098 0.678431 0.145098
0.145098 0.678431 0.152941
0.180392 0.67451 0.180392
0.309804 0.682353 0.227451
0.470588 0.67451 0.282353
0.576471 0.670588 0.286275
0.701961 0.682353 0.290196
0.878431 0.690196 0.305882
0.960784 0.694118 0.286275
0.152941 0.780392 0.152941
0.152941 0.780392 0.152941
0.207843 0.776471 0.176471
0.34902 0.784314 0.243137
0.509804 0.776471 0.294118
0.619608 0.792157 0.309804
0.717647 0.819608 0.298039
0.882353 0.831373 0.321569
0.960784 0.839216 0.301961
0.160784 0.866667 0.14902
0.164706 0.858824 0.156863
0.223529 0.858824 0.180392
0.396078 0.862745 0.266667
0.533333 0.866667 0.309804
0.643137 0.87451 0.32549
0.745098 0.921569 0.305882
0.878431 0.952941 0.32549
0.960784 0.956863 0.309804
0.0666667 0.141176 0.309804
0.0941176 0.121569 0.333333
0.133333 0.0980392 0.360784
0.247059 0.0666667 0.360784
0.376471 0.054902 0.337255
0.556863 0.0666667 0.333333
0.72549 0.0745098 0.333333
0.886275 0.0784314 0.333333
0.952941 0.0823529 0.337255
0.0705882 0.219608 0.294118
0.0745098 0.207843 0.317647
0.117647 0.184314 0.364706
0.243137 0.160784 0.384314
0.376471 0.145098 0.356863
0.568627 0.152941 0.333333
0.737255 0.160784 0.337255
0.882353 0.164706 0.337255
0.956863 0.160784 0.337255
0.0627451 0.294118 0.270588
0.0784314 0.278431 0.290196
0.0980392 0.270588 0.321569
0.223529 0.258824 0.380392
0.384314 0.262745 0.384314
0.568627 0.258824 0.341176
0.733333 0.266667 0.341176
0.87451 0.282353 0.341176
0.960784 0.258824 0.352941
0.0745098 0.376471 0.243137
0.0784314 0.368627 0.278431
0.105882 0.356863 0.294118
0.207843 0.34902 0.341176
0.392157 0.368627 0.384314
0.592157 0.364706 0.356863
0.729412 0.364706 0.345098
0.862745 0.364706 0.341176
0.960784 0.352941 0.356863
0.0862745 0.466667 0.254902
0.0823529 0.462745 0.262745
0.0784314 0.439216 0.278431
0.188235 0.447059 0.298039
0.380392 0.458824 0.321569
0.603922 0.466667 0.356863
0.752941 0.447059 0.356863
0.878431 0.462745 0.368627
0.960784 0.45098 0.364706
0.109804 0.572549 0.227451
0.105882 0.568627 0.239216
0.129412 0.564706 0.262745
0.235294 0.572549 0.286275
0.4 0.564706 0.305882
0.580392 0.568627 0.352941
0.729412 0.545098 0.364706
0.894118 0.576471 0.392157
0.964706 0.572549 0.380392
0.145098 0.690196 0.223529
0.141176 0.67451 0.239216
0.164706 0.678431 0.262745
0.290196 0.686275 0.286275
0.439216 0.67451 0.321569
0.611765 0.686275 0.376471
0.709804 0.67451 0.364706
0.894118 0.701961 0.403922
0.964706 0.701961 0.396078
0.156863 0.780392 0.215686
0.160784 0.784314 0.227451
0.207843 0.780392 0.25098
0.305882 0.780392 0.282353
0.482353 0.792157 0.341176
0.631373 0.788235 0.4
0.737255 0.811765 0.392157
0.882353 0.839216 0.423529
0.968627 0.843137 0.415686
0.172549 0.858824 0.215686
0.168627 0.858824 0.223529
0.231373 0.854902 0.25098
0.329412 0.862745 0.278431
0.505882 0.870588 0.356863
0.658824 0.87451 0.407843
0.74902 0.913725 0.419608
0.878431 0.960784 0.431373
0.960784 0.968627 0.419608
0.0627451 0.164706 0.403922
0.0705882 0.141176 0.431373
0.101961 0.12549 0.454902
0.196078 0.101961 0.478431
0.360784 0.0666667 0.431373
0.54902 0.0627451 0.431373
0.729412 0.0745098 0.435294
0.890196 0.0784314 0.435294
0.952941 0.0823529 0.435294
0.0627451 0.235294 0.380392
0.0588235 0.227451 0.403922
0.0745098 0.207843 0.447059
0.188235 0.188235 0.478431
0.345098 0.172549 0.482353
0.533333 0.152941 0.415686
0.698039 0.168627 0.427451
0.862745 0.180392 0.419608
0.956863 0.168627 0.443137
0.0588235 0.301961 0.352941
0.054902 0.294118 0.368627
0.0627451 0.286275 0.4
0.164706 0.27451 0.462745
0.341176 0.258824 0.482353
0.52549 0.247059 0.419608
0.713725 0.27451 0.415686
0.858824 0.298039 0.415686
0.956863 0.270588 0.447059
0.0627451 0.384314 0.337255
0.0588235 0.376471 0.352941
0.0588235 0.368627 0.356863
0.152941 0.356863 0.407843
0.345098 0.34902 0.470588
0.568627 0.368627 0.427451
0.729412 0.376471 0.411765
0.866667 0.4 0.423529
0.960784 0.368627 0.458824
0.0666667 0.478431 0.356863
0.0627451 0.470588 0.364706
0.0588235 0.458824 0.372549
0.152941 0.443137 0.384314
0.341176 0.439216 0.423529
0.615686 0.486275 0.458824
0.74902 0.462745 0.427451
0.878431 0.47451 0.439216
0.968627 0.462745 0.466667
0.0862745 0.580392 0.333333
0.0862745 0.576471 0.34902
0.0901961 0.572549 0.360784
0.192157 0.54902 0.376471
0.392157 0.560784 0.380392
0.596078 0.580392 0.431373
0.764706 0.572549 0.447059
0.898039 0.580392 0.466667
0.972549 0.576471 0.478431
0.109804 0.690196 0.313725
0.109804 0.686275 0.329412
0.133333 0.682353 0.345098
0.247059 0.67451 0.356863
0.427451 0.678431 0.380392
0.607843 0.690196 0.435294
0.72549 0.694118 0.45098
0.901961 0.705882 0.498039
0.972549 0.713725 0.505882
0.145098 0.796078 0.309804
0.137255 0.796078 0.321569
0.172549 0.788235 0.329412
0.294118 0.788235 0.356863
0.458824 0.780392 0.388235
0.639216 0.803922 0.466667
0.752941 0.823529 0.501961
0.890196 0.847059 0.52549
0.976471 0.858824 0.52549
0.156863 0.870588 0.309804
0.156863 0.87451 0.317647
0.207843 0.866667 0.333333
0.333333 0.870588 0.352941
0.47451 0.870588 0.392157
0.654902 0.87451 0.478431
0.768627 0.917647 0.529412
0.882353 0.968627 0.537255
0.972549 0.972549 0.541176
0.0666667 0.203922 0.52549
0.0784314 0.180392 0.552941
0.109804 0.152941 0.568627
0.2 0.129412 0.592157
0.337255 0.109804 0.592157
0.533333 0.0705882 0.552941
0.717647 0.0705882 0.572549
0.878431 0.0784314 0.568627
0.952941 0.0823529 0.568627
0.0627451 0.266667 0.501961
0.0705882 0.258824 0.541176
0.0862745 0.235294 0.568627
0.184314 0.219608 0.592157
0.321569 0.2 0.603922
0.521569 0.164706 0.537255
0.690196 0.176471 0.541176
0.862745 0.196078 0.541176
0.956863 0.184314 0.568627
0.0666667 0.321569 0.470588
0.0627451 0.317647 0.482353
0.0666667 0.309804 0.501961
0.164706 0.298039 0.576471
0.317647 0.282353 0.592157
0.513725 0.266667 0.541176
0.690196 0.286275 0.505882
0.847059 0.313725 0.509804
0.956863 0.286275 0.580392
0.0627451 0.407843 0.447059
0.0588235 0.396078 0.454902
0.0666667 0.388235 0.47451
0.145098 0.376471 0.509804
0.32549 0.372549 0.576471
0.529412 0.360784 0.541176
0.705882 0.372549 0.494118
0.870588 0.411765 0.513725
0.960784 0.392157 0.580392
0.0627451 0.494118 0.458824
0.0666667 0.482353 0.466667
0.0627451 0.47451 0.486275
0.14902 0.458824 0.486275
0.309804 0.45098 0.498039
0.54902 0.45098 0.533333
0.733333 0.47451 0.513725
0.882353 0.501961 0.537255
0.972549 0.490196 0.596078
0.0666667 0.607843 0.466667
0.0666667 0.603922 0.486275
0.0666667 0.592157 0.494118
0.168627 0.572549 0.490196
0.333333 0.556863 0.490196
0.6 0.576471 0.529412
0.772549 0.588235 0.564706
0.901961 0.592157 0.564706
0.976471 0.584314 0.6
0.0862745 0.709804 0.447059
0.0862745 0.713725 0.470588
0.0901961 0.705882 0.490196
0.207843 0.694118 0.498039
0.380392 0.686275 0.498039
0.6 0.694118 0.505882
0.760784 0.709804 0.584314
0.913725 0.713725 0.6
0.980392 0.709804 0.611765
0.117647 0.823529 0.435294
0.117647 0.823529 0.435294
0.152941 0.815686 0.458824
0.25098 0.811765 0.466667
0.431373 0.803922 0.482353
0.619608 0.8 0.517647
0.772549 0.831373 0.6
0.890196 0.847059 0.627451
0.980392 0.858824 0.647059
0.133333 0.901961 0.419608
0.129412 0.909804 0.423529
0.184314 0.901961 0.443137
0.290196 0.886275 0.454902
0.443137 0.878431 0.482353
0.635294 0.890196 0.537255
0.780392 0.929412 0.635294
0.898039 0.972549 0.654902
0.980392 0.976471 0.662745
0.0745098 0.239216 0.678431
0.0823529 0.219608 0.690196
0.113725 0.188235 0.690196
0.2 0.164706 0.717647
0.305882 0.141176 0.705882
0.513725 0.113725 0.678431
0.701961 0.0745098 0.694118
0.878431 0.0784314 0.701961
0.956863 0.0823529 0.701961
0.0705882 0.294118 0.647059
0.0705882 0.290196 0.670588
0.0941176 0.266667 0.694118
0.176471 0.243137 0.698039
0.305882 0.227451 0.701961
0.505882 0.215686 0.666667
0.686275 0.196078 0.658824
0.862745 0.207843 0.662745
0.956863 0.188235 0.701961
0.0705882 0.360784 0.615686
0.0705882 0.345098 0.619608
0.0745098 0.337255 0.647059
0.164706 0.321569 0.698039
0.309804 0.309804 0.694118
0.505882 0.298039 0.658824
0.694118 0.294118 0.619608
0.854902 0.317647 0.623529
0.964706 0.301961 0.713725
0.0666667 0.431373 0.6
0.0705882 0.423529 0.619608
0.0705882 0.411765 0.623529
0.14902 0.4 0.643137
0.313725 0.392157 0.678431
0.521569 0.380392 0.631373
0.694118 0.396078 0.588235
0.858824 0.419608 0.615686
0.968627 0.4 0.713725
0.0705882 0.517647 0.619608
0.0745098 0.509804 0.619608
0.0705882 0.501961 0.631373
0.152941 0.482353 0.627451
0.305882 0.478431 0.623529
0.545098 0.462745 0.623529
0.721569 0.482353 0.611765
0.882353 0.513725 0.654902
0.976471 0.509804 0.721569
0.0745098 0.623529 0.619608
0.0705882 0.611765 0.623529
0.0666667 0.603922 0.635294
0.156863 0.603922 0.647059
0.32549 0.576471 0.611765
0.576471 0.584314 0.635294
0.745098 0.580392 0.666667
0.905882 0.619608 0.686275
0.976471 0.615686 0.733333
0.0784314 0.741176 0.619608
0.0745098 0.72549 0.639216
0.0705882 0.721569 0.643137
0.168627 0.705882 0.635294
0.34902 0.694118 0.639216
0.584314 0.694118 0.635294
0.784314 0.729412 0.717647
0.917647 0.717647 0.713725
0.980392 0.72549 0.733333
0.0784314 0.854902 0.623529
0.0784314 0.85098 0.631373
0.0980392 0.847059 0.643137
0.196078 0.835294 0.658824
0.380392 0.823529 0.65098
0.603922 0.823529 0.647059
0.776471 0.847059 0.698039
0.901961 0.858824 0.733333
0.984314 0.862745 0.760784
0.0941176 0.941176 0.611765
0.0941176 0.941176 0.611765
0.133333 0.937255 0.631373
0.227451 0.921569 0.619608
0.407843 0.921569 0.627451
0.627451 0.917647 0.658824
0.792157 0.945098 0.721569
0.905882 0.972549 0.768627
0.984314 0.984314 0.776471
0.0823529 0.27451 0.827451
0.0901961 0.247059 0.835294
0.12549 0.227451 0.835294
0.188235 0.192157 0.843137
0.294118 0.160784 0.835294
0.494118 0.14902 0.815686
0.686275 0.117647 0.827451
0.878431 0.0784314 0.843137
0.956863 0.0823529 0.843137
0.0784314 0.329412 0.811765
0.0823529 0.321569 0.819608
0.0941176 0.298039 0.831373
0.168627 0.27451 0.835294
0.278431 0.254902 0.843137
0.47451 0.25098 0.811765
0.67451 0.235294 0.776471
0.858824 0.219608 0.780392
0.952941 0.203922 0.831373
0.0745098 0.396078 0.796078
0.0784314 0.380392 0.803922
0.0784314 0.364706 0.807843
0.152941 0.34902 0.823529
0.278431 0.333333 0.823529
0.490196 0.329412 0.8
0.694118 0.333333 0.729412
0.854902 0.333333 0.745098
0.964706 0.309804 0.843137
0.0784314 0.466667 0.8
0.0784314 0.45098 0.803922
0.0823529 0.439216 0.796078
0.145098 0.431373 0.8
0.278431 0.415686 0.815686
0.501961 0.403922 0.772549
0.690196 0.411765 0.72549
0.882353 0.427451 0.745098
0.972549 0.419608 0.854902
0.0784314 0.537255 0.8
0.0823529 0.533333 0.796078
0.0823529 0.529412 0.807843
0.14902 0.513725 0.788235
0.286275 0.501961 0.756863
0.509804 0.494118 0.784314
0.701961 0.509804 0.768627
0.886275 0.529412 0.8
0.972549 0.52549 0.858824
0.0745098 0.647059 0.807843
0.0823529 0.643137 0.807843
0.0745098 0.627451 0.807843
0.152941 0.611765 0.784314
0.313725 0.6 0.768627
0.545098 0.603922 0.772549
0.713725 0.603922 0.803922
0.894118 0.631373 0.803922
0.976471 0.643137 0.87451
0.0745098 0.741176 0.8
0.0745098 0.741176 0.807843
0.0784314 0.733333 0.807843
0.152941 0.721569 0.796078
0.321569 0.709804 0.784314
0.556863 0.709804 0.768627
0.741176 0.72549 0.831373
0.909804 0.733333 0.847059
0.984314 0.752941 0.878431
0.0784314 0.854902 0.796078
0.0823529 0.858824 0.8
0.0823529 0.85098 0.803922
0.152941 0.847059 0.807843
0.341176 0.835294 0.792157
0.584314 0.843137 0.803922
0.74902 0.854902 0.835294
0.921569 0.882353 0.878431
0.988235 0.87451 0.882353
0.0862745 0.952941 0.807843
0.0823529 0.952941 0.8
0.0980392 0.956863 0.811765
0.180392 0.94902 0.803922
0.345098 0.941176 0.819608
0.588235 0.956863 0.827451
0.764706 0.964706 0.839216
0.92549 0.980392 0.882353
0.988235 0.988235 0.901961
0.0862745 0.301961 0.94902
0.0941176 0.282353 0.956863
0.12549 0.247059 0.94902
0.184314 0.223529 0.952941
0.266667 0.192157 0.956863
0.482353 0.172549 0.952941
0.686275 0.14902 0.952941
0.866667 0.0980392 0.952941
0.952941 0.0823529 0.945098
0.0823529 0.352941 0.94902
0.0862745 0.341176 0.952941
0.0980392 0.321569 0.94902
0.168627 0.305882 0.956863
0.258824 0.278431 0.956863
0.466667 0.266667 0.956863
0.678431 0.25098 0.956863
0.870588 0.223529 0.956863
0.956863 0.207843 0.956863
0.0823529 0.419608 0.952941
0.0862745 0.403922 0.952941
0.0862745 0.392157 0.952941
0.14902 0.368627 0.952941
0.25098 0.34902 0.952941
0.466667 0.345098 0.960784
0.686275 0.345098 0.956863
0.878431 0.337255 0.952941
0.968627 0.321569 0.964706
0.0784314 0.482353 0.945098
0.0823529 0.47451 0.941176
0.0823529 0.466667 0.952941
0.129412 0.447059 0.945098
0.235294 0.443137 0.956863
0.454902 0.423529 0.960784
0.670588 0.427451 0.960784
0.878431 0.431373 0.960784
0.968627 0.427451 0.956863
0.0823529 0.560784 0.952941
0.0823529 0.556863 0.94902
0.0862745 0.541176 0.94902
0.133333 0.529412 0.94902
0.235294 0.529412 0.956863
0.458824 0.52549 0.960784
0.67451 0.52549 0.964706
0.882353 0.537255 0.952941
0.968627 0.537255 0.976471
0.0823529 0.662745 0.94902
0.0862745 0.654902 0.952941
0.0862745 0.643137 0.94902
0.12549 0.635294 0.952941
0.239216 0.635294 0.960784
0.494118 0.631373 0.964706
0.682353 0.623529 0.960784
0.894118 0.65098 0.980392
0.976471 0.65098 0.984314
0.0862745 0.760784 0.952941
0.0823529 0.74902 0.94902
0.0823529 0.74902 0.952941
0.137255 0.741176 0.94902
0.266667 0.737255 0.94902
0.517647 0.745098 0.968627
0.721569 0.741176 0.980392
0.901961 0.764706 0.984314
0.984314 0.760784 0.984314
0.0823529 0.862745 0.94902
0.0862745 0.862745 0.94902
0.0862745 0.854902 0.952941
0.137255 0.854902 0.952941
0.282353 0.858824 0.956863
0.533333 0.866667 0.968627
0.752941 0.87451 0.980392
0.917647 0.886275 0.988235
0.992157 0.894118 0.992157
0.0862745 0.945098 0.94902
0.0862745 0.941176 0.94902
0.0862745 0.945098 0.945098
0.145098 0.945098 0.952941
0.298039 0.956863 0.94902
0.556863 0.972549 0.972549
0.764706 0.980392 0.980392
0.933333 0.988235 0.992157
0.992157 0.992157 0.992157
