luts/Blue Shadows 01.cube
TITLE "Generated by Resolve"
LUT_3D_SIZE 5
0 0 0.0281834
0 0.0306706 0.127062
0.456092 0.0917067 0.175174
1 0.0481575 0.136828
1 0.0737774 0.156832
0.0939193 0.340948 0.220691
0.365759 0.378988 0.0296483
0.639994 0.381491 0.0353857
0.868971 0.390753 0.0458228
1 0.398596 0.0408179
0 0.691798 0.0865034
0.384726 0.6336 0.0361028
0.64921 0.624659 0.0288701
0.867369 0.623819 0.0442206
1 0.626734 0.0284581
0 0.906828 0.106508
0.405112 0.846174 0.0448768
0.662943 0.830915 0.0379644
0.876097 0.822354 0.0687114
1 0.824018 0.0473182
0.0421302 1 0.153368
0.425284 1 0.0536965
0.681666 1 0.0546426
0.895827 0.998749 0.100649
1 0.996399 0.116396
0 0 0.060029
0.0664988 0.108858 0.203494
0.670176 0.0434119 0.452049
0.992004 0.0509957 0.498527
1 0.0881514 0.512825
0.00541695 0.385992 0.409369
0.358572 0.372747 0.392737
0.628611 0.374899 0.393576
0.843534 0.386831 0.402975
1 0.3991 0.412253
0 0.673609 0.451209
0.374929 0.622477 0.399207
0.636133 0.613504 0.391974
0.845029 0.614832 0.405692
1 0.618784 0.403342
0 0.885496 0.469947
0.39707 0.831418 0.410132
0.651713 0.81651 0.40322
0.860731 0.81001 0.423926
1 0.812039 0.407507
0.0641489 1 0.501198
0.413153 1 0.415976
0.676036 0.996414 0.422538
0.887358 0.982849 0.456062
1 0.985138 0.445945
0 0 0.0928511
0.210956 0.10724 0.363027
0.754421 0.0324102 0.67599
0.982635 0.0671092 0.684916
1 0.105333 0.68925
0 0.412467 0.591913
0.365408 0.378653 0.58703
0.630564 0.380835 0.583185
0.836667 0.394934 0.584665
1 0.406836 0.593851
0 0.674311 0.636286
0.378622 0.624277 0.592309
0.637675 0.615137 0.584176
0.839918 0.618936 0.588235
1 0.621958 0.588952
0.00222782 0.882246 0.654505
0.400778 0.830762 0.601617
0.655756 0.815229 0.594339
0.860502 0.810727 0.605783
1 0.812848 0.595026
0.0912795 1 0.678203
0.418875 1 0.610574
0.685161 0.992096 0.613321
0.89305 0.980621 0.63621
1 0.983825 0.63743
0 0.0409857 0.1355
0.350576 0.08336 0.617578
0.764508 0.0485847 0.837171
0.972992 0.0866102 0.828977
1 0.12575 0.82446
0 0.426459 0.748012
0.374746 0.38674 0.745815
0.634318 0.389776 0.734173
0.831083 0.406683 0.725017
1 0.417044 0.737377
0 0.67776 0.785168
0.385916 0.62829 0.750347
0.642466 0.619699 0.736934
0.837751 0.626551 0.728176
1 0.62768 0.737255
0.0221561 0.882002 0.801694
0.409842 0.831983 0.757488
0.663645 0.816876 0.745388
0.863981 0.814725 0.745602
1 0.816602 0.744076
0.120699 1 0.816922
0.437308 1 0.768826
0.698894 0.990753 0.762585
0.902159 0.981964 0.773007
1 0.986877 0.773785
0.062562 0.12134 0.201389
0.452705 0.0624552 0.890608
0.766888 0.0686503 0.96817
0.960662 0.109056 0.944839
1 0.147906 0.934798
0 0.436713 0.870115
0.385763 0.39646 0.879545
0.636515 0.402106 0.855558
0.822293 0.422507 0.834974
1 0.428138 0.860105
0 0.68278 0.91458
0.396307 0.633387 0.886809
0.649363 0.626307 0.863645
0.822049 0.643839 0.820523
1 0.635828 0.863478
0.0733196 0.875837 0.917342
0.43267 0.831907 0.886625
0.687007 0.817853 0.861448
0.868559 0.822965 0.846006
1 0.825956 0.866514
0.288762 1 0.907256
0.471885 1 0.899306
0.750103 0.981445 0.881971
0.938338 0.977844 0.884794
1 0.99234 0.895308
