luts/Blue Lift.cube
TITLE "Generated by Resolve"
LUT_3D_SIZE 5
0.0759136 0.0913252 0.0997787
0.132174 0.10309 0.101457
0.493141 0.102037 0.0652323
0.745678 0.00865187 0.011368
0.765148 0.0303044 0.013489
0.0380255 0.158495 0.116289
0.135927 0.175921 0.115846
0.55172 0.214557 0.0595407
0.80589 0.209232 0
0.828428 0.235019 0
0 0.468406 0.117754
0.000198367 0.51014 0.0776532
0.709346 0.67599 0
0.999557 0.724819 0
1 0.732204 0
0 0.592859 0.2047
0 0.63447 0.18027
0.716609 0.801953 0.0059968
1 0.866682 0.000228885
1 0.863905 0.000244144
0 0.632044 0.281956
0.000457771 0.669322 0.269535
0.711711 0.808499 0.176806
1 0.863416 0.0733806
1 0.860441 0.0779126
0.0486915 0.0990616 0.223835
0.124987 0.11017 0.232761
0.503838 0.105226 0.247181
0.755474 0 0.252033
0.773602 0.0278325 0.258946
0.00047303 0.179477 0.260487
0.0963455 0.195743 0.264256
0.559197 0.231998 0.276066
0.808286 0.21416 0.26978
0.830411 0.242496 0.279713
0 0.513207 0.3402
1.5259e-05 0.554055 0.339529
0.678233 0.68957 0.310338
0.977722 0.724804 0.282063
0.992355 0.73872 0.289921
0 0.636133 0.430457
0 0.677775 0.42887
0.68307 0.829694 0.406668
0.999985 0.884642 0.375738
1 0.882048 0.376974
0 0.670268 0.481605
1.5259e-05 0.707607 0.480415
0.686152 0.842847 0.470298
0.999878 0.898024 0.452461
1 0.895216 0.452308
0.00851453 0.0321965 0.506462
0.110307 0.0676127 0.525795
0.527062 0.0363012 0.585657
0.789853 3.0518e-05 0.614984
0.805478 0 0.622477
0 0.167773 0.567391
0.0124971 0.209506 0.583612
0.568627 0.246815 0.640635
0.827375 0.227665 0.657801
0.849256 0.263539 0.668879
0 0.572869 0.7196
0 0.614633 0.733196
0.633555 0.745922 0.763867
0.962722 0.780133 0.776654
0.978622 0.793484 0.779736
0 0.691218 0.767208
0 0.733379 0.777386
0.627131 0.881956 0.802808
0.986297 0.942336 0.816632
1 0.943709 0.816266
0 0.718761 0.781552
0 0.756436 0.78912
0.638025 0.888273 0.813504
0.98471 0.946715 0.82771
0.999985 0.948241 0.827314
0 0.154406 0.616922
0.0133516 0.200443 0.635111
0.560159 0.235172 0.701549
0.824155 0.206134 0.726131
0.84712 0.246677 0.736843
0 0.256458 0.667201
0 0.292256 0.682795
0.585641 0.355062 0.742443
0.86154 0.350713 0.76553
0.883314 0.383413 0.774456
0 0.589151 0.78648
0 0.629694 0.800977
0.615702 0.758526 0.839124
0.959701 0.793027 0.860945
0.977905 0.805753 0.863249
0 0.700465 0.817288
0 0.741238 0.829236
0.605493 0.88571 0.860349
0.980468 0.948287 0.883345
0.99881 0.950027 0.882902
0 0.726528 0.825666
0 0.762478 0.83331
0.616098 0.890776 0.862348
0.978271 0.951461 0.884108
0.999512 0.954513 0.88484
0 0.154406 0.616922
0.0133516 0.200443 0.635111
0.560159 0.235172 0.701549
0.824155 0.206134 0.726131
0.84712 0.246677 0.736843
0 0.256458 0.667201
0 0.292256 0.682795
0.585641 0.355062 0.742443
0.86154 0.350713 0.76553
0.883314 0.383413 0.774456
0 0.589151 0.78648
0 0.629694 0.800977
0.615702 0.758526 0.839124
0.959701 0.793027 0.860945
0.977905 0.805753 0.863249
0 0.700465 0.817288
0 0.741238 0.829236
0.605493 0.88571 0.860349
0.980468 0.948287 0.883345
0.99881 0.950027 0.882902
0 0.726528 0.825666
0 0.762478 0.83331
0.616098 0.890776 0.862348
0.978271 0.951461 0.884108
0.999512 0.954513 0.88484
