luts/Blue Lift.cube
TITLE "Generated by Resolve"
LUT_3D_SIZE 33
0.0759136 0.0913252 0.0997787
0.080415 0.0922866 0.0999771
0.0858015 0.0932174 0.100145
0.0910506 0.0944686 0.100374
0.0959945 0.0958267 0.100587
0.101366 0.0972763 0.100816
0.107591 0.09897 0.101091
0.118074 0.100908 0.101305
0.132174 0.10309 0.101457
0.151904 0.105592 0.101457
0.180591 0.108507 0.101122
0.214542 0.11194 0.10013
0.255756 0.115923 0.0982834
0.304967 0.118364 0.0951095
0.364492 0.116945 0.0899214
0.431006 0.11133 0.0782025
0.493141 0.102037 0.0652323
0.55256 0.0796979 0.0511177
0.612329 0.0475013 0.0340124
0.662623 0.02327 0.0268254
0.695415 0.0115206 0.0227359
0.71635 0.00746166 0.0202335
0.730449 0.00650034 0.0153201
0.73959 0.00747692 0.0123903
0.745678 0.00865187 0.011368
0.75021 0.010132 0.0112001
0.753719 0.0118257 0.0112459
0.756298 0.013138 0.0114595
0.758389 0.0150149 0.0118257
0.760128 0.0180514 0.0121157
0.761669 0.0219425 0.012604
0.763409 0.0261692 0.0130617
0.765148 0.0303044 0.013489
0.0751812 0.096376 0.101381
0.0799878 0.0973068 0.101549
0.0856794 0.0983902 0.101762
0.0911574 0.0996262 0.101961
0.0962234 0.100999 0.102174
0.101717 0.102556 0.102403
0.10808 0.104219 0.102632
0.118791 0.106111 0.1028
0.133288 0.108598 0.102983
0.153429 0.111254 0.102968
0.182544 0.114214 0.102571
0.217121 0.117983 0.101534
0.258946 0.122179 0.0995499
0.308766 0.125109 0.0962081
0.368856 0.124483 0.0908064
0.436011 0.12015 0.0789044
0.498589 0.112367 0.0657511
0.558221 0.0962844 0.0506905
0.617441 0.0680095 0.0328222
0.66685 0.0356603 0.024155
0.699245 0.0183719 0.0188449
0.719921 0.0119783 0.0157473
0.733959 0.0106661 0.0087129
0.743038 0.0119783 0.00459297
0.749126 0.0141756 0.00375372
0.753674 0.0165866 0.00370794
0.757168 0.0189822 0.00357061
0.759808 0.0212253 0.00367742
0.761868 0.0233158 0.00386053
0.763577 0.0277256 0.00410468
0.765164 0.0336767 0.00436408
0.766949 0.0401617 0.00459297
0.76878 0.0465705 0.00480659
0.0736706 0.101091 0.102968
0.0789502 0.102037 0.103136
0.0852522 0.103166 0.103349
0.0911269 0.104433 0.103548
0.0963607 0.105852 0.103746
0.102007 0.107454 0.103975
0.108568 0.109117 0.104173
0.11957 0.111269 0.104372
0.134386 0.11371 0.104509
0.15494 0.116503 0.104463
0.184512 0.119554 0.10399
0.219608 0.123522 0.102907
0.262058 0.128054 0.100832
0.312505 0.131365 0.0973373
0.37322 0.131487 0.091722
0.440894 0.127962 0.0795911
0.50396 0.121462 0.0662699
0.563851 0.109178 0.0503395
0.62295 0.0848707 0.0323796
0.671901 0.0521553 0.0226749
0.703807 0.033051 0.0158236
0.7243 0.0260624 0.0114748
0.738262 0.0246586 0.0047303
0.747265 0.0261387 0.000823987
0.753414 0.0292515 0.000137331
0.758099 0.0326085 1.5259e-05
0.761532 0.0353704 0
0.764233 0.0382544 6.10361e-05
0.766415 0.0411383 0.00015259
0.768124 0.0458534 0.000274662
0.769848 0.0525216 0.000396735
0.77171 0.0595254 0.000503548
0.773526 0.0662242 0.000595102
0.0713207 0.105699 0.104616
0.0773785 0.106615 0.104768
0.0844587 0.107912 0.105028
0.0909743 0.109163 0.105211
0.0963912 0.110567 0.105379
0.102251 0.11223 0.105608
0.109071 0.114137 0.105867
0.120363 0.116243 0.10602
0.135531 0.118715 0.106111
0.156481 0.121599 0.10602
0.186587 0.124941 0.105516
0.222202 0.129076 0.104372
0.265217 0.133715 0.102174
0.31635 0.137499 0.0985275
0.377646 0.13814 0.0926528
0.445975 0.135393 0.0803235
0.509483 0.129854 0.0668193
0.569726 0.119188 0.0500649
0.62916 0.0993515 0.0326085
0.677913 0.0729992 0.0222171
0.709529 0.0568551 0.0133059
0.729686 0.0498512 0.00727855
0.743496 0.0484779 0.00297551
0.752651 0.0510414 0.000518807
0.758709 0.0539559 9.15541e-05
0.763439 0.0576791 1.5259e-05
0.766964 0.060853 0
0.769757 0.0642405 3.0518e-05
0.771893 0.0673228 9.15541e-05
0.773831 0.0723583 0.000167849
0.775586 0.0779431 0.000259403
0.777523 0.0838636 0.000320439
0.779477 0.0896773 0.000381476
0.0688182 0.110613 0.106355
0.0756542 0.11162 0.106554
0.0836652 0.112886 0.106783
0.0908064 0.114122 0.10695
0.096437 0.11577 0.107179
0.10251 0.117433 0.107393
0.10959 0.119295 0.107607
0.121187 0.121477 0.107744
0.136751 0.124102 0.10782
0.15819 0.127169 0.107713
0.188769 0.130587 0.107118
0.224948 0.134905 0.105913
0.268666 0.139895 0.103655
0.320439 0.144015 0.099794
0.382376 0.14522 0.0936599
0.451316 0.143221 0.0810712
0.515312 0.138674 0.0673838
0.575967 0.129839 0.0497749
0.635599 0.114382 0.0328374
0.684321 0.0951705 0.0217136
0.715389 0.0812695 0.0106966
0.735241 0.0745403 0.00283818
0.749065 0.0737926 0.00112917
0.758144 0.0765545 0.000198367
0.764324 0.0802014 3.0518e-05
0.768978 0.0836957 0
0.772717 0.0881056 0
0.775616 0.092134 1.5259e-05
0.777935 0.0961624 4.57771e-05
0.779843 0.100145 6.10361e-05
0.781704 0.104799 0.000106813
0.783795 0.109972 0.000122072
0.785809 0.114611 0.00015259
0.065095 0.117418 0.108339
0.0727855 0.118471 0.108507
0.0818799 0.119707 0.108705
0.0897231 0.121035 0.108873
0.0956436 0.122713 0.109071
0.102068 0.124453 0.10927
0.10956 0.126467 0.109499
0.121584 0.12874 0.109606
0.137667 0.131487 0.109651
0.159731 0.134722 0.109483
0.190997 0.138262 0.108812
0.227939 0.142931 0.107515
0.272496 0.148272 0.105089
0.325109 0.15288 0.100984
0.387701 0.15462 0.0944228
0.457404 0.153567 0.0814374
0.522164 0.150423 0.0675975
0.583215 0.143236 0.0490578
0.643168 0.13167 0.0327459
0.691875 0.11812 0.0205234
0.722683 0.10692 0.00755322
0.742351 0.101152 1.5259e-05
0.7561 0.100877 0
0.765164 0.103868 0
0.771435 0.107973 0
0.776104 0.11165 0
0.779843 0.115862 0
0.782727 0.119875 0
0.785214 0.124407 0
0.787274 0.12842 0
0.789227 0.132403 0
0.791302 0.136385 0
0.793271 0.139925 0
0.0595254 0.126986 0.110613
0.0681621 0.128054 0.110704
0.0784772 0.129259 0.110796
0.0871748 0.130816 0.110964
0.0935988 0.132418 0.111101
0.100511 0.13434 0.111299
0.108553 0.136553 0.111528
0.121218 0.138766 0.111559
0.138048 0.141772 0.111559
0.160998 0.145235 0.11133
0.193301 0.149203 0.110613
0.231266 0.154238 0.109148
0.276844 0.159915 0.106432
0.330419 0.165087 0.101991
0.393896 0.16759 0.0947585
0.464439 0.167559 0.0811475
0.530053 0.165896 0.067216
0.591684 0.160494 0.0477607
0.652049 0.151431 0.0320745
0.700938 0.141039 0.0183108
0.731884 0.133104 0.00376898
0.751476 0.129046 0
0.765164 0.129427 0
0.774166 0.13228 0
0.780392 0.136004 0
0.785046 0.139422 0
0.788876 0.143465 0
0.791791 0.147036 0
0.794217 0.150851 0
0.796323 0.154528 0
0.798306 0.158236 0
0.800427 0.161898 0
0.802518 0.165393 0
0.0517891 0.139513 0.113313
0.0613565 0.140627 0.113329
0.0728618 0.141848 0.113313
0.0826429 0.143404 0.113375
0.0897536 0.145327 0.113542
0.0976272 0.147143 0.113664
0.106722 0.149416 0.113848
0.120256 0.15198 0.113848
0.138079 0.155108 0.113771
0.162188 0.158862 0.113451
0.195804 0.163119 0.112627
0.235096 0.168643 0.110918
0.282048 0.175006 0.107851
0.336843 0.18088 0.102937
0.40148 0.184466 0.094667
0.473198 0.185824 0.0803998
0.539605 0.185428 0.065919
0.602075 0.182345 0.0456092
0.662943 0.176135 0.0306401
0.712077 0.169238 0.0148775
0.743069 0.164355 3.0518e-05
0.762737 0.162554 0
0.776349 0.163638 0
0.78529 0.166369 0
0.791302 0.169329 0
0.796109 0.172869 0
0.799771 0.176028 0
0.802869 0.179599 0
0.805341 0.18291 0
0.807477 0.186221 0
0.809506 0.189639 0
0.811673 0.193057 0
0.813809 0.196292 0
0.0380255 0.158495 0.116289
0.047425 0.159808 0.116167
0.0586709 0.161349 0.116014
0.0694591 0.162768 0.115908
0.0788434 0.164858 0.115984
0.0890211 0.167117 0.11606
0.100923 0.169604 0.116136
0.116411 0.172457 0.116045
0.135927 0.175921 0.115846
0.162005 0.179965 0.115343
0.197696 0.184878 0.114229
0.239002 0.190982 0.112139
0.287999 0.19823 0.108568
0.344533 0.20502 0.10277
0.410727 0.209995 0.0918135
0.484047 0.213184 0.0773632
0.55172 0.214557 0.0595407
0.615122 0.213352 0.0403296
0.676768 0.209873 0.0257115
0.72636 0.205341 0.00680552
0.757946 0.203021 1.5259e-05
0.77731 0.201617 0
0.79086 0.203082 0
0.799832 0.206088 0
0.80589 0.209232 0
0.810483 0.212161 0
0.814328 0.215656 0
0.817334 0.218814 0
0.819715 0.221683 0
0.821958 0.225101 0
0.824002 0.228382 0
0.826276 0.231907 0
0.828428 0.235019 0
0.0195315 0.182528 0.120012
0.0254673 0.18381 0.119677
0.0327611 0.185321 0.119265
0.0428779 0.187121 0.11899
0.0570993 0.189288 0.118898
0.0722972 0.191638 0.118807
0.0900893 0.194369 0.1187
0.109087 0.197559 0.118456
0.131563 0.20145 0.11809
0.160815 0.206317 0.117342
0.199435 0.211749 0.115831
0.24358 0.218723 0.113207
0.295323 0.227039 0.108827
0.354223 0.235157 0.101213
0.42237 0.241443 0.0877852
0.49752 0.246189 0.0727703
0.566766 0.249317 0.0508888
0.631769 0.250858 0.0348821
0.694194 0.249393 0.0131685
0.744869 0.247852 0.00164797
0.776532 0.246601 0
0.795972 0.246357 0
0.809476 0.248234 0
0.818326 0.25124 0
0.824338 0.254459 0
0.828992 0.257649 0
0.832715 0.260853 0
0.835721 0.263981 0
0.838178 0.267094 0
0.84033 0.270207 0
0.842374 0.273426 0
0.844541 0.276692 0
0.846677 0.279789 0
0.00367742 0.211597 0.124269
0.00517281 0.212985 0.123766
0.00683604 0.214649 0.12314
0.0141146 0.216617 0.122621
0.0287938 0.218982 0.122255
0.0449531 0.22153 0.121874
0.0636454 0.224369 0.121401
0.0885939 0.228092 0.120897
0.120455 0.232654 0.120241
0.158083 0.238041 0.119127
0.200565 0.244312 0.117098
0.248463 0.252293 0.113695
0.303777 0.261845 0.107698
0.365698 0.271382 0.0969863
0.436454 0.279408 0.0821088
0.513893 0.285924 0.0640574
0.58529 0.291142 0.0418555
0.651926 0.294728 0.0258335
0.715785 0.295583 0.00108339
0.76759 0.296361 1.5259e-05
0.799313 0.295827 0
0.818784 0.296254 0
0.832242 0.298512 0
0.841169 0.302022 0
0.847059 0.305257 0
0.851682 0.308614 0
0.855375 0.31191 0
0.858351 0.315129 0
0.860777 0.318334 0
0.862882 0.321477 0
0.864866 0.324727 0
0.867002 0.328023 0
0.869001 0.330968 0
3.0518e-05 0.247303 0.128527
3.0518e-05 0.249073 0.127916
4.57771e-05 0.251011 0.127184
0.00210575 0.253376 0.126436
0.00756847 0.25565 0.125643
0.0131838 0.258412 0.124788
0.0198825 0.261631 0.123796
0.0509804 0.265629 0.122744
0.0983749 0.270756 0.121477
0.150118 0.276707 0.119677
0.199161 0.284306 0.11693
0.252323 0.29369 0.111879
0.312322 0.304479 0.102327
0.378271 0.316136 0.0883192
0.452323 0.326253 0.0716411
0.532799 0.335088 0.0495155
0.606897 0.342733 0.0312657
0.675731 0.348699 0.00943008
0.741695 0.352239 1.5259e-05
0.794476 0.354726 0
0.826413 0.354879 3.0518e-05
0.845777 0.355459 1.5259e-05
0.859297 0.358175 1.5259e-05
0.868101 0.361639 0
0.874128 0.365454 0
0.878706 0.368902 0
0.882353 0.372259 0
0.885145 0.37528 0
0.88751 0.378485 1.5259e-05
0.88954 0.381643 1.5259e-05
0.891539 0.385092 1.5259e-05
0.893492 0.388159 1.5259e-05
0.895506 0.391333 1.5259e-05
3.0518e-05 0.29041 0.131136
4.57771e-05 0.292515 0.130419
4.57771e-05 0.294499 0.129534
4.57771e-05 0.297246 0.128527
4.57771e-05 0.300191 0.127428
3.0518e-05 0.303365 0.126192
0 0.307073 0.124788
0.0254215 0.311604 0.122835
0.0673686 0.316823 0.120348
0.120912 0.323445 0.117021
0.1897 0.332433 0.112306
0.252628 0.343069 0.103563
0.318486 0.356497 0.0898604
0.38938 0.370275 0.0727703
0.467582 0.382956 0.0522469
0.552071 0.394949 0.0288243
0.629664 0.405905 0.010544
0.701457 0.415091 0
0.76939 0.421088 0
0.822995 0.424552 9.15541e-05
0.855436 0.425528 4.57771e-05
0.874998 0.426596 3.0518e-05
0.888334 0.428916 1.5259e-05
0.897063 0.432334 0
0.902907 0.435767 0
0.907271 0.438804 0
0.910918 0.442237 0
0.913634 0.445075 0
0.915984 0.448356 1.5259e-05
0.918013 0.451606 1.5259e-05
0.919814 0.454673 1.5259e-05
0.921752 0.457801 1.5259e-05
0.923644 0.460807 3.0518e-05
0 0.339422 0.131518
0 0.341833 0.130495
0 0.344518 0.129274
0 0.347539 0.127932
1.5259e-05 0.350805 0.126436
1.5259e-05 0.354681 0.124819
3.0518e-05 0.359167 0.122911
0.0093843 0.363729 0.119585
0.0243687 0.369863 0.114885
0.0678721 0.377493 0.108598
0.169574 0.387579 0.0998093
0.247883 0.400168 0.0874342
0.321691 0.416037 0.0693523
0.398764 0.433219 0.0496071
0.482353 0.449348 0.0232853
0.572076 0.465553 0.00569162
0.654093 0.4804 0
0.728542 0.491844 7.62951e-05
0.798047 0.499352 6.10361e-05
0.85275 0.503853 4.57771e-05
0.886 0.505684 0
0.905516 0.506065 0
0.919158 0.508843 0
0.92781 0.512108 0
0.933516 0.515312 0
0.937835 0.51838 0
0.941344 0.521553 0
0.943908 0.524102 0
0.946029 0.526864 0
0.947906 0.529854 0
0.949462 0.532387 0
0.951263 0.535271 0
0.953048 0.538033 0
0 0.385824 0.130175
0 0.38854 0.128939
0 0.391302 0.127489
0 0.395041 0.125643
0 0.398749 0.1234
0 0.402945 0.120928
1.5259e-05 0.407813 0.118029
0.00421149 0.413382 0.112444
0.0111238 0.420005 0.104524
0.0476997 0.428916 0.095201
0.147524 0.439658 0.0848859
0.236988 0.454353 0.067689
0.322713 0.473045 0.049073
0.406332 0.493095 0.0208438
0.495857 0.513588 0.00224308
0.590707 0.533013 0.000122072
0.676066 0.550103 0
0.752926 0.563668 4.57771e-05
0.824308 0.572946 1.5259e-05
0.880217 0.578271 0
0.914229 0.580591 0
0.934325 0.581445 0
0.947936 0.583871 0
0.95668 0.587411 0
0.962158 0.590143 0
0.966445 0.593194 0
0.969711 0.59585 0
0.972152 0.598169 0
0.974136 0.600671 0
0.975799 0.603143 0
0.977325 0.605692 0
0.978912 0.608072 0
0.980667 0.610849 0
0 0.427176 0.127092
0 0.430121 0.125322
0 0.433234 0.123247
0 0.43711 0.120058
0 0.441474 0.115526
0 0.44593 0.110613
0 0.451392 0.104814
0.00115969 0.457511 0.0994278
0.00317388 0.465049 0.0933852
0.0263371 0.474708 0.0835431
0.0954452 0.486519 0.0670939
0.211109 0.503151 0.0507515
0.322621 0.524269 0.028275
0.412039 0.547784 0.00648508
0.506798 0.571084 0
0.605783 0.593484 1.5259e-05
0.694347 0.612955 4.57771e-05
0.773754 0.628626 0
0.846906 0.63946 0
0.904463 0.64651 0
0.939452 0.649683 0
0.959899 0.65066 0
0.973724 0.653239 0
0.982193 0.656138 0
0.98735 0.65861 0
0.990967 0.660517 0
0.993698 0.662806 0
0.995575 0.664805 0
0.996841 0.666896 0
0.99765 0.668406 0
0.998291 0.670649 0
0.998947 0.672404 0
0.999573 0.674235 0
0 0.468406 0.117754
0 0.471473 0.114931
0 0.475257 0.111482
0 0.479393 0.107927
0 0.48397 0.104295
0 0.489052 0.100343
0 0.495079 0.0957046
7.62951e-05 0.501808 0.0879988
0.000198367 0.51014 0.0776532
0.0151827 0.520775 0.0647746
0.0625467 0.533928 0.0493019
0.189792 0.55227 0.0282444
0.318196 0.576196 0.00807202
0.415167 0.602991 0
0.514855 0.629129 0.000122072
0.617777 0.654276 9.15541e-05
0.709346 0.67599 0
0.791302 0.694194 0
0.866957 0.707637 0
0.926238 0.716457 0
0.962417 0.720958 0
0.983139 0.722576 0
0.994171 0.723812 0
0.998215 0.724376 0
0.999557 0.724819 0
0.999985 0.725475 0
1 0.725841 0
1 0.726619 0
1 0.727733 0
1 0.728649 0
1 0.729854 0
1 0.73106 0
1 0.732204 0
0 0.506096 0.109499
0 0.509422 0.106706
0 0.513329 0.103349
0 0.517754 0.099733
0 0.522835 0.0958419
0 0.528252 0.0916304
0 0.534554 0.0867323
0 0.542031 0.0770733
0 0.551064 0.0636301
0.0126345 0.562524 0.0493172
0.052781 0.577005 0.0363775
0.176959 0.596979 0.0137179
0.310765 0.623224 0.000442512
0.416068 0.652461 0
0.52018 0.680766 3.0518e-05
0.626566 0.70808 0
0.721004 0.732433 0
0.805432 0.753002 0
0.883375 0.768597 0
0.944549 0.779538 0
0.98172 0.785168 0
0.997909 0.785901 0
1 0.783841 0
1 0.782422 0
1 0.781872 0
1 0.781598 0
1 0.781949 0
1 0.782223 0
1 0.782757 0
1 0.783429 0
1 0.784207 0
1 0.785031 0
1 0.785855 0
0 0.530388 0.111711
0 0.533867 0.108843
0 0.537911 0.105409
0 0.542519 0.101564
0 0.547646 0.097261
0 0.553185 0.0925917
0 0.55964 0.0871595
0 0.567315 0.0776379
0 0.576837 0.0646983
0.0110781 0.588678 0.0501106
0.0462959 0.603616 0.0352026
0.166903 0.624308 0.0124666
0.304036 0.651576 0
0.415473 0.68217 6.10361e-05
0.522484 0.711925 3.0518e-05
0.631067 0.740673 0
0.727001 0.766445 0
0.812818 0.78851 0
0.89221 0.805646 0
0.954635 0.818021 0
0.991943 0.824537 0
1 0.823224 0
1 0.820752 0
1 0.819532 0
1 0.81883 0
1 0.81857 0
1 0.818433 0
1 0.818631 0
1 0.818799 0
1 0.819211 0
1 0.819593 0
1 0.819913 0
1 0.820356 0
0 0.546059 0.118837
0 0.549477 0.115969
0 0.553643 0.112642
0 0.558221 0.108949
0 0.563333 0.104891
0 0.568917 0.100603
0 0.575387 0.095552
0 0.583047 0.0856489
0 0.592477 0.0719158
0.010071 0.60441 0.0576944
0.0421302 0.619562 0.0457313
0.160128 0.640284 0.0198978
0.298985 0.667796 0.00227359
0.413931 0.698878 0
0.522316 0.729412 0.000167849
0.631891 0.759106 4.57771e-05
0.728573 0.785641 0
0.815183 0.808621 0
0.895216 0.826825 0
0.958511 0.840238 0
0.995636 0.847425 0
1 0.845441 0
1 0.843336 0
1 0.842268 0
1 0.841596 0
1 0.841138 0
1 0.840894 0
1 0.840864 0
1 0.840848 0
1 0.840986 0
1 0.841123 0
1 0.841245 0
1 0.841352 0
0 0.558312 0.133547
0 0.561715 0.130236
0 0.565774 0.126192
0 0.570291 0.122332
0 0.575387 0.118807
0 0.580896 0.115007
0 0.58732 0.110567
0 0.594842 0.102235
0 0.604089 0.0906691
0.00936904 0.615778 0.0765545
0.0391852 0.630625 0.0596628
0.155795 0.650919 0.0379644
0.295964 0.677791 0.0125124
0.412955 0.708598 0
0.521721 0.739345 0
0.631144 0.769329 9.15541e-05
0.727825 0.796155 3.0518e-05
0.814603 0.819608 0
0.895033 0.838407 0
0.958862 0.852522 0
0.996109 0.860166 0
1 0.858442 0
1 0.856611 0
1 0.855619 0
1 0.854963 0
1 0.854459 0
1 0.85417 0
1 0.853986 0
1 0.85388 0
1 0.853834 0
1 0.853803 0
1 0.853758 0
1 0.853712 0
0 0.567941 0.149966
0 0.571267 0.146853
0 0.57528 0.143099
0 0.579705 0.139055
0 0.58468 0.134829
0 0.590082 0.130282
0 0.596414 0.125063
0 0.603784 0.118212
0 0.612879 0.10956
0.0090486 0.624308 0.0965591
0.0378424 0.63856 0.0756085
0.154116 0.658488 0.0580453
0.294911 0.68455 0.032929
0.41239 0.71429 0.00743114
0.520806 0.744656 1.5259e-05
0.629664 0.774639 0
0.725856 0.801465 4.57771e-05
0.812573 0.825071 0
0.893309 0.844266 0
0.957458 0.858778 0
0.99527 0.866789 0
0.999985 0.865492 0
1 0.863691 0
1 0.862715 0
1 0.862089 0
1 0.861646 0
1 0.86128 0
1 0.861036 0
1 0.860868 0
1 0.8607 0
1 0.860578 0
1 0.860441 0
1 0.860304 0
0 0.576272 0.167926
0 0.579553 0.165759
0 0.583444 0.163073
0 0.587777 0.159625
0 0.592599 0.155123
0 0.597833 0.150195
0 0.603922 0.144472
0 0.611139 0.137652
0 0.620035 0.129244
0.00927749 0.631144 0.117372
0.0387579 0.644907 0.0995804
0.155764 0.664164 0.0783703
0.296437 0.689479 0.056672
0.412787 0.718029 0.0306706
0.519905 0.747051 0.00570687
0.627634 0.776486 0
0.723064 0.803159 0
0.80943 0.826795 0
0.890227 0.846143 0
0.954498 0.860883 1.5259e-05
0.993149 0.869245 1.5259e-05
0.999985 0.868772 0
0.999985 0.866972 0
1 0.865995 0
1 0.865339 0
1 0.864866 0
1 0.864485 0
1 0.864179 0
1 0.863951 0
1 0.863752 0
1 0.863569 0
1 0.863371 0
1 0.863172 0
0 0.584634 0.186557
0 0.587854 0.184894
0 0.591714 0.182971
0 0.595895 0.18027
0 0.600595 0.176806
0 0.605661 0.172992
0 0.611582 0.168643
0 0.618631 0.162219
0 0.627192 0.153414
0.0100099 0.637919 0.142168
0.0418708 0.651255 0.127428
0.160861 0.669718 0.105989
0.300679 0.694102 0.0822309
0.414527 0.721492 0.0591745
0.519829 0.748913 0.0273899
0.62565 0.776959 0.00830091
0.719799 0.802945 0.00115969
0.8056 0.826398 3.0518e-05
0.886152 0.845838 1.5259e-05
0.950378 0.8607 3.0518e-05
0.989837 0.869383 1.5259e-05
0.999741 0.869902 4.57771e-05
0.999985 0.868223 9.15541e-05
1 0.867247 7.62951e-05
1 0.866575 7.62951e-05
1 0.866056 7.62951e-05
1 0.865644 7.62951e-05
1 0.865293 7.62951e-05
1 0.865034 7.62951e-05
1 0.86479 7.62951e-05
1 0.864561 7.62951e-05
1 0.864317 7.62951e-05
1 0.864073 7.62951e-05
0 0.592859 0.2047
0 0.596017 0.203357
0 0.599786 0.201724
0 0.603952 0.199786
0 0.608591 0.197436
0 0.613596 0.194903
0 0.61941 0.191959
0 0.626184 0.187015
0 0.63447 0.18027
0.0110323 0.644816 0.17026
0.0461891 0.65771 0.154528
0.167987 0.675502 0.138262
0.306523 0.698741 0.112215
0.417273 0.724971 0.0854658
0.520714 0.751141 0.063447
0.624186 0.777218 0.0281987
0.716609 0.801953 0.0059968
0.801465 0.824887 0.00131228
0.881621 0.844358 0.000228885
0.945602 0.859251 1.5259e-05
0.985718 0.868162 1.5259e-05
0.999069 0.869734 0.000137331
0.999985 0.86836 0.000274662
1 0.867353 0.000244144
1 0.866682 0.000228885
1 0.866163 0.000213626
1 0.865675 0.000213626
1 0.865309 0.000213626
1 0.865003 0.000228885
1 0.864729 0.000228885
1 0.864469 0.000228885
1 0.864179 0.000244144
1 0.863905 0.000244144
0 0.601114 0.222629
0 0.604318 0.221653
0 0.607919 0.219989
0 0.611994 0.218311
0 0.616602 0.216541
0 0.621439 0.214252
0 0.627085 0.211612
0 0.633768 0.207965
0 0.641917 0.202991
0.0121004 0.651926 0.195178
0.05066 0.664485 0.183581
0.176303 0.681743 0.1691
0.31429 0.704082 0.148379
0.421576 0.729 0.122988
0.52285 0.753902 0.0965591
0.624018 0.778531 0.0648966
0.714336 0.801526 0.0404212
0.797604 0.823087 0.0193179
0.876356 0.841428 0.0037232
0.939849 0.856031 0.000167849
0.980117 0.86508 0.000122072
0.997391 0.867826 0.00015259
1 0.867018 0.000183108
1 0.866026 0.000137331
1 0.865339 0.000106813
1 0.864805 7.62951e-05
1 0.864332 7.62951e-05
1 0.863966 7.62951e-05
1 0.86363 9.15541e-05
1 0.863325 0.000106813
1 0.863035 0.000122072
1 0.86273 0.000137331
1 0.862409 0.00015259
0 0.608713 0.23856
0 0.611765 0.237507
0 0.615396 0.236255
0 0.61941 0.234775
0 0.62388 0.233158
0 0.628611 0.231144
0 0.63418 0.228931
0 0.640665 0.225803
0 0.6486 0.221729
0.0130159 0.658473 0.215808
0.0543984 0.670695 0.206821
0.183856 0.68751 0.19469
0.321645 0.709148 0.17847
0.425956 0.733074 0.156115
0.5252 0.756832 0.128573
0.624353 0.780285 0.0993057
0.71281 0.801907 0.0743572
0.794568 0.822171 0.0443427
0.872099 0.839551 0.0204623
0.934936 0.853651 0.0122988
0.975128 0.862486 0.00985733
0.995239 0.86598 0.00808728
0.999771 0.865705 0.0059205
1 0.864683 0.00257877
1 0.863935 0.000457771
1 0.863386 6.10361e-05
1 0.862913 6.10361e-05
1 0.862516 4.57771e-05
1 0.862181 3.0518e-05
1 0.861875 0.000854505
1 0.86157 0.00225834
1 0.861265 0.0034638
1 0.860975 0.00450141
0 0.61561 0.252354
0 0.618631 0.251438
0 0.622324 0.250568
0 0.626261 0.249271
0 0.630503 0.247471
0 0.635187 0.245747
0 0.640696 0.243885
0 0.646998 0.240848
0 0.654795 0.23714
