luts/BMP4K Neatural.cube
TITLE "Generated by Resolve"
LUT_3D_SIZE 33
0 0.00112917 0.0170596
0.00422675 0 0.0145418
0.0192111 0 0.0119326
0.0335851 3.0518e-05 0.00962844
0.0480354 0.000457771 0.00727855
0.0618906 0.000808728 0.00451667
0.0753948 0.00114443 0.00158694
0.0890364 0.00148013 0.00148013
0.102663 0.00155642 0.00155642
0.11664 0.00144961 0.00144961
0.131273 0.0012665 0.0012665
0.1467 0.000701915 0.000701915
0.163195 0 0
0.181338 0 0
0.201526 0 0
0.223316 0 0
0.246113 0 0
0.269291 0 0
0.293034 0 0
0.317464 0 0
0.342153 0 0
0.367437 0 0
0.393484 0 0
0.419944 0 0
0.446921 0 0
0.474495 0 0
0.502327 0 0
0.530571 0 0
0.559503 0 0
0.588769 0 0
0.618921 0 0
0.649851 0 0
0.680964 0 0
0 0.0149233 0.0132448
0.00549325 0.0135348 0.0102083
0.0204318 0.0120089 0.00820935
0.0347601 0.0108034 0.00584421
0.0489357 0.00933852 0.00320439
0.0626841 0.00790417 0.000915541
0.0761578 0.0062562 0.00122072
0.0897231 0.00436408 0.00154116
0.103426 0.00230411 0.00172427
0.117159 0.00144961 0.00144961
0.131777 0.00123598 0.00123598
0.14725 0.000686656 0.000686656
0.16376 0 0
0.181903 0 0
0.20209 0 0
0.223896 0 0
0.246769 0 0
0.270024 0 0
0.293782 0 0
0.318135 0 0
0.343023 0 0
0.368414 0 0
0.394491 0 0
0.420996 0 0
0.44799 0 0
0.475593 0 0
0.503288 0 0
0.532418 0 0
0.56257 0 0
0.592889 0 0
0.623468 0 0
0.654093 0 0
0.68603 0 0
0.00015259 0.0284123 0.00973526
0.00657664 0.026978 0.00704967
0.0216068 0.0256657 0.00331121
0.035462 0.0241093 0.00181582
0.049424 0.0226444 0.000213626
0.0629282 0.0212253 0.000488289
0.0762341 0.0194858 0.000610361
0.0897383 0.0176547 0.000900282
0.103288 0.0155337 0.000976577
0.117235 0.0130159 0.00102235
0.131945 0.010193 0.000839246
0.147555 0.00688182 0.000411994
0.164385 0.00296025 0
0.182513 0 0
0.202655 0 0
0.224552 0 0
0.247471 0 0
0.270817 0 0
0.294484 0 0
0.319036 0 0
0.343969 0 0
0.369421 0 0
0.395529 0 0
0.422034 0 0
0.449439 0 0
0.477867 0 0
0.507103 0 0
0.536767 0 0
0.566674 0 0
0.59823 0 0
0.630335 0 0
0.663249 0 0
0.696895 0 0
0.000411994 0.0412909 0.00607309
0.00769055 0.0399939 0.00328069
0.0225834 0.0386358 0.000244144
0.0367285 0.0373846 6.10361e-05
0.0501259 0.0358434 0.000228885
0.063447 0.0342565 0.000289921
0.0766613 0.0326848 0.000381476
0.090013 0.0308537 0.000534066
0.103288 0.0286564 0.000396735
0.117174 0.0262303 0.000350958
0.131701 0.0234226 1.5259e-05
0.147158 0.0200809 0
0.16376 0.0161135 0
0.181994 0.0115511 0
0.202533 0.00610361 0
0.224887 0 0
0.248157 0 0
0.271565 0 0
0.295384 0 0
0.319982 0 0
0.344961 0 0
0.37055 0 0
0.397391 0 0
0.424811 0 0
0.452949 0 0
0.482048 0 0
0.5122 0 0
0.543435 0 0
0.575311 0 0
0.608209 0 0
0.641794 0 0
0.675898 0 0
0.710399 0 0
0.000732433 0.0542763 0.00199893
0.00909438 0.0530251 0.00062562
0.0236057 0.0515297 0.000289921
0.0378576 0.0504311 0.000244144
0.0513771 0.0492103 0.000122072
0.0643015 0.0476539 0.000244144
0.0773785 0.046128 0.000335698
0.0903792 0.0443732 0.000244144
0.103716 0.0424659 0.000244144
0.117464 0.040238 0
0.131838 0.0374456 0
0.147204 0.034287 0
0.163729 0.0305486 0
0.181994 0.0260319 0
0.202457 0.0206302 0
0.224613 0.0145113 0
0.247684 0.00784314 0
0.271473 0.00062562 0
0.295918 0 0
0.321492 0 0
0.347494 0 0
0.373922 0 0
0.401236 0 0
0.43003 0 0
0.459403 0 0
0.489998 0 0
0.521492 0 0
0.554116 0 0
0.587182 0 0
0.620966 0 0
0.655512 0 0
0.690669 0 0
0.726299 0 0
0.0010071 0.0668345 0.0010071
0.0105287 0.0656748 0.00077821
0.024918 0.0642557 0.000427253
0.0387427 0.0631723 0.000396735
0.052491 0.0620737 0.000259403
0.0656901 0.0609293 0.000289921
0.0781415 0.0592355 0.000259403
0.0910201 0.0576638 0.000198367
0.104219 0.0557412 0
0.117891 0.0536812 0
0.132326 0.0512093 0
0.147616 0.048188 0
0.164172 0.0446632 0
0.182361 0.0404974 0
0.202655 0.0354925 0
0.224964 0.0296178 0
0.248341 0.0230869 0
0.272618 0.0158389 0
0.297673 0.00790417 0
0.323674 0 0
0.350958 0 0
0.379538 0 0
0.408515 0 0
0.438361 0 0
0.468986 0 0
0.500755 0 0
0.533257 0 0
0.566583 0 0
0.600671 0 0
0.635599 0 0
0.671 0 0
0.706645 0 0
0.742596 0 0
0.00108339 0.0792554 0.00108339
0.01178 0.0779889 0.000656138
0.0260929 0.0768139 0.00047303
0.0397192 0.0756237 0.000274662
0.053254 0.0746014 0.00030518
0.0664836 0.0736248 0.000198367
0.0794385 0.0724041 0.000274662
0.0920272 0.0706951 0.000213626
0.105074 0.0689708 1.5259e-05
0.118776 0.0670329 0
0.133013 0.0646525 0
0.14847 0.0619211 0
0.165057 0.0587015 0
0.183383 0.0547189 0
0.204288 0.0497902 0
0.227344 0.0442054 0
0.251652 0.038056 0
0.276661 0.0313878 0
0.302602 0.0239872 0
0.329564 0.0157931 0
0.357321 0.00671397 0
0.386587 0 0
0.416526 0 0
0.448173 0 0
0.480507 0 0
0.512963 0 0
0.54638 0 0
0.580606 0 0
0.615335 0 0
0.650675 0 0
0.686549 0 0
0.722469 0 0
0.758648 0 0
0.000839246 0.0915236 0.000839246
0.0129549 0.0903944 0.000503548
0.0273289 0.0892805 0.000320439
0.0408331 0.0881819 0.000167849
0.054139 0.0871901 0.000183108
0.0670939 0.0862135 0.00015259
0.0803693 0.0851911 0.000122072
0.0933394 0.0838788 0.00015259
0.106294 0.0822156 0.000106813
0.119722 0.080293 0
0.134096 0.0782025 0
0.149783 0.0757458 0
0.167071 0.072694 0
0.186465 0.0691081 0
0.20856 0.0645762 0
0.232334 0.059266 0
0.257527 0.0534981 0
0.283513 0.0471504 0
0.31017 0.0401617 0
0.337896 0.0322728 0
0.366461 0.0234836 0
0.396094 0.0135042 0
0.426719 0.00233463 0
0.458305 0 0
0.49131 0 0
0.525643 0 0
0.560159 0 0
0.594766 0 0
0.630045 0 0
0.665675 0 0
0.701625 0 0
0.737667 0 0
0.773861 0 0
0.000366217 0.103899 0.000366217
0.0141299 0.102861 7.62951e-05
0.028336 0.101732 0
0.0417639 0.100877 0
0.054902 0.0999161 0
0.0679942 0.0990616 1.5259e-05
0.0809644 0.0981003 0
0.0944533 0.0972763 9.15541e-05
0.107637 0.0959335 0
0.121584 0.0944381 0
0.136309 0.0925765 0
0.152743 0.0904097 0
0.170901 0.0876631 0
0.19144 0.0843214 0
0.214633 0.0800793 0
0.239445 0.0749828 0
0.265232 0.0694743 0
0.292012 0.0633402 0
0.319478 0.0565499 0
0.347967 0.0488136 0
0.377279 0.0402991 0
0.407538 0.0306706 0
0.438758 0.0196841 0
0.470863 0.00732433 0
0.503655 0 0
0.537667 0 0
0.572717 0 0
0.608865 0 0
0.644404 0 0
0.68014 0 0
0.716121 0 0
0.752056 0 0
0.788067 0 0
0.000198367 0.11667 0
0.0151827 0.115648 0
0.0292668 0.114717 0
0.0425727 0.113909 0
0.0557565 0.113329 0
0.0687572 0.112688 0
0.0819562 0.1122 0
0.0955673 0.111513 0
0.110018 0.11104 0
0.12459 0.109941 0
0.13994 0.108446 0
0.157 0.106554 0
0.175906 0.10399 0
0.197589 0.100649 0
0.221866 0.0964218 0
0.247486 0.0915084 0
0.274083 0.0861982 0
0.301701 0.0802625 0
0.329793 0.0735332 0
0.358984 0.0661479 0
0.389258 0.0577554 0
0.420172 0.0483864 0
0.451987 0.0379034 0
0.484367 0.025864 0
0.517571 0.012253 0
0.551217 0 0
0.585504 0 0
0.620783 0 0
0.657588 0 0
0.69308 0 0
0.729 0 0
0.764752 0 0
0.800427 0 0
0.000762951 0.13022 0
0.0156863 0.129305 0
0.030045 0.128725 0
0.0434119 0.128405 0
0.0565499 0.128206 0
0.0699016 0.128222 0
0.0834211 0.128038 0
0.0973373 0.12781 0
0.112154 0.12752 0
0.127993 0.12694 0
0.144228 0.125795 0
0.161837 0.123949 0
0.181689 0.121553 0
0.204471 0.118288 0
0.229831 0.114092 0
0.256184 0.109453 0
0.283742 0.104295 0
0.311788 0.0984665 0
0.341115 0.0920424 0
0.371221 0.0848707 0
0.402182 0.0768139 0
0.43386 0.0677043 0
0.46595 0.057496 0
0.498695 0.0458991 0
0.53196 0.0329137 0
0.565515 0.0181277 0
0.599634 0.000900282 0
0.633616 0 0
0.668574 0 0
0.704829 0 0
0.740566 0 0
0.775937 0 0
0.811292 0 0
0.000579843 0.145464 0
0.0159152 0.145037 0
0.0303349 0.144991 0
0.0438087 0.145068 0
0.0573587 0.145235 0
0.070985 0.145541 0
0.0848402 0.145693 0
0.0992599 0.145846 0
0.114305 0.145785 0
0.13051 0.145342 0
0.148287 0.144656 0
0.167041 0.143114 0
0.187915 0.140734 0
0.211872 0.137652 0
0.238117 0.133623 0
0.265309 0.129366 0
0.29369 0.124346 0
0.322698 0.118883 0
0.353017 0.112718 0
0.383688 0.105791 0
0.415183 0.0979782 0
0.447578 0.08925 0
0.480446 0.0793927 0
0.51368 0.0684672 0
0.547219 0.055848 0
0.58088 0.0417334 0
0.61442 0.0255436 0
0.647959 0.00675975 0
0.681468 0 0
0.714992 0 0
0.750027 0 0
0.78558 0 0
0.82034 0 0
0 0.163119 0
0.0150759 0.163012 0
0.0299992 0.163333 0
0.0436713 0.163821 0
0.057557 0.164477 0
0.0713817 0.164965 0
0.0854353 0.165423 0
0.100343 0.165942 0
0.115984 0.16614 0
0.132708 0.166094 0
0.151278 0.165682 0
0.17203 0.164797 0
0.194278 0.162463 0
0.219318 0.159518 0
0.246464 0.155795 0
0.274556 0.151934 0
0.303807 0.147265 0
0.333913 0.142229 0
0.364614 0.1364 0
0.396429 0.12987 0
0.428779 0.12253 0
0.46183 0.114244 0
0.495491 0.104814 0
0.529137 0.0942397 0
0.563012 0.0821698 0
0.596841 0.0687114 0
0.630198 0.0530861 0
0.663203 0.0354009 0
0.69604 0.0152895 0
0.728222 0 0
0.760037 0 0
0.793103 0 0
0.827771 0 0
0 0.183429 0
0.0128328 0.18352 0
0.027985 0.184222 0
0.0419165 0.185092 0
0.0560159 0.186252 0
0.0702068 0.187182 0
0.0847486 0.188022 0
0.0999619 0.1888 0
0.11632 0.189425 0
0.133822 0.189761 0
0.153307 0.189746 0
0.175097 0.189227 0
0.200351 0.187808 0
0.226307 0.184985 0
0.254322 0.181674 0
0.283406 0.178134 0
0.313542 0.174044 0
0.344701 0.169558 0
0.37644 0.164233 0
0.409354 0.158297 0
0.442496 0.151476 0
0.476204 0.143587 0
0.510552 0.134752 0
0.545098 0.124666 0
0.5794 0.113237 0
0.613779 0.100435 0
0.647227 0.0855116 0
0.680507 0.0685435 0
0.712474 0.0492714 0
0.74403 0.0276646 0
0.774258 0.002533 0
0.803922 0 0
0.834409 0 0
0 0.206409 0
0.00917067 0.207034 0
0.0243687 0.208194 0
0.0385138 0.209461 0
0.0529793 0.211032 0
0.0675669 0.212558 0
0.0827497 0.213993 0
0.0985885 0.215228 0
0.115755 0.216373 0
0.134234 0.217121 0
0.154559 0.217548 0
0.177905 0.217639 0
0.204211 0.21677 0
0.233265 0.215305 0
0.261784 0.212497 0
0.291279 0.20911 0
0.322423 0.205524 0
0.35407 0.201328 0
0.38703 0.196704 0
0.420462 0.191058 0
0.454719 0.184848 0
0.48954 0.177661 0
0.524956 0.169329 0
0.560342 0.159915 0
0.595514 0.149203 0
0.630289 0.136995 0
0.66508 0.122957 0
0.698787 0.107286 0
0.731456 0.0892195 0
0.7626 0.0686503 0
0.792447 0.044892 0
0.820386 0.0175631 0
0.847547 0 0
0 0.232136 0
0.00552377 0.233371 0
0.0208743 0.235203 0
0.0354314 0.237003 0
0.0501869 0.239002 0
0.0654002 0.241169 0
0.0813306 0.243305 0
0.0981765 0.245243 0
0.116304 0.247181 0
0.135744 0.248478 0
0.157061 0.249287 0
0.181537 0.249729 0
0.208774 0.24921 0
0.23859 0.248173 0
0.269612 0.246845 0
0.299413 0.244099 0
0.330526 0.240543 0
0.362646 0.236866 0
0.395819 0.232471 0
0.429786 0.227298 0
0.464271 0.221546 0
0.499306 0.214664 0
0.535256 0.206958 0
0.571328 0.198245 0
0.607446 0.188312 0
0.643565 0.17702 0
0.679423 0.164141 0
0.714763 0.149828 0
0.748714 0.133272 0
0.781872 0.114382 0
0.813016 0.092668 0
0.841871 0.0674296 0
0.868528 0.0376898 0
0 0.260533 0
0.00364691 0.262623 0
0.0192416 0.265217 0
0.0343786 0.267872 0
0.0496986 0.270558 0
0.0656138 0.273365 0
0.0821241 0.275883 0
0.0996262 0.27837 0
0.118364 0.280705 0
0.138857 0.282673 0
0.16112 0.283864 0
0.186358 0.284184 0
0.214527 0.284031 0
0.244602 0.283055 0
0.275624 0.28191 0
0.30779 0.280568 0
0.338613 0.277256 0
0.370779 0.273747 0
0.403693 0.269459 0
0.437644 0.264881 0
0.472084 0.259373 0
0.507469 0.253361 0
0.543099 0.246525 0
0.57882 0.238422 0
0.615488 0.229404 0
0.652033 0.219196 0
0.688426 0.207568 0
0.72549 0.194369 0
0.761334 0.17908 0
0.796719 0.161913 0
0.830488 0.141787 0
0.862776 0.119203 0
0.891875 0.0925612 0
0 0.292821 0
0.00422675 0.295338 0
0.0200504 0.298634 0
0.0353094 0.301823 0
0.0511177 0.304997 0
0.0674449 0.308156 0
0.0846265 0.311299 0
0.102556 0.313939 0
0.121599 0.316289 0
0.142657 0.318456 0
0.165484 0.319677 0
0.191485 0.319966 0
0.219959 0.319631 0
0.250355 0.319005 0
0.281346 0.317937 0
0.31368 0.316579 0
0.346654 0.314946 0
0.378149 0.311467 0
0.411353 0.307683 0
0.444724 0.303273 0
0.47953 0.298436 0
0.514687 0.293019 0
0.549981 0.28658 0
0.586236 0.279576 0
0.622568 0.27155 0
0.659144 0.262425 0
0.696132 0.251865 0
0.732815 0.239994 0
0.769451 0.226261 0
0.805875 0.210346 0
0.841962 0.192432 0
0.877028 0.171725 0
0.91046 0.14757 0
0 0.328054 0
0.00706493 0.33106 0
0.0224155 0.334417 0
0.0378424 0.337957 0
0.0538033 0.341253 0
0.0702678 0.344396 0
0.0877241 0.347646 0
0.105959 0.350362 0
0.125444 0.352728 0
0.146685 0.354726 0
0.170367 0.35613 0
0.19675 0.356588 0
0.225727 0.356176 0
0.256046 0.355779 0
0.287037 0.354849 0
0.319219 0.353567 0
0.352422 0.352392 0
0.385977 0.350286 0
0.418372 0.346716 0
0.45211 0.342718 0
0.486305 0.338323 0
0.521218 0.333196 0
0.557076 0.327535 0
0.59292 0.321035 0
0.629175 0.313756 0
0.665995 0.305501 0
0.702785 0.296147 0
0.739818 0.285481 0
0.776638 0.273228 0
0.813306 0.259266 0
0.849851 0.243427 0
0.885588 0.224781 0
0.920928 0.203433 0
0 0.364904 0
0.0106966 0.368048 0
0.025742 0.371374 0
0.0408484 0.374777 0
0.0569009 0.378317 0
0.0734417 0.381521 0
0.0907607 0.384634 0
0.109529 0.38761 0
0.129381 0.38996 0
0.15108 0.39176 0
0.175616 0.39324 0
0.202533 0.393668 0
0.231662 0.393469 0
0.261692 0.393133 0
0.292973 0.392432 0
0.324849 0.391424 0
0.357794 0.390311 0
0.391775 0.388754 0
0.425742 0.386526 0
0.459159 0.383001 0
0.493111 0.378698 0
0.52813 0.374212 0
0.563424 0.368856 0
0.59942 0.363134 0
0.636088 0.356619 0
0.672465 0.349081 0
0.709438 0.340581 0
0.746349 0.331075 0
0.783215 0.320241 0
0.820203 0.307774 0
0.856931 0.293843 0
0.892912 0.277485 0
0.928862 0.258717 0
0 0.402197 0
0.0147555 0.405676 0
0.0294652 0.40914 0
0.0444038 0.412512 0
0.0605478 0.416098 0
0.0771038 0.419364 0
0.0946517 0.422354 0
0.113634 0.425422 0
0.133761 0.427817 0
0.155993 0.429618 0
0.180987 0.430625 0
0.208606 0.431403 0
0.237842 0.431266 0
0.267689 0.430991 0
0.298894 0.430747 0
0.330602 0.429938 0
0.363409 0.428748 0
0.397131 0.427665 0
0.431556 0.426001 0
0.466148 0.42356 0
0.499962 0.419974 0
0.534707 0.415518 0
0.569909 0.410971 0
0.606119 0.405692 0
0.642161 0.399634 0
0.679072 0.392966 0
0.715846 0.385519 0
0.752758 0.37705 0
0.789715 0.367178 0
0.826566 0.356191 0
0.863478 0.343801 0
0.899687 0.329381 0
0.935531 0.312764 0
0.00363165 0.440513 0
0.0189517 0.443946 0
0.0337835 0.447578 0
0.0487678 0.450965 0
0.064622 0.454276 0
0.0815747 0.457725 0
0.0992905 0.46067 0
0.118273 0.463432 0
0.138949 0.466087 0
0.161608 0.467887 0
0.187106 0.468925 0
0.215045 0.469673 0
0.24416 0.469718 0
0.274067 0.469581 0
0.305196 0.469551 0
0.336797 0.46894 0
0.369146 0.468086 0
0.402548 0.467063 0
0.437034 0.465736 0
0.471916 0.464012 0
0.507332 0.461707 0
0.54136 0.45771 0
0.576822 0.453437 0
0.612161 0.448539 0
0.648707 0.443198 0
0.684977 0.437095 0
0.721736 0.430304 0
0.758801 0.42269 0
0.795712 0.414145 0
0.832792 0.404349 0
0.869459 0.393271 0
0.905821 0.380575 0
0.941894 0.365988 0
0.00917067 0.479454 0
0.0238193 0.482704 0
0.0389868 0.486473 0
0.054139 0.489815 0
0.0699626 0.493156 0
0.0869001 0.496605 0
0.104631 0.499565 0
0.123659 0.502251 0
0.144854 0.504891 0
0.167956 0.5066 0
0.193759 0.507683 0
0.221683 0.508354 0
0.250767 0.508751 0
0.280613 0.508766 0
0.31133 0.508812 0
0.343084 0.508492 0
0.375219 0.507881 0
0.408377 0.506905 0
0.442542 0.506004 0
0.47744 0.504463 0
0.512993 0.502861 0
0.548394 0.500298 0
0.583047 0.496193 0
0.61886 0.491905 0
0.654658 0.487037 0
0.691112 0.481498 0
0.727825 0.475532 0
0.764446 0.468482 0
0.80148 0.460777 0
0.838254 0.452155 0
0.875059 0.442344 0
0.911604 0.431128 0
0.947677 0.418372 0
0.0152285 0.518822 0
0.0298161 0.522087 0
0.0448768 0.525597 0
0.0602121 0.52929 0
0.0758679 0.53254 0
0.0925765 0.535744 0
0.110597 0.53901 0
0.129809 0.541665 0
0.150973 0.543877 0
0.175006 0.54583 0
0.201068 0.546944 0
0.228687 0.54757 0
0.257725 0.548287 0
0.287404 0.548486 0
0.317739 0.548531 0
0.349462 0.548547 0
0.381552 0.548089 0
0.414527 0.547387 0
0.448478 0.546715 0
0.482902 0.545449 0
0.518029 0.543923 0
0.554437 0.542412 0
0.589883 0.539513 0
0.625208 0.535637 0
0.660777 0.531029 0
0.697124 0.526253 0
0.733394 0.5205 0
0.77023 0.514488 0
0.807126 0.507637 0
0.843931 0.499825 0
0.880354 0.49102 0
0.916762 0.481193 0
0.953094 0.469917 0
0.0217594 0.558465 0
0.0369116 0.562112 0
0.051957 0.565667 0
0.0669871 0.569146 0
0.0826276 0.572549 0
0.0991989 0.575692 0
0.117403 0.578912 0
0.136858 0.581537 0
0.158267 0.583749 0
0.182666 0.585565 0
0.208789 0.586618 0
0.236378 0.587381 0
0.265187 0.588251 0
0.294591 0.588647 0
0.324666 0.58883 0
0.356069 0.588968 0
0.388144 0.588708 0
0.420768 0.588205 0
0.454673 0.587686 0
0.48864 0.586755 0
0.523751 0.585412 0
0.559503 0.58407 0
0.596002 0.5823 0
0.631632 0.579293 0
0.66717 0.575341 0
0.703059 0.570825 0
0.73933 0.565866 0
0.775952 0.560464 0
0.81239 0.554101 0
0.849165 0.547265 0
0.88574 0.53959 0
0.922179 0.530922 0
0.958221 0.52108 0
0.0297398 0.599008 0
0.0449989 0.602762 0
0.0598764 0.606332 0
0.0744793 0.609598 0
0.0901503 0.613077 0
0.10663 0.616144 0
0.124712 0.619211 0
0.144564 0.621851 0
0.166537 0.623896 0
0.190936 0.625544 0
0.217288 0.626734 0
0.244556 0.627558 0
0.273091 0.628611 0
0.30219 0.629099 0
0.332158 0.629435 0
0.362997 0.629664 0
0.394965 0.629694 0
0.427283 0.629328 0
0.460868 0.628901 0
0.495079 0.628138 0
0.529473 0.627161 0
0.565026 0.625834 0
0.601144 0.624552 0
0.637644 0.622736 0
0.673793 0.619821 0
0.709209 0.615579 0
0.745312 0.6112 0
0.781384 0.606058 0
0.817899 0.600626 0
0.854475 0.594568 0
0.890684 0.587427 0
0.926833 0.579828 0
0.963027 0.571176 0
0.0393225 0.64033 0
0.0537881 0.643717 0
0.0686198 0.647471 0
0.0830549 0.650706 0
0.0984665 0.654047 0
0.115236 0.657053 0
0.133242 0.659724 0
0.153384 0.66247 0
0.175769 0.664317 0
0.200229 0.665736 0
0.22649 0.667155 0
0.253376 0.668147 0
0.281239 0.668925 0
0.310369 0.669841 0
0.340047 0.670268 0
0.370443 0.670558 0
0.402213 0.670878 0
0.434501 0.670649 0
0.467308 0.670222 0
0.501472 0.669856 0
0.535821 0.669001 0
0.570718 0.667903 0
0.606836 0.666865 0
0.642924 0.665278 0
0.679469 0.663478 0
0.715694 0.66041 0
0.751308 0.656397 0
0.787167 0.651759 0
0.823468 0.646967 0
0.85948 0.64126 0
0.895827 0.635264 0
0.932052 0.628489 0
0.967605 0.620706 0
0.0497292 0.6822 0
0.0637827 0.68542 0
0.078294 0.688945 0
0.0926223 0.692149 0
0.107897 0.695109 0
0.124651 0.698253 0
0.14287 0.700786 0
0.16347 0.70309 0
0.186099 0.704997 0
