luts/BMP4K Neatural.cube
TITLE "Generated by Resolve"
LUT_3D_SIZE 5
0 0.00112917 0.0170596
0.102663 0.00155642 0.00155642
0.246113 0 0
0.446921 0 0
0.680964 0 0
0.000366217 0.103899 0.000366217
0.107637 0.0959335 0
0.265232 0.0694743 0
0.503655 0 0
0.788067 0 0
0 0.260533 0
0.118364 0.280705 0
0.338613 0.277256 0
0.615488 0.229404 0
0.891875 0.0925612 0
0.0217594 0.558465 0
0.158267 0.583749 0
0.388144 0.588708 0
0.66717 0.575341 0
0.958221 0.52108 0
0.119722 0.893568 0
0.254826 0.909072 0
0.459571 0.917815 0
0.718425 0.917525 0
0.972396 0.903761 0
0.000534066 0.00291447 0.144427
0.0806439 0.00148013 0.132219
0.226719 0 0.0995956
0.436347 0 0.0186465
0.679377 0 0
0 0.104204 0.123919
0.0860304 0.0971389 0.111528
0.252262 0.0731365 0.0755627
0.503929 0 0
0.794797 0 0
0 0.26717 0.0522469
0.0982528 0.286687 0.045304
0.325841 0.283604 0
0.610468 0.234974 0
0.893324 0.0973678 0
0 0.553567 0
0.132067 0.585641 0
0.373114 0.593561 0
0.662379 0.58085 0
0.957916 0.526085 0
0.0902876 0.892989 0
0.230488 0.912383 0
0.446586 0.922087 0
0.713588 0.921935 0
0.972488 0.907591 0
0 0 0.339513
0.022034 0 0.328939
0.183642 0 0.304997
0.411429 0 0.238895
0.677638 0 0.106371
0 0.099443 0.323323
0.0299687 0.0937057 0.320851
0.213367 0.0743725 0.30808
0.489891 0 0.228748
0.796002 0 0.0332952
0 0.275471 0.31104
0.0363165 0.286473 0.315755
0.289906 0.2972 0.314015
0.604227 0.251789 0.235019
0.891524 0.103426 0.00514229
0 0.563424 0.212253
0.078645 0.593484 0.226017
0.34789 0.612314 0.19144
0.650935 0.591669 0.00277714
0.952499 0.532891 0
0.00614939 0.877501 0
0.159869 0.911757 0
0.411124 0.925643 0
0.699107 0.927321 0
0.972457 0.914885 0
0 0 0.568353
0 0 0.562554
0.104417 0 0.55523
0.359426 0 0.516808
0.655756 0 0.449454
0 0.0928511 0.568185
0 0.0879225 0.582101
0.121462 0.0732128 0.600412
0.439765 0 0.564889
0.769894 0 0.469276
0 0.279866 0.624231
0 0.27863 0.631144
0.169284 0.299107 0.66186
0.552728 0.258045 0.638941
0.881804 0.117311 0.53756
0 0.568307 0.606256
0 0.570275 0.60557
0.224384 0.615106 0.644755
0.606561 0.60528 0.620981
0.95111 0.554177 0.526604
0 0.881636 0.495979
0.00709545 0.902449 0.508553
0.321096 0.947173 0.534264
0.673793 0.95024 0.45864
0.980529 0.931838 0.0642863
0 0 0.806546
0 0 0.807355
0 0 0.809644
0.242649 0 0.805982
0.606867 0 0.771298
0 0.0891737 0.829984
0 0.0841077 0.859007
0 0.0679332 0.894743
0.305745 0 0.896422
0.713008 0 0.836194
0 0.287221 0.933257
0 0.285283 0.944717
0 0.272877 0.949523
0.403693 0.269306 0.983398
0.831144 0.129152 0.935729
0 0.573846 0.936217
0 0.575692 0.935958
0 0.572839 0.936248
0.459403 0.611505 0.991333
0.899321 0.560601 0.972885
0 0.88658 0.917967
0 0.891615 0.921752
0 0.897581 0.925032
0.530373 0.953765 0.975555
0.94081 0.936706 0.944289
