luts/BMP4K Neatural.cube
TITLE "Generated by Resolve"
LUT_3D_SIZE 9
0 0.00112917 0.0170596
0.0480354 0.000457771 0.00727855
0.102663 0.00155642 0.00155642
0.163195 0 0
0.246113 0 0
0.342153 0 0
0.446921 0 0
0.559503 0 0
0.680964 0 0
0.000732433 0.0542763 0.00199893
0.0513771 0.0492103 0.000122072
0.103716 0.0424659 0.000244144
0.163729 0.0305486 0
0.247684 0.00784314 0
0.347494 0 0
0.459403 0 0
0.587182 0 0
0.726299 0 0
0.000366217 0.103899 0.000366217
0.054902 0.0999161 0
0.107637 0.0959335 0
0.170901 0.0876631 0
0.265232 0.0694743 0
0.377279 0.0402991 0
0.503655 0 0
0.644404 0 0
0.788067 0 0
0 0.163119 0
0.057557 0.164477 0
0.115984 0.16614 0
0.194278 0.162463 0
0.303807 0.147265 0
0.428779 0.12253 0
0.563012 0.0821698 0
0.69604 0.0152895 0
0.827771 0 0
0 0.260533 0
0.0496986 0.270558 0
0.118364 0.280705 0
0.214527 0.284031 0
0.338613 0.277256 0
0.472084 0.259373 0
0.615488 0.229404 0
0.761334 0.17908 0
0.891875 0.0925612 0
0 0.402197 0
0.0605478 0.416098 0
0.133761 0.427817 0
0.237842 0.431266 0
0.363409 0.428748 0
0.499962 0.419974 0
0.642161 0.399634 0
0.789715 0.367178 0
0.935531 0.312764 0
0.0217594 0.558465 0
0.0826276 0.572549 0
0.158267 0.583749 0
0.265187 0.588251 0
0.388144 0.588708 0
0.523751 0.585412 0
0.66717 0.575341 0
0.81239 0.554101 0
0.958221 0.52108 0
0.060914 0.724117 0
0.118547 0.736721 0
0.197604 0.7458 0
0.300481 0.750759 0
0.418418 0.753536 0
0.549432 0.75288 0
0.690364 0.74905 0
0.834775 0.73875 0
0.971725 0.718425 0
0.119722 0.893568 0
0.177172 0.902449 0
0.254826 0.909072 0
0.349432 0.914473 0
0.459571 0.917815 0
0.583825 0.919066 0
0.718425 0.917525 0
0.859495 0.913817 0
0.972396 0.903761 0
0.000396735 0.00207523 0.0802167
0.0354467 0.000534066 0.0738689
0.0937057 0.0015259 0.0657054
0.155154 0.000213626 0.0508125
0.237964 0 0.0210422
0.336233 0 0
0.442435 0 0
0.556603 0 0
0.680171 0 0
0.000610361 0.0545205 0.0705119
0.0383307 0.0491646 0.0627909
0.0945144 0.0426032 0.0529183
0.155245 0.0312047 0.0360113
0.239872 0.00895705 0.00421149
0.342489 0 0
0.458366 0 0
0.589395 0 0
0.730816 0 0
0.000106813 0.103914 0.0552529
0.043122 0.100038 0.0454719
0.0999466 0.0970169 0.025391
0.164157 0.0893263 0.0120851
0.260273 0.071107 0
0.375341 0.0411231 0
0.504585 0 0
0.647105 0 0
0.791943 0 0
0 0.164691 0.0245518
0.0459297 0.165713 0.0129397
0.107485 0.167681 0
0.187488 0.164767 0
0.299229 0.149371 0
0.42707 0.124132 0
0.563256 0.0832227 0
0.697261 0.0157473 0
0.829221 0 0
0 0.26157 0
0.0371405 0.271336 0
0.109422 0.2822 0
0.206699 0.286641 0
0.334279 0.27985 0
0.469749 0.261952 0
0.614237 0.231937 0
0.761471 0.181521 0
0.89305 0.094789 0
0 0.401663 0
0.0486305 0.416251 0
0.12459 0.428977 0
0.229908 0.433494 0
0.358144 0.431006 0
0.497169 0.422019 0
0.640635 0.401984 0
0.789319 0.369528 0
0.936019 0.315282 0
0.00636301 0.557351 0
0.0711986 0.572519 0
0.148089 0.585046 0
0.257053 0.590356 0
0.38262 0.590906 0
0.520287 0.587152 0
0.66508 0.576867 0
0.811826 0.555962 0
0.958053 0.523049 0
0.0486458 0.723659 0
0.107378 0.737179 0
0.187121 0.747539 0
0.292821 0.75285 0
0.413458 0.755566 0
0.54612 0.754665 0
0.688182 0.750011 0
0.833356 0.739483 0
0.97174 0.71986 0
0.108553 0.89395 0
0.166339 0.903868 0
0.246036 0.91078 0
0.34287 0.916381 0
0.455055 0.919646 0
0.580865 0.920745 0
0.716442 0.918639 0
0.85771 0.914168 0
0.972412 0.904173 0
0.000534066 0.00291447 0.144427
0.0155032 0.000503548 0.138705
0.0806439 0.00148013 0.132219
0.143969 0.000717174 0.121279
0.226719 0 0.0995956
0.327733 0 0.0664683
0.436347 0 0.0186465
0.553994 0 0
0.679377 0 0
0.000427253 0.0547799 0.135714
0.0188907 0.0496986 0.129824
0.0816358 0.043061 0.122179
0.144198 0.0322423 0.110613
0.228717 0.0105287 0.0889448
0.336019 0 0.0550851
0.456214 0 0
0.590845 0 0
0.735088 0 0
0 0.104204 0.123919
0.0237125 0.100542 0.117998
0.0860304 0.0971389 0.111528
0.153811 0.0911727 0.100832
0.252262 0.0731365 0.0755627
0.371466 0.0420539 0.0313726
0.503929 0 0
0.648768 0 0
0.794797 0 0
0 0.167254 0.104616
0.0267796 0.167758 0.100206
0.0962997 0.170672 0.0930037
0.178973 0.170108 0.0655528
0.292912 0.153704 0.0452888
0.422889 0.126497 0
0.561257 0.0846723 0
0.696895 0.0165713 0
0.829236 0 0
0 0.26717 0.0522469
0.0184329 0.274556 0.0503853
0.0982528 0.286687 0.045304
0.195117 0.290898 0.0179599
0.325841 0.283604 0
0.463706 0.26508 0
0.610468 0.234974 0
0.759762 0.184314 0
0.893324 0.0973678 0
0 0.40029 0
0.0280919 0.414725 0
0.108766 0.428916 0
0.215656 0.435645 0
0.348775 0.433982 0
0.491493 0.425879 0
0.6374 0.405188 0
0.787671 0.372534 0
0.935561 0.318273 0
0 0.553567 0
0.0521401 0.570886 0
0.132067 0.585641 0
0.243168 0.592309 0
0.373114 0.593561 0
0.514626 0.590494 0
0.662379 0.58085 0
0.810437 0.559442 0
0.957916 0.526085 0
0.0270237 0.720592 0
0.0896468 0.736416 0
0.170123 0.748531 0
0.279866 0.754665 0
0.404395 0.758038 0
0.540413 0.757671 0
0.685542 0.753735 0
0.832959 0.743481 0
0.971649 0.723095 0
0.0902876 0.892989 0
0.148669 0.904555 0
0.230488 0.912383 0
0.331106 0.918395 0
0.446586 0.922087 0
0.575586 0.923506 0
0.713588 0.921935 0
0.85684 0.917342 0
0.972488 0.907591 0
0 0.00177005 0.232517
0 0 0.226505
0.0588998 0 0.218814
0.126696 0 0.207782
0.209674 0 0.186954
0.315175 0 0.15462
0.42742 0 0.113664
0.549462 0 0.0573587
0.679271 0 0
0 0.0531472 0.222827
0 0.0485542 0.216602
0.0603799 0.041825 0.208042
0.127199 0.0319677 0.196902
0.212482 0.0117037 0.176379
0.325917 0 0.146517
0.451804 0 0.102464
0.590997 0 0.035462
0.738415 0 0
0 0.102846 0.210269
0 0.100069 0.205554
0.0658427 0.0967575 0.200671
0.13785 0.0918441 0.193317
0.238529 0.0748913 0.172244
0.363928 0.043534 0.135241
0.500938 0 0.0793317
0.648417 0 0
0.796262 0 0
0 0.168322 0.199298
0 0.168322 0.196368
0.0741741 0.171099 0.194934
0.159091 0.171695 0.188739
0.280705 0.158968 0.166293
0.419165 0.133532 0.127855
0.560067 0.0893873 0.0640421
0.694041 0.0168002 0
0.827695 0 0
0 0.273426 0.161883
0 0.276219 0.15761
0.0780652 0.290974 0.164111
0.181582 0.300404 0.156191
0.321599 0.296727 0.107591
0.460838 0.276158 0.0915389
0.607248 0.241733 0.0332189
0.755611 0.187076 0
0.89189 0.0999313 0
0 0.411215 0.107546
0.00062562 0.419745 0.109377
0.092195 0.437186 0.118074
0.202487 0.446769 0.107179
0.340124 0.443381 0.0644083
0.482826 0.430243 0
0.631052 0.408743 0
0.78378 0.375906 0
0.933837 0.321508 0
0 0.553689 0.022446
0.0239109 0.571893 0.0316777
0.110933 0.589014 0.0324407
0.223316 0.595758 0.00573739
0.358099 0.595773 0
0.505028 0.593744 0
0.657176 0.584787 0
0.807111 0.562936 0
0.956405 0.529397 0
0 0.713039 0
0.0592966 0.732052 0
0.143282 0.748196 0
0.259129 0.756054 0
0.389899 0.759915 0
0.530922 0.760418 0
0.679911 0.757214 0
0.830533 0.747631 0
0.971633 0.726619 0
0.0598459 0.888579 0
0.120851 0.902892 0
0.205219 0.913176 0
0.3122 0.919783 0
0.433677 0.924346 0
0.566567 0.925948 0
0.708309 0.924727 0
0.854536 0.920684 0
0.972396 0.911025 0
0 0 0.339513
0 0 0.335073
0.022034 0 0.328939
0.100511 0 0.320821
0.183642 0 0.304997
0.294072 0 0.27689
0.411429 0 0.238895
0.539773 0 0.184802
0.677638 0 0.106371
0 0.0496834 0.331533
0 0.0452277 0.327047
0.0243687 0.0385443 0.320287
0.101091 0.0293736 0.312123
0.187228 0.0107118 0.298405
0.307668 0 0.274266
0.440574 0 0.235996
0.586603 0 0.174228
0.740063 0 0.0747082
0 0.099443 0.323323
0 0.0968643 0.321477
0.0299687 0.0937057 0.320851
0.111528 0.0896162 0.320287
0.213367 0.0743725 0.30808
0.346792 0.0421454 0.278462
0.489891 0 0.228748
0.64332 0 0.150851
0.796002 0 0.0332952
0 0.166918 0.326665
0 0.166644 0.32752
0.034699 0.167468 0.329259
0.129854 0.170504 0.332433
0.255665 0.160662 0.321096
0.403693 0.135897 0.29073
0.552651 0.0934615 0.234852
0.692302 0.0220493 0.13518
0.824903 0 0
0 0.275471 0.31104
0 0.276143 0.309178
0.0363165 0.286473 0.315755
0.146883 0.300511 0.324712
0.289906 0.2972 0.314015
0.445716 0.281682 0.28513
0.604227 0.251789 0.235019
0.759991 0.199359 0.150607
0.891524 0.103426 0.00514229
0 0.415686 0.278737
0 0.416251 0.274876
0.0537575 0.43447 0.286976
0.167666 0.45066 0.29424
0.320668 0.451789 0.267445
0.483742 0.449928 0.176562
0.633631 0.426001 0.160342
0.785885 0.388556 0.0886854
0.929732 0.324681 0
0 0.563424 0.212253
0 0.569451 0.211536
0.078645 0.593484 0.226017
0.195026 0.609201 0.227802
0.34789 0.612314 0.19144
0.501289 0.609247 0.120165
0.650935 0.591669 0.00277714
0.801205 0.566644 0
0.952499 0.532891 0
0 0.71516 0.0907454
0.0217136 0.735927 0.103136
0.113252 0.757137 0.113008
0.233173 0.768124 0.104082
0.373648 0.769299 0.0639353
0.515038 0.762493 0
0.670558 0.760723 0
0.825864 0.75198 0
0.971633 0.730373 0
0.00614939 0.877501 0
0.0737163 0.895949 0
0.159869 0.911757 0
0.27953 0.920439 0
0.411124 0.925643 0
0.551797 0.927916 0
0.699107 0.927321 0
0.84947 0.924041 0
0.972457 0.914885 0
0 0 0.451911
0 0 0.448692
0 0 0.444038
0.0623941 0 0.437903
0.149599 0 0.428611
0.264454 0 0.406699
0.389776 0 0.376303
0.52398 0 0.337118
0.668666 0 0.280247
0 0.0461433 0.44535
0 0.0417182 0.441947
0 0.0356298 0.437751
0.0630198 0.0261082 0.432776
0.15314 0.00979629 0.427756
0.280537 0 0.412482
0.422049 0 0.385687
0.574334 0 0.343175
0.732754 0 0.271916
0 0.096025 0.442573
0 0.0937362 0.444526
0 0.0909438 0.448631
0.0713817 0.0862593 0.453361
0.175433 0.0741436 0.452445
0.319081 0.0408942 0.432486
0.470436 0 0.396643
0.628748 0 0.343343
0.786068 0 0.256672
0 0.165591 0.46096
0 0.165057 0.465812
0 0.163394 0.470359
0.0832532 0.166415 0.479957
0.212955 0.161959 0.482063
0.375433 0.137453 0.463661
0.534142 0.094728 0.425055
0.678462 0.0215763 0.353063
0.812772 0 0.242817
0 0.277577 0.466224
0 0.277913 0.467689
0 0.276951 0.467765
0.0947433 0.295491 0.486854
0.244938 0.299199 0.490959
0.416373 0.284291 0.475792
0.58529 0.254643 0.445365
0.749752 0.203464 0.391943
0.893507 0.114229 0.285664
0 0.417823 0.4542
0 0.418235 0.45304
0 0.420233 0.453086
0.11368 0.446342 0.475822
0.27155 0.453056 0.477317
0.443229 0.445411 0.461692
0.613428 0.427695 0.428443
0.779797 0.395605 0.372915
0.938094 0.340032 0.271412
0 0.566323 0.416266
0 0.567575 0.414221
0.00573739 0.580575 0.422843
0.139254 0.607385 0.442954
0.300679 0.614939 0.440726
0.476143 0.614176 0.404379
0.653346 0.613901 0.279408
0.80737 0.588022 0.266361
0.960494 0.551431 0.160937
0 0.721141 0.344884
0 0.722988 0.341939
0.0531014 0.751095 0.362875
0.178683 0.773556 0.374823
0.336889 0.780484 0.366079
0.50573 0.781994 0.31606
0.671656 0.780667 0.197711
0.823178 0.762417 0.0332799
0.967453 0.734295 0
0 0.877241 0.205127
0.0177462 0.898787 0.218463
0.115221 0.923552 0.231159
0.239399 0.937896 0.228046
0.385992 0.943771 0.202075
0.540047 0.943435 0.133135
0.685328 0.931762 0.00590524
0.840604 0.927214 0
0.972747 0.919127 0
0 0 0.568353
0 0 0.566094
0 0 0.562554
0 0 0.559258
0.104417 0 0.55523
0.221729 0 0.54078
0.359426 0 0.516808
0.503441 0 0.488777
0.655756 0 0.449454
0 0.0426947 0.563348
0 0.0383307 0.561181
0 0.0323339 0.55906
0 0.023209 0.558785
0.107103 0.00881972 0.561563
0.239094 0 0.556619
0.393637 0 0.538598
0.555673 0 0.509621
0.720211 0 0.462684
0 0.0928511 0.568185
0 0.0908827 0.573388
0 0.0879225 0.582101
0 0.0822766 0.59144
0.121462 0.0732128 0.600412
0.274846 0.041474 0.591058
0.439765 0 0.564889
0.60705 0 0.526741
0.769894 0 0.469276
0 0.164401 0.601419
0 0.163653 0.609613
0 0.161883 0.618555
0 0.157687 0.626215
0.146059 0.161593 0.642939
0.327688 0.140124 0.635721
0.503212 0.097261 0.608408
0.65745 0.0230869 0.553552
0.793805 0 0.471183
0 0.279866 0.624231
0 0.280049 0.628565
0 0.27863 0.631144
0 0.279164 0.636378
0.169284 0.299107 0.66186
0.365728 0.287144 0.656855
0.552728 0.258045 0.638941
0.729137 0.206714 0.605188
0.881804 0.117311 0.53756
0 0.41976 0.626322
0 0.42002 0.626856
0 0.419593 0.62678
0.014374 0.428717 0.636286
0.193439 0.45275 0.661082
0.39295 0.447791 0.65655
0.581338 0.430213 0.639078
0.760113 0.39826 0.607309
0.92697 0.343343 0.55198
0 0.568307 0.606256
0 0.569528 0.606363
0 0.570275 0.60557
0.0448768 0.591424 0.624567
0.224384 0.615106 0.644755
0.420417 0.615015 0.6392
0.606561 0.60528 0.620981
0.783932 0.586526 0.585473
0.95111 0.554177 0.526604
0 0.723873 0.567346
0 0.725536 0.566796
0 0.727321 0.565286
0.0878309 0.762493 0.595605
0.265293 0.781033 0.607248
0.452338 0.783612 0.5991
0.641276 0.781704 0.554406
0.82565 0.784161 0.398016
0.976272 0.757656 0.394034
0 0.881636 0.495979
0 0.884276 0.495064
0.00709545 0.902449 0.508553
0.150454 0.935607 0.533989
0.321096 0.947173 0.534264
0.494438 0.95079 0.520684
0.673793 0.95024 0.45864
0.84361 0.948638 0.308614
0.980529 0.931838 0.0642863
0 0 0.686854
0 0 0.685618
0 0 0.684367
0 0 0.683284
0.0340276 0 0.682261
0.158556 0 0.677699
0.313863 0 0.660136
0.473411 0 0.640513
0.636484 0 0.613474
0 0.0397803 0.684733
0 0.0354467 0.683635
0 0.0294347 0.684306
0 0.020798 0.688441
0.0334173 0.0069276 0.697459
0.172686 0 0.705486
0.348943 0 0.694469
0.525994 0 0.674815
0.700664 0 0.642939
0 0.0904707 0.697932
0 0.0885176 0.706966
0 0.08542 0.719783
0 0.0796826 0.734188
0.0335088 0.0697948 0.748104
0.199237 0.0461585 0.752926
0.390509 0 0.732662
0.573693 0 0.702907
0.746838 0 0.662837
0 0.164599 0.745617
0 0.16376 0.756725
0 0.161425 0.768841
0 0.156237 0.779293
0.0365148 0.151934 0.792325
0.242466 0.14403 0.80412
0.451316 0.102144 0.785199
0.625101 0.0275883 0.741085
0.76846 0 0.672084
0 0.282689 0.782025
0 0.282689 0.787686
0 0.281102 0.792645
0 0.277012 0.795071
0.0467231 0.284108 0.810864
0.276585 0.290394 0.829404
0.498634 0.262806 0.82005
0.69572 0.21146 0.798703
0.862242 0.12195 0.752697
0 0.42208 0.792798
0 0.422354 0.794476
0 0.42182 0.795956
0 0.419532 0.79646
0.0659342 0.437781 0.818433
0.303563 0.450019 0.836225
0.526711 0.43418 0.828977
0.726543 0.402304 0.810483
0.906493 0.347173 0.778454
0 0.570718 0.784314
0 0.571954 0.785809
0 0.572625 0.786954
0 0.572244 0.786755
0.0929122 0.602396 0.817212
0.332647 0.616053 0.831861
0.552941 0.608286 0.824704
0.751141 0.589059 0.806775
0.931426 0.55642 0.775998
0 0.726009 0.763989
0 0.728038 0.76524
0 0.729824 0.765942
0 0.730632 0.765194
0.13341 0.773083 0.805615
0.368673 0.78497 0.813886
0.580606 0.782025 0.805463
0.773816 0.771191 0.786023
0.951156 0.753002 0.750729
0 0.883986 0.728145
0 0.886549 0.729549
0 0.889204 0.730037
0 0.900877 0.738491
0.196872 0.943832 0.776608
0.416312 0.951995 0.777752
0.615686 0.951385 0.766049
0.809934 0.94754 0.716381
0.992233 0.948943 0.535714
0 0 0.806546
0 0 0.806531
0 0 0.807355
0 0 0.808118
0 0 0.809644
0.0714733 0 0.813931
0.242649 0 0.805982
0.427146 0 0.790677
0.606867 0 0.771298
0 0.037705 0.807157
0 0.0334783 0.807309
0 0.0276341 0.811093
0 0.01944 0.819501
0 0.00663767 0.834684
0.0737469 0 0.852918
0.272572 0 0.851453
0.477501 0 0.834592
0.669978 0 0.810666
0 0.0891737 0.829984
0 0.0872206 0.84242
0 0.0841077 0.859007
0 0.0782788 0.877073
0 0.0679332 0.894743
0.0752575 0.0506752 0.909239
0.305745 0 0.896422
0.520806 0 0.868559
0.713008 0 0.836194
0 0.166384 0.890135
0 0.165515 0.903014
0 0.163027 0.916777
0 0.157656 0.928786
0 0.147616 0.938109
0.0914321 0.142855 0.955398
0.360052 0.110674 0.94995
0.572992 0.0364843 0.911925
0.734112 0 0.848295
0 0.287221 0.933257
0 0.287098 0.939574
0 0.285283 0.944717
0 0.280903 0.947829
0 0.272877 0.949523
0.113237 0.286076 0.977569
0.403693 0.269306 0.983398
0.640848 0.218982 0.969345
0.831144 0.129152 0.935729
0 0.425834 0.94287
0 0.426078 0.942855
0 0.425559 0.942885
0 0.423285 0.942992
0 0.418219 0.94313
0.134798 0.44477 0.979461
0.432013 0.43856 0.990204
0.671901 0.407843 0.985733
0.874022 0.35285 0.965896
0 0.573846 0.936217
0 0.575051 0.936126
0 0.575692 0.935958
0 0.575296 0.936065
0 0.572839 0.936248
0.163058 0.611475 0.980468
0.459403 0.611505 0.991333
0.696818 0.593423 0.989715
0.899321 0.560601 0.972885
0 0.72874 0.931243
0 0.73051 0.930938
0 0.732311 0.930938
0 0.733104 0.931075
0 0.732647 0.930999
0.206012 0.781323 0.9823
0.490547 0.784421 0.991501
0.721126 0.774441 0.983154
0.919814 0.755261 0.965972
0 0.88658 0.917967
0 0.889067 0.919966
0 0.891615 0.921752
0 0.893629 0.922667
0 0.897581 0.925032
0.268559 0.950042 0.975097
0.530373 0.953765 0.975555
0.749538 0.947906 0.964324
0.94081 0.936706 0.944289
