luts/Brown Mobster.cube
LUT_3D_SIZE 6
-0.009246 -0.006190 -0.002194
0.192493 -0.013814 0.004357
0.499199 0.029566 0.012308
0.648246 0.037961 0.016829
0.697491 0.041129 0.018588
0.698279 0.041525 0.018771
-0.030541 0.161078 0.008298
0.230594 0.185930 0.011510
0.543277 0.166539 0.025306
0.696133 0.118336 0.032796
0.751509 0.045171 0.036972
0.744130 0.041620 0.033924
0.057380 0.396808 0.017555
0.226468 0.427305 0.021209
0.593302 0.466781 0.027100
0.718305 0.386460 0.027396
0.753005 0.289359 0.032834
0.748183 0.242490 0.033547
0.086324 0.479507 0.020412
0.198050 0.510688 0.027126
0.485115 0.542401 0.028144
0.760739 0.575015 0.033720
0.780001 0.476929 0.030848
0.771807 0.421095 0.029062
0.095442 0.505874 0.021476
0.167924 0.530740 0.027692
0.373575 0.558781 0.027302
0.604272 0.580113 0.031288
0.815950 0.607695 0.035828
0.790383 0.545933 0.033257
0.105790 0.552247 0.023798
0.127299 0.574941 0.029156
0.247952 0.602078 0.033457
0.498104 0.626245 0.032072
0.713341 0.642998 0.035799
0.817833 0.650645 0.037778
-0.055668 -0.273491 0.060682
0.205752 -0.290849 0.082491
0.531790 -0.298978 0.078984
0.673328 -0.307188 0.061731
0.696450 -0.313927 0.042273
0.675843 -0.317146 0.033432
0.014795 0.167039 0.083845
0.242345 0.187768 0.069748
0.570381 0.198537 0.087183
0.719442 0.206549 0.089269
0.768753 0.213117 0.091385
0.769124 0.215787 0.092260
0.044088 0.403031 0.070624
0.270643 0.442977 0.043451
0.604053 0.469917 0.047784
0.739385 0.409758 0.054203
0.779327 0.345327 0.073654
0.776093 0.318413 0.077767
0.067113 0.486302 0.031463
0.294655 0.534789 0.051991
0.525869 0.554262 0.046119
0.772211 0.578706 0.050195
0.798436 0.494131 0.049686
0.793862 0.454491 0.049704
0.091639 0.511179 0.026066
0.306516 0.563144 0.053167
0.450200 0.575498 0.044523
0.637487 0.589594 0.047913
0.827446 0.611567 0.051192
0.806171 0.559411 0.050370
0.104062 0.557773 -0.069690
0.320081 0.614249 0.042210
0.395678 0.625579 0.038373
0.566391 0.639677 0.046420
0.746057 0.651294 0.052337
0.832757 0.656416 0.054358
-0.013380 -0.275656 0.280760
0.127131 -0.298891 0.311062
0.515801 -0.311807 0.329217
0.660948 -0.313114 0.200489
0.686774 -0.314904 0.084623
0.672585 -0.315544 -0.062454
0.040998 0.121638 0.292383
0.268362 0.197614 0.339443
0.594150 0.178888 0.362515
0.736047 0.164502 0.261802
0.781159 0.158346 0.179860
0.780560 0.157058 0.148460
0.068623 0.405142 0.321694
0.265006 0.455193 0.361055
0.617299 0.468176 0.368283
0.767160 0.471921 0.379794
0.816810 0.475118 0.386790
0.817019 0.476074 0.388374
0.064364 0.488558 0.207976
0.249472 0.542014 0.242681
0.635206 0.566116 0.368504
0.796814 0.571548 0.352041
0.829317 0.527287 0.364539
0.827374 0.519030 0.366102
0.062638 0.513759 0.125120
0.256236 0.566040 0.150333
0.644743 0.595340 0.369354
0.727402 0.597242 0.348557
0.857147 0.602696 0.342404
0.842345 0.579808 0.350578
0.062031 0.560559 -0.164869
0.287289 0.618105 -0.115090
0.665938 0.650636 0.347304
0.720897 0.652682 0.356823
0.835901 0.653399 0.373013
0.872208 0.652950 0.375641
0.079447 -0.276546 0.433345
0.099768 -0.302038 0.504106
0.355900 -0.314208 0.508168
0.663744 -0.316268 0.517469
0.684685 -0.317177 0.248127
0.677348 -0.317355 0.051591
0.084704 -0.047372 0.483368
0.299763 0.194682 0.542885
0.517279 0.173169 0.555688
0.760057 0.160600 0.577644
0.789944 0.161261 0.395371
0.786753 0.161023 0.324140
0.093619 0.312043 0.500132
0.283704 0.381908 0.552270
0.635147 0.466929 0.576405
0.781996 0.466474 0.587711
0.822071 0.468045 0.499789
0.821131 0.468257 0.482279
0.109022 0.485800 0.524462
0.282716 0.543713 0.574095
0.634129 0.559470 0.586702
0.785672 0.564780 0.585835
0.835674 0.567108 0.591461
0.835828 0.567083 0.591794
0.079318 0.514138 0.321232
0.259791 0.570982 0.385780
0.639042 0.596057 0.499825
0.790526 0.593814 0.591056
0.841174 0.597341 0.587735
0.837902 0.598514 0.587596
0.066195 0.561714 0.160371
0.278244 0.620933 0.244913
0.674472 0.651211 0.467543
0.818191 0.647449 0.599817
0.866087 0.649093 0.619486
0.862099 0.649036 0.632366
0.095614 -0.275922 0.470426
-0.072325 -0.302813 0.537472
0.081792 -0.312738 0.546790
0.456334 -0.315053 0.550205
0.711674 -0.315461 0.575254
0.691373 -0.315672 0.414380
0.126191 -0.026877 0.530880
0.316036 0.192727 0.609784
0.443363 0.166972 0.615045
0.631355 0.163292 0.623019
0.815556 0.155221 0.644341
0.797369 0.159877 0.537461
0.102963 0.206810 0.559727
0.288469 0.309268 0.610867
0.646364 0.470124 0.639714
0.719550 0.461753 0.642370
0.839656 0.464220 0.656065
0.830042 0.465745 0.613785
0.112942 0.389104 0.569283
0.293163 0.457334 0.620788
0.633951 0.517288 0.641254
0.795849 0.564189 0.650223
0.842751 0.563540 0.654655
0.841162 0.563306 0.657347
0.124493 0.509898 0.590725
0.292304 0.569566 0.639978
0.639292 0.587163 0.653149
0.794002 0.591596 0.654834
0.842685 0.592810 0.652377
0.842900 0.592778 0.651583
0.100870 0.557254 0.461243
0.304559 0.619226 0.534295
0.683258 0.638507 0.624538
0.840744 0.643713 0.675233
0.873379 0.646462 0.667351
0.865892 0.646453 0.674833
0.087114 -0.271373 0.428080
-0.118142 -0.299315 0.496363
-0.223480 -0.311048 0.521430
0.322720 -0.314643 0.540844
0.587138 -0.315384 0.555329
0.702050 -0.315167 0.562090
0.127016 -0.016435 0.530510
0.318845 0.194648 0.612752
0.411569 0.165838 0.615519
0.576023 0.164904 0.623034
0.730469 0.159838 0.629084
0.804811 0.156288 0.632408
0.100915 0.154405 0.559850
0.288904 0.281923 0.611125
0.648476 0.471331 0.642019
0.705317 0.461103 0.644040
0.802596 0.464112 0.648309
0.832996 0.464308 0.649211
0.110396 0.335426 0.568543
0.293643 0.416929 0.619829
0.633363 0.508363 0.642865
0.795580 0.563942 0.652304
0.845008 0.563613 0.653327
0.840724 0.563494 0.653138
0.117844 0.454321 0.574894
0.291402 0.521096 0.626645
0.637394 0.566271 0.645437
0.794147 0.592990 0.653382
0.842681 0.592646 0.654107
0.842967 0.592699 0.654121
0.121336 0.504263 0.577523
0.290388 0.564372 0.628478
0.638542 0.583788 0.646379
0.793925 0.590539 0.653254
0.843029 0.592850 0.654117
0.843051 0.592759 0.654220
