luts/Brown Mobster.cube
LUT_3D_SIZE 16
-0.009246 -0.006190 -0.002194
-0.057753 -0.012778 -0.004641
0.055475 -0.016450 0.001292
0.192493 -0.013814 0.004357
0.309790 0.014560 0.007209
0.412244 0.024090 0.009896
0.499199 0.029566 0.012308
0.566318 0.033170 0.014262
0.614455 0.035981 0.015712
0.648246 0.037961 0.016829
0.672100 0.039355 0.017638
0.688432 0.040492 0.018229
0.697491 0.041129 0.018588
0.698301 0.041391 0.018699
0.698241 0.041495 0.018754
0.698279 0.041525 0.018771
-0.016587 -0.048389 -0.007815
-0.063146 -0.051532 -0.008828
0.075903 -0.036784 0.006717
0.208500 -0.036820 0.009377
0.328899 -0.038391 0.013026
0.434208 -0.039714 0.016189
0.517520 -0.026898 0.016892
0.580165 0.020700 0.017312
0.624545 0.034003 0.017495
0.655154 0.038907 0.017691
0.676271 0.040334 0.017877
0.690291 0.040314 0.017892
0.697133 0.040161 0.017874
0.695795 0.039393 0.017522
0.694165 0.038684 0.017214
0.694393 0.038860 0.017309
-0.024232 0.047202 0.008197
-0.046561 0.063623 0.008968
0.095077 0.073041 0.012371
0.220450 0.075736 0.013945
0.343128 0.073325 0.018588
0.450577 0.068472 0.022256
0.543555 0.055975 0.026207
0.614588 0.024676 0.029719
0.664059 -0.038611 0.031722
0.693723 -0.034260 0.031230
0.710764 0.022765 0.029483
0.720917 0.042042 0.027696
0.724155 0.049105 0.026066
0.720582 0.051363 0.024641
0.718320 0.051536 0.023994
0.718898 0.051859 0.024193
-0.030541 0.161078 0.008298
-0.039337 0.171017 0.011715
0.101105 0.173297 0.009157
0.230594 0.185930 0.011510
0.345517 0.178744 0.014672
0.452899 0.173935 0.021062
0.543277 0.166539 0.025306
0.610295 0.155247 0.028415
0.659480 0.138760 0.030453
0.696133 0.118336 0.032796
0.724147 0.093744 0.035261
0.743594 0.067485 0.036958
0.751509 0.045171 0.036972
0.749391 0.012412 0.035805
0.743739 0.037038 0.033767
0.744130 0.041620 0.033924
-0.021652 0.258270 0.012371
0.036373 0.267029 0.014978
0.114324 0.273961 0.016019
0.228427 0.283055 0.014845
0.368340 0.297834 0.017545
0.467835 0.283465 0.018840
0.553411 0.270716 0.022884
0.618141 0.254756 0.026960
0.664347 0.234224 0.029626
0.696330 0.211790 0.031464
0.719121 0.189695 0.032897
0.734823 0.167812 0.033578
0.744560 0.145054 0.034436
0.748075 0.118403 0.035604
0.749534 0.102630 0.036369
0.749710 0.106662 0.036407
0.040071 0.338772 0.015351
0.066312 0.347439 0.017819
0.125669 0.357875 0.020318
0.228132 0.366733 0.018037
0.356441 0.379557 0.020239
0.492524 0.394633 0.022938
0.571228 0.375370 0.023642
0.632036 0.354501 0.024174
0.676058 0.329268 0.027569
0.705739 0.300748 0.030175
0.726184 0.272074 0.031889
0.739728 0.244838 0.033047
0.745879 0.218460 0.033773
0.745174 0.190573 0.034339
0.744235 0.176377 0.034172
0.744333 0.180334 0.034208
0.057380 0.396808 0.017555
0.083462 0.404742 0.019766
0.133775 0.416867 0.022950
0.226468 0.427305 0.021209
0.344476 0.439169 0.022317
0.469040 0.451524 0.024537
0.593302 0.466781 0.027100
0.647930 0.442713 0.027244
0.689543 0.416153 0.027190
0.718305 0.386460 0.027396
0.736617 0.354066 0.030069
0.748371 0.321479 0.031823
0.753005 0.289359 0.032834
0.749999 0.255546 0.033411
0.747934 0.238067 0.033624
0.748183 0.242490 0.033547
0.072209 0.435000 0.018771
0.092680 0.443730 0.021117
0.136573 0.456356 0.024491
0.219566 0.467696 0.024322
0.328551 0.479442 0.023664
0.444625 0.491008 0.025650
0.558343 0.501758 0.027730
0.668543 0.517378 0.030125
0.702835 0.488026 0.029736
0.729305 0.458498 0.029280
0.748176 0.427744 0.028711
0.758911 0.394491 0.029617
0.761854 0.359529 0.031296
0.757339 0.320490 0.032315
0.754268 0.299909 0.032657
0.754756 0.304728 0.032562
0.080209 0.461691 0.019779
0.099434 0.469542 0.021845
0.136815 0.482377 0.025377
0.209385 0.493795 0.026105
0.307347 0.505597 0.024437
0.416227 0.516607 0.026229
0.522899 0.526593 0.028088
0.621487 0.536511 0.029983
0.722941 0.552116 0.032269
0.740826 0.518315 0.031434
0.757451 0.487897 0.030757
0.768825 0.457002 0.030005
0.771997 0.423068 0.029094
0.766104 0.383182 0.030592
0.762233 0.360562 0.031261
0.762931 0.365627 0.031104
0.086324 0.479507 0.020412
0.103369 0.486837 0.022302
0.136014 0.499108 0.025733
0.198050 0.510688 0.027126
0.284334 0.522081 0.025172
0.384084 0.532720 0.026427
0.485115 0.542401 0.028144
0.578959 0.550714 0.029812
0.666154 0.559702 0.031550
0.760739 0.575015 0.033720
0.767610 0.539395 0.032619
0.776321 0.508706 0.031778
0.780001 0.476929 0.030848
0.774880 0.438587 0.029566
0.771000 0.416211 0.029241
0.771807 0.421095 0.029062
0.090513 0.492315 0.020911
0.105211 0.498919 0.022565
0.134483 0.510620 0.025895
0.186828 0.521599 0.027655
0.262866 0.532374 0.026870
0.352587 0.542801 0.026426
0.446964 0.552098 0.027989
0.538245 0.560650 0.029584
0.620019 0.567581 0.031076
0.699394 0.575911 0.032692
0.787392 0.590916 0.034744
0.785885 0.553715 0.033433
0.786804 0.521861 0.032402
0.782063 0.485741 0.031165
0.778248 0.464233 0.030413
0.778959 0.468998 0.030575
0.093595 0.501013 0.021264
0.106216 0.506523 0.022615
0.133180 0.517920 0.025822
0.177228 0.528273 0.027796
0.242755 0.538490 0.027870
0.323037 0.548812 0.026311
0.409641 0.557752 0.027714
0.496424 0.565872 0.029178
0.576858 0.573095 0.030615
0.650301 0.579349 0.031988
0.722281 0.587078 0.033473
0.805668 0.601804 0.035443
0.795545 0.562351 0.033907
0.787931 0.526082 0.032559
0.784402 0.505918 0.031835
0.785095 0.510421 0.031995
0.095442 0.505874 0.021476
0.105901 0.510054 0.022530
0.130991 0.520969 0.025581
0.167924 0.530740 0.027692
0.224673 0.540258 0.028263
0.295066 0.549881 0.026659
0.373575 0.558781 0.027302
0.454322 0.566602 0.028639
0.532835 0.573890 0.029992
0.604272 0.580113 0.031288
0.670330 0.585793 0.032557
0.736892 0.593082 0.033938
0.815950 0.607695 0.035828
0.796254 0.563263 0.033948
0.789742 0.541428 0.033097
0.790383 0.545933 0.033257
0.096197 0.506233 0.021539
0.103320 0.509202 0.022248
0.128067 0.519903 0.025201
0.157192 0.528627 0.027318
0.205966 0.537341 0.028218
0.266029 0.546261 0.027614
0.335458 0.555043 0.026699
0.409382 0.562526 0.027890
0.483036 0.569434 0.029127
0.553171 0.575874 0.030364
0.617087 0.581446 0.031531
0.677528 0.586681 0.032704
0.738795 0.593586 0.033986
0.813523 0.606030 0.035724
0.796819 0.577685 0.034445
0.795551 0.580659 0.034526
0.096538 0.506159 0.021570
0.101257 0.508066 0.022031
0.126299 0.518988 0.024982
0.153266 0.527152 0.027029
0.196327 0.535444 0.028116
0.251915 0.544024 0.027887
0.316540 0.552423 0.026362
0.385862 0.559796 0.027486
0.456118 0.566662 0.028650
0.524646 0.573009 0.029833
0.587802 0.578583 0.030976
0.647193 0.583656 0.032084
0.702702 0.588630 0.033196
0.764541 0.594750 0.034466
0.803959 0.600005 0.035339
0.798634 0.600571 0.035266
0.105790 0.552247 0.023798
0.109831 0.554772 0.024192
0.124714 0.566014 0.026837
0.127299 0.574941 0.029156
0.140760 0.583647 0.031812
0.181052 0.592608 0.033844
0.247952 0.602078 0.033457
0.330116 0.611830 0.030336
0.415124 0.619479 0.030782
0.498104 0.626245 0.032072
0.574390 0.632208 0.033325
0.646050 0.637653 0.034553
0.713341 0.642998 0.035799
0.782425 0.648000 0.037092
0.823001 0.651015 0.037880
0.817833 0.650645 0.037778
-0.052356 -0.271030 -0.017919
-0.072902 -0.273040 -0.017737
0.070520 -0.276972 0.013440
0.212740 -0.281429 0.016712
0.335911 -0.285617 0.018663
0.443221 -0.289585 0.018810
0.532333 -0.293350 0.018475
0.599292 -0.296827 0.015749
0.644661 -0.300070 0.011597
0.673480 -0.302999 -0.009307
0.690301 -0.305483 -0.013682
0.697791 -0.307779 -0.017735
0.695590 -0.310000 -0.021138
0.684562 -0.311961 -0.024154
0.675882 -0.313078 -0.025866
0.673674 -0.313425 -0.026139
-0.012466 -0.048540 -0.011125
-0.061465 -0.050065 0.004681
0.067216 -0.052591 0.004718
0.200663 -0.052372 0.008823
0.318984 -0.049309 0.014295
0.421025 -0.044370 0.014498
0.507171 -0.036973 0.014638
0.572799 -0.023291 0.014623
0.620200 0.021826 0.016504
0.653801 0.031048 0.018143
0.678035 0.035237 0.019335
0.694954 0.036984 0.020278
0.703916 0.037914 0.020951
0.705311 0.038208 0.021301
0.705189 0.038297 0.021477
0.705185 0.038317 0.021526
-0.013230 0.051855 0.021357
-0.064013 0.058224 0.009150
0.101884 0.077193 0.017860
0.226221 0.063321 0.019702
0.346428 0.056378 0.022229
0.454606 0.049817 0.025795
0.546714 0.031596 0.029178
0.617162 -0.040764 0.032585
0.665684 -0.050196 0.033988
0.695192 -0.043923 0.033196
0.712618 -0.021118 0.031553
0.723606 0.034640 0.029872
0.727470 0.044509 0.028331
0.724303 0.047955 0.027051
0.722413 0.049034 0.026470
0.722810 0.049581 0.026604
-0.015561 0.163455 0.024247
-0.061881 0.167127 0.009918
0.088903 0.176182 0.012725
0.233273 0.187988 0.012628
0.347567 0.175885 0.016751
0.455188 0.169968 0.023676
0.545061 0.162775 0.027782
0.612451 0.151673 0.030693
0.661573 0.135723 0.032640
0.698346 0.115880 0.035052
0.725653 0.093392 0.037164
0.745092 0.067525 0.038947
0.753667 0.043137 0.039211
0.751806 0.012628 0.038114
0.748138 0.020167 0.036854
0.748354 0.029929 0.036945
-0.023941 0.261182 0.015926
-0.046928 0.264174 0.013818
0.102890 0.276441 0.018007
0.225411 0.284650 0.015260
0.370827 0.299994 0.017991
0.469701 0.283289 0.019257
0.555115 0.270144 0.023719
0.619900 0.254133 0.027982
0.666221 0.234091 0.030840
0.698457 0.211955 0.032924
0.720879 0.190535 0.034340
0.736853 0.168953 0.035338
0.746160 0.147542 0.035982
0.749023 0.122482 0.037062
0.750384 0.107855 0.037856
0.750452 0.111836 0.037852
0.042618 0.342270 0.017691
0.039013 0.344969 0.016819
0.118972 0.359524 0.021084
0.225221 0.368162 0.018216
0.356269 0.381484 0.020436
0.494848 0.396722 0.023173
0.573033 0.376669 0.023848
0.633876 0.355500 0.024406
0.677843 0.330240 0.028003
0.707363 0.301803 0.030820
0.727990 0.273588 0.032697
0.741785 0.246683 0.034007
0.748079 0.220801 0.034895
0.747299 0.193476 0.035651
0.746412 0.179312 0.035832
0.746425 0.183202 0.035843
0.064429 0.399753 0.018632
0.068694 0.402832 0.019010
0.128461 0.418594 0.023507
0.223821 0.429108 0.021706
0.344040 0.440909 0.022515
0.470290 0.453398 0.024774
0.595426 0.468997 0.027360
0.649699 0.444018 0.027476
0.691517 0.417739 0.027428
0.720018 0.387868 0.027618
0.738438 0.355825 0.030418
0.750305 0.323529 0.032301
0.754774 0.291815 0.033548
0.751838 0.258403 0.034276
0.750083 0.241094 0.034616
0.750275 0.245506 0.034499
0.076132 0.438342 0.019693
0.083809 0.442053 0.020601
0.133210 0.457777 0.025034
0.218052 0.469263 0.024767
0.327966 0.481243 0.023861
0.445417 0.492692 0.025864
0.559717 0.503595 0.027965
0.670486 0.519521 0.030380
0.704787 0.489898 0.029993
0.730980 0.460041 0.029527
0.749886 0.429802 0.028959
0.761016 0.396375 0.029910
0.763884 0.361811 0.031644
0.759143 0.323182 0.032788
0.756155 0.302796 0.033296
0.756792 0.307606 0.033177
0.083960 0.464371 0.020502
0.094358 0.469002 0.021694
0.135632 0.484025 0.025870
0.208475 0.495708 0.026591
0.307627 0.507311 0.024623
0.416904 0.518645 0.026451
0.524389 0.528524 0.028324
0.623231 0.538349 0.030228
0.724757 0.554076 0.032515
0.742722 0.520155 0.031682
0.759318 0.489906 0.031014
0.770597 0.458991 0.030261
0.773949 0.425289 0.029344
0.768309 0.385497 0.030896
0.764167 0.363181 0.031613
0.764916 0.368219 0.031444
0.089211 0.481560 0.020978
0.101277 0.487575 0.022492
0.135401 0.501067 0.026327
0.198471 0.512506 0.027590
0.285446 0.523986 0.025414
0.385193 0.534867 0.026650
0.486983 0.544467 0.028386
0.580541 0.552680 0.030059
0.668160 0.561612 0.031805
0.762718 0.576901 0.033970
0.769416 0.541259 0.032871
0.778524 0.510620 0.032042
0.781851 0.478875 0.031106
0.776764 0.440863 0.029834
0.772953 0.418749 0.029436
0.773787 0.423607 0.029318
0.091990 0.494033 0.021373
0.106809 0.500478 0.023042
0.135992 0.512370 0.026450
0.188452 0.523539 0.028118
0.264275 0.534431 0.027203
0.354461 0.544860 0.026653
0.448772 0.554064 0.028224
0.540270 0.562594 0.029823
0.621875 0.569587 0.031322
0.700858 0.578018 0.032940
0.789349 0.592646 0.034988
0.787400 0.555688 0.033682
0.788738 0.523870 0.032654
0.783762 0.487924 0.031421
0.780305 0.466422 0.030675
0.780976 0.471326 0.030841
0.093532 0.502538 0.021633
0.110810 0.509540 0.023453
0.135696 0.519929 0.026426
0.179624 0.530370 0.028333
0.245374 0.540459 0.028203
0.325386 0.550781 0.026531
0.412006 0.559729 0.027947
0.498664 0.567891 0.029423
0.579158 0.574978 0.030856
0.652347 0.581198 0.032240
0.724148 0.588996 0.033727
0.807644 0.603626 0.035695
0.797411 0.564295 0.034157
0.789847 0.528228 0.032813
0.786203 0.507977 0.032100
0.786835 0.512594 0.032260
0.094325 0.506834 0.021727
0.113391 0.514388 0.023712
0.134276 0.523249 0.026236
0.171243 0.532916 0.028254
0.227744 0.542411 0.028671
0.298157 0.551998 0.026813
0.376456 0.560687 0.027532
0.456588 0.568801 0.028884
0.535186 0.575813 0.030242
0.606370 0.582070 0.031531
0.672044 0.587721 0.032800
0.738972 0.595013 0.034193
0.817545 0.609490 0.036071
0.798135 0.565049 0.034195
0.791573 0.543574 0.033352
0.792190 0.547970 0.033512
0.094346 0.506772 0.021623
0.114482 0.514964 0.023815
0.132006 0.522332 0.025916
0.162089 0.530997 0.027887
0.209624 0.539745 0.028718
0.269767 0.548483 0.027861
0.339086 0.556964 0.026927
0.412194 0.564627 0.028127
0.485936 0.571521 0.029378
0.555649 0.577804 0.030614
0.619574 0.583392 0.031778
0.679379 0.588681 0.032954
0.740818 0.595505 0.034239
0.815100 0.607866 0.035972
0.798848 0.579660 0.034696
0.797523 0.582611 0.034774
0.094350 0.506187 0.021525
0.114965 0.514984 0.023860
0.130844 0.521481 0.025745
0.157812 0.529661 0.027660
0.200621 0.537951 0.028636
0.256252 0.546112 0.028152
0.320261 0.554478 0.026600
0.389025 0.561909 0.027728
0.458921 0.568833 0.028903
0.527546 0.575010 0.030089
0.590228 0.580636 0.031225
0.649258 0.585696 0.032346
0.704803 0.590473 0.033444
0.766471 0.596631 0.034719
0.805531 0.601843 0.035586
0.800344 0.602422 0.035513
0.104320 0.552682 0.020637
0.122903 0.561548 0.022270
0.130008 0.568851 0.023485
0.133406 0.577628 0.025595
0.147578 0.586240 0.028302
0.187959 0.595031 0.030573
0.253296 0.604446 0.031263
0.334409 0.614160 0.029434
0.418509 0.621705 0.030401
0.501212 0.628419 0.031787
0.577173 0.634477 0.033128
0.648403 0.639861 0.034458
0.715477 0.645036 0.035769
0.784532 0.650178 0.037136
0.824663 0.653178 0.037951
0.819561 0.652740 0.037859
-0.054862 -0.272229 0.022023
-0.068776 -0.274958 0.030979
0.071355 -0.278755 0.034995
0.214818 -0.282785 0.039386
0.337894 -0.286830 0.041690
0.445169 -0.290702 0.042547
0.534398 -0.294392 0.042640
0.601047 -0.297869 0.041200
0.646559 -0.301068 0.038706
0.675046 -0.303986 0.035366
0.691827 -0.306662 0.032482
0.699450 -0.309086 0.028796
0.697499 -0.311395 0.024750
0.686228 -0.313402 0.019649
0.677886 -0.314571 0.016000
0.675622 -0.314890 0.016181
-0.014169 -0.040542 0.029432
-0.063018 -0.051426 0.027735
0.070339 -0.053782 0.036024
0.202339 -0.055462 0.038007
0.320090 -0.054566 0.041231
0.421967 -0.052129 0.042637
0.507971 -0.048684 0.042735
0.573194 -0.044395 0.041174
0.619776 -0.039678 0.039225
0.652111 -0.034798 0.036382
0.674791 -0.029979 0.033756
0.690323 -0.025482 0.030969
0.698303 -0.022318 0.028158
0.698522 -0.021352 0.025445
0.697971 -0.021319 0.023977
0.698010 -0.021307 0.024215
-0.009401 0.053403 0.038643
-0.067274 0.061872 0.040600
0.100683 0.072958 0.037769
0.236902 0.077240 0.044531
0.358181 0.076831 0.043207
0.466490 0.075739 0.044863
0.558249 0.073153 0.047108
0.628168 0.069193 0.050177
0.679418 0.066247 0.052775
0.715597 0.063808 0.055168
0.741129 0.063458 0.056793
0.759216 0.063131 0.058172
0.768750 0.065253 0.058995
0.769309 0.069294 0.059240
0.768952 0.071688 0.059297
0.768931 0.072196 0.059311
0.011820 0.165479 0.044767
-0.072215 0.169730 0.037230
0.105423 0.180886 0.024476
0.236503 0.188572 0.023045
0.356767 0.184222 0.030527
0.465112 0.182894 0.040128
0.554526 0.179696 0.045144
0.621628 0.174233 0.048374
0.669857 0.166257 0.049600
0.703311 0.157436 0.050473
0.727795 0.148776 0.051592
0.745116 0.140369 0.052424
0.753978 0.132599 0.052925
0.755116 0.124593 0.053285
0.755458 0.120749 0.053555
0.755351 0.122343 0.053513
0.022389 0.262462 0.043790
-0.075568 0.266864 0.026875
0.125934 0.282508 0.031295
0.236728 0.288866 0.022182
0.374034 0.300745 0.024807
0.476963 0.289840 0.026033
0.563995 0.280463 0.034380
0.629297 0.268351 0.041224
0.675877 0.253205 0.045253
0.708308 0.236674 0.048171
0.731062 0.220526 0.050340
0.746634 0.205729 0.052161
0.754470 0.191367 0.052431
0.754887 0.176742 0.052669
0.754398 0.169405 0.052728
0.754485 0.172118 0.052715
0.019881 0.344682 0.036300
-0.064558 0.346889 0.020186
0.146073 0.367256 0.034220
0.241846 0.373695 0.023349
0.366681 0.385508 0.025748
0.498450 0.398432 0.028321
0.579467 0.381848 0.029128
0.641443 0.364330 0.029806
0.686424 0.342774 0.036901
0.716931 0.318842 0.042031
0.737558 0.295436 0.045366
0.751491 0.273213 0.047864
0.758363 0.252228 0.049580
0.757326 0.230687 0.050998
0.756114 0.219950 0.051639
0.756264 0.223624 0.051395
0.041338 0.402172 0.023477
-0.038024 0.404429 0.022576
0.161756 0.428109 0.035673
0.245635 0.435222 0.025235
0.359186 0.446496 0.026886
0.479550 0.457451 0.029060
0.599348 0.471201 0.031383
0.655821 0.449412 0.031822
0.698428 0.425555 0.032063
0.727939 0.399164 0.032975
0.747236 0.370949 0.038628
0.759836 0.343114 0.042529
0.764767 0.315594 0.045361
0.762151 0.287014 0.047496
0.760464 0.272751 0.048428
0.760620 0.277219 0.048114
0.066492 0.440786 0.024622
0.044264 0.443620 0.022594
0.173855 0.469579 0.036404
0.246127 0.476518 0.029708
0.348572 0.487539 0.027671
0.459677 0.497996 0.029708
0.568265 0.507953 0.031667
0.674842 0.522597 0.033829
0.710487 0.494834 0.033732
0.738005 0.467311 0.033639
0.757435 0.439735 0.033356
0.769092 0.410196 0.035663
0.772926 0.379286 0.039792
0.768861 0.345156 0.042980
0.766299 0.327807 0.044357
0.767003 0.333083 0.043924
0.079245 0.466963 0.023926
0.063566 0.470086 0.021961
0.182945 0.498100 0.036922
0.243354 0.504181 0.032172
0.334034 0.514537 0.028106
0.435818 0.524632 0.029960
0.537395 0.533708 0.031763
0.631252 0.542689 0.033547
0.729323 0.557303 0.035566
0.748313 0.525258 0.035134
0.765614 0.496574 0.034786
0.777768 0.468031 0.034330
0.781813 0.437827 0.033749
0.776965 0.401447 0.037546
0.773552 0.382219 0.039483
0.774534 0.388001 0.038902
0.086535 0.484731 0.023366
0.074852 0.487667 0.021099
0.190154 0.517504 0.037159
0.239113 0.522158 0.033537
0.318217 0.532199 0.028283
0.409701 0.541504 0.029995
0.504549 0.550342 0.031659
0.592317 0.557703 0.033189
0.676110 0.566091 0.034844
0.767243 0.580526 0.036749
0.775005 0.546468 0.036069
0.784581 0.517156 0.035566
0.788832 0.487393 0.034960
0.784232 0.452656 0.034094
0.781118 0.432875 0.033765
0.781931 0.438752 0.033760
0.092493 0.497020 0.022718
0.080299 0.500522 0.020690
0.195914 0.531020 0.037291
0.235160 0.534611 0.034385
0.302922 0.543712 0.028831
0.384629 0.552457 0.029850
0.471132 0.560663 0.031433
0.556017 0.568099 0.032934
0.632867 0.574608 0.034294
0.708629 0.582222 0.035779
0.794154 0.596510 0.037573
0.793348 0.560566 0.036713
0.794880 0.530493 0.036019
0.790594 0.496277 0.035158
0.787565 0.476941 0.034717
0.788313 0.482584 0.034852
0.095259 0.505300 0.022523
0.084136 0.508842 0.020389
0.199929 0.540458 0.037467
0.231197 0.542653 0.034900
0.289409 0.550753 0.031065
0.360901 0.558944 0.029675
0.439370 0.566898 0.031063
0.519287 0.574136 0.032482
0.593556 0.580321 0.033813
0.662583 0.586210 0.035099
0.731918 0.593484 0.036447
0.812500 0.607517 0.038135
0.803202 0.569219 0.037091
0.796108 0.534493 0.036146
0.792797 0.515822 0.035660
0.793690 0.521313 0.035792
0.096951 0.509291 0.022325
0.086039 0.513154 0.020072
0.202769 0.545456 0.037536
0.226793 0.546457 0.035227
0.275894 0.553588 0.032591
0.338600 0.561473 0.029386
0.408646 0.568530 0.030656
0.482125 0.575505 0.031934
0.553959 0.581976 0.033234
0.620094 0.587368 0.034398
0.682587 0.592651 0.035567
0.746426 0.599501 0.036840
0.822511 0.613435 0.038466
0.803923 0.570123 0.037109
0.797732 0.549692 0.036547
0.798532 0.555117 0.036680
0.096499 0.509275 0.022292
0.085727 0.513103 0.019913
0.204234 0.546026 0.037508
0.221647 0.545815 0.035416
0.263001 0.551895 0.033401
0.315981 0.558910 0.028953
0.376994 0.565591 0.030106
0.442503 0.572113 0.031232
0.509384 0.578271 0.032427
0.573420 0.583723 0.033561
0.632849 0.588681 0.034658
0.689571 0.593513 0.035714
0.748278 0.600003 0.036875
0.820095 0.611818 0.038380
0.804401 0.584741 0.037420
0.803344 0.589081 0.037502
0.096201 0.508866 0.022229
0.085400 0.512681 0.019850
0.204981 0.545967 0.037474
0.219412 0.545143 0.035453
0.256673 0.550664 0.033725
0.304733 0.557223 0.029914
0.361255 0.563424 0.029808
0.422858 0.569958 0.030885
0.486195 0.575855 0.031998
0.548444 0.581388 0.033118
0.606204 0.586215 0.034127
0.661579 0.590825 0.035179
0.714665 0.595305 0.036192
0.774119 0.601157 0.037318
0.810787 0.605890 0.038072
0.805868 0.606395 0.038001
0.106284 0.555608 -0.028447
0.105119 0.560836 -0.035035
0.213169 0.593961 0.027940
0.218064 0.595181 0.025764
0.237178 0.601028 0.027506
0.269666 0.607948 0.029761
0.320512 0.615702 0.030296
0.385363 0.623025 0.030574
0.457207 0.629483 0.032231
0.529916 0.635308 0.033911
0.598847 0.640640 0.035443
0.665027 0.645613 0.036935
0.728975 0.650412 0.038315
0.795214 0.655316 0.039656
0.830567 0.657795 0.040391
0.825891 0.657442 0.040321
-0.055668 -0.273491 0.060682
-0.078910 -0.278445 0.070082
-0.053575 -0.286140 0.074997
0.205752 -0.290849 0.082491
0.333137 -0.293313 0.082287
0.441899 -0.296051 0.081149
0.531790 -0.298978 0.078984
0.598622 -0.301857 0.074591
0.644403 -0.304607 0.068571
0.673328 -0.307188 0.061731
0.690498 -0.309529 0.054476
0.698458 -0.311766 0.048078
0.696450 -0.313927 0.042273
0.685568 -0.315789 0.036221
0.677878 -0.316882 0.033077
0.675843 -0.317146 0.033432
-0.014625 -0.038899 0.064964
-0.060929 -0.050272 0.063750
-0.023187 -0.052921 0.071894
0.204904 -0.053827 0.080821
0.321285 -0.049780 0.079872
0.422985 -0.043859 0.078837
0.508851 -0.038178 0.076485
0.574174 -0.033019 0.072054
0.620939 -0.028600 0.066140
0.653494 -0.024833 0.059789
0.676322 -0.021566 0.053251
0.691716 -0.018889 0.047424
0.699782 -0.017419 0.042646
0.699791 -0.017391 0.038162
0.699156 -0.017556 0.035947
0.699172 -0.017510 0.036550
-0.009781 0.049354 0.074432
-0.065729 0.024888 0.079319
0.109112 0.080146 0.091521
0.240502 0.074320 0.095061
0.366179 0.044502 0.087470
0.473631 -0.037302 0.083802
0.563630 -0.055329 0.083227
0.631594 -0.063046 0.084878
0.681080 -0.066859 0.084799
0.715596 -0.068873 0.082675
0.740430 -0.070440 0.082055
0.757531 -0.071343 0.079911
0.766589 -0.071859 0.076577
0.767213 -0.071972 0.072181
0.766748 -0.072007 0.069997
0.766779 -0.071993 0.070406
0.014795 0.167039 0.083845
-0.069742 0.171194 0.085989
0.104170 0.189215 0.087837
0.242345 0.187768 0.069748
0.370473 0.191950 0.076731
0.480537 0.195589 0.083841
0.570381 0.198537 0.087183
0.637129 0.201493 0.087849
0.685573 0.204170 0.088456
0.719442 0.206549 0.089269
0.743632 0.209052 0.089887
0.760154 0.211138 0.090672
0.768753 0.213117 0.091385
0.769568 0.214721 0.091891
0.769119 0.215635 0.092190
0.769124 0.215787 0.092260
0.026453 0.263739 0.083308
-0.068063 0.267133 0.080902
0.099115 0.289190 0.070466
0.249941 0.293484 0.050776
0.378974 0.299275 0.051876
0.488060 0.293460 0.050459
0.576836 0.289156 0.066322
0.642737 0.282570 0.074556
0.690068 0.274418 0.079370
0.722541 0.265875 0.082537
0.745656 0.257688 0.085039
0.761144 0.250400 0.086872
0.769237 0.243790 0.088183
0.769158 0.237177 0.089127
0.768842 0.234186 0.089087
0.768964 0.235716 0.089141
0.036832 0.344705 0.078467
-0.067097 0.348559 0.072745
0.112271 0.371721 0.063008
0.259995 0.380067 0.045395
0.377215 0.388376 0.046043
0.503464 0.397013 0.048031
0.588512 0.384709 0.048221
0.652915 0.371711 0.051465
0.698763 0.355481 0.063457
0.730121 0.338121 0.070702
0.751838 0.321684 0.075539
0.766341 0.306372 0.079025
0.773322 0.292366 0.081463
0.772397 0.278178 0.083428
0.771536 0.271738 0.084210
0.771869 0.274713 0.083844
0.044088 0.403031 0.070624
-0.067554 0.406687 0.058309
0.128151 0.430860 0.058976
0.270643 0.442977 0.043451
0.375330 0.450871 0.044448
0.489982 0.459146 0.045976
0.604053 0.469917 0.047784
0.663890 0.451046 0.048343
0.708626 0.431317 0.048625
0.739385 0.409758 0.054203
0.759749 0.387447 0.062996
0.773447 0.366184 0.069134
0.779327 0.345327 0.073654
0.777241 0.324099 0.076951
0.775696 0.313890 0.078450
0.776093 0.318413 0.077767
0.047473 0.442260 0.057822
