luts/Chemical Cool.cube
TITLE "33x33x33 Adobe/IRIDAS cube 3D LUT exported with GrossGrade v0.2.2 (beta) 64 bit"
DOMAIN_MIN 0 0 0
DOMAIN_MAX 1 1 1
LUT_3D_SIZE 5
0.086410344 0.095851049 0.084322162
0.221548617 0.074923843 0.068305925
0.580293596 0.000000000 0.000000000
1.000000000 0.000000000 0.000000000
1.000000000 0.000000000 0.000000000
0.022397935 0.299329787 0.011744255
0.169793725 0.284246981 0.004829669
0.465665460 0.254901201 0.000000000
0.767833114 0.214383826 0.000000000
1.000000000 0.163567930 0.000000000
0.000000000 0.694884062 0.000000000
0.073201001 0.557243168 0.000000000
0.400978744 0.515238106 0.000000000
0.703306913 0.487126678 0.000000000
0.958734930 0.434369415 0.000000000
0.000000000 0.846745253 0.000000000
0.000000000 0.845035434 0.000000000
0.365812182 0.700704634 0.000000000
0.654599667 0.658457339 0.000000000
0.919347286 0.622923613 0.000000000
0.000000000 0.846745253 0.000000000
0.000000000 0.845035434 0.000000000
0.332924485 0.842823684 0.000000000
0.632751226 0.780262947 0.000000000
0.893478215 0.738304853 0.000000000
0.070737660 0.082558908 0.611251175
0.203553498 0.067331098 0.500448406
0.561892629 0.000000000 0.456269383
1.000000000 0.000000000 0.363402843
1.000000000 0.000000000 0.334584177
0.024094701 0.290278465 0.383523166
0.149151623 0.262499273 0.331858307
0.430906534 0.228950560 0.300510913
0.764754593 0.181553379 0.244718596
1.000000000 0.118256040 0.196507186
0.000000000 0.687731802 0.289939702
0.042195141 0.540923655 0.263029039
0.379486620 0.497644067 0.219089821
0.688107967 0.467744082 0.191635638
0.954061031 0.419100761 0.130589187
0.000000000 0.846745253 0.220604122
0.000000000 0.846745253 0.145683274
0.339755535 0.702013612 0.143536478
0.651537836 0.662087858 0.108664759
0.919777632 0.612258136 0.075225256
0.000000000 0.846745253 0.213235915
0.000000000 0.846745253 0.145683274
0.305057883 0.845263183 0.034082405
0.623830557 0.781420410 0.056211218
0.893922985 0.728956819 0.009302868
0.070737660 0.082558908 0.821121812
0.199976742 0.067915268 0.820589662
0.516697228 0.004656712 0.816668093
1.000000000 0.000000000 0.763174951
1.000000000 0.000000000 0.763174951
0.029661238 0.274296045 0.817200243
0.144124448 0.247754022 0.818928719
0.411464155 0.214549005 0.749035239
0.738843501 0.178960294 0.694976807
1.000000000 0.115176849 0.596703351
0.000000000 0.640290141 0.805735052
0.048564911 0.521541834 0.693658233
0.367971301 0.472995728 0.595553637
0.659688592 0.433468193 0.554938614
0.949151576 0.401073337 0.498803884
0.000000000 0.846745253 0.792104483
0.000000000 0.846745253 0.611253083
0.322755873 0.697707415 0.536821723
0.639431059 0.642736793 0.495440125
0.902029574 0.595933139 0.464570165
0.000000000 0.846745253 0.792104483
0.000000000 0.846745253 0.588936746
0.280417740 0.846745253 0.496975273
0.616544008 0.776753843 0.459096193
0.884147048 0.722127676 0.443709224
0.070737660 0.082558908 0.821121812
0.197297871 0.068308294 0.820589662
0.506374359 0.006592244 0.816668093
1.000000000 0.000000000 0.763174951
1.000000000 0.000000000 0.763174951
0.031052291 0.271282136 0.817200243
0.144587636 0.244974762 0.818928719
0.410958529 0.213049784 0.817200243
0.722517908 0.181386799 0.812746525
1.000000000 0.113853015 0.758544326
0.000000000 0.608297467 0.806919992
0.053974628 0.508068204 0.811226785
0.356611729 0.454137415 0.816025555
0.658249378 0.414166749 0.761615992
0.949151576 0.396402121 0.696256876
0.000000000 0.846745253 0.792104483
0.000000000 0.824756682 0.793570399
0.329667807 0.676494896 0.767149270
0.633713841 0.626159668 0.696380138
0.895608902 0.594911814 0.643595278
0.000000000 0.846745253 0.792104483
0.000000000 0.846745253 0.792104483
0.280417740 0.846745253 0.728421748
0.612546921 0.769085824 0.661102593
0.877476811 0.709085286 0.620565891
0.070737660 0.082558908 0.821121812
0.197297871 0.068308294 0.820589662
0.506374359 0.006592244 0.816668093
1.000000000 0.000000000 0.763174951
1.000000000 0.000000000 0.763174951
0.032086253 0.268804044 0.817200243
0.144587636 0.244974762 0.818928719
0.410958529 0.213049784 0.817200243
0.716046214 0.182357550 0.812746525
1.000000000 0.113853015 0.758544326
0.000000000 0.601908624 0.807156563
0.057500958 0.502426147 0.811461926
0.357315600 0.448271841 0.816260219
0.653752685 0.416245550 0.811343610
0.938934624 0.395894229 0.758213997
0.000000000 0.846745253 0.792104483
0.000000000 0.802903473 0.795027316
0.330272615 0.666990817 0.804547787
0.627435029 0.618890285 0.772828221
0.896499515 0.590791464 0.703638017
0.000000000 0.846745253 0.792104483
0.000000000 0.846745253 0.792104483
0.280417740 0.845567584 0.790538251
0.611797631 0.766955674 0.744656622
0.883050084 0.707572103 0.682892084
