luts/Chemical Cool.cube
TITLE "33x33x33 Adobe/IRIDAS cube 3D LUT exported with GrossGrade v0.2.2 (beta) 64 bit"
DOMAIN_MIN 0 0 0
DOMAIN_MAX 1 1 1
LUT_3D_SIZE 33
0.086410344 0.095851049 0.084322162
0.089058101 0.095501609 0.084144741
0.095561028 0.095153317 0.083581522
0.107639968 0.094805054 0.082241006
0.123807013 0.094416536 0.081673548
0.139613867 0.091159448 0.081262551
0.161251545 0.086732499 0.079467945
0.190230906 0.082260594 0.072996564
0.221548617 0.074923843 0.068305925
0.260655642 0.066600725 0.061870158
0.303160131 0.060474012 0.053796288
0.345546365 0.053602900 0.044895168
0.391437769 0.042493276 0.033612628
0.431827724 0.032747101 0.023900324
0.474707961 0.020621069 0.011272457
0.522821307 0.004811212 0.002886727
0.580293596 0.000000000 0.000000000
0.634261310 0.000000000 0.000000000
0.687088251 0.000000000 0.000000000
0.764754593 0.000000000 0.000000000
0.842723012 0.000000000 0.000000000
0.939600229 0.000000000 0.000000000
1.000000000 0.000000000 0.000000000
1.000000000 0.000000000 0.000000000
1.000000000 0.000000000 0.000000000
1.000000000 0.000000000 0.000000000
1.000000000 0.000000000 0.000000000
1.000000000 0.000000000 0.000000000
1.000000000 0.000000000 0.000000000
1.000000000 0.000000000 0.000000000
1.000000000 0.000000000 0.000000000
1.000000000 0.000000000 0.000000000
1.000000000 0.000000000 0.000000000
0.084921420 0.109123699 0.080240965
0.087267160 0.108638488 0.080337971
0.093058646 0.108157314 0.079870343
0.104158819 0.107681319 0.079406410
0.118747830 0.107205361 0.078382879
0.136121333 0.104568951 0.076801181
0.156011820 0.100809731 0.074183106
0.183390260 0.097103804 0.070840135
0.214715660 0.092095852 0.066653676
0.250054479 0.087101877 0.060016617
0.289546728 0.082637154 0.049970590
0.333957493 0.075584002 0.042220157
0.378861368 0.067194872 0.033279199
0.418118477 0.060664624 0.020941911
0.458901823 0.050359733 0.011381337
0.505875707 0.035160359 0.004183893
0.552681625 0.022316890 0.000000000
0.607879400 0.001980867 0.000000000
0.654608727 0.000000000 0.000000000
0.729143381 0.000000000 0.000000000
0.787430525 0.000000000 0.000000000
0.889346719 0.000000000 0.000000000
0.949396610 0.000000000 0.000000000
0.949396610 0.000000000 0.000000000
1.000000000 0.000000000 0.000000000
1.000000000 0.000000000 0.000000000
1.000000000 0.000000000 0.000000000
1.000000000 0.000000000 0.000000000
1.000000000 0.000000000 0.000000000
1.000000000 0.000000000 0.000000000
1.000000000 0.000000000 0.000000000
1.000000000 0.000000000 0.000000000
1.000000000 0.000000000 0.000000000
0.081703663 0.125838175 0.076341182
0.084147871 0.125214979 0.075773902
0.090391219 0.124599114 0.075205237
0.100772083 0.123985372 0.074011929
0.115374386 0.123371676 0.073218368
0.132642686 0.122331291 0.072715327
0.151094973 0.121099375 0.071919017
0.175476611 0.118095838 0.069194458
0.204967618 0.113623850 0.064669728
0.239084840 0.109698460 0.057236653
0.278003514 0.106160402 0.049233075
0.322370052 0.098780155 0.041318409
0.366796613 0.093460880 0.029957900
0.401581347 0.087980345 0.021261713
0.440575123 0.080782473 0.014514318
0.484096766 0.073720872 0.002398113
0.527642131 0.062324036 0.000640854
0.574135661 0.047271121 0.000000000
0.622619390 0.034785215 0.000000000
0.674974144 0.013195829 0.000000000
0.732379794 0.004260680 0.000000000
0.800393701 0.000000000 0.000000000
0.869639158 0.000000000 0.000000000
0.949396610 0.000000000 0.000000000
1.000000000 0.000000000 0.000000000
1.000000000 0.000000000 0.000000000
1.000000000 0.000000000 0.000000000
1.000000000 0.000000000 0.000000000
1.000000000 0.000000000 0.000000000
1.000000000 0.000000000 0.000000000
1.000000000 0.000000000 0.000000000
1.000000000 0.000000000 0.000000000
1.000000000 0.000000000 0.000000000
0.077653944 0.147530124 0.071742229
0.080076277 0.146672681 0.071292326
0.086852312 0.144795716 0.070413537
0.097898602 0.143184572 0.069626056
0.112650394 0.141301781 0.068851627
0.130720973 0.139895990 0.067726023
0.148311496 0.139674231 0.065003529
0.171680808 0.137690663 0.062506922
0.200565338 0.133802712 0.060792554
0.233952522 0.133451670 0.053651731
0.272695482 0.129354969 0.045929462
0.316576838 0.123436302 0.037241697
0.359068692 0.116814606 0.027476311
0.393850148 0.113916144 0.018780945
0.430906534 0.108821176 0.011703057
0.474423289 0.102677800 0.001336023
0.513124228 0.094841383 0.000000000
0.555736005 0.084179126 0.000000000
0.601743042 0.074020512 0.000000000
0.654608727 0.055211078 0.000000000
0.703259706 0.040404309 0.000000000
0.771232247 0.014982060 0.000000000
0.819846749 0.005810682 0.000000000
0.908518791 0.000000000 0.000000000
0.960972250 0.000000000 0.000000000
0.960972250 0.000000000 0.000000000
1.000000000 0.000000000 0.000000000
1.000000000 0.000000000 0.000000000
1.000000000 0.000000000 0.000000000
1.000000000 0.000000000 0.000000000
1.000000000 0.000000000 0.000000000
1.000000000 0.000000000 0.000000000
1.000000000 0.000000000 0.000000000
0.070030868 0.170856789 0.067109756
0.072530568 0.169041082 0.066468179
0.079313219 0.167400822 0.065850973
0.090208590 0.166606650 0.065081656
0.105728865 0.165812477 0.064312756
0.125354469 0.165480673 0.063069470
0.142145157 0.163775951 0.060317487
0.165190756 0.161022440 0.057465896
0.196213722 0.160193831 0.053598415
0.226718545 0.156804040 0.049262308
0.266383827 0.152589396 0.041951153
0.307312608 0.148360208 0.034108385
0.349574089 0.143019944 0.024987753
0.386119664 0.139316767 0.016408194
0.421239078 0.135503620 0.006439882
0.459915280 0.129862234 0.003703219
0.498609066 0.123783298 0.000000000
0.534902155 0.118944228 0.000000000
0.580269694 0.110269189 0.000000000
0.628434300 0.098705016 0.000000000
0.674974144 0.087293535 0.000000000
0.722671330 0.068569839 0.000000000
0.771232247 0.053479154 0.000000000
0.836065888 0.027352750 0.000000000
0.902195215 0.013765216 0.000000000
0.960972250 0.000000000 0.000000000
1.000000000 0.000000000 0.000000000
1.000000000 0.000000000 0.000000000
1.000000000 0.000000000 0.000000000
1.000000000 0.000000000 0.000000000
1.000000000 0.000000000 0.000000000
1.000000000 0.000000000 0.000000000
1.000000000 0.000000000 0.000000000
0.062904298 0.199363291 0.059423544
0.065411270 0.197518408 0.058900986
0.071346521 0.196596101 0.058021460
0.081927001 0.195673898 0.056622636
0.097969532 0.194751665 0.054326791
0.117841601 0.194095597 0.052070267
0.135182559 0.193058193 0.049784027
0.159853816 0.192020878 0.046659376
0.190429389 0.190253705 0.045327242
0.222252429 0.186936811 0.040109769
0.260593951 0.182552576 0.033034034
0.301008344 0.177976608 0.027647223
0.343087494 0.173399150 0.017256297
0.379873633 0.169464186 0.009440525
0.413179636 0.164870590 0.003502079
0.450125754 0.161037549 0.001879116
0.487051070 0.156709194 0.000000000
0.524420083 0.151870713 0.000000000
0.564935327 0.144743994 0.000000000
0.612245321 0.137376606 0.000000000
0.653071404 0.127416611 0.000000000
0.700025022 0.118374564 0.000000000
0.745327175 0.106607944 0.000000000
0.810118973 0.080916837 0.000000000
0.859624684 0.061142843 0.000000000
0.929418445 0.030067192 0.000000000
0.965389431 0.027412288 0.000000000
0.965389431 0.027412288 0.000000000
1.000000000 0.013692531 0.000000000
1.000000000 0.013692531 0.000000000
1.000000000 0.013692531 0.000000000
1.000000000 0.013692531 0.000000000
1.000000000 0.012369776 0.000000000
0.052272499 0.231489092 0.044709522
0.054391086 0.230449095 0.044051945
0.059950113 0.229409203 0.043295067
0.071521580 0.228369370 0.042218167
0.088838458 0.227329597 0.041028801
0.110221982 0.226289868 0.040400539
0.127933979 0.225250319 0.037981667
0.154004216 0.223835468 0.035285555
0.184009910 0.221824273 0.032036021
0.215171933 0.220037773 0.026663510
0.252460718 0.217236355 0.022387717
0.293470860 0.212868571 0.015772171
0.335830092 0.208173722 0.010077774
0.368675053 0.203131586 0.003286601
0.404267192 0.200359628 0.002360101
0.439177334 0.195229694 0.000107810
0.475393593 0.190616161 0.000000000
0.511515558 0.187169895 0.000000000
0.548953772 0.182037920 0.000000000
0.589629829 0.174620718 0.000000000
0.631577730 0.168829426 0.000000000
0.674564242 0.162235260 0.000000000
0.719435632 0.152614489 0.000000000
0.767265618 0.144185796 0.000000000
0.815876067 0.132033169 0.000000000
0.866311491 0.117599219 0.000000000
0.914771736 0.100584857 0.000000000
0.965389431 0.074984021 0.000000000
1.000000000 0.056350425 0.000000000
1.000000000 0.056350425 0.000000000
1.000000000 0.056350425 0.000000000
1.000000000 0.053758055 0.000000000
1.000000000 0.051165767 0.000000000
0.040425956 0.262299508 0.031344179
0.042939305 0.261141539 0.030783862
0.049738467 0.258825868 0.030831035
0.061912835 0.257668167 0.029639097
0.080348849 0.256510586 0.028114008
0.104250193 0.255353063 0.026456401
0.122059524 0.254195660 0.024187308
0.148118794 0.253038347 0.021640178
0.177360356 0.251881123 0.018093366
0.209107995 0.248518810 0.014311725
0.243666112 0.247288674 0.009904394
0.287555575 0.244712859 0.005804577
0.328839898 0.239900261 0.002237012
0.362395644 0.234618902 0.001357482
0.400079131 0.232852086 0.001306627
0.433931947 0.227926657 0.000000000
0.470501781 0.221475154 0.000000000
0.506354272 0.217945829 0.000000000
0.540085077 0.213139430 0.000000000
0.580872118 0.207348779 0.000000000
0.622369766 0.201555774 0.000000000
0.665350437 0.195760146 0.000000000
0.702521622 0.189993978 0.000000000
0.748636961 0.183819652 0.000000000
0.791646421 0.173921719 0.000000000
0.842723012 0.163896337 0.000000000
0.882827878 0.153498411 0.000000000
0.942098558 0.135460183 0.000000000
0.975676417 0.125343740 0.000000000
0.975676417 0.125343740 0.000000000
1.000000000 0.116049781 0.000000000
1.000000000 0.113456912 0.000000000
1.000000000 0.113456912 0.000000000
0.022397935 0.299329787 0.011744255
0.026103318 0.296312124 0.012817759
0.034044147 0.293295026 0.013890799
0.047148168 0.291786671 0.013098765
0.066096961 0.290278465 0.011822004
0.094239950 0.288770378 0.011618884
0.113104701 0.287262440 0.009757897
0.139095485 0.285754651 0.008085130
0.169793725 0.284246981 0.004829669
0.200905979 0.282739460 0.004412408
0.234348714 0.280244231 0.003378621
0.278683782 0.277446479 0.002484303
0.320258021 0.274073273 0.000000000
0.358040273 0.269668847 0.000000000
0.393740654 0.265316725 0.000000000
0.426984966 0.260029227 0.000000000
0.465665460 0.254901201 0.000000000
0.497748435 0.250256211 0.000000000
0.529434085 0.245610774 0.000000000
0.570214033 0.241088018 0.000000000
0.613163114 0.237157732 0.000000000
0.649996817 0.231890798 0.000000000
0.686851501 0.226621807 0.000000000
0.726803899 0.221026838 0.000000000
0.767833114 0.214383826 0.000000000
0.808664143 0.206593916 0.000000000
0.849512279 0.198734850 0.000000000
0.899003685 0.190170601 0.000000000
0.942098618 0.181314036 0.000000000
0.975676417 0.170540988 0.000000000
1.000000000 0.163567930 0.000000000
1.000000000 0.163567930 0.000000000
1.000000000 0.163567930 0.000000000
0.007679939 0.336715490 0.000000000
0.010758281 0.332760513 0.000000000
0.018711090 0.326829553 0.000000000
0.033483028 0.325002909 0.000074970
0.056694925 0.323491544 0.000307487
0.085204124 0.321980327 0.000269991
0.104843795 0.318958372 0.000502450
0.131752551 0.317447603 0.000618662
0.161489189 0.314426512 0.000000000
0.193254709 0.312916189 0.000000000
0.225847423 0.310739815 0.000000000
0.271259904 0.308696449 0.000000000
0.311921000 0.304724574 0.000000000
0.349441111 0.301522970 0.000000000
0.383689642 0.298444241 0.000000000
0.417317450 0.292615950 0.000000000
0.457343340 0.289876342 0.000000000
0.487940490 0.284530073 0.000000000
0.523079634 0.279307872 0.000000000
0.564080358 0.275308043 0.000000000
0.603957772 0.269790739 0.000000000
0.640786648 0.264494300 0.000000000
0.676787138 0.259840041 0.000000000
0.716600537 0.254143566 0.000000000
0.754356384 0.246779948 0.000000000
0.795049369 0.241153032 0.000000000
0.832501769 0.234846503 0.000000000
0.882827759 0.226277605 0.000000000
0.917822003 0.219276339 0.000000000
0.956153750 0.210097849 0.000000000
0.988081455 0.203376234 0.000000000
0.988081455 0.203376234 0.000000000
1.000000000 0.199125662 0.000000000
0.002328932 0.382259011 0.000000000
0.005602360 0.376311898 0.000000000
0.013308406 0.370366871 0.000000000
0.028433561 0.368385613 0.000000000
0.047109902 0.366404623 0.000000000
0.070632935 0.362443268 0.000000000
0.091288269 0.358482838 0.000000000
0.120388269 0.353086680 0.000000000
0.150639057 0.349089503 0.000000000
0.184254169 0.347226888 0.000000000
0.217681944 0.345364451 0.000000000
0.261818409 0.343502223 0.000000000
0.302793324 0.338727981 0.000000000
0.337852180 0.336749732 0.000000000
0.374443710 0.333962947 0.000000000
0.410040021 0.331224769 0.000000000
0.448016644 0.328485399 0.000000000
0.481790781 0.322973192 0.000000000
0.517917395 0.318590641 0.000000000
0.554801941 0.311484009 0.000000000
0.594753563 0.304418892 0.000000000
0.630598485 0.300583303 0.000000000
0.665619373 0.296900630 0.000000000
0.702572882 0.290266722 0.000000000
0.741405606 0.282897592 0.000000000
0.778037310 0.277592540 0.000000000
0.815473199 0.272284746 0.000000000
0.852891684 0.265794277 0.000000000
0.888383806 0.259349048 0.000000000
0.931954205 0.254152685 0.000000000
0.968016088 0.247777894 0.000000000
0.987754345 0.242728382 0.000000000
1.000000000 0.238803104 0.000000000
0.000000000 0.425468177 0.000000000
0.001761973 0.418679118 0.000000000
0.007350385 0.411619306 0.000000000
0.019061267 0.408686519 0.000000000
0.036674023 0.401920706 0.000000000
0.054998279 0.397375345 0.000000000
0.081379354 0.392641395 0.000000000
0.111995697 0.386657029 0.000000000
0.142412603 0.382652253 0.000000000
0.177044153 0.380785853 0.000000000
0.211630523 0.377053648 0.000000000
0.255766630 0.375187904 0.000000000
0.294971168 0.372390330 0.000000000
0.330329835 0.369785726 0.000000000
0.368277133 0.366575092 0.000000000
0.403871775 0.365201920 0.000000000
0.439384401 0.360642463 0.000000000
0.473036289 0.354639918 0.000000000
0.509159386 0.354639918 0.000000000
0.543508291 0.349378318 0.000000000
0.589626551 0.343761683 0.000000000
0.625476003 0.339727283 0.000000000
0.658351719 0.333423078 0.000000000
0.696094394 0.325351715 0.000000000
0.734919786 0.317572922 0.000000000
0.771218419 0.313013613 0.000000000
0.805242896 0.305583894 0.000000000
0.841770887 0.300711960 0.000000000
0.873919785 0.295437753 0.000000000
0.920084178 0.291077703 0.000000000
0.951701164 0.284201533 0.000000000
0.972325444 0.278893143 0.000000000
0.998965025 0.275269210 0.000000000
0.000000000 0.470653862 0.000000000
0.001761973 0.463152528 0.000000000
0.007350385 0.456074268 0.000000000
0.013174593 0.449041903 0.000000000
0.018755913 0.442017436 0.000000000
0.027649105 0.437347233 0.000000000
0.054406703 0.432656109 0.000000000
0.095427096 0.427977294 0.000000000
0.129132688 0.423299849 0.000000000
0.166886866 0.418623596 0.000000000
0.202999949 0.412662923 0.000000000
0.245765030 0.410442680 0.000000000
0.286089420 0.408222765 0.000000000
0.322903872 0.404653758 0.000000000
0.361288548 0.401253700 0.000000000
0.395020962 0.398823202 0.000000000
0.430164635 0.394611329 0.000000000
0.462880552 0.392354786 0.000000000
0.498733044 0.392087579 0.000000000
0.538226426 0.389262944 0.000000000
0.584342718 0.384502918 0.000000000
0.618323267 0.378056258 0.000000000
0.652203918 0.371832758 0.000000000
0.689614534 0.363754213 0.000000000
0.728428900 0.355674237 0.000000000
0.760991633 0.349631459 0.000000000
0.794231951 0.342963189 0.000000000
0.826759100 0.339128017 0.000000000
0.859209538 0.334241956 0.000000000
0.898273647 0.328408122 0.000000000
0.933776259 0.322200924 0.000000000
0.968016088 0.317805290 0.000000000
0.996561408 0.314938843 0.000000000
0.000000000 0.519278944 0.000000000
0.000251710 0.511166275 0.000000000
0.001050055 0.497644067 0.000000000
0.002599716 0.489542425 0.000000000
0.003966391 0.481444776 0.000000000
0.011088848 0.476048440 0.000000000
0.042446911 0.467957139 0.000000000
0.083200276 0.463100016 0.000000000
0.122198641 0.456069440 0.000000000
0.160325646 0.451259285 0.000000000
0.196065784 0.443911076 0.000000000
0.238601267 0.441552460 0.000000000
0.280623078 0.437104583 0.000000000
0.317610621 0.433692634 0.000000000
0.353905380 0.431074351 0.000000000
0.387793899 0.428734541 0.000000000
0.422613919 0.425319433 0.000000000
0.455718219 0.423063040 0.000000000
0.488665760 0.422473401 0.000000000
0.527510047 0.420129657 0.000000000
0.570555210 0.415525168 0.000000000
0.604531407 0.409068227 0.000000000
0.647492945 0.406803131 0.000000000
0.684969902 0.399792731 0.000000000
0.720893502 0.389012337 0.000000000
0.753484249 0.382009208 0.000000000
0.786094189 0.375486702 0.000000000
0.818607807 0.371415436 0.000000000
0.848861754 0.366880149 0.000000000
0.888598561 0.360704839 0.000000000
0.922968566 0.355024189 0.000000000
0.958918154 0.351299465 0.000000000
0.985694826 0.346144855 0.000000000
0.000000000 0.570008516 0.000000000
0.000206709 0.554485500 0.000000000
0.001050055 0.540923655 0.000000000
0.002092481 0.532799184 0.000000000
0.002746105 0.524679244 0.000000000
0.009327292 0.516563714 0.000000000
0.040686250 0.508452475 0.000000000
0.064144194 0.500345469 0.000000000
0.102287292 0.492242545 0.000000000
0.149241865 0.486101121 0.000000000
0.187103808 0.478165746 0.000000000
0.230963826 0.472534806 0.000000000
0.275138915 0.466905653 0.000000000
0.310002685 0.464035600 0.000000000
0.346352220 0.461522669 0.000000000
0.380561650 0.459178478 0.000000000
0.415515780 0.456081301 0.000000000
0.446942329 0.453986198 0.000000000
0.479403198 0.452912986 0.000000000
0.515649199 0.450569510 0.000000000
0.556766689 0.446601123 0.000000000
0.599708438 0.444331288 0.000000000
0.642666817 0.442060620 0.000000000
0.676858902 0.433181792 0.000000000
0.712775648 0.423222363 0.000000000
0.745357990 0.416691929 0.000000000
0.777958035 0.410161853 0.000000000
0.808024526 0.406249195 0.000000000
0.838642597 0.402173370 0.000000000
0.875489295 0.396186769 0.000000000
0.910758257 0.390358895 0.000000000
0.944190383 0.384488285 0.000000000
0.972325444 0.379057109 0.000000000
0.000000000 0.630683541 0.000000000
0.000000000 0.614676952 0.000000000
0.000000000 0.589127541 0.000000000
0.000000000 0.579558730 0.000000000
0.000000000 0.560427308 0.000000000
0.005656838 0.551763594 0.000000000
0.024374247 0.540923655 0.000000000
0.042389870 0.532799184 0.000000000
0.084493935 0.524679244 0.000000000
0.137963414 0.518526733 0.000000000
0.180115402 0.509168506 0.000000000
0.225202262 0.503527403 0.000000000
0.267883480 0.497888178 0.000000000
0.303877175 0.493722498 0.000000000
0.340287685 0.491021514 0.000000000
0.374775171 0.488320976 0.000000000
0.408397198 0.485189885 0.000000000
0.439822018 0.483094871 0.000000000
0.474773169 0.479876876 0.000000000
0.511135578 0.477060318 0.000000000
0.549461365 0.472297609 0.000000000
0.592400670 0.470297962 0.000000000
0.632288337 0.468550295 0.000000000
0.666401088 0.458319604 0.000000000
0.708106518 0.453385293 0.000000000
0.740703344 0.446350485 0.000000000
0.770604253 0.439975291 0.000000000
0.801195979 0.436059535 0.000000000
0.835204482 0.429522276 0.000000000
0.872153342 0.423444599 0.000000000
0.904436767 0.417829841 0.000000000
0.938972175 0.411821216 0.000000000
0.965801179 0.406468749 0.000000000
0.000000000 0.694884062 0.000000000
0.000000000 0.666303754 0.000000000
0.000000000 0.640290141 0.000000000
0.000000000 0.621072173 0.000000000
0.000000000 0.601883769 0.000000000
0.002331316 0.589115143 0.000000000
0.013979197 0.576358080 0.000000000
0.026696205 0.566797674 0.000000000
0.073201001 0.557243168 0.000000000
0.128407836 0.548713267 0.000000000
0.172349870 0.540230632 0.000000000
0.217614591 0.534578264 0.000000000
0.261346281 0.528200448 0.000000000
0.297744572 0.523463845 0.000000000
0.334155083 0.520757675 0.000000000
0.366806746 0.518051982 0.000000000
0.400978744 0.515238106 0.000000000
0.435054660 0.510890007 0.000000000
0.469844043 0.508068204 0.000000000
0.504434109 0.504437447 0.000000000
0.542154551 0.499628216 0.000000000
0.582023978 0.498476654 0.000000000
0.621908367 0.497208983 0.000000000
0.661923587 0.492271602 0.000000000
0.703306913 0.487126678 0.000000000
0.732605457 0.480077684 0.000000000
0.762436390 0.473030895 0.000000000
0.796634138 0.465819955 0.000000000
0.830874264 0.458605558 0.000000000
0.864992201 0.452598512 0.000000000
0.897691309 0.446466267 0.000000000
0.930724263 0.440447420 0.000000000
0.958734930 0.434369415 0.000000000
0.000000000 0.770323217 0.000000000
0.000000000 0.741494417 0.000000000
0.000000000 0.709176302 0.000000000
0.000000000 0.687689960 0.000000000
0.000000000 0.649879813 0.000000000
0.002331316 0.637062132 0.000000000
0.013414860 0.614664555 0.000000000
0.016810596 0.605077744 0.000000000
0.061197817 0.592306137 0.000000000
0.108019412 0.582735181 0.000000000
0.157868564 0.569983780 0.000000000
0.208988309 0.563612103 0.000000000
0.255503297 0.555512488 0.000000000
0.291958034 0.550553381 0.000000000
0.328722000 0.545131266 0.000000000
0.362433076 0.542420983 0.000000000
0.396495700 0.539711297 0.000000000
0.430518687 0.536309063 0.000000000
0.462566555 0.533482611 0.000000000
0.497891009 0.529111087 0.000000000
0.538029909 0.524135888 0.000000000
0.577898324 0.523876607 0.000000000
0.614830971 0.520105541 0.000000000
0.654844761 0.515159965 0.000000000
0.695833921 0.512827873 0.000000000
0.724938035 0.505539060 0.000000000
0.760993898 0.500976264 0.000000000
0.795091271 0.493781686 0.000000000
0.825823545 0.486745328 0.000000000
0.860267639 0.480964094 0.000000000
0.890240431 0.472354472 0.000000000
0.924254894 0.467161238 0.000000000
0.950448275 0.461200804 0.000000000
0.000000000 0.846745253 0.000000000
0.000000000 0.813801467 0.000000000
0.000000000 0.781124532 0.000000000
0.000000000 0.741466463 0.000000000
0.000000000 0.702013612 0.000000000
0.000000000 0.676984727 0.000000000
0.002861798 0.653086543 0.000000000
0.006660700 0.640265226 0.000000000
0.044689536 0.627458155 0.000000000
0.085861862 0.614664555 0.000000000
0.142631292 0.601883769 0.000000000
0.194766462 0.595497906 0.000000000
0.244987905 0.587545335 0.000000000
0.283644140 0.579771876 0.000000000
0.321117103 0.573158562 0.000000000
0.356847525 0.569852948 0.000000000
0.391145885 0.566548169 0.000000000
0.422825813 0.563244045 0.000000000
0.455091000 0.559635282 0.000000000
0.493824482 0.554192901 0.000000000
0.533876181 0.549403429 0.000000000
0.570821404 0.546492279 0.000000000
0.607752562 0.543035150 0.000000000
0.647646666 0.540907204 0.000000000
0.688352406 0.538586795 0.000000000
0.723728299 0.533597469 0.000000000
0.759555459 0.528846741 0.000000000
0.790184021 0.521833539 0.000000000
0.820808411 0.514818013 0.000000000
0.851793051 0.506762743 0.000000000
0.882675290 0.498973310 0.000000000
0.914496660 0.494032264 0.000000000
0.941869736 0.488090783 0.000000000
0.000000000 0.846745253 0.000000000
0.000000000 0.813801467 0.000000000
0.000000000 0.813801467 0.000000000
0.000000000 0.773921490 0.000000000
0.000000000 0.773921490 0.000000000
0.000000000 0.748676658 0.000000000
0.000000000 0.705594301 0.000000000
0.000000000 0.690907121 0.000000000
0.022492468 0.662712336 0.000000000
0.063689291 0.649879813 0.000000000
0.129602313 0.637062132 0.000000000
0.185484111 0.630658627 0.000000000
0.237535059 0.616291881 0.000000000
0.277889907 0.609569013 0.000000000
0.316059709 0.602941930 0.000000000
0.352593720 0.599629641 0.000000000
0.387365997 0.593007267 0.000000000
0.419046760 0.589697301 0.000000000
0.449622571 0.585299551 0.000000000
0.488249421 0.579851687 0.000000000
0.524911404 0.575843811 0.000000000
0.562066317 0.572499394 0.000000000
0.599953651 0.568877637 0.000000000
0.639847457 0.566738367 0.000000000
0.680271626 0.564426243 0.000000000
0.715822935 0.558793783 0.000000000
0.747971475 0.553408742 0.000000000
0.778683424 0.545357049 0.000000000
0.815901220 0.540358663 0.000000000
0.846769750 0.532697678 0.000000000
0.877565742 0.525189281 0.000000000
0.910376549 0.520346105 0.000000000
0.935864866 0.514902771 0.000000000
0.000000000 0.846745253 0.000000000
0.000000000 0.846745253 0.000000000
