luts/CINE SERIES_SISTERS.cube
#Created by: Adobe Photoshop Export Color Lookup Plugin
TITLE "33 (935).jpg"
#LUT size
LUT_3D_SIZE 32
#data domain
DOMAIN_MIN 0.0 0.0 0.0
DOMAIN_MAX 1.0 1.0 1.0
#LUT data points
0.004303 0.004303 0.000000
0.004303 0.004303 0.000000
0.012848 0.004303 0.000000
0.036682 0.004303 0.000000
0.066864 0.004303 0.000000
0.105927 0.004303 0.000000
0.155823 0.004303 0.000000
0.216888 0.004303 0.000000
0.284882 0.004303 0.000000
0.354950 0.004333 0.000000
0.423676 0.004333 0.000000
0.488068 0.004303 0.000000
0.546326 0.004272 0.000000
0.597229 0.004364 0.000000
0.640991 0.004211 0.000000
0.678650 0.004303 0.000000
0.711182 0.004333 0.000000
0.739441 0.004333 0.000000
0.764008 0.004303 0.000000
0.785522 0.004211 0.000000
0.804352 0.004333 0.000000
0.820953 0.004211 0.000000
0.835541 0.004272 0.000000
0.848480 0.004364 0.000000
0.859924 0.004211 0.000000
0.870056 0.004242 0.000000
0.879059 0.004303 0.000000
0.887024 0.004333 0.000000
0.894012 0.004364 0.000000
0.900208 0.004395 0.000000
0.905548 0.004211 0.000000
0.910065 0.004211 0.000000
0.004303 0.004303 0.000000
0.004303 0.004303 0.000000
0.004364 0.004303 0.000000
0.026306 0.004303 0.000000
0.053650 0.004303 0.000000
0.088959 0.004303 0.000000
0.134399 0.004303 0.000000
0.191498 0.004303 0.000000
0.257568 0.004272 0.000000
0.327606 0.004333 0.000000
0.397522 0.004272 0.000000
0.464142 0.004303 0.000000
0.525146 0.004364 0.000000
0.579193 0.004242 0.000000
0.625702 0.004272 0.000000
0.665680 0.004211 0.000000
0.700226 0.004272 0.000000
0.730072 0.004272 0.000000
0.756042 0.004242 0.000000
0.778687 0.004364 0.000000
0.798584 0.004303 0.000000
0.816010 0.004395 0.000000
0.831451 0.004272 0.000000
0.844940 0.004333 0.000000
0.857025 0.004395 0.000000
0.867676 0.004242 0.000000
0.877167 0.004272 0.000000
0.885529 0.004333 0.000000
0.892944 0.004364 0.000000
0.899506 0.004395 0.000000
0.905212 0.004211 0.000000
0.910065 0.004211 0.000000
0.004303 0.004303 0.000000
0.004303 0.004303 0.000000
0.004303 0.004303 0.000000
0.016907 0.004303 0.000000
0.041870 0.004303 0.000000
0.073822 0.004303 0.000000
0.115173 0.004303 0.000000
0.167786 0.004303 0.000000
0.231232 0.004303 0.000000
0.300537 0.004333 0.000000
0.371277 0.004272 0.000000
0.439728 0.004303 0.000000
0.503326 0.004303 0.000000
0.560303 0.004242 0.000000
0.609802 0.004303 0.000000
0.652252 0.004303 0.000000
0.688812 0.004364 0.000000
0.720459 0.004211 0.000000
0.747864 0.004395 0.000000
0.771729 0.004333 0.000000
0.792633 0.004272 0.000000
0.811005 0.004364 0.000000
0.827118 0.004242 0.000000
0.841431 0.004303 0.000000
0.854034 0.004364 0.000000
0.865265 0.004211 0.000000
0.875214 0.004272 0.000000
0.884033 0.004303 0.000000
0.891846 0.004364 0.000000
0.898743 0.004395 0.000000
0.904816 0.004211 0.000000
0.910065 0.004211 0.000000
0.004303 0.013763 0.000000
0.004303 0.013763 0.000000
0.004303 0.013763 0.000000
0.007721 0.013763 0.000000
0.029877 0.012573 0.000000
0.059082 0.011383 0.000000
0.096832 0.010254 0.000000
0.145386 0.009094 0.000000
0.205536 0.007965 0.000000
0.273682 0.006897 0.000000
0.344849 0.005798 0.000000
0.414886 0.004761 0.000000
0.480896 0.004333 0.000000
0.540802 0.004364 0.000000
0.593262 0.004333 0.000000
0.638306 0.004364 0.000000
0.677063 0.004303 0.000000
0.710480 0.004333 0.000000
0.739410 0.004333 0.000000
0.764618 0.004303 0.000000
0.786621 0.004211 0.000000
0.805878 0.004333 0.000000
0.822845 0.004211 0.000000
0.837799 0.004303 0.000000
0.851044 0.004364 0.000000
0.862793 0.004211 0.000000
0.873260 0.004272 0.000000
0.882507 0.004303 0.000000
0.890747 0.004364 0.000000
0.898041 0.004395 0.000000
0.904480 0.004181 0.000000
0.910065 0.004211 0.000000
0.004303 0.027191 0.000000
0.004303 0.027191 0.000000
0.004303 0.027191 0.000000
0.007721 0.027191 0.000000
0.019196 0.027191 0.000000
0.044617 0.025299 0.000000
0.079132 0.023499 0.000000
0.123627 0.021729 0.000000
0.180054 0.019958 0.000000
0.246277 0.018280 0.000000
0.317352 0.016571 0.000000
0.388702 0.014984 0.000000
0.457001 0.013397 0.000000
0.519897 0.011810 0.000000
0.575531 0.010254 0.000000
0.623474 0.008667 0.000000
0.664703 0.007294 0.000000
0.700104 0.005798 0.000000
0.730713 0.004456 0.000000
0.757263 0.004242 0.000000
0.780365 0.004395 0.000000
0.800690 0.004303 0.000000
0.818481 0.004395 0.000000
0.834137 0.004272 0.000000
0.848053 0.004333 0.000000
0.860321 0.004211 0.000000
0.871277 0.004242 0.000000
0.880951 0.004303 0.000000
0.889618 0.004333 0.000000
0.897339 0.004395 0.000000
0.904114 0.004181 0.000000
0.910065 0.004211 0.000000
0.004303 0.043152 0.000000
0.004303 0.043152 0.000000
0.004303 0.043152 0.000000
0.007721 0.043152 0.000000
0.019196 0.043152 0.000000
0.032532 0.043152 0.000000
0.062256 0.040405 0.000000
0.103241 0.037659 0.000000
0.155579 0.035065 0.000000
0.219360 0.032501 0.000000
0.289795 0.030060 0.000000
0.362061 0.027679 0.000000
0.432434 0.025330 0.000000
0.497894 0.023102 0.000000
0.556702 0.020782 0.000000
0.607697 0.018707 0.000000
0.651398 0.016541 0.000000
0.688904 0.014618 0.000000
0.721313 0.012512 0.000000
0.749390 0.010620 0.000000
0.773834 0.008698 0.000000
0.795227 0.006989 0.000000
0.813965 0.005157 0.000000
0.830444 0.004272 0.000000
0.844940 0.004333 0.000000
0.857849 0.004395 0.000000
0.869293 0.004242 0.000000
0.879425 0.004303 0.000000
0.888550 0.004333 0.000000
0.896606 0.004364 0.000000
0.903778 0.004425 0.000000
0.910065 0.004211 0.000000
0.004303 0.062744 0.000000
0.004303 0.062744 0.000000
0.004303 0.062744 0.000000
0.007721 0.062744 0.000000
0.019196 0.062744 0.000000
0.032532 0.062744 0.000000
0.048401 0.062744 0.000000
0.083649 0.058624 0.000000
0.132172 0.054688 0.000000
0.192780 0.050842 0.000000
0.262177 0.047241 0.000000
0.334991 0.043671 0.000000
0.407074 0.040436 0.000000
0.475128 0.037109 0.000000
0.536926 0.034088 0.000000
0.591034 0.031036 0.000000
0.637482 0.028015 0.000000
0.677246 0.025299 0.000000
0.711487 0.022583 0.000000
0.741180 0.019897 0.000000
0.766968 0.017426 0.000000
0.789459 0.015045 0.000000
0.809143 0.012634 0.000000
0.826447 0.010284 0.000000
0.841736 0.008026 0.000000
0.855255 0.005859 0.000000
0.867249 0.004242 0.000000
0.877899 0.004272 0.000000
0.887390 0.004333 0.000000
0.895874 0.004364 0.000000
0.903412 0.004425 0.000000
0.910065 0.004211 0.000000
0.004303 0.086945 0.000000
0.004303 0.086945 0.000000
0.004303 0.086945 0.000000
0.007721 0.086945 0.000000
0.019196 0.086945 0.000000
0.032532 0.086945 0.000000
0.048401 0.086945 0.000000
0.067596 0.086945 0.000000
0.109406 0.081024 0.000000
0.166565 0.075378 0.000000
0.234314 0.070007 0.000000
0.307281 0.064880 0.000000
0.380859 0.059967 0.000000
0.451355 0.055328 0.000000
0.516144 0.050781 0.000000
0.573486 0.046631 0.000000
0.622803 0.042572 0.000000
0.664948 0.038788 0.000000
0.701202 0.035095 0.000000
0.732574 0.031464 0.000000
0.759735 0.028015 0.000000
0.783417 0.024872 0.000000
0.804108 0.021790 0.000000
0.822266 0.018677 0.000000
0.838348 0.015747 0.000000
0.852478 0.012909 0.000000
0.865082 0.010345 0.000000
0.876251 0.007690 0.000000
0.886261 0.005188 0.000000
0.895142 0.004364 0.000000
0.903046 0.004395 0.000000
0.910065 0.004211 0.000000
0.004303 0.116913 0.000000
0.004303 0.116913 0.000000
0.004303 0.116913 0.000000
0.007721 0.116913 0.000000
0.019196 0.116913 0.000000
0.032532 0.116913 0.000000
0.048401 0.116913 0.000000
0.067596 0.116913 0.000000
0.090942 0.116913 0.000000
0.140411 0.108551 0.000000
0.206024 0.100708 0.000000
0.278839 0.093201 0.000000
0.353668 0.086090 0.000000
0.426453 0.079437 0.000000
0.494171 0.073120 0.000000
0.554779 0.067047 0.000000
0.607239 0.061371 0.000000
0.652008 0.056030 0.000000
0.690460 0.050903 0.000000
0.723572 0.046112 0.000000
0.752228 0.041504 0.000000
0.777161 0.037201 0.000000
0.798920 0.032959 0.000000
0.818024 0.028961 0.000000
0.834808 0.025269 0.000000
0.849609 0.021790 0.000000
0.862762 0.018311 0.000000
0.874512 0.014954 0.000000
0.884949 0.011871 0.000000
0.894287 0.008728 0.000000
0.902679 0.005737 0.000000
0.910065 0.004211 0.000000
0.004303 0.153687 0.000000
0.004303 0.153687 0.000000
0.004303 0.153687 0.000000
0.007721 0.153687 0.000000
0.019226 0.153687 0.000000
0.032532 0.153687 0.000000
0.048401 0.153687 0.000000
0.067627 0.153687 0.000000
0.090942 0.153687 0.000000
0.119354 0.153687 0.000000
0.177002 0.142273 0.000000
0.249268 0.131439 0.000000
0.325195 0.121246 0.000000
0.400146 0.111664 0.000000
0.470825 0.102661 0.000000
0.534790 0.094147 0.000000
0.590546 0.086060 0.000000
0.638184 0.078674 0.000000
0.678986 0.071625 0.000000
0.714020 0.064850 0.000000
0.744324 0.058685 0.000000
0.770599 0.052673 0.000000
0.793488 0.047272 0.000000
0.813507 0.042114 0.000000
0.831146 0.037140 0.000000
0.846680 0.032440 0.000000
0.860443 0.028137 0.000000
0.872681 0.023865 0.000000
0.883636 0.020050 0.000000
0.893433 0.016144 0.000000
0.902161 0.012543 0.000000
0.909973 0.009094 0.000000
0.004272 0.197296 0.000000
0.004272 0.197296 0.000000
0.004272 0.197296 0.000000
0.007721 0.197296 0.000000
0.019226 0.197296 0.000000
0.032501 0.197296 0.000000
0.048401 0.197296 0.000000
0.067566 0.197296 0.000000
0.090942 0.197296 0.000000
0.119354 0.197296 0.000000
0.153595 0.197296 0.000000
0.218140 0.183624 0.000000
0.294830 0.170532 0.000000
0.371826 0.157959 0.000000
0.445435 0.146057 0.000000
0.512817 0.134705 0.000000
0.572205 0.124054 0.000000
0.622925 0.113922 0.000000
0.666290 0.104584 0.000000
0.703461 0.095673 0.000000
0.735535 0.087463 0.000000
0.763306 0.079559 0.000000
0.787445 0.072296 0.000000
0.808533 0.065338 0.000000
0.827026 0.058960 0.000000
0.843353 0.052917 0.000000
0.857788 0.047119 0.000000
0.870605 0.041870 0.000000
0.882050 0.036835 0.000000
0.892303 0.032013 0.000000
0.901489 0.027496 0.000000
0.909698 0.023315 0.000000
0.004333 0.246429 0.000000
0.004333 0.246429 0.000000
0.004333 0.246429 0.000000
0.007690 0.246429 0.000000
0.019196 0.246429 0.000000
0.032562 0.246429 0.000000
0.048370 0.246429 0.000000
0.067627 0.246429 0.000000
0.090973 0.246429 0.000000
0.119354 0.246429 0.000000
0.153595 0.246429 0.000000
0.193542 0.246429 0.000000
0.262695 0.231964 0.000000
0.341492 0.217926 0.000000
0.417816 0.204224 0.000000
0.488556 0.190948 0.000000
0.551666 0.178192 0.000000
0.605835 0.165955 0.000000
0.652008 0.154083 0.000000
0.691620 0.142853 0.000000
0.725647 0.132324 0.000000
0.755066 0.122223 0.000000
0.780579 0.112823 0.000000
0.802856 0.103882 0.000000
0.822357 0.095367 0.000000
0.839508 0.087524 0.000000
0.854706 0.080139 0.000000
0.868134 0.073120 0.000000
0.880157 0.066406 0.000000
0.890930 0.060242 0.000000
0.900604 0.054321 0.000000
0.909210 0.048828 0.000000
0.004303 0.299438 0.000000
0.004303 0.299438 0.000000
0.004303 0.299438 0.000000
0.007751 0.299438 0.000000
0.019226 0.299438 0.000000
0.032532 0.299438 0.000000
0.048401 0.299438 0.000000
0.067627 0.299438 0.000000
0.090942 0.299438 0.000000
0.119385 0.299438 0.000000
0.153595 0.299438 0.000000
0.193573 0.299438 0.000000
0.238190 0.299438 0.000000
0.309814 0.284790 0.000000
0.388672 0.270355 0.000000
0.462616 0.256165 0.000000
0.529358 0.242310 0.000000
0.587158 0.228638 0.000000
0.636444 0.215363 0.000000
0.678558 0.202454 0.000000
0.714691 0.189850 0.000000
0.745911 0.177734 0.000000
0.772949 0.166077 0.000000
0.796509 0.154785 0.000000
0.817139 0.144226 0.000000
0.835205 0.133972 0.000000
0.851166 0.124268 0.000000
0.865326 0.115143 0.000000
0.877960 0.106537 0.000000
0.889282 0.098358 0.000000
0.899445 0.090698 0.000000
0.908539 0.083405 0.000000
0.004333 0.354828 0.000000
0.004333 0.354828 0.000000
0.004333 0.354828 0.000000
0.007721 0.354828 0.000000
0.019226 0.354828 0.000000
0.032562 0.354828 0.000000
0.048431 0.354828 0.000000
0.067566 0.354828 0.000000
0.090973 0.354828 0.000000
0.119385 0.354828 0.000000
0.153595 0.354828 0.000000
0.193604 0.354828 0.000000
0.238220 0.354828 0.000000
0.286224 0.354828 0.000000
0.358276 0.340515 0.000000
0.435333 0.326294 0.000000
0.505615 0.312195 0.000000
0.567200 0.298126 0.000000
0.619659 0.284271 0.000000
0.664459 0.270599 0.000000
0.702850 0.257233 0.000000
0.735931 0.243988 0.000000
0.764587 0.231079 0.000000
0.789490 0.218384 0.000000
0.811279 0.205994 0.000000
0.830353 0.194000 0.000000
0.847137 0.182404 0.000000
0.862122 0.171112 0.000000
0.875427 0.160309 0.000000
0.887329 0.149902 0.000000
0.898041 0.139893 0.000000
0.907654 0.130524 0.000000
0.004303 0.411011 0.000000
0.004303 0.411011 0.000000
0.004303 0.411011 0.000000
0.007721 0.411011 0.000000
0.019165 0.411011 0.000000
0.032501 0.411011 0.000000
0.048370 0.411011 0.000000
0.067627 0.411011 0.000000
0.090912 0.411011 0.000000
0.119324 0.411011 0.000000
0.153625 0.411011 0.000000
0.193573 0.411011 0.000000
0.238220 0.411011 0.000000
0.286194 0.411011 0.000000
0.336243 0.411011 0.000000
0.407257 0.397400 0.000000
0.480927 0.383820 0.000000
0.546173 0.370300 0.000000
0.601990 0.356689 0.000000
0.649536 0.343170 0.000000
0.690308 0.329651 0.000000
0.725311 0.316254 0.000000
0.755646 0.303101 0.000000
0.781952 0.289978 0.000000
0.804932 0.276886 0.000000
0.825012 0.264069 0.000000
0.842743 0.251434 0.000000
0.858521 0.239166 0.000000
0.872467 0.227051 0.000000
0.885040 0.215210 0.000000
0.896301 0.203491 0.000000
0.906433 0.192322 0.000000
0.004333 0.466370 0.000000
0.004333 0.466370 0.000000
0.004333 0.466370 0.000000
0.007751 0.466370 0.000000
0.019257 0.466370 0.000000
0.032562 0.466370 0.000000
0.048401 0.466370 0.000000
0.067627 0.466370 0.000000
0.090973 0.466370 0.000000
0.119324 0.466370 0.000000
0.153595 0.466370 0.000000
0.193573 0.466370 0.000000
0.238190 0.466370 0.000000
0.286255 0.466370 0.000000
0.336243 0.466370 0.000000
0.387360 0.466370 0.000000
0.455475 0.453918 0.000000
0.524353 0.441406 0.000000
0.583588 0.428711 0.000000
0.634033 0.416077 0.000000
0.677216 0.403259 0.000000
0.714294 0.390442 0.000000
0.746277 0.377686 0.000000
0.774048 0.364899 0.000000
0.798248 0.352142 0.000000
0.819458 0.339508 0.000000
0.838104 0.326782 0.000000
0.854614 0.314209 0.000000
0.869354 0.301819 0.000000
0.882507 0.289368 0.000000
0.894348 0.277069 0.000000
0.905029 0.265137 0.000000
0.004303 0.519348 0.000000
0.004303 0.519348 0.000000
0.004303 0.519348 0.000000
0.007721 0.519348 0.000000
0.019135 0.519348 0.000000
0.032593 0.519348 0.000000
0.048431 0.519348 0.000000
0.067596 0.519348 0.000000
0.090912 0.519348 0.000000
0.119324 0.519348 0.000000
0.153534 0.519348 0.000000
0.193604 0.519348 0.000000
0.238251 0.519348 0.000000
0.286163 0.519348 0.000000
0.336243 0.519348 0.000000
0.387360 0.519348 0.000000
0.437958 0.519348 0.000000
0.502533 0.508362 0.000000
0.564789 0.497223 0.000000
0.618225 0.485870 0.000000
0.663788 0.474335 0.000000
0.702972 0.462860 0.000000
0.736694 0.451080 0.000000
0.765961 0.439270 0.000000
0.791382 0.427582 0.000000
0.813690 0.415588 0.000000
0.833282 0.403625 0.000000
0.850555 0.391632 0.000000
0.866028 0.379730 0.000000
0.879822 0.367737 0.000000
0.892273 0.355743 0.000000
0.903534 0.343903 0.000000
0.004303 0.568451 0.000000
0.004303 0.568451 0.000000
0.004303 0.568451 0.000000
0.007782 0.568451 0.000000
0.019165 0.568451 0.000000
0.032471 0.568451 0.000000
0.048431 0.568451 0.000000
0.067596 0.568451 0.000000
0.090912 0.568451 0.000000
0.119354 0.568451 0.000000
0.153625 0.568451 0.000000
0.193604 0.568451 0.000000
0.238159 0.568451 0.000000
0.286163 0.568451 0.000000
0.336273 0.568451 0.000000
0.387329 0.568451 0.000000
0.437988 0.568451 0.000000
0.487122 0.568451 0.000000
0.546875 0.559021 0.000000
0.602264 0.549316 0.000000
0.650391 0.539703 0.000000
0.691650 0.529724 0.000000
0.727112 0.519592 0.000000
0.757874 0.509369 0.000000
0.784576 0.498993 0.000000
0.807892 0.488373 0.000000
0.828430 0.477722 0.000000
0.846588 0.466919 0.000000
0.862732 0.456207 0.000000
0.877197 0.445038 0.000000
0.890198 0.434021 0.000000
0.901978 0.423035 0.000000
0.004333 0.613373 0.000000
0.004333 0.613373 0.000000
0.004333 0.613373 0.000000
0.007782 0.613373 0.000000
0.019165 0.613373 0.000000
0.032501 0.613373 0.000000
0.048370 0.613373 0.000000
0.067535 0.613373 0.000000
0.090912 0.613373 0.000000
0.119354 0.613373 0.000000
0.153656 0.613373 0.000000
0.193634 0.613373 0.000000
0.238251 0.613373 0.000000
0.286163 0.613373 0.000000
0.336334 0.613373 0.000000
0.387238 0.613373 0.000000
0.438019 0.613373 0.000000
0.487122 0.613373 0.000000
0.533417 0.613373 0.000000
0.587677 0.605408 0.000000
0.637024 0.597198 0.000000
0.680389 0.589020 0.000000
0.717712 0.580505 0.000000
0.749908 0.571960 0.000000
0.777863 0.563263 0.000000
0.802277 0.554504 0.000000
0.823700 0.545380 0.000000
0.842651 0.536316 0.000000
0.859528 0.527130 0.000000
0.874603 0.517578 0.000000
0.888214 0.508087 0.000000
0.900543 0.498413 0.000000
0.004303 0.654510 0.000000
0.004303 0.654510 0.000000
0.004303 0.654510 0.000000
0.007660 0.654510 0.000000
0.019165 0.654510 0.000000
0.032593 0.654510 0.000000
0.048431 0.654510 0.000000
0.067596 0.654510 0.000000
0.090912 0.654510 0.000000
0.119354 0.654510 0.000000
0.153564 0.654510 0.000000
0.193512 0.654510 0.000000
0.238251 0.654510 0.000000
0.286194 0.654510 0.000000
0.336212 0.654510 0.000000
0.387329 0.654510 0.000000
0.437988 0.654510 0.000000
0.487061 0.654510 0.000000
0.533386 0.654510 0.000000
0.576385 0.654510 0.000000
0.625153 0.647766 0.000000
0.669250 0.640808 0.000000
0.708344 0.633972 0.000000
0.742065 0.626831 0.000000
0.771362 0.619568 0.000000
0.796875 0.612457 0.000000
0.819214 0.605011 0.000000
0.838928 0.597443 0.000000
0.856506 0.589905 0.000000
0.872192 0.582184 0.000000
0.886383 0.574341 0.000000
0.899231 0.566193 0.000000
0.004211 0.692047 0.000000
0.004211 0.692047 0.000000
0.004211 0.692047 0.000000
0.007782 0.692047 0.000000
0.019257 0.692047 0.000000
0.032623 0.692047 0.000000
0.048309 0.692047 0.000000
0.067596 0.692047 0.000000
0.090912 0.692047 0.000000
0.119293 0.692047 0.000000
0.153595 0.692047 0.000000
0.193634 0.692047 0.000000
0.238220 0.692047 0.000000
0.286224 0.692047 0.000000
0.336212 0.692047 0.000000
0.387238 0.692047 0.000000
0.437927 0.692047 0.000000
0.487091 0.692047 0.000000
0.533386 0.692047 0.000000
0.576324 0.692047 0.000000
0.615692 0.692047 0.000000
0.659912 0.686401 0.000000
0.699158 0.680542 0.000000
0.734436 0.674896 0.000000
0.765015 0.669006 0.000000
0.791626 0.662903 0.000000
0.814880 0.656921 0.000000
0.835449 0.650665 0.000000
0.853699 0.644653 0.000000
0.869995 0.638275 0.000000
0.884735 0.631805 0.000000
0.898071 0.625305 0.000000
0.004242 0.726288 0.000000
0.004242 0.726288 0.000000
0.004242 0.726288 0.000000
0.007812 0.726288 0.000000
0.019165 0.726288 0.000000
0.032440 0.726288 0.000000
0.048401 0.726288 0.000000
0.067566 0.726288 0.000000
0.090973 0.726288 0.000000
0.119324 0.726288 0.000000
0.153564 0.726288 0.000000
0.193634 0.726288 0.000000
0.238129 0.726288 0.000000
0.286194 0.726288 0.000000
0.336182 0.726288 0.000000
0.387268 0.726288 0.000000
0.437958 0.726288 0.000000
0.487091 0.726288 0.000000
0.533356 0.726288 0.000000
0.576263 0.726288 0.000000
0.615631 0.726288 0.000000
0.651825 0.726288 0.000000
0.691711 0.721649 0.000000
0.726959 0.716858 0.000000
0.758820 0.712128 0.000000
0.786530 0.707214 0.000000
0.810730 0.702271 0.000000
0.832062 0.697174 0.000000
0.850983 0.692261 0.000000
0.867920 0.687164 0.000000
0.883240 0.681824 0.000000
0.897095 0.676544 0.000000
0.004242 0.757660 0.000000
0.004242 0.757660 0.000000
0.004242 0.757660 0.000000
0.007782 0.757660 0.000000
0.019226 0.757660 0.000000
0.032562 0.757660 0.000000
0.048462 0.757660 0.000000
0.067505 0.757660 0.000000
0.091003 0.757660 0.000000
0.119324 0.757660 0.000000
0.153534 0.757660 0.000000
0.193481 0.757660 0.000000
0.238251 0.757660 0.000000
0.286163 0.757660 0.000000
0.336273 0.757660 0.000000
0.387329 0.757660 0.000000
0.438019 0.757660 0.000000
0.487030 0.757660 0.000000
0.533478 0.757660 0.000000
0.576385 0.757660 0.000000
0.615601 0.757660 0.000000
0.651855 0.757660 0.000000
0.685150 0.757660 0.000000
0.721039 0.753784 0.000000
0.752655 0.749908 0.000000
0.781494 0.746002 0.000000
0.806702 0.742096 0.000000
0.828827 0.737976 0.000000
0.848480 0.733917 0.000000
0.866058 0.729675 0.000000
0.881866 0.725555 0.000000
0.896240 0.721405 0.000000
0.004211 0.786407 0.000000
0.004211 0.786407 0.000000
0.004211 0.786407 0.000000
0.007690 0.786407 0.000000
0.019196 0.786407 0.000000
0.032440 0.786407 0.000000
0.048370 0.786407 0.000000
0.067596 0.786407 0.000000
0.091003 0.786407 0.000000
0.119415 0.786407 0.000000
0.153595 0.786407 0.000000
0.193542 0.786407 0.000000
0.238251 0.786407 0.000000
0.286255 0.786407 0.000000
0.336182 0.786407 0.000000
0.387238 0.786407 0.000000
0.437927 0.786407 0.000000
0.487091 0.786407 0.000000
0.533356 0.786407 0.000000
0.576355 0.786407 0.000000
0.615723 0.786407 0.000000
0.651825 0.786407 0.000000
0.685028 0.786407 0.000000
0.715759 0.786407 0.000000
0.748108 0.783295 0.000000
0.776855 0.780090 0.000000
0.802795 0.776917 0.000000
0.825714 0.773712 0.000000
0.846069 0.770264 0.000000
0.864197 0.767151 0.000000
0.880585 0.763641 0.000000
0.895477 0.760376 0.000000
0.004364 0.812775 0.000000
0.004364 0.812775 0.000000
0.004364 0.812775 0.000000
0.007751 0.812775 0.000000
0.019257 0.812775 0.000000
0.032532 0.812775 0.000000
0.048431 0.812775 0.000000
0.067657 0.812775 0.000000
0.090881 0.812775 0.000000
0.119263 0.812775 0.000000
0.153595 0.812775 0.000000
0.193665 0.812775 0.000000
0.238129 0.812775 0.000000
0.286133 0.812775 0.000000
0.336334 0.812775 0.000000
0.387329 0.812775 0.000000
0.437927 0.812775 0.000000
0.487152 0.812775 0.000000
0.533386 0.812775 0.000000
0.576233 0.812775 0.000000
0.615723 0.812775 0.000000
0.651855 0.812775 0.000000
0.685181 0.812775 0.000000
0.715729 0.812775 0.000000
0.743927 0.812775 0.000000
0.773254 0.810242 0.000000
0.799194 0.807678 0.000000
0.822723 0.805054 0.000000
0.843719 0.802521 0.000000
0.862518 0.799988 0.000000
0.879425 0.797394 0.000000
0.894806 0.794739 0.000000
0.004303 0.837097 0.000000
0.004303 0.837097 0.000000
0.004303 0.837097 0.000000
0.007751 0.837097 0.000000
0.019196 0.837097 0.000000
0.032501 0.837097 0.000000
0.048431 0.837097 0.000000
0.067657 0.837097 0.000000
0.090942 0.837097 0.000000
0.119354 0.837097 0.000000
0.153687 0.837097 0.000000
0.193542 0.837097 0.000000
0.238098 0.837097 0.000000
0.286102 0.837097 0.000000
0.336182 0.837097 0.000000
0.387268 0.837097 0.000000
0.437958 0.837097 0.000000
0.487000 0.837097 0.000000
0.533417 0.837097 0.000000
0.576324 0.837097 0.000000
0.615570 0.837097 0.000000
0.651733 0.837097 0.000000
0.685059 0.837097 0.000000
0.715698 0.837097 0.000000
0.743896 0.837097 0.000000
0.769867 0.837097 0.000000
0.796570 0.835114 0.000000
0.820251 0.833069 0.000000
0.841522 0.831055 0.000000
0.860901 0.828949 0.000000
0.878357 0.826904 0.000000
0.894226 0.824799 0.000000
0.004395 0.859711 0.000000
0.004395 0.859711 0.000000
0.004395 0.859711 0.000000
0.007751 0.859711 0.000000
0.019104 0.859711 0.000000
0.032532 0.859711 0.000000
0.048492 0.859711 0.000000
0.067596 0.859711 0.000000
0.090881 0.859711 0.000000
0.119415 0.859711 0.000000
0.153625 0.859711 0.000000
0.193512 0.859711 0.000000
0.238220 0.859711 0.000000
0.286285 0.859711 0.000000
0.336243 0.859711 0.000000
0.387238 0.859711 0.000000
0.438049 0.859711 0.000000
0.487152 0.859711 0.000000
0.533539 0.859711 0.000000
0.576355 0.859711 0.000000
0.615601 0.859711 0.000000
0.651917 0.859711 0.000000
0.685089 0.859711 0.000000
0.715729 0.859711 0.000000
0.743866 0.859711 0.000000
0.769867 0.859711 0.000000
0.793793 0.859711 0.000000
0.818146 0.858154 0.000000
0.839874 0.856598 0.000000
0.859314 0.855133 0.000000
0.877350 0.853363 0.000000
0.893707 0.851807 0.000000
0.004303 0.881104 0.000000
0.004303 0.881104 0.000000
0.004303 0.881104 0.000000
0.007751 0.881104 0.000000
0.019135 0.881104 0.000000
0.032471 0.881104 0.000000
0.048401 0.881104 0.000000
0.067535 0.881104 0.000000
0.091003 0.881104 0.000000
0.119385 0.881104 0.000000
0.153595 0.881104 0.000000
0.193604 0.881104 0.000000
0.238129 0.881104 0.000000
0.286102 0.881104 0.000000
0.336212 0.881104 0.000000
0.387207 0.881104 0.000000
0.437958 0.881104 0.000000
0.487030 0.881104 0.000000
