luts/Cinematic @crizomzeyahke.cube
TITLE "Generated by Resolve"
LUT_3D_SIZE 33
0 0 0
0 0 0
0 0 0
0 0 0
0.00817884 0 0
0.0442359 0 0
0.0802167 0 0
0.114809 0 0
0.148287 0 0
0.18085 0 0
0.212985 0 0
0.248508 0 0
0.28394 0 0
0.316182 0 0
0.345235 0 0
0.371496 0 0
0.394629 0 0
0.415793 0 0
0.437568 0 0
0.459037 0 0
0.481163 0 0
0.501869 0 0
0.520714 0 0
0.538354 0 0
0.5617 0 0
0.593591 0 0
0.632792 0 0
0.67744 0 0
0.724681 0 0
0.771695 0 0
0.815396 0 0
0.856367 0 0
0.895705 0 0
0 0 0
0 0 0
0 0 0
0 0 0
0.00129702 0 0
0.0371252 0 0
0.073106 0 0
0.108156 0 0
0.143603 0 0
0.17731 0 0
0.209689 0 0
0.245441 0 0
0.281239 0 0
0.313878 0 0
0.343114 0 0
0.369863 0 0
0.393362 0 0
0.414801 0 0
0.436667 0 0
0.458045 0 0
0.479988 0 0
0.500389 0 0
0.519265 0 0
0.536736 0 0
0.559884 0 0
0.59115 0 0
0.629816 0 0
0.674052 0 0
0.72134 0 0
0.768643 0 0
0.812741 0 0
0.854017 0 0
0.893584 0 0
0 0 0
0 0 0
0 0 0
0 0 0
0 0 0
0.0296025 0 0
0.0667277 0 0
0.102434 0 0
0.138277 0 0
0.173556 0 0
0.206073 0 0
0.242039 0 0
0.278645 0 0
0.311986 0 0
0.341802 0 0
0.368627 0 0
0.392187 0 0
0.413153 0 0
0.434897 0 0
0.45623 0 0
0.478264 0 0
0.499001 0 0
0.517983 0 0
0.535393 0 0
0.557977 0 0
0.588769 0 0
0.627161 0 0
0.671473 0 0
0.718715 0 0
0.766171 0 0
0.810925 0 0
0.852995 0 0
0.893278 0 0
0 0 0
0 0 0
0 0 0
0 0 0
0 0 0
0.0203098 0 0
0.0591135 0 0
0.0954757 0 0
0.132525 0 0
0.16965 0 0
0.203037 0 0
0.239673 0 0
0.276478 0 0
0.30988 0 0
0.339239 0 0
0.366247 0 0
0.390112 0 0
0.411627 0 0
0.43331 0 0
0.454673 0 0
0.476677 0 0
0.497597 0 0
0.516762 0 0
0.534249 0 0
0.556405 0 0
0.586877 0 0
0.625315 0 0
0.669856 0 0
0.717601 0 0
0.765911 0 0
0.811505 0 0
0.854719 0 0
0.896284 0 0
0 0.0301366 0
0 0.0289006 0
0 0.0272984 0
0 0.0251316 0
0 0.0223545 0
0.0103914 0.019852 0
0.0506905 0.0176089 0
0.0888533 0.0161288 0
0.126467 0.0146334 0
0.16466 0.0124361 0
0.197696 0.00755322 0
0.23476 0.0011902 0
0.272145 0 0
0.306172 0 0
0.336522 0 0
0.363821 0 0
0.387976 0 0
0.409751 0 0
0.43151 0 0
0.45301 0 0
0.475013 0 0
0.496208 0 0
0.515602 0 0
0.533242 0 0
0.555306 0 0
0.585794 0 0
0.624445 0 0
0.669551 0 0
0.718364 0 0
0.768124 0 0
0.815015 0 0
0.859495 0 0
0.902922 0 0
0 0.0641031 0
0 0.0633097 0
0 0.0623178 0
0 0.0609751 0
0 0.0593118 0
0.0030518 0.0569772 0
0.0436561 0.0542916 0
0.079942 0.0509957 0
0.117739 0.0489662 0
0.157092 0.0464027 0
0.192554 0.0424811 0
0.230274 0.0361181 0
0.268208 0.0273136 0
0.302922 0.01738 0
0.333867 0.00666819 0
0.361685 0 0
0.386328 0 0
0.408362 0 0
0.430106 0 0
0.451804 0 0
0.47393 0 0
0.495491 0 0
0.515129 0 0
0.532982 0 0
0.555337 0 0
0.586648 0 0
0.62649 0 0
0.672786 0 0
0.72314 0 0
0.774868 0 0
0.824308 0 0
0.870939 0 0
0.91574 0 0
0 0.0977646 0
0 0.0973373 0
0 0.0969406 0
0 0.0954147 0
0 0.0935531 0
0 0.0911116 0
0.0367895 0.0886397 0
0.0742046 0.0868544 0
0.110872 0.0834669 0
0.150683 0.0807202 0
0.187716 0.0767224 0
0.226139 0.0705119 0
0.264851 0.0618296 0
0.300343 0.0520638 0
0.331823 0.0415045 0
0.360113 0.0302739 0
0.385214 0.0185702 0
0.407675 0.00639353 0
0.429786 0 0
0.451652 0 0
0.474083 0 0
0.495964 0 0
0.515953 0 0
0.534127 0 0
0.557504 0 0
0.590616 0 0
0.632822 0 0
0.681834 0 0
0.734447 0 0
0.788006 0 0
0.838666 0 0
0.886519 0 0
0.932494 0 0
0 0.132311 0
0 0.131075 0
0 0.130877 0
0 0.129488 0
0 0.126421 0
0 0.124193 0
0.0284428 0.121691 0
0.0656596 0.119692 0
0.103746 0.117754 0
0.143938 0.115282 0
0.182986 0.111635 0
0.221988 0.105547 0
0.261616 0.0971695 0
0.298039 0.0879072 0
0.330312 0.0779889 0
0.359106 0.0678721 0
0.384665 0.0566873 0
0.407568 0.0455482 0
0.430106 0.0335851 0
0.45243 0.0204318 0
0.475319 0.0055848 0
0.497505 0 0
0.517922 0 0
0.536873 0 0
0.562463 0 0
0.598138 0 0
0.642634 0 0
0.693294 0 0
0.74815 0 0
0.803159 0 0
0.854978 0 0
0.903487 0 0
0.950408 0 0
0 0.165743 0
0 0.164599 0
0 0.163378 0
0 0.162219 0
0 0.1608 0
0 0.159197 0
0.0199741 0.157321 0
0.057023 0.15584 0
0.0951247 0.154376 0
0.13576 0.152605 0
0.177523 0.149813 0
0.217166 0.144335 0
0.257893 0.136507 0
0.295415 0.12784 0
0.328679 0.118868 0
0.358373 0.109438 0
0.384543 0.0993668 0
0.407858 0.0890974 0
0.43093 0.0784924 0
0.453941 0.0670787 0
0.477684 0.0541085 0
0.500206 0.0396429 0
0.520729 0.0243076 0
0.540307 0.00773632 0
0.568154 0 0
0.606287 0 0
0.65304 0 0
0.705379 0 0
0.761593 0 0
0.817624 0 0
0.870054 0 0
0.919127 0 0
0.966598 0 0
0 0.193271 0
0 0.192523 0
0 0.191928 0
0 0.191165 0
0 0.190326 0
0 0.189487 0
0.00781262 0.188586 0
0.0455787 0.188128 0
0.0834363 0.187625 0
0.1243 0.186786 0
0.168902 0.185489 0
0.2103 0.182483 0
0.252811 0.177813 0
0.291859 0.171801 0
0.326314 0.165148 0
0.357137 0.158068 0
0.384436 0.150515 0
0.408591 0.142382 0
0.432135 0.13286 0
0.455482 0.122133 0
0.479591 0.109651 0
0.502235 0.0958724 0
0.52285 0.0810254 0
0.543053 0.0641642 0
0.572488 0.0359503 0
0.612116 0 0
0.660426 0 0
0.714 0 0
0.77116 0 0
0.827955 0 0
0.881346 0 0
0.931411 0 0
0.978805 0 0
0 0.221103 0
0 0.220691 0
0 0.220584 0
0 0.220447 0
0 0.220325 0
0 0.220111 0
0 0.219959 0
0.0278172 0.220432 0
0.0663462 0.221134 0
0.108263 0.221683 0
0.154986 0.221347 0
0.199573 0.219806 0
0.244617 0.21706 0
0.286198 0.213764 0
0.322576 0.209903 0
0.354543 0.205478 0
0.382773 0.200961 0
0.407401 0.195712 0
0.431296 0.189471 0
0.454932 0.181827 0
0.47924 0.17203 0
0.502068 0.160067 0
0.522881 0.145663 0
0.543267 0.128893 0
0.572961 0.100343 0
0.613016 0.0481575 0
0.661845 0 0
0.715999 0 0
0.773617 0 0
0.831006 0 0
0.885023 0 0
0.935546 0 0
0.983444 0 0
0 0.249485 0
0 0.249699 0
0 0.249989 0
0 0.250446 0
0 0.251194 0
0 0.252018 0
0 0.252766 0
0.00965896 0.254017 0
0.0496223 0.255909 0
0.0932021 0.257847 0
0.141711 0.259098 0
0.190341 0.259007 0
0.236789 0.257496 0
0.27985 0.255406 0
0.317723 0.252964 0
0.350851 0.25008 0
0.379965 0.246998 0
0.405188 0.243412 0
0.429236 0.239231 0
0.453132 0.234272 0
0.477577 0.228122 0
0.50074 0.220844 0
0.521767 0.212634 0
0.542229 0.203113 0
0.571557 0.184253 0
0.611383 0.139223 0
0.660227 0.0457618 0
0.71458 0 0
0.772595 0 0
0.830442 0 0
0.884794 0 0
0.935729 0 0
0.983932 0 0
0 0.277562 0
0 0.278599 0
0 0.279606 0
0 0.28072 0
0 0.282124 0
0 0.284016 0
0 0.286061 0
0 0.288441 0
0.03888 0.290959 0
0.0823529 0.293339 0
0.131228 0.295079 0
0.182696 0.295705 0
0.230076 0.294972 0
0.274098 0.293614 0
0.312917 0.291936 0
0.347021 0.290105 0
0.376883 0.287861 0
0.402579 0.285237 0
0.426734 0.282261 0
0.450889 0.278828 0
0.47541 0.274754 0
0.49897 0.269963 0
0.520256 0.264698 0
0.540581 0.259052 0
0.569284 0.248661 0
0.608774 0.226932 0
0.657465 0.170153 0
0.711742 0.0100557 0
0.769894 0 0
0.828199 0 0
0.88333 0 0
0.934249 0 0
0.982757 0 0
0 0.305699 0
0 0.3075 0
0 0.309545 0
0 0.311757 0
0 0.314015 0
0 0.31632 0
0 0.318608 0
0 0.321309 0
0.0298619 0.324132 0
0.0732891 0.326528 0
0.121996 0.328359 0
0.175586 0.329244 0
0.223224 0.328969 0
0.267994 0.328115 0
0.30782 0.326925 0
0.342855 0.325704 0
0.373495 0.32401 0
0.399771 0.322118 0
0.424048 0.319982 0
0.448386 0.31751 0
0.472908 0.314641 0
0.496895 0.31133 0
0.518593 0.307897 0
0.538735 0.304082 0
0.566735 0.297642 0
0.60557 0.285039 0
0.653895 0.257206 0
0.708186 0.175113 0
0.76643 0 0
0.825269 0 0
0.880507 0 0
0.931792 0 0
0.980606 0 0
0 0.334859 0
0 0.337087 0
0 0.339345 0
0 0.341772 0
0 0.344244 0
0 0.346716 0
0 0.349035 0
0 0.351797 0
0.0214084 0.354391 0
0.0648966 0.356771 0
0.113405 0.358648 0
0.168276 0.35964 0
0.216541 0.35967 0
0.261952 0.359197 0
0.302678 0.358495 0
0.338399 0.35761 0
0.369696 0.356359 0
0.396674 0.354971 0
0.421134 0.353399 0
0.445808 0.351553 0
0.470344 0.349432 0
0.494743 0.347127 0
0.516732 0.344717 0
0.536751 0.342016 0
0.563836 0.337789 0
0.601907 0.329732 0
0.649729 0.313176 0
0.703899 0.274495 0
0.762081 0.114809 0
0.820981 0 0
0.876677 0 0
0.928252 0 0
0.977356 0 0
0 0.362799 0
0 0.365148 0
0 0.367498 0
0 0.369863 0
0 0.372274 0
0 0.374685 0
0 0.376944 0
0 0.379538 0
0.0134279 0.38204 0
0.0569924 0.384344 0
0.105486 0.386236 0
0.161089 0.38735 0
0.210315 0.387549 0
0.256107 0.38735 0
0.297719 0.387076 0
0.333944 0.386389 0
0.36585 0.385489 0
0.393439 0.384421 0
0.418067 0.383246 0
0.442969 0.381872 0
0.467506 0.380316 0
0.492256 0.378515 0
0.514626 0.376761 0
0.534722 0.374792 0
0.560937 0.371878 0
0.598108 0.366461 0
0.645197 0.355703 0
0.698863 0.33286 0
0.757244 0.271489 0
0.816419 0 0
0.872053 0 0
0.923842 0 0
0.973129 0 0
0 0.388891 0
0 0.39118 0
0 0.393469 0
0 0.395743 0
0 0.398032 0
0 0.400351 0
0 0.402655 0
0 0.405081 0
0.0062562 0.407431 0
0.0503853 0.409644 0
0.0982071 0.411505 0
0.154147 0.412711 0
0.204685 0.413077 0
0.250614 0.413046 0
0.292775 0.41297 0
0.32958 0.412543 0
0.362066 0.411917 0
0.390249 0.411124 0
0.415091 0.410208 0
0.440085 0.409155 0
0.464652 0.40798 0
0.489784 0.40676 0
0.512352 0.40528 0
0.532601 0.403784 0
0.557733 0.401709 0
0.593927 0.39791 0
0.640345 0.390509 0
0.693675 0.375479 0
0.752224 0.340642 0
0.810956 0.221134 0
0.866835 0 0
0.918746 0 0
0.968063 0 0
0 0.413077 0
0 0.415259 0
0 0.417472 0
0 0.419684 0
0 0.421897 0
0 0.424094 0
0 0.426337 0
0 0.42858 0
1.5259e-05 0.430823 0
0.0441749 0.432914 0
0.0918746 0.434684 0
0.147585 0.435889 0
0.199695 0.436347 0
0.245869 0.436561 0
0.288136 0.43653 0
0.325444 0.436255 0
0.358389 0.435828 0
0.387137 0.435264 0
0.412299 0.434577 0
0.437263 0.433768 0
0.461967 0.432975 0
0.487114 0.431937 0
0.510002 0.430777 0
0.530709 0.429603 0
0.554513 0.428092 0
0.589578 0.425345 0
0.635065 0.420081 0
0.687846 0.409659 0
0.746014 0.387259 0
0.804959 0.330419 0
0.86099 0 0
0.91313 0 0
0.962554 0 0
0 0.435386 0
0 0.437446 0
0 0.439506 0
0 0.441581 0
0 0.443671 0
0 0.445792 0
0 0.447837 0
0 0.449943 0
0 0.452064 0
0.0390021 0.454063 0
0.0865797 0.455756 0
0.14197 0.456947 0
0.195697 0.457542 0
0.241581 0.457832 0
0.283925 0.457847 0
0.32163 0.45771 0
0.354955 0.457404 0
0.384192 0.456992 0
0.409674 0.456489 0
0.434531 0.455848 0
0.459174 0.455207 0
0.484443 0.454398 0
0.507607 0.453483 0
0.528588 0.452537 0
0.551446 0.451392 0
0.585275 0.449348 0
0.62974 0.445457 0
0.682704 0.437858 0
0.739757 0.422309 0
0.798566 0.387366 0
0.85478 0.281056 0
0.907073 0 0
0.956527 0 0
0 0.455756 0
0 0.457725 0
0 0.459693 0
0 0.461646 0
0 0.46363 0
0 0.465736 0
0 0.467567 0
0 0.46949 0
0 0.471443 0
0.0353399 0.473289 0
0.0828717 0.474907 0
0.138048 0.476081 0
0.19266 0.476646 0
0.238056 0.477012 0
0.2804 0.477119 0
0.318425 0.477073 0
0.35201 0.476875 0
0.381643 0.476555 0
0.407401 0.476158 0
0.432197 0.475731 0
0.45684 0.475212 0
0.482017 0.47451 0
0.505425 0.473747 0
0.526589 0.472969 0
0.548623 0.472084 0
0.581292 0.470497 0
0.624704 0.467536 0
0.676966 0.46186 0
0.733501 0.450446 0
0.792126 0.426444 0
0.848356 0.369818 0
0.900618 0 0
0.950195 0 0
0 0.474388 0
0 0.476249 0
0 0.478111 0
0 0.479957 0
0 0.481804 0
0 0.483803 0
0 0.485557 0
0 0.487419 0
0 0.489296 0
0.0327306 0.491081 0
0.080293 0.492638 0
0.135363 0.493797 0
0.191226 0.494484 0
0.235538 0.494789 0
0.277531 0.494942 0
0.315633 0.494957 0
0.349355 0.49485 0
0.379294 0.494636 0
0.405234 0.494316 0
0.429969 0.494041 0
0.454475 0.493538 0
0.479576 0.492958 0
0.503212 0.492317 0
0.524575 0.491661 0
0.545937 0.490929 0
0.57731 0.489693 0
0.61976 0.487434 0
0.671077 0.48304 0
0.727016 0.474434 0
0.785412 0.457023 0
0.841642 0.420462 0
0.893843 0.315221 0
0.943389 0 0
0 0.491737 0
0 0.493507 0
0 0.495293 0
0 0.497078 0
0 0.498939 0
0 0.500771 0
0 0.502449 0
0 0.504234 0
0 0.506035 0
0.0315251 0.507744 0
0.0789502 0.509239 0
0.134173 0.51046 0
0.189975 0.511055 0
0.2336 0.511391 0
0.275303 0.511574 0
0.31342 0.51162 0
0.347265 0.511543 0
0.377432 0.511376 0
0.403449 0.511131 0
0.42797 0.510903 0
0.452415 0.510506 0
0.477348 0.510002 0
0.501183 0.509438 0
0.522698 0.508873 0
0.543526 0.508263 0
0.5738 0.507286 0
0.615198 0.505531 0
0.66537 0.502022 0
0.72079 0.495338 0
0.778958 0.482185 0
0.835035 0.456382 0
0.887251 0.398062 0
0.936614 0 0
0 0.508034 0
0 0.509743 0
0 0.511437 0
0 0.513207 0
0 0.514977 0
0 0.516686 0
0 0.518303 0
0 0.519997 0
0 0.521706 0
0.0320745 0.523339 0
0.0793774 0.524788 0
0.134157 0.525933 0
0.189837 0.526558 0
0.232639 0.526894 0
0.273838 0.527092 0
0.311788 0.527169 0
0.345617 0.527123 0
0.375799 0.526986 0
0.402106 0.526864 0
0.426398 0.526589 0
0.450843 0.526223 0
0.475563 0.52578 0
0.499489 0.525277 0
0.521065 0.524773 0
0.541466 0.524254 0
0.570565 0.523415 0
0.610925 0.522011 0
0.660212 0.519173 0
0.714961 0.513863 0
0.772793 0.503594 0
0.828763 0.484337 0
0.880842 0.445624 0
0.930205 0.328557 0
0 0.523339 0
0 0.524971 0
0 0.526619 0
0 0.528283 0
0 0.529992 0
0 0.531609 0
0 0.533165 0
0 0.534768 0
0 0.5364 0
0.0343175 0.537758 0
0.0818799 0.539284 0
0.136309 0.540536 0
0.190936 0.541176 0
0.232776 0.541558 0
0.273243 0.541802 0
0.310872 0.541924 0
0.344549 0.541909 0
0.37467 0.541802 0
0.401038 0.541711 0
0.425116 0.541421 0
0.44947 0.541054 0
0.473976 0.540627 0
0.498054 0.540139 0
0.519738 0.539635 0
0.539879 0.539132 0
0.5682 0.538491 0
0.60734 0.537255 0
0.65565 0.534951 0
0.709697 0.530648 0
0.767102 0.522484 0
0.822889 0.507668 0
0.874861 0.479988 0
0.924468 0.415351 0
0 0.537514 0
0 0.539178 0
0 0.540932 0
0 0.542855 0
0 0.544747 0
0 0.546731 0
0 0.548684 0
0 0.55082 0
0 0.553063 0
0.0400702 0.555322 0
0.0887007 0.557549 0
0.142168 0.559197 0
0.194751 0.560113 0
0.234958 0.560693 0
0.274342 0.561044 0
0.311238 0.561242 0
0.344488 0.561273 0
0.374426 0.561227 0
0.40058 0.561105 0
0.42443 0.560784 0
0.448631 0.560342 0
0.472877 0.559838 0
0.496956 0.559289 0
0.518654 0.55874 0
0.538674 0.558312 0
0.566079 0.557671 0
0.604257 0.556603 0
0.651865 0.554757 0
0.705425 0.551385 0
0.762371 0.545159 0
0.817777 0.534264 0
0.86949 0.51516 0
0.91873 0.477073 0
0 0.554604 0
0 0.556939 0
0 0.559503 0
0 0.562036 0
0 0.56463 0
0 0.567315 0
0 0.56997 0
0 0.572808 0
0.00656138 0.575799 0
0.0517891 0.578759 0
0.100511 0.58146 0
0.154055 0.583627 0
0.202243 0.584848 0
0.239979 0.585565 0
0.277577 0.586038 0
0.313329 0.586297 0
0.345846 0.586404 0
0.375341 0.586404 0
0.401007 0.586145 0
0.424536 0.585733 0
0.448493 0.585214 0
0.472435 0.584619 0
0.496391 0.583947 0
0.518013 0.583307 0
0.53782 0.582788 0
0.564523 0.582223 0
0.601862 0.581262 0
0.648722 0.579751 0
0.701701 0.577203 0
0.758328 0.572625 0
0.813611 0.564904 0
0.865431 0.552148 0
0.914351 0.528893 0
0 0.577478 0
0 0.58053 0
0 0.583581 0
0 0.586908 0
0 0.590234 0
0 0.593606 0
0 0.596979 0
0 0.600519 0
0.0259403 0.604181 0
0.0723735 0.608011 0
0.120851 0.611383 0
0.172763 0.614008 0
0.214511 0.615503 0
0.248798 0.616342 0
0.283833 0.616876 0
0.317739 0.617166 0
0.348974 0.617212 0
0.377615 0.617288 0
0.402686 0.616907 0
0.425681 0.616358 0
0.449226 0.615732 0
0.472816 0.615 0
0.496529 0.614206 0
0.517998 0.613458 0
0.537621 0.612909 0
0.563577 0.612192 0
0.600229 0.611292 0
0.646342 0.61004 0
0.69865 0.608087 0
0.75491 0.604791 0
0.809995 0.599588 0
0.861708 0.591638 0
0.910124 0.577676 0
0 0.605768 0
0 0.609644 0
0 0.613626 0
0 0.617548 0
0 0.62153 0
0 0.625559 0
0 0.62948 0
0.011429 0.633631 0
0.0574807 0.637949 0
