luts/CINEMATIC LUT.cube
LUT_3D_SIZE 16
0.000000 0.000000 0.000000
0.013944 0.000000 0.000598
0.036200 0.000000 0.001564
0.066751 0.000000 0.001974
0.105617 0.000000 0.003123
0.154489 0.000000 0.004568
0.212611 0.000000 0.006286
0.276764 0.000000 0.008183
0.343902 0.000000 0.010168
0.412880 0.000000 0.012208
0.482371 0.000000 0.014262
0.553113 0.000000 0.016354
0.629946 0.052474 0.017449
0.715911 0.099681 0.018995
0.803886 0.152292 0.020487
0.943843 0.207779 0.023450
0.000219 0.014391 0.000115
0.012799 0.014599 0.000582
0.038127 0.014475 0.001394
0.069620 0.012828 0.001782
0.108853 0.010794 0.002979
0.157865 0.007831 0.004484
0.215929 0.000337 0.006349
0.279962 0.000000 0.008278
0.346682 0.000000 0.010250
0.415003 0.000000 0.012271
0.484011 0.000000 0.014311
0.554821 0.020245 0.015909
0.631435 0.080568 0.016907
0.717035 0.125354 0.018492
0.804767 0.177595 0.019985
0.944394 0.232945 0.022941
0.000602 0.040450 0.000774
0.017674 0.039829 0.000846
0.044420 0.038300 0.001592
0.075683 0.035934 0.001478
0.115385 0.031788 0.002734
0.164510 0.028384 0.004251
0.222099 0.024958 0.006017
0.285441 0.019915 0.007987
0.351440 0.007185 0.010195
0.418857 0.000000 0.012384
0.487559 0.020203 0.013930
0.558536 0.065404 0.015077
0.634903 0.107972 0.016437
0.720857 0.150989 0.018070
0.808019 0.202534 0.019561
0.945502 0.257475 0.022462
0.001223 0.076532 0.000000
0.035344 0.075730 0.000000
0.063819 0.072356 0.000370
0.093402 0.065329 0.001387
0.132354 0.055803 0.002732
0.181395 0.045542 0.004390
0.238089 0.038117 0.006213
0.299718 0.031339 0.008169
0.363867 0.025714 0.010174
0.429605 0.040231 0.011807
0.496746 0.072179 0.013117
0.566050 0.104696 0.014479
0.642035 0.139566 0.015988
0.730193 0.182854 0.017680
0.816396 0.233886 0.019154
0.947800 0.287647 0.021900
0.012727 0.127390 0.000000
0.063363 0.127501 0.000000
0.096333 0.125194 0.000225
0.126609 0.116204 0.001303
0.161877 0.101780 0.002642
0.206438 0.083585 0.004333
0.261138 0.072011 0.006185
0.321620 0.072262 0.007960
0.383817 0.081144 0.009606
0.447554 0.098355 0.011123
0.512734 0.119688 0.012597
0.580318 0.144463 0.014069
0.654768 0.175511 0.015613
0.741210 0.216692 0.017299
0.824228 0.265994 0.018715
0.950097 0.318451 0.021326
0.057188 0.188846 0.000000
0.099435 0.189207 0.000000
0.134646 0.188551 0.000031
0.169603 0.180855 0.001221
0.204040 0.168209 0.002498
0.243759 0.149575 0.004056
0.292120 0.128744 0.005914
0.348898 0.119206 0.007784
0.409727 0.128208 0.009387
0.471331 0.144149 0.010868
0.533987 0.163417 0.012310
0.599338 0.186321 0.013756
0.671345 0.215398 0.015269
0.753900 0.253790 0.016899
0.832869 0.300644 0.018246
0.952508 0.351095 0.020716
0.105824 0.255339 0.000000
0.144064 0.255469 0.000000
0.178914 0.255058 0.000000
0.217235 0.249522 0.001191
0.252845 0.241635 0.002403
0.289816 0.229142 0.003752
0.333370 0.209084 0.005453
0.383533 0.187755 0.007374
0.439728 0.179448 0.009201
0.499629 0.188098 0.010784
0.560069 0.205853 0.012193
0.622413 0.228689 0.013552
0.690843 0.257169 0.014972
0.767793 0.293675 0.016476
0.836939 0.337890 0.017589
0.954515 0.385733 0.020052
0.154599 0.324791 0.000000
0.191502 0.324716 0.000000
0.224562 0.324221 0.000000
0.264334 0.320618 0.001094
0.301753 0.315396 0.002305
0.338429 0.308045 0.003538
0.378696 0.294844 0.004998
0.424234 0.274987 0.006753
0.474365 0.254790 0.008650
0.529223 0.245766 0.010453
0.588188 0.253051 0.012036
0.649050 0.272313 0.013426
0.714552 0.300063 0.014776
0.786326 0.336326 0.016132
0.888431 0.379479 0.018238
1.012283 0.425779 0.020918
0.200905 0.394731 0.000000
0.237154 0.394122 0.000000
0.267828 0.393719 0.000000
0.306786 0.391327 0.000869
0.346876 0.387054 0.002138
0.385078 0.381705 0.003375
0.423866 0.373840 0.004680
0.465990 0.361090 0.006186
0.511761 0.343096 0.007909
0.561191 0.323938 0.009763
0.615643 0.314615 0.011561
0.675936 0.322186 0.013178
0.740831 0.345302 0.014606
0.806068 0.380810 0.015785
0.893112 0.423792 0.017451
1.009781 0.469852 0.019925
0.246329 0.463659 0.000000
0.282296 0.462454 0.000000
0.310694 0.462185 0.000000
0.347256 0.460440 0.000619
0.389423 0.456847 0.001935
0.430112 0.452048 0.003233
0.468596 0.446339 0.004485
0.508137 0.438742 0.005807
0.550400 0.427248 0.007291
0.595330 0.410578 0.008961
0.644288 0.393257 0.010764
0.699801 0.385831 0.012553
0.764331 0.396459 0.014231
0.833525 0.426099 0.015649
0.960236 0.466722 0.018532
1.020106 0.511425 0.019362
0.296699 0.532749 0.000000
0.331936 0.531615 0.000000
0.358694 0.531560 0.000000
0.392754 0.530327 0.000501
0.434625 0.527421 0.001794
0.476823 0.523033 0.003128
0.515680 0.518050 0.004375
0.553272 0.512715 0.005593
0.592464 0.505609 0.006895
0.633417 0.494537 0.008331
0.675986 0.478729 0.009914
0.724868 0.464807 0.011643
0.784320 0.461436 0.013464
0.848022 0.476308 0.015029
0.970161 0.509461 0.017933
1.019187 0.552633 0.018475
0.357089 0.602946 0.000000
0.390528 0.602546 0.000000
0.416001 0.602600 0.000000
0.447453 0.601704 0.000623
0.486360 0.599749 0.001809
0.527486 0.596551 0.003086
0.566588 0.592362 0.004324
0.603333 0.587822 0.005500
0.639600 0.582641 0.006676
0.676872 0.575213 0.007928
0.715624 0.564481 0.009293
0.755429 0.549824 0.010770
0.807230 0.541175 0.012475
0.863213 0.545750 0.014028
0.973471 0.563304 0.016907
1.019448 0.596578 0.017567
0.424476 0.674187 0.000000
0.455470 0.674505 0.000000
0.479457 0.674519 0.000000
0.508559 0.673839 0.000917
0.543771 0.673068 0.001969
0.582199 0.671591 0.003131
0.620915 0.668588 0.004334
0.657362 0.664423 0.005493
0.691630 0.659917 0.006596
0.726124 0.654911 0.007716
0.762051 0.648203 0.008913
0.799159 0.638588 0.010206
0.836500 0.625426 0.011580
0.882595 0.627229 0.012899
0.976850 0.635038 0.015511
1.019739 0.649017 0.016482
0.502648 0.759545 0.000000
0.537244 0.758527 0.000000
0.560674 0.758600 0.000683
0.587377 0.757788 0.001486
0.615745 0.755466 0.002369
0.648502 0.753023 0.003385
0.685611 0.750705 0.004525
0.722018 0.747538 0.005663
0.755205 0.743904 0.006716
0.787554 0.740413 0.007741
0.820786 0.736346 0.008804
0.852188 0.730341 0.009854
0.883366 0.721415 0.010957
0.927200 0.709550 0.012495
0.989936 0.714387 0.014241
1.020107 0.719069 0.015031
0.588907 0.851857 0.000000
0.625513 0.850470 0.000676
0.648608 0.851649 0.001331
0.674213 0.851191 0.002094
0.696968 0.846274 0.002866
0.725618 0.842766 0.003783
0.761176 0.841857 0.004849
0.798443 0.840880 0.005966
0.830916 0.838263 0.006976
0.856227 0.834931 0.007791
0.876113 0.831351 0.008451
0.912099 0.826751 0.009606
0.951847 0.820255 0.010912
0.975794 0.811494 0.011799
0.994491 0.799981 0.012590
1.022324 0.812518 0.013148
0.703346 0.969135 0.000490
0.737402 0.969225 0.001493
0.761628 0.969946 0.002191
0.787318 0.970220 0.002941
0.811140 0.966824 0.003713
0.838628 0.965086 0.004559
0.864006 0.964852 0.005310
0.881887 0.964149 0.005852
0.919336 0.961825 0.007002
0.942938 0.959062 0.007755
0.959518 0.956589 0.008294
0.975223 0.953591 0.008819
0.990191 0.948996 0.009356
1.005074 0.943004 0.009919
1.018599 0.935160 0.010480
1.031975 0.923544 0.011116
0.000000 0.000411 0.040073
0.000000 0.000411 0.040050
0.000000 0.000411 0.039336
0.000000 0.000411 0.039358
0.000000 0.000411 0.038747
0.000000 0.000411 0.036566
0.000000 0.000411 0.034488
0.000000 0.000000 0.033525
0.011807 0.000000 0.033157
0.280831 0.000000 0.040660
0.385528 0.000000 0.043562
0.478918 0.000000 0.046212
0.571783 0.000000 0.048752
0.671146 0.000000 0.051076
0.772993 0.000000 0.052597
0.928819 0.000000 0.046990
0.000000 0.010307 0.023373
0.009827 0.011211 0.024249
0.027091 0.003193 0.025350
0.036409 0.000000 0.022456
0.049568 0.000000 0.017591
0.079255 0.000000 0.012115
0.124997 0.000000 0.008316
0.188488 0.000000 0.007323
0.278673 0.000000 0.008240
0.389319 0.000000 0.011511
0.465548 0.000000 0.013765
0.540759 0.000000 0.015989
0.620099 0.000000 0.018335
0.708400 0.014182 0.020557
0.798508 0.058832 0.022278
0.945618 0.109618 0.025549
0.000000 0.041282 0.024643
0.008180 0.042302 0.018126
0.043068 0.038987 0.017192
0.079396 0.032700 0.015346
0.120922 0.027362 0.012114
0.171288 0.023349 0.007583
0.229488 0.019163 0.006356
0.292549 0.012934 0.008342
0.357779 0.000000 0.010555
0.424338 0.000000 0.012547
0.492237 0.020812 0.014055
0.562567 0.064060 0.015224
0.638369 0.106308 0.016574
0.723314 0.148681 0.018191
0.809094 0.199614 0.019653
0.951203 0.254540 0.022691
0.000566 0.077964 0.023027
0.011540 0.078566 0.007792
0.059137 0.074894 0.005150
0.093705 0.065810 0.006207
0.134257 0.056281 0.005923
0.184332 0.047843 0.004545
0.241774 0.041720 0.006247
0.303826 0.035629 0.008200
0.368010 0.031591 0.010174
0.433493 0.042660 0.011871
0.500470 0.074145 0.013186
0.569737 0.105713 0.014566
0.645548 0.140036 0.016082
0.732629 0.182575 0.017758
0.817426 0.233172 0.019199
0.953145 0.286550 0.022081
0.011778 0.128898 0.012650
0.036551 0.129547 0.000000
0.089362 0.127806 0.000000
0.125733 0.118506 0.001230
0.162193 0.103775 0.002610
0.207532 0.086387 0.004307
0.263041 0.076304 0.006152
0.324090 0.077310 0.007928
0.386529 0.085863 0.009587
0.450266 0.101331 0.011141
0.515410 0.121514 0.012637
0.583071 0.145693 0.014125
0.657545 0.176433 0.015676
0.743698 0.217342 0.017359
0.825644 0.266413 0.018747
0.954904 0.318584 0.021464
0.043936 0.192817 0.004279
0.070692 0.191910 0.000000
0.125152 0.191299 0.000000
0.167242 0.184128 0.001083
0.203777 0.170824 0.002436
0.244110 0.151762 0.004021
0.293314 0.131334 0.005895
0.350842 0.122600 0.007770
0.411937 0.131453 0.009384
0.473513 0.146878 0.010875
0.536111 0.165491 0.012330
0.601422 0.187852 0.013786
0.673469 0.216606 0.015307
0.756156 0.254901 0.016942
0.833007 0.301619 0.018230
0.955884 0.351807 0.020800
0.083999 0.262003 0.000652
0.113699 0.259117 0.000000
0.167369 0.258186 0.000000
0.212663 0.253378 0.000976
0.251523 0.244508 0.002304
0.289631 0.231057 0.003707
0.333719 0.210705 0.005429
0.384593 0.189536 0.007368
0.441364 0.181638 0.009204
0.501512 0.190625 0.010787
0.562063 0.208306 0.012201
0.624384 0.230850 0.013565
0.692896 0.259027 0.014994
0.769925 0.295399 0.016503
0.852391 0.339262 0.018015
0.974703 0.386770 0.020625
0.135215 0.331148 0.000000
0.162620 0.328196 0.000000
0.213040 0.327131 0.000000
0.258378 0.324023 0.000848
0.299382 0.318121 0.002178
0.337728 0.309885 0.003479
0.378452 0.296300 0.004961
0.424394 0.276283 0.006730
0.475177 0.256224 0.008644
0.530755 0.247757 0.010456
0.590120 0.255512 0.012042
0.650952 0.274860 0.013429
0.716372 0.302376 0.014781
0.787775 0.338300 0.016134
0.890853 0.380854 0.018280
1.012601 0.426487 0.020912
0.191825 0.397683 0.000000
0.212743 0.396413 0.000000
0.258370 0.395623 0.000000
0.301462 0.393493 0.000667
0.344073 0.389203 0.002011
0.383864 0.383496 0.003301
0.423184 0.375365 0.004628
0.465656 0.362554 0.006146
0.511896 0.344556 0.007882
0.562059 0.325737 0.009751
0.616982 0.316893 0.011553
0.677422 0.324721 0.013168
0.742195 0.347658 0.014597
0.806948 0.382559 0.015775
0.895101 0.424557 0.017494
1.010625 0.469867 0.019949
0.247402 0.463287 0.000000
0.262448 0.463616 0.000000
0.303756 0.463107 0.000000
0.343675 0.461551 0.000490
0.386767 0.458343 0.001826
0.428531 0.453685 0.003152
0.467794 0.447922 0.004428
0.507800 0.440399 0.005763
0.550432 0.429097 0.007254
0.595798 0.412590 0.008933
0.645086 0.395465 0.010741
0.700912 0.388156 0.012537
0.765374 0.398668 0.014215
0.834695 0.427858 0.015647
0.961108 0.467831 0.018534
1.020315 0.512213 0.019352
0.300704 0.531722 0.000000
0.314296 0.532344 0.000000
0.352926 0.532088 0.000000
0.389928 0.530995 0.000404
0.431971 0.528496 0.001694
0.475007 0.524433 0.003045
0.514924 0.519546 0.004322
0.553156 0.514355 0.005556
0.592713 0.507561 0.006862
0.634034 0.496650 0.008306
0.676732 0.480822 0.009893
0.725774 0.466824 0.011628
0.785165 0.463443 0.013447
0.849188 0.478357 0.015020
0.970955 0.511423 0.017915
1.019386 0.554167 0.018449
0.356234 0.603639 0.000000
0.372413 0.603524 0.000000
0.409324 0.603444 0.000000
0.443533 0.602702 0.000486
0.483058 0.600965 0.001686
0.525342 0.597951 0.002993
0.565675 0.593830 0.004267
0.603217 0.589382 0.005464
0.639916 0.584411 0.006648
0.677488 0.577071 0.007907
0.716281 0.566225 0.009276
0.756060 0.551420 0.010755
0.807839 0.542622 0.012463
0.863785 0.546304 0.014033
0.973824 0.563336 0.016917
1.019601 0.598093 0.017540
0.418420 0.677353 0.000000
0.436764 0.676270 0.000000
0.472470 0.676110 0.000000
0.504383 0.675614 0.000757
0.540649 0.674848 0.001840
0.580350 0.673333 0.003041
0.620143 0.670307 0.004275
0.657358 0.666131 0.005458
0.692058 0.661648 0.006572
0.726718 0.656617 0.007698
0.762631 0.649752 0.008898
0.799694 0.639975 0.010193
0.837017 0.626550 0.011571
0.882914 0.627466 0.012903
0.977067 0.635517 0.015507
1.019857 0.650983 0.016444
0.497072 0.761487 0.000000
0.517718 0.760416 0.000000
0.554572 0.759869 0.000478
0.584176 0.759219 0.001362
0.613897 0.757290 0.002277
0.647524 0.754966 0.003315
0.685077 0.752539 0.004471
0.721949 0.749258 0.005625
0.755500 0.745494 0.006691
0.787903 0.741828 0.007721
0.821071 0.737590 0.008786
0.852514 0.731467 0.009840
0.883677 0.722642 0.010941
0.927406 0.711345 0.012464
0.990029 0.717538 0.014178
1.020216 0.722991 0.014953
0.592349 0.853984 0.000000
0.610959 0.852413 0.000204
0.646336 0.852358 0.001249
0.674234 0.852036 0.002077
0.698796 0.848412 0.002876
0.728138 0.845353 0.003803
0.763671 0.844209 0.004873
0.800720 0.842747 0.005994
0.832383 0.839795 0.006988
0.856816 0.836390 0.007778
0.876377 0.832743 0.008430
0.912132 0.827966 0.009582
0.951845 0.822026 0.010875
0.975810 0.814299 0.011741
0.994527 0.803263 0.012522
1.022384 0.815675 0.013084
0.702983 0.970228 0.000460
0.738393 0.970382 0.001498
0.761779 0.971289 0.002167
0.787250 0.971288 0.002917
0.813146 0.969361 0.003719
0.840673 0.967981 0.004558
0.864791 0.967169 0.005285
0.882372 0.966109 0.005825
0.919378 0.963607 0.006966
0.942841 0.960715 0.007717
0.959410 0.957884 0.008264
0.975122 0.954674 0.008794
0.990114 0.949779 0.009337
1.005026 0.943714 0.009902
1.018569 0.936064 0.010461
1.031965 0.925154 0.011082
0.000000 0.000411 0.052862
0.000000 0.000411 0.052685
0.000000 0.000411 0.052724
0.000000 0.000548 0.053564
0.000000 0.000548 0.054935
0.000000 0.000548 0.055137
0.000000 0.000411 0.049056
0.000000 0.000411 0.040120
0.000000 0.000411 0.036773
0.270406 0.000000 0.042793
0.378966 0.000000 0.044262
0.475247 0.000000 0.045473
0.569885 0.000000 0.046755
0.669863 0.000000 0.048367
0.772580 0.000000 0.050378
0.928787 0.000000 0.052388
0.000000 0.002026 0.048074
0.009791 0.009929 0.050427
0.022612 0.000743 0.050805
0.016204 0.000355 0.051414
0.012561 0.000358 0.049409
0.018054 0.000291 0.045977
0.039673 0.000000 0.036987
0.090941 0.000000 0.030153
0.198421 0.000000 0.030713
0.353158 0.000000 0.033044
0.437983 0.000000 0.033136
0.519681 0.000000 0.033019
0.604001 0.000000 0.032814
0.695690 0.000000 0.033561
0.789516 0.000000 0.036143
0.941906 0.000000 0.032216
0.000000 0.044215 0.051608
0.009155 0.046054 0.053060
0.037425 0.045341 0.054690
0.073278 0.041941 0.055909
0.119500 0.028788 0.052456
0.176773 0.017337 0.042591
0.240813 0.015604 0.027713
0.306199 0.008285 0.019993
0.371250 0.000000 0.017045
0.436579 0.000000 0.012908
0.502794 0.013262 0.014524
0.571783 0.049045 0.015808
0.646519 0.090587 0.017142
0.730590 0.130809 0.018778
0.813498 0.179938 0.020193
0.970470 0.234276 0.023681
0.003894 0.081066 0.056291
0.013151 0.082416 0.051328
0.050561 0.080993 0.046985
0.093488 0.071750 0.044897
0.138980 0.061269 0.037772
0.191643 0.056194 0.027021
0.251853 0.053664 0.019581
0.315880 0.048169 0.016141
0.380718 0.041481 0.013695
0.445824 0.046715 0.012149
0.511891 0.075264 0.013498
0.580348 0.104547 0.014903
0.655011 0.137557 0.016412
0.739736 0.178354 0.018055
0.820354 0.227839 0.019396
0.970607 0.281117 0.022708
0.012517 0.134616 0.058449
0.021165 0.135754 0.045409
0.064303 0.135762 0.019759
0.120585 0.126680 0.015364
0.163919 0.110751 0.017032
0.211900 0.094835 0.016085
0.269634 0.087506 0.014740
0.332042 0.088569 0.012628
0.395226 0.094414 0.009665
0.458920 0.105882 0.011301
0.523722 0.123517 0.012840
0.591197 0.146365 0.014350
0.665485 0.176508 0.015908
0.750949 0.216764 0.017584
0.828963 0.265202 0.018870
0.970701 0.317051 0.021961
0.030965 0.198692 0.055236
0.046155 0.199157 0.036847
0.090339 0.198560 0.004885
0.156399 0.192923 0.001824
0.202292 0.178439 0.008280
0.245289 0.157897 0.010730
0.296847 0.137162 0.010579
0.356366 0.129364 0.008210
0.418160 0.137446 0.009442
0.479780 0.151231 0.010969
0.542260 0.168172 0.012455
0.607530 0.189363 0.013934
0.679676 0.217545 0.015470
0.762396 0.255544 0.017112
0.834862 0.301859 0.018280
0.968229 0.351834 0.021163
0.061358 0.268264 0.052118
0.081256 0.267816 0.031424
0.126319 0.265002 0.000000
0.196577 0.261757 0.000327
0.246842 0.251647 0.002018
0.288862 0.236090 0.003579
0.334613 0.214323 0.005380
0.387292 0.192489 0.007386
0.445476 0.185039 0.009254
0.506142 0.194299 0.010847
0.566813 0.211486 0.012274
0.629183 0.233265 0.013656
0.697899 0.260829 0.015104
0.774804 0.296822 0.016617
0.869396 0.340095 0.018499
0.993725 0.387402 0.021172
0.111791 0.338338 0.008949
0.131422 0.337338 0.000704
0.171679 0.332976 0.000000
0.240765 0.330708 0.000190
0.292286 0.324085 0.001845
0.335447 0.314175 0.003322
0.377741 0.299629 0.004870
0.424875 0.278614 0.006696
0.477082 0.258016 0.008662
0.533951 0.250018 0.010503
0.593890 0.258280 0.012095
0.654752 0.277582 0.013484
0.720192 0.304671 0.014846
0.790798 0.340033 0.016186
0.898812 0.381744 0.018496
1.015017 0.426883 0.020975
0.172159 0.405134 0.000000
0.189191 0.404135 0.000000
0.220483 0.399717 0.000000
0.285804 0.397836 0.000116
0.335998 0.393529 0.001683
0.380387 0.387116 0.003124
0.421407 0.378402 0.004513
0.464946 0.365158 0.006071
0.512242 0.346558 0.007851
0.563636 0.327529 0.009760
0.619402 0.318956 0.011581
0.680176 0.327058 0.013201
0.744887 0.349851 0.014630
0.808602 0.384097 0.015792
0.901913 0.425127 0.017682
1.012630 0.469996 0.020006
0.233171 0.469447 0.000000
0.247872 0.468819 0.000000
0.269578 0.465780 0.000000
0.330936 0.464238 0.000060
0.378642 0.461350 0.001524
0.424188 0.456725 0.002961
0.465532 0.450634 0.004305
0.506688 0.442961 0.005677
0.550181 0.431561 0.007195
0.596374 0.414748 0.008905
0.646334 0.397351 0.010739
0.702780 0.389951 0.012554
0.767220 0.400441 0.014232
0.837749 0.429280 0.015707
0.962873 0.468701 0.018568
1.021068 0.512924 0.019359
0.293503 0.535673 0.000000
0.306635 0.535464 0.000000
0.321042 0.533983 0.000000
0.378543 0.532999 0.000000
0.423654 0.530841 0.001400
0.469911 0.527044 0.002841
0.512397 0.521988 0.004197
0.551945 0.516679 0.005472
0.592306 0.510003 0.006799
0.634322 0.498974 0.008266
0.677440 0.482753 0.009873
0.726913 0.468327 0.011630
0.786330 0.464755 0.013454
0.852091 0.479701 0.015078
0.972684 0.512753 0.017938
1.020019 0.555236 0.018446
0.352960 0.605946 0.000000
0.366139 0.605996 0.000000
0.378299 0.605125 0.000000
0.431720 0.604706 0.000097
0.474172 0.603148 0.001379
0.519596 0.600297 0.002775
0.562639 0.596102 0.004130
0.601763 0.591476 0.005378
0.639301 0.586531 0.006586
0.677461 0.579112 0.007864
0.716592 0.567977 0.009248
0.756602 0.552779 0.010743
0.808485 0.543574 0.012462
0.865351 0.546504 0.014075
0.974846 0.563339 0.016947
1.020087 0.598967 0.017535
0.414856 0.679232 0.000000
0.428764 0.679437 0.000000
0.441352 0.678128 0.000000
0.493007 0.677779 0.000377
0.532284 0.676999 0.001549
0.574775 0.675512 0.002831
0.616831 0.672514 0.004131
0.655735 0.668185 0.005367
0.691322 0.663541 0.006511
0.726442 0.658388 0.007652
0.762637 0.651309 0.008866
0.799912 0.641276 0.010172
0.837422 0.627475 0.011564
0.883603 0.627646 0.012920
0.977638 0.635569 0.015523
1.020209 0.651686 0.016440
0.491495 0.763693 0.000000
0.508168 0.763469 0.000000
0.523112 0.761883 0.000000
0.574314 0.761127 0.001032
0.607757 0.759560 0.002049
0.643024 0.757141 0.003138
0.681753 0.754543 0.004332
0.720060 0.751174 0.005530
0.754593 0.747191 0.006629
0.787368 0.743299 0.007675
0.820791 0.738883 0.008751
0.852534 0.732607 0.009816
0.883743 0.723682 0.010921
0.927694 0.712462 0.012449
0.990206 0.718955 0.014154
1.020456 0.724373 0.014931
0.587892 0.855277 0.000000
0.606685 0.854522 0.000000
0.618022 0.853416 0.000394
0.666114 0.853389 0.001810
0.695342 0.850916 0.002722
0.725651 0.847664 0.003682
0.761712 0.846110 0.004776
0.799593 0.844467 0.005925
0.831995 0.841354 0.006944
0.856613 0.837780 0.007743
0.876221 0.834009 0.008399
0.911406 0.829076 0.009537
0.951747 0.823243 0.010847
0.975793 0.815828 0.011709
0.994553 0.804805 0.012491
1.022507 0.816918 0.013061
0.703915 0.973405 0.000419
0.739955 0.972464 0.001500
0.762666 0.972990 0.002158
0.788432 0.972783 0.002920
0.813629 0.970839 0.003703
0.841162 0.969146 0.004548
0.865920 0.968416 0.005293
0.883685 0.967502 0.005834
0.919738 0.965190 0.006944
0.943013 0.962186 0.007692
0.959503 0.959201 0.008239
0.975204 0.955846 0.008771
0.990227 0.951711 0.009300
1.005154 0.946260 0.009853
1.018658 0.938486 0.010413
1.031995 0.927432 0.011036
0.000000 0.000732 0.076722
0.000000 0.000732 0.076454
0.000000 0.000732 0.076120
0.000000 0.000732 0.076419
0.000000 0.000732 0.078413
0.000000 0.000732 0.081629
0.000000 0.000732 0.081114
0.000000 0.000649 0.075521
0.000000 0.000548 0.064913
0.263406 0.000000 0.053023
0.377317 0.000000 0.049950
0.474869 0.000000 0.049927
0.569691 0.000000 0.049442
0.668844 0.000000 0.048941
0.771120 0.000000 0.048223
0.929067 0.000000 0.048193
0.000000 0.001748 0.075366
0.006724 0.007743 0.079128
0.015375 0.000622 0.080617
0.002518 0.000715 0.081589
0.000000 0.000748 0.081910
0.000000 0.000750 0.081874
0.018861 0.000576 0.078345
0.071142 0.000173 0.070803
0.181954 0.000000 0.060284
0.348933 0.000000 0.048549
0.436751 0.000000 0.046100
0.519328 0.000000 0.045368
0.603733 0.000000 0.044345
0.694368 0.000000 0.043688
0.788012 0.000000 0.043129
0.941806 0.000000 0.038678
0.000000 0.049486 0.081700
0.012483 0.051991 0.087956
0.041599 0.052415 0.088564
0.065526 0.051452 0.090757
0.106916 0.044928 0.092383
0.166802 0.004257 0.089781
0.235970 0.000000 0.076600
0.305427 0.001061 0.059377
0.372892 0.013665 0.046500
0.438883 0.028969 0.038857
0.505250 0.053711 0.035504
0.573757 0.077762 0.032628
0.647418 0.105562 0.030779
0.729553 0.140089 0.029698
0.812405 0.184351 0.029954
0.971972 0.236261 0.023684
0.007347 0.085287 0.090479
0.018664 0.086970 0.091622
0.048040 0.087836 0.092277
0.083207 0.086056 0.094513
0.131233 0.082930 0.093754
0.188973 0.074370 0.086605
0.253899 0.066608 0.061856
0.322129 0.070414 0.042878
0.391102 0.076930 0.037363
0.460674 0.078810 0.031204
0.529173 0.088735 0.023626
0.598533 0.104787 0.016267
0.672132 0.127798 0.017120
0.753912 0.160479 0.018845
0.829349 0.203911 0.020160
1.004995 0.263806 0.024081
0.029109 0.139295 0.103197
0.035277 0.140907 0.099806
0.056936 0.143478 0.088720
0.104568 0.139781 0.083631
0.158907 0.129409 0.082263
0.216896 0.119095 0.075721
0.278944 0.114226 0.050324
0.342675 0.116354 0.033992
0.406904 0.120182 0.031290
0.472728 0.124254 0.025736
0.539017 0.134042 0.020190
0.607389 0.150872 0.015620
0.681581 0.177159 0.016368
0.765541 0.214519 0.018060
0.836756 0.260125 0.019206
1.002166 0.312017 0.022992
0.040385 0.206512 0.106319
0.047338 0.207435 0.099074
0.066209 0.209432 0.073082
0.125516 0.207243 0.032157
0.194039 0.195333 0.022053
0.249448 0.175963 0.030453
0.305106 0.156492 0.030452
0.366325 0.149759 0.026661
0.428764 0.155776 0.023138
0.491242 0.164890 0.018329
0.554503 0.176660 0.014587
0.620387 0.193834 0.014219
0.693210 0.220285 0.015811
0.775825 0.256897 0.017479
0.840738 0.301470 0.018461
0.996405 0.351092 0.022008
0.046830 0.276279 0.104150
0.059376 0.276691 0.091882
0.087344 0.277288 0.057571
0.154325 0.275738 0.007339
0.232246 0.266639 0.005245
0.287406 0.249510 0.010226
0.337086 0.225975 0.013806
0.392859 0.203361 0.015954
0.453494 0.196059 0.014844
0.515246 0.204401 0.012937
0.576413 0.219407 0.012391
0.639282 0.239022 0.013833
0.708846 0.264874 0.015342
0.785409 0.299606 0.016871
0.895312 0.341208 0.019238
1.012928 0.388736 0.021709
0.083327 0.346617 0.077359
0.100288 0.346515 0.059282
0.131372 0.345939 0.025053
0.193328 0.342947 0.000000
0.272486 0.336875 0.000995
0.330032 0.324470 0.002948
0.376676 0.307791 0.004669
0.426122 0.284839 0.008344
