luts/cinema look2-Lut_ sony footage.cube
TITLE "Generated by Resolve"
LUT_3D_SIZE 33
0.00802625 0.016556 0.0184024
0.00773632 0.0162051 0.0180362
0.00981155 0.0171817 0.019501
0.0157473 0.0206149 0.0238346
0.0218967 0.0241703 0.0281071
0.0297093 0.0276646 0.0335851
0.0395514 0.0303197 0.0378576
0.0507973 0.0332647 0.0411688
0.0656291 0.0366979 0.0450141
0.0822156 0.0404822 0.0489815
0.099733 0.0438544 0.0522164
0.122255 0.0471046 0.0552529
0.149981 0.049546 0.0575265
0.179339 0.0512703 0.0591135
0.211398 0.0518502 0.058381
0.249973 0.0516823 0.0580758
0.299245 0.0520638 0.0591135
0.352895 0.0517128 0.059266
0.408591 0.0505226 0.0585794
0.463371 0.0488289 0.0573281
0.517968 0.0467536 0.0556802
0.570504 0.0445869 0.0538796
0.619547 0.0424353 0.0520638
0.663706 0.0405127 0.0504311
0.705135 0.0387121 0.0488899
0.743755 0.0371099 0.0475319
0.779889 0.0356756 0.0462959
0.81323 0.0344854 0.0452888
0.844602 0.0334325 0.0444038
0.868727 0.0326543 0.0437476
0.869093 0.0326543 0.0437476
0.869093 0.0326543 0.0437476
0.869093 0.0326543 0.0437476
0.0187533 0.0297398 0.0310063
0.0184939 0.0293889 0.0306706
0.0204166 0.0308843 0.0320592
0.0260166 0.0343633 0.0356298
0.0328069 0.0378576 0.0393378
0.0401312 0.0415503 0.0433204
0.0495613 0.0445258 0.047715
0.0618753 0.0473182 0.0505684
0.0783551 0.050782 0.0539559
0.0959793 0.0543069 0.0571298
0.114672 0.0575113 0.059556
0.139132 0.0604257 0.0617838
0.168414 0.0623178 0.0631266
0.199817 0.0634928 0.0633402
0.234226 0.0636301 0.0614328
0.275441 0.0626993 0.0611582
0.322042 0.0601053 0.0607767
0.369589 0.0556802 0.0597086
0.417014 0.050721 0.0584726
0.472099 0.0484932 0.0570687
0.52639 0.0464179 0.0554055
0.579217 0.0441901 0.0535439
0.627665 0.0420844 0.0517739
0.671687 0.0401617 0.0501411
0.712551 0.038407 0.0486305
0.750851 0.0368048 0.0472572
0.786404 0.0354314 0.0460975
0.819471 0.0342718 0.0451057
0.849668 0.0332647 0.0442512
0.869047 0.0326543 0.0437476
0.869093 0.0326543 0.0437476
0.869093 0.0326543 0.0437476
0.869093 0.0326543 0.0437476
0.028687 0.043122 0.043534
0.0284123 0.0427558 0.0431525
0.0307774 0.044358 0.044892
0.0349737 0.0482948 0.0475776
0.0422217 0.0517586 0.050309
0.0505226 0.0553902 0.0538796
0.0581979 0.0588846 0.0568246
0.0713207 0.0618753 0.0583505
0.0892653 0.0651713 0.0612192
0.107912 0.0685893 0.0635386
0.128069 0.0717479 0.0653239
0.153994 0.0742657 0.0666972
0.185336 0.075761 0.0669718
0.21886 0.0765545 0.066041
0.255894 0.0763104 0.0635996
0.299519 0.074815 0.0631418
0.348486 0.0716716 0.0620432
0.397818 0.0663615 0.0603799
0.44094 0.057969 0.0585489
0.480171 0.0487831 0.0568704
0.533562 0.0461433 0.0551766
0.586099 0.0439002 0.053315
0.634455 0.0417945 0.0515297
0.678111 0.0398718 0.0498817
0.718715 0.0381323 0.0484016
0.756436 0.0365911 0.0470741
0.791501 0.0352636 0.0459449
0.824063 0.0341039 0.0449683
0.852918 0.0331731 0.0441749
0.869093 0.0326543 0.0437476
0.869093 0.0326543 0.0437476
0.869093 0.0326543 0.0437476
0.869093 0.0326543 0.0437476
0.0386816 0.0570687 0.0572213
0.0384222 0.0566873 0.0568399
0.0410925 0.0585946 0.0587472
0.0452735 0.0625315 0.0618296
0.0489967 0.0671397 0.0628367
0.0586862 0.0704814 0.0639963
0.0680247 0.07364 0.0671244
0.0793011 0.0776226 0.0658122
0.0990768 0.0810101 0.0671855
0.118898 0.0843519 0.0687877
0.140185 0.0872206 0.0698558
0.167803 0.0892805 0.0702678
0.201358 0.0906539 0.0694285
0.237263 0.0912184 0.067689
0.276951 0.0907149 0.0653086
0.323476 0.0887617 0.0641031
0.375296 0.0851453 0.0621958
0.427634 0.0798657 0.059968
0.474601 0.0715953 0.0578164
0.512749 0.06009 0.0561532
0.555993 0.0521553 0.0543526
0.605447 0.0486305 0.0524147
0.650416 0.0453346 0.05066
0.691096 0.0424048 0.0491646
0.728634 0.0397345 0.0478523
0.763653 0.0373083 0.0467536
0.796841 0.0352789 0.0457465
0.828672 0.0339361 0.0448157
0.855894 0.0330663 0.0440833
0.869093 0.0326543 0.0437476
0.869093 0.0326543 0.0437476
0.869093 0.0326543 0.0437476
0.869093 0.0326543 0.0437476
0.0483406 0.0715343 0.0713207
0.0480659 0.0710918 0.0709239
0.0511025 0.0733959 0.0730297
0.0554971 0.0775006 0.0760815
0.0593881 0.0820783 0.0783856
0.0633707 0.0874037 0.0773785
0.0724346 0.0910353 0.0766918
0.0868391 0.0943008 0.0787213
0.106966 0.0984817 0.0725567
0.128435 0.101442 0.0727398
0.151034 0.10399 0.0731212
0.180697 0.105898 0.072343
0.216541 0.107057 0.0704051
0.255024 0.107561 0.0678721
0.297765 0.107057 0.0658579
0.347341 0.105043 0.0638437
0.401709 0.101076 0.0612192
0.457206 0.0956893 0.0583047
0.509117 0.0888991 0.0555886
0.553384 0.078645 0.0536049
0.592248 0.0661936 0.0522316
0.634501 0.0582589 0.0506142
0.678874 0.0548867 0.0487373
0.718975 0.0519112 0.0471351
0.755566 0.0492103 0.0458228
0.789487 0.0467994 0.0447395
0.821073 0.0446632 0.0438392
0.851072 0.042771 0.0429847
0.874784 0.0411536 0.0423743
0.883894 0.0400092 0.0421912
0.882338 0.0392157 0.042359
0.880934 0.0385138 0.0425116
0.879408 0.0377356 0.0426642
0.0574807 0.0858778 0.0851453
0.0572213 0.0854353 0.0847334
0.0604868 0.0879683 0.0868391
0.0649577 0.0921035 0.0897231
0.0689708 0.0966812 0.0920882
0.0723888 0.102205 0.0932021
0.0771038 0.107591 0.090425
0.0891737 0.112047 0.0886244
0.108614 0.116258 0.0841688
0.133944 0.119188 0.0756695
0.15996 0.121065 0.0746624
0.191974 0.12285 0.0730144
0.230091 0.123903 0.0702831
0.270802 0.124361 0.0673381
0.316213 0.123613 0.0652476
0.368154 0.121355 0.062562
0.425513 0.117433 0.0592508
0.483146 0.112047 0.055848
0.537179 0.105364 0.0527657
0.585626 0.0966049 0.05037
0.626093 0.0825208 0.0491188
0.664164 0.0705272 0.0480812
0.70663 0.0661784 0.0463264
0.746014 0.0632792 0.0447089
0.781918 0.0607156 0.0433967
0.815518 0.0583505 0.0422217
0.847089 0.0561227 0.0411688
0.876844 0.0541543 0.040238
0.898207 0.0524605 0.0396735
0.904585 0.0512398 0.0396277
0.903014 0.0503243 0.0398413
0.901381 0.0494087 0.0400702
0.89987 0.0485542 0.0402686
0.066041 0.100862 0.099443
0.0657969 0.100404 0.0990616
0.0692454 0.102937 0.101076
0.0739147 0.107164 0.103868
0.0786145 0.112276 0.106569
0.0829175 0.117922 0.108415
0.0856184 0.123629 0.107637
0.0923323 0.129931 0.102907
0.108766 0.135164 0.0991226
0.129915 0.139849 0.0880598
0.161563 0.141787 0.0751354
0.200504 0.142153 0.0718395
0.242405 0.142504 0.0688487
0.28542 0.142672 0.066331
0.333196 0.141939 0.0637064
0.387884 0.13959 0.0603342
0.44744 0.135744 0.0565347
0.507454 0.130709 0.0526894
0.563729 0.125017 0.0492256
0.615076 0.117464 0.0463722
0.661387 0.106828 0.0444648
0.701381 0.0937819 0.0434882
0.737972 0.0838026 0.0426184
0.774227 0.0784772 0.0413672
0.80798 0.0739757 0.0402228
0.840146 0.0704814 0.0391546
0.871305 0.0682689 0.0380865
0.900618 0.0662547 0.0371099
0.919844 0.0646677 0.0365606
0.9243 0.0635691 0.0365911
0.924453 0.0636759 0.0365606
0.925368 0.0643015 0.036408
0.925612 0.0644694 0.0363622
0.0752422 0.118212 0.116045
0.0749218 0.117662 0.115526
0.0782788 0.120012 0.117357
0.0827192 0.12372 0.119646
0.0875563 0.128573 0.122255
0.093019 0.135149 0.124788
0.0967422 0.14078 0.125673
0.100343 0.148241 0.123018
0.109728 0.156573 0.115038
0.126833 0.162341 0.11017
0.150301 0.167742 0.096025
0.196674 0.16846 0.0725414
0.248951 0.166629 0.067155
0.297902 0.165545 0.0643473
0.34931 0.164462 0.0610666
0.406989 0.162432 0.0571298
0.469062 0.15903 0.052781
0.531701 0.154467 0.0482948
0.58996 0.149142 0.0442206
0.644053 0.142733 0.0407568
0.694652 0.135164 0.0379644
0.740246 0.127123 0.0359503
0.780575 0.119402 0.0344244
0.815839 0.112154 0.033463
0.846143 0.103059 0.0332647
0.87628 0.0972763 0.0326543
0.906844 0.0953231 0.0315862
0.93547 0.0937667 0.0306401
0.954314 0.0929885 0.0300603
0.959838 0.0932631 0.0298314
0.962844 0.0965591 0.0291905
0.966247 0.100557 0.0284428
0.96788 0.102571 0.0280919
0.0851606 0.136507 0.133349
0.0848554 0.135958 0.13283
0.0883497 0.138384 0.134524
0.0926986 0.142046 0.136584
0.0968795 0.146075 0.138613
0.10132 0.15111 0.140841
0.105669 0.156832 0.142458
0.110964 0.165988 0.141985
0.115602 0.17641 0.134951
0.126574 0.18468 0.126299
0.1467 0.190997 0.120256
0.179431 0.197436 0.0958724
0.240681 0.196109 0.0680858
0.299672 0.193103 0.0619211
0.358083 0.190875 0.057969
0.422324 0.187442 0.0532235
0.488731 0.183581 0.0480201
0.553872 0.179431 0.0428473
0.613764 0.174731 0.0384222
0.669367 0.169223 0.0346838
0.721019 0.163241 0.0317235
0.768093 0.157351 0.0293889
0.809491 0.152209 0.0276646
0.846052 0.147326 0.0264286
0.878645 0.142199 0.0256657
0.909621 0.138888 0.0249332
0.938399 0.137316 0.0243381
0.96553 0.136797 0.0238804
0.983444 0.137514 0.0235599
0.988312 0.13814 0.0234684
0.988861 0.139544 0.0233463
0.989548 0.14136 0.0231937
0.990066 0.142733 0.0230869
0.0944839 0.154757 0.150576
0.0941634 0.154192 0.150027
0.0978561 0.156786 0.151629
0.102281 0.160464 0.153506
0.106477 0.164446 0.155398
0.110567 0.168917 0.157321
0.114794 0.174197 0.15906
0.120333 0.182635 0.160021
0.125566 0.194827 0.155932
0.13106 0.205341 0.145846
0.145357 0.213886 0.1355
0.173129 0.221408 0.125521
0.217899 0.227878 0.087892
0.285145 0.225345 0.0624552
0.354726 0.220951 0.0543526
0.429755 0.215076 0.0486305
0.503594 0.209827 0.0427863
0.572824 0.205249 0.0373999
0.63415 0.2009 0.0330053
0.689601 0.196384 0.0295567
0.741146 0.191241 0.0268864
0.7879 0.186526 0.0248875
0.829038 0.182376 0.0234531
0.864851 0.179126 0.0225223
0.897337 0.176211 0.021912
0.927108 0.174197 0.0215763
0.954986 0.173251 0.0213779
0.980743 0.173159 0.0213779
0.995377 0.173678 0.0214237
0.998505 0.17438 0.0214542
0.998734 0.175586 0.0214237
0.998993 0.177005 0.0213779
0.999268 0.178576 0.0213474
0.104524 0.175494 0.170077
0.104189 0.174884 0.169467
0.108095 0.177646 0.170962
0.112551 0.181247 0.172519
0.116899 0.185351 0.174365
0.12108 0.189746 0.17615
0.125414 0.194842 0.17792
0.130938 0.202335 0.179187
0.137453 0.21413 0.178241
0.1411 0.226459 0.171206
0.148852 0.237873 0.15787
0.169207 0.248127 0.144228
0.201755 0.256916 0.130022
0.249454 0.264714 0.0889296
0.329259 0.261448 0.0553597
0.419989 0.252323 0.044007
0.506264 0.243885 0.0378576
0.583429 0.237354 0.0326085
0.648447 0.23267 0.0286717
0.705318 0.228489 0.025742
0.756817 0.22414 0.0235752
0.802731 0.220096 0.0221103
0.842802 0.216999 0.0211643
0.877974 0.214313 0.0206302
0.909606 0.212253 0.0204013
0.938796 0.210864 0.0203555
0.96553 0.210437 0.0205692
0.990585 0.210834 0.0208896
1 0.211322 0.0210422
1 0.212222 0.0211185
1 0.213489 0.0211337
1 0.215259 0.021149
1 0.216754 0.021149
0.115373 0.198856 0.19202
0.114992 0.198169 0.191333
0.119036 0.200793 0.192401
0.12372 0.20473 0.194018
0.128298 0.208972 0.195804
0.132769 0.213519 0.197635
0.137148 0.218555 0.199435
0.142184 0.225162 0.200916
0.149264 0.235599 0.201526
0.155093 0.248737 0.198962
0.15845 0.262928 0.187503
0.169192 0.276875 0.166827
0.192721 0.289006 0.15259
0.226856 0.300084 0.142336
0.281392 0.308904 0.0949569
0.380407 0.302892 0.048188
0.485115 0.290929 0.0350347
0.575113 0.281025 0.0300145
0.649027 0.274372 0.0263981
0.711147 0.268772 0.0239261
0.765743 0.264012 0.0222171
0.812955 0.260319 0.021149
0.852705 0.257755 0.0206302
0.887282 0.25565 0.0204166
0.918242 0.253925 0.0204623
0.946792 0.252934 0.0206912
0.973281 0.252903 0.0211032
0.997528 0.253437 0.0216678
1 0.254215 0.0218662
1 0.254887 0.021912
1 0.256504 0.0219577
1 0.258228 0.0220035
1 0.259739 0.0220493
0.126223 0.222477 0.214145
0.125826 0.221775 0.213474
0.130175 0.224796 0.214725
0.134951 0.228595 0.215991
0.139727 0.232975 0.21767
0.144442 0.237842 0.219623
0.14902 0.243091 0.221714
0.153475 0.248997 0.223377
0.159808 0.258213 0.224582
0.167788 0.271595 0.224231
0.171908 0.287098 0.217334
0.17525 0.304921 0.195789
0.189258 0.320882 0.170687
0.21883 0.334264 0.16231
0.260471 0.346258 0.152605
0.325612 0.354391 0.094789
0.436164 0.346334 0.0442664
0.543801 0.33341 0.0307469
0.630411 0.323186 0.0267643
0.702174 0.315068 0.0242161
0.763439 0.308812 0.0226139
0.815183 0.303838 0.0217288
0.857725 0.300771 0.0213626
0.893599 0.298207 0.0213321
0.92517 0.296635 0.021561
0.953567 0.295811 0.0219883
0.979767 0.295705 0.0224918
1 0.296574 0.0230716
1 0.297337 0.0232548
1 0.298634 0.0233005
1 0.300389 0.0233616
1 0.301961 0.0234073
1 0.304006 0.0234684
0.137072 0.246448 0.236942
0.136675 0.245747 0.236194
0.141253 0.249012 0.237278
0.146151 0.252949 0.238651
0.151003 0.257389 0.240208
0.155871 0.262562 0.242237
0.16054 0.267948 0.244175
0.165103 0.274067 0.246235
0.169665 0.281346 0.247807
0.177554 0.29369 0.248219
0.185275 0.311376 0.244495
0.186496 0.33167 0.226047
0.194354 0.351614 0.199435
0.217624 0.367788 0.180774
0.253635 0.381476 0.176745
0.300954 0.393606 0.161593
0.375723 0.400687 0.094255
0.488121 0.392035 0.0446784
0.590753 0.378882 0.0302892
0.674769 0.367941 0.0262455
0.74583 0.359197 0.0243381
0.8047 0.352087 0.02327
0.852491 0.347585 0.0228122
0.892164 0.343908 0.0227665
0.926513 0.34168 0.0229953
0.956863 0.340093 0.0234226
0.984283 0.340002 0.0239567
1 0.340612 0.024506
1 0.341375 0.0246586
1 0.342367 0.0246891
1 0.344305 0.0247501
1 0.346181 0.0248112
1 0.347997 0.0248722
0.147784 0.271489 0.260609
0.147372 0.270756 0.259831
0.152117 0.274128 0.2607
0.157214 0.278279 0.261982
0.162173 0.282872 0.263569
0.167224 0.288182 0.26569
0.172366 0.294087 0.268009
0.177066 0.300481 0.27013
0.181308 0.307607 0.27187
0.186816 0.317784 0.272648
0.195605 0.335485 0.269749
0.202197 0.358373 0.259159
0.208331 0.381323 0.237095
0.224079 0.401389 0.213535
0.252522 0.417334 0.197894
0.292943 0.431159 0.194232
0.344305 0.443565 0.172137
0.419684 0.450752 0.103639
0.522393 0.443244 0.0523995
0.621027 0.430625 0.0335851
0.70663 0.418097 0.0272221
0.776165 0.408698 0.0253605
0.831312 0.402228 0.0246281
0.876921 0.396918 0.0243381
0.915709 0.393088 0.0244602
0.949691 0.390539 0.0248264
0.979767 0.38967 0.0254063
1 0.389715 0.0260014
1 0.389746 0.026154
1 0.390234 0.0261692
1 0.391592 0.026215
1 0.393133 0.0262608
1 0.394842 0.0263218
0.158907 0.297887 0.285527
0.158511 0.297093 0.284688
0.163485 0.300694 0.285603
0.168826 0.304921 0.286793
0.173999 0.309606 0.288273
0.179263 0.315297 0.290455
0.184482 0.321492 0.292851
0.189258 0.328161 0.295094
0.193271 0.335897 0.29662
0.196689 0.345174 0.297551
0.207584 0.362249 0.297353
0.221592 0.386069 0.29424
0.229129 0.410697 0.280171
0.238392 0.43415 0.255802
0.258122 0.453773 0.232166
0.291066 0.469627 0.21799
0.334401 0.484169 0.213397
0.384619 0.496834 0.189853
0.449866 0.504295 0.128511
0.539849 0.50045 0.0704204
0.636225 0.488716 0.0419623
0.72015 0.476417 0.0309911
0.78677 0.467216 0.0272526
0.840894 0.459571 0.026276
0.886625 0.453666 0.0260624
0.926299 0.449134 0.0262455
0.960723 0.446647 0.0266728
0.990585 0.44593 0.0272984
1 0.445335 0.0277256
1 0.445228 0.0278325
1 0.445792 0.0278477
1 0.446586 0.027863
1 0.447623 0.0278935
0.170428 0.324575 0.310811
0.16997 0.323796 0.309957
0.175265 0.327626 0.310689
0.180728 0.331899 0.311849
0.186236 0.33698 0.313664
0.191714 0.342733 0.315816
0.197177 0.349401 0.318379
0.201328 0.356542 0.31989
0.20499 0.365347 0.321599
0.210315 0.375143 0.324727
0.221103 0.38938 0.328191
0.23975 0.413504 0.328298
0.25272 0.439994 0.321813
0.259709 0.465507 0.302953
0.271595 0.489143 0.275975
0.295521 0.508492 0.251606
0.332219 0.524819 0.239155
0.374609 0.539361 0.233997
0.419135 0.551247 0.214374
0.473869 0.559319 0.163882
0.550042 0.559396 0.100343
0.636439 0.550912 0.0601968
0.713832 0.540902 0.0416114
0.780102 0.530632 0.0329747
0.835401 0.522133 0.0292973
0.882887 0.515648 0.0280003
0.922942 0.511955 0.0280308
0.958038 0.50927 0.0284886
0.98793 0.507729 0.0291752
1 0.507042 0.0298314
1 0.506676 0.0299687
1 0.506691 0.0299687
1 0.506539 0.0299535
0.181979 0.350179 0.335042
0.181506 0.349432 0.33431
0.187243 0.353658 0.335256
0.192859 0.357977 0.336309
0.198627 0.363378 0.33817
0.204028 0.36965 0.340322
0.208255 0.37641 0.341894
0.212329 0.384283 0.343511
0.218647 0.393912 0.347662
0.226246 0.404532 0.353277
0.235966 0.41706 0.358831
0.256596 0.441337 0.360143
0.275029 0.468849 0.358526
0.283619 0.495186 0.347829
0.291524 0.521691 0.323125
0.30663 0.545007 0.293477
0.335012 0.56408 0.269474
0.372412 0.579507 0.259541
0.41091 0.593027 0.255009
0.450889 0.603784 0.238926
0.498268 0.612055 0.198749
0.558938 0.614969 0.139803
0.628428 0.611521 0.0922866
0.698024 0.603159 0.0630655
0.761563 0.594202 0.0472419
0.817334 0.586465 0.0391394
0.865019 0.580682 0.0354314
0.905791 0.576577 0.034226
0.941726 0.573953 0.0346532
0.97406 0.572274 0.0361791
0.997818 0.571145 0.0379034
1 0.570382 0.0388342
1 0.569177 0.0386816
0.193179 0.373922 0.357488
0.192706 0.37322 0.356756
0.198535 0.377691 0.357733
0.204379 0.382528 0.359121
0.209598 0.388022 0.360494
0.21384 0.394568 0.36173
0.218784 0.402182 0.364065
0.225498 0.410681 0.36817
0.233341 0.420752 0.373907
0.241794 0.43183 0.380438
0.251514 0.444358 0.38703
0.272145 0.468177 0.389807
0.294133 0.496162 0.390433
0.306554 0.522957 0.386297
0.313359 0.550423 0.368017
0.323293 0.576852 0.337148
0.343343 0.599542 0.307347
0.373907 0.616815 0.285786
0.40882 0.630732 0.278752
0.444556 0.642832 0.274586
0.481331 0.652949 0.261372
0.522103 0.660349 0.230457
0.56788 0.665156 0.186236
0.621637 0.664775 0.138781
0.679545 0.660349 0.102678
0.737392 0.65388 0.079408
0.789181 0.648203 0.0670634
0.834577 0.643687 0.0611582
0.874372 0.63949 0.0586099
0.909361 0.636011 0.0582437
0.940108 0.634012 0.0597086
0.965988 0.63183 0.0614176
0.987228 0.630076 0.0632639
0.203494 0.397055 0.378607
0.203098 0.396414 0.377905
0.20882 0.401205 0.378805
0.213825 0.406302 0.379583
0.218921 0.412131 0.380896
0.225193 0.419257 0.384009
0.232044 0.427253 0.388113
0.239689 0.436194 0.393271
0.248127 0.446769 0.399863
0.256962 0.458198 0.407065
0.266697 0.470909 0.414466
0.285573 0.492775 0.418769
0.310719 0.522423 0.420508
0.327718 0.549996 0.420172
0.336095 0.5776 0.40943
0.343252 0.605737 0.381857
0.356847 0.631769 0.348806
0.380041 0.652079 0.321981
0.409583 0.666941 0.304036
0.442588 0.679194 0.298558
0.476692 0.689876 0.296025
0.510155 0.69868 0.287694
0.543786 0.705531 0.269642
0.579507 0.709712 0.239765
0.619486 0.711894 0.202502
0.664302 0.711604 0.166506
0.708049 0.709209 0.13962
0.749187 0.705531 0.12134
0.787976 0.70193 0.109285
0.825711 0.697612 0.100893
0.860212 0.694606 0.0967117
0.893095 0.691829 0.094789
0.924315 0.689174 0.094667
0.21239 0.419486 0.398123
0.212177 0.419013 0.397498
0.218631 0.424262 0.399191
0.224781 0.429694 0.401083
0.231098 0.435828 0.403616
0.23827 0.443336 0.407706
0.245777 0.451591 0.412436
0.253864 0.461067 0.418235
0.262592 0.471839 0.42504
0.271763 0.483742 0.432853
0.281407 0.496544 0.441276
0.297505 0.515648 0.447669
0.325399 0.547585 0.449378
0.346883 0.576562 0.450797
0.358282 0.604059 0.446494
0.364691 0.632715 0.425757
0.374289 0.661021 0.392325
0.391211 0.684581 0.362554
0.415412 0.701366 0.340627
0.444816 0.713527 0.326192
0.477424 0.723934 0.323964
0.509178 0.733059 0.325109
0.538369 0.74049 0.321767
0.565988 0.746044 0.311482
0.594339 0.750637 0.293645
0.621576 0.753094 0.270176
0.648997 0.754238 0.244358
0.678218 0.754559 0.219333
0.710369 0.753796 0.195941
0.744289 0.752163 0.176577
0.778515 0.750179 0.162676
0.812436 0.747906 0.153048
0.846128 0.745113 0.146715
0.223636 0.440711 0.419028
0.223499 0.440375 0.418448
0.230182 0.445884 0.420401
0.236698 0.451514 0.42269
0.24361 0.458106 0.425925
0.251102 0.465873 0.43032
0.258778 0.474327 0.435294
0.267079 0.484154 0.441413
0.275929 0.495216 0.448692
0.285481 0.507668 0.457252
0.29514 0.5205 0.465797
0.310826 0.539315 0.473564
0.339574 0.571893 0.476051
0.363577 0.601495 0.478691
0.378088 0.628641 0.47808
0.385809 0.657404 0.464561
0.39382 0.686702 0.435477
0.407507 0.712001 0.404044
0.427207 0.730694 0.381811
0.45304 0.743999 0.364538
0.482185 0.754131 0.353338
0.512032 0.763363 0.35375
0.539834 0.771084 0.356054
0.565118 0.777417 0.355352
0.586374 0.78146 0.350439
0.604898 0.783551 0.341375
0.624125 0.78555 0.329
0.644755 0.787732 0.314351
0.667369 0.789746 0.296529
0.69221 0.791241 0.277333
0.719799 0.791821 0.257649
0.748867 0.791882 0.240955
0.779293 0.791058 0.227146
0.234363 0.459846 0.4383
0.234363 0.459632 0.437751
0.241291 0.465537 0.440101
0.24799 0.471458 0.442679
0.255039 0.478309 0.44622
0.262608 0.486259 0.450813
0.270512 0.495125 0.45626
0.278935 0.505058 0.462593
0.287984 0.516396 0.470176
0.297673 0.528954 0.47895
0.307744 0.542321 0.488167
0.323445 0.561044 0.496315
0.352422 0.593851 0.499565
0.3776 0.623758 0.502785
0.39501 0.65095 0.504631
0.405249 0.678996 0.496788
0.413809 0.708186 0.474022
0.426551 0.734188 0.444755
0.443503 0.754513 0.421332
0.464805 0.769467 0.403357
0.49041 0.780606 0.388724
0.517266 0.789258 0.380133
0.543954 0.796857 0.382986
0.56878 0.803082 0.387396
0.585763 0.805661 0.387366
0.601556 0.807614 0.385214
0.617411 0.81001 0.382193
0.634333 0.812497 0.377066
0.652247 0.815091 0.369833
0.671489 0.817594 0.359792
0.692226 0.819928 0.347478
0.714473 0.821973 0.333364
0.738643 0.823285 0.318044
0.24419 0.477409 0.456016
0.244312 0.477409 0.455619
0.251438 0.48365 0.45832
0.258274 0.489815 0.461158
0.265583 0.49688 0.464912
0.273228 0.504982 0.469688
0.28127 0.513985 0.475319
0.289738 0.52401 0.481819
0.29897 0.535531 0.489586
0.308812 0.548333 0.498695
0.319005 0.561898 0.508217
0.334768 0.580743 0.516915
0.364019 0.613458 0.520562
0.389899 0.643961 0.524453
0.409812 0.67071 0.527337
0.423392 0.697871 0.524102
0.433799 0.726421 0.508354
0.445914 0.752773 0.482719
0.460746 0.77409 0.458335
0.478447 0.7906 0.438972
0.501198 0.802747 0.424613
0.526101 0.811643 0.414084
0.550637 0.81854 0.409369
0.572992 0.823713 0.414145
0.588571 0.825727 0.416495
0.603708 0.827832 0.41828
0.618814 0.830243 0.419516
0.634302 0.832883 0.419883
0.64979 0.83563 0.419135
0.666163 0.838315 0.41622
0.683284 0.841154 0.411551
0.701396 0.843915 0.404364
0.720607 0.846464 0.395056
0.253529 0.494087 0.473014
0.253895 0.494331 0.472816
0.261112 0.500755 0.475731
0.268101 0.507195 0.478828
0.275456 0.514519 0.482841
0.283192 0.522698 0.487617
0.291279 0.531792 0.493278
0.29987 0.54197 0.499992
0.309178 0.553582 0.507927
0.319081 0.566415 0.517098
0.329366 0.580087 0.526802
0.345373 0.599023 0.535882
0.374975 0.632029 0.540139
0.401495 0.662486 0.544305
0.423896 0.688945 0.548486
0.440909 0.715099 0.548653
0.45333 0.74287 0.538552
0.464897 0.769146 0.517311
0.478325 0.790997 0.493416
0.494697 0.808316 0.473823
0.514839 0.821469 0.459907
0.538277 0.830839 0.45095
0.56144 0.837674 0.444495
0.579568 0.84152 0.441566
0.59353 0.843336 0.442374
0.608347 0.845518 0.44625
0.623255 0.847913 0.449851
0.638117 0.850492 0.452796
0.652873 0.8533 0.455146
0.667826 0.856123 0.456245
0.682857 0.859159 0.45658
0.69868 0.862135 0.45507
0.71519 0.864973 0.451377
0.262638 0.510307 0.489387
0.263066 0.510643 0.489235
0.270436 0.517418 0.4925
0.277638 0.524056 0.495811
0.285237 0.531731 0.500206
0.293095 0.540169 0.505364
0.301167 0.549203 0.510933
0.30988 0.559503 0.517754
0.319188 0.571115 0.525841
0.329198 0.584054 0.535012
0.339467 0.597681 0.5449
0.355627 0.61677 0.554223
0.385931 0.649882 0.558587
0.413413 0.680262 0.563378
0.437964 0.706004 0.568383
0.457679 0.731304 0.570871
0.471901 0.758358 0.56527
0.483604 0.784298 0.54902
0.49688 0.805982 0.527993
0.512978 0.82356 0.508675
0.531746 0.837324 0.495033
0.552911 0.847395 0.486824
0.575051 0.854749 0.481895
0.589899 0.857877 0.476081
0.601846 0.85951 0.471916
0.614664 0.861433 0.470954
0.629114 0.863966 0.475914
0.64361 0.866575 0.480583
0.658167 0.869337 0.484825
0.67274 0.872129 0.488243
0.687129 0.875181 0.491371
0.70161 0.878187 0.49337
0.716213 0.881224 0.494316
0.271351 0.52604 0.505257
0.271946 0.526482 0.505165
0.279591 0.533669 0.508858
0.286946 0.540719 0.512596
0.294621 0.548516 0.517128
0.302571 0.557092 0.522423
0.310735 0.566247 0.528252
0.319448 0.576532 0.535119
0.328817 0.588144 0.543084
0.338888 0.60116 0.552453
0.349203 0.614786 0.56231
0.365835 0.634012 0.571679
0.397192 0.667521 0.576623
0.425681 0.697017 0.581582
0.451896 0.722225 0.587564
0.473579 0.746853 0.591363
0.48957 0.773007 0.589227
0.502693 0.798138 0.578027
0.516686 0.819425 0.561212
0.53254 0.836866 0.543252
0.550439 0.850996 0.529686
0.569497 0.86183 0.521462
0.589609 0.869886 0.516655
