luts/cinema look2-Lut_ sony footage.cube
TITLE "Generated by Resolve"
LUT_3D_SIZE 5
0.00802625 0.016556 0.0184024
0.0656291 0.0366979 0.0450141
0.299245 0.0520638 0.0591135
0.705135 0.0387121 0.0488899
0.869093 0.0326543 0.0437476
0.0851606 0.136507 0.133349
0.115602 0.17641 0.134951
0.488731 0.183581 0.0480201
0.878645 0.142199 0.0256657
0.990066 0.142733 0.0230869
0.170428 0.324575 0.310811
0.20499 0.365347 0.321599
0.332219 0.524819 0.239155
0.835401 0.522133 0.0292973
1 0.506539 0.0299535
0.253529 0.494087 0.473014
0.309178 0.553582 0.507927
0.45333 0.74287 0.538552
0.59353 0.843336 0.442374
0.71519 0.864973 0.451377
0.335927 0.622736 0.612406
0.388861 0.689067 0.645212
0.596231 0.848173 0.707698
0.61149 0.879973 0.586328
0.657847 0.882414 0.514107
0.0161746 0.0302281 0.0408179
0.073167 0.0440986 0.101884
0.332235 0.0547189 0.156542
0.738857 0.0373388 0.161639
0.892653 0.0314183 0.159777
0.0941482 0.15201 0.156695
0.149248 0.18088 0.180896
0.500587 0.181155 0.175326
0.864683 0.0969558 0.136645
0.977646 0.103532 0.124147
0.195743 0.350072 0.333043
0.261372 0.380621 0.375036
0.390845 0.520012 0.292439
0.906706 0.497322 0.0304112
1 0.492943 0.0315862
0.302281 0.514824 0.519295
0.371206 0.563806 0.565835
0.507546 0.731746 0.59678
0.636744 0.839353 0.476295
0.75639 0.859083 0.400687
0.39028 0.648783 0.661646
0.47422 0.702693 0.714031
0.671336 0.836728 0.77499
0.720088 0.896635 0.713268
0.756695 0.900771 0.624994
0.0238499 0.0437629 0.0814832
0.0428931 0.0493782 0.131167
0.379797 0.0532082 0.387625
0.789334 0.0300755 0.458701
0.930617 0.0234684 0.476478
0.0765087 0.139376 0.189151
0.126589 0.193652 0.243137
0.510597 0.171725 0.504799
0.886778 0.0829175 0.502556
0.991699 0.0966812 0.503792
0.218219 0.387304 0.420615
0.28893 0.421317 0.447745
0.520485 0.515526 0.520195
0.926574 0.496971 0.489311
1 0.505257 0.484413
0.326146 0.565652 0.556374
0.410605 0.61294 0.601862
0.653208 0.728557 0.731914
0.766186 0.830259 0.675151
0.949386 0.833082 0.56379
0.413016 0.692317 0.675563
0.516503 0.74316 0.733288
0.766613 0.848127 0.849058
0.881117 0.935119 0.898436
0.885679 0.936355 0.829328
0.0346685 0.0648508 0.147402
0.0343938 0.0644694 0.180606
0.364157 0.057969 0.584314
0.830167 0.0219425 0.757565
0.95639 0.0160372 0.781903
0.0722972 0.161074 0.258091
0.0898299 0.175906 0.307332
0.443427 0.167361 0.727413
0.903899 0.071809 0.827375
0.988891 0.0608682 0.831113
0.234424 0.396002 0.53875
0.306249 0.432883 0.570733
0.492287 0.543374 0.64007
0.910811 0.501274 0.842664
1 0.511345 0.834424
0.345418 0.586252 0.651804
0.430701 0.636698 0.691295
0.671717 0.751171 0.769696
0.855833 0.827314 0.826749
0.957794 0.835035 0.83154
0.430564 0.713283 0.733562
0.535027 0.766476 0.77467
0.788769 0.867369 0.863096
0.935607 0.948257 0.9458
0.958648 0.969818 0.937407
0.041413 0.0808881 0.21265
0.0414435 0.081239 0.252293
0.321569 0.0676738 0.660807
0.862593 0.0190585 0.905776
0.969543 0.0145418 0.927413
0.0735485 0.178805 0.329442
0.100175 0.228382 0.407843
0.367834 0.276448 0.768902
0.906233 0.158953 0.960037
1 0.170153 0.963546
0.244404 0.409995 0.618112
0.312917 0.45127 0.645411
0.484169 0.567315 0.707729
0.882002 0.524742 0.964004
1 0.526299 0.961913
0.358297 0.591287 0.718685
0.445823 0.64332 0.758144
0.681239 0.756069 0.826322
0.846143 0.840055 0.884611
0.95964 0.841856 0.934829
0.444648 0.720684 0.784405
0.550301 0.774517 0.819486
0.794842 0.874891 0.886702
0.94876 0.957855 0.958419
1 0.990387 0.986679
