luts/CINE SERIES_THE BROOD_GREEN.cube
#Created by: Adobe Photoshop Export Color Lookup Plugin
TITLE "18 (1033).jpg"
#LUT size
LUT_3D_SIZE 8
#data domain
#LUT data points
DOMAIN_MIN 0.000000 0.000000 0.000000
DOMAIN_MAX 0.903226 0.903226 0.903226
0.007965 0.003296 0.000000
0.000336 0.002441 0.000000
0.102722 0.000763 0.032104
0.298065 0.011597 0.092987
0.551270 0.027771 0.172119
0.821960 0.011047 0.259308
0.978485 0.000458 0.309662
1.000000 0.000000 0.323975
0.011444 0.000122 0.000854
0.000946 0.000000 0.000000
0.102875 0.000183 0.035065
0.298157 0.004883 0.095306
0.551331 0.024597 0.174255
0.821991 0.009186 0.261414
0.978485 0.000458 0.311737
1.000000 0.000000 0.326050
0.006714 0.069855 0.000000
0.001068 0.070007 0.000000
0.090332 0.074860 0.000244
0.297180 0.065186 0.071625
0.550751 0.057983 0.152466
0.821747 0.031738 0.240479
0.978455 0.005341 0.291107
1.000000 0.001831 0.305481
0.014923 0.252411 0.000641
0.004578 0.252991 0.000702
0.081970 0.251373 0.000153
0.294495 0.263031 0.000336
0.549072 0.203461 0.091553
0.821075 0.141022 0.182190
0.978302 0.107971 0.233765
1.000000 0.103668 0.248291
0.025818 0.531921 0.003418
0.014740 0.532288 0.003510
0.093445 0.528412 0.002563
0.261566 0.535431 0.000000
0.513062 0.523956 0.000000
0.820007 0.522491 0.086029
0.978088 0.504578 0.139618
1.000000 0.500153 0.154541
0.012329 0.822113 0.009521
0.003296 0.822266 0.009644
0.085388 0.820740 0.007935
0.261871 0.827576 0.000488
0.487030 0.828796 0.000000
0.763428 0.823029 0.000000
0.977844 0.880188 0.031982
1.000000 0.876404 0.047943
0.006104 0.967010 0.013672
0.000641 0.967072 0.013916
0.081268 0.966675 0.011902
0.266724 0.969269 0.004517
0.486816 0.981415 0.000000
0.747314 0.980377 0.000000
0.913147 0.979706 0.000000
0.993103 1.000000 0.000000
0.005005 1.000000 0.015106
0.000305 1.000000 0.015320
0.080322 1.000000 0.013153
0.267975 1.000000 0.006531
0.487335 1.000000 0.000427
0.740662 1.000000 0.000153
0.904785 1.000000 0.000000
0.951050 1.000000 0.000000
0.008301 0.003693 0.000000
0.000305 0.002533 0.000000
0.099121 0.002045 0.029907
0.294678 0.015442 0.090881
0.548126 0.029694 0.170013
0.818909 0.012451 0.257324
0.975464 0.000702 0.307709
1.000000 0.000000 0.321869
0.011292 0.000153 0.000732
0.000977 0.000000 0.000000
0.099274 0.000305 0.032837
0.294769 0.007416 0.093170
0.548187 0.026215 0.172150
0.818909 0.010437 0.259308
0.975464 0.000549 0.309662
1.000000 0.000000 0.323944
0.006042 0.070068 0.000000
0.001038 0.069733 0.000000
0.090515 0.074982 0.000153
0.293823 0.066498 0.069977
0.547607 0.059784 0.150635
0.818665 0.033081 0.238586
0.975403 0.006561 0.289185
1.000000 0.001678 0.303528
0.014801 0.252106 0.000397
0.004517 0.252716 0.000458
0.081604 0.251129 0.000153
0.291199 0.260376 0.000305
0.545990 0.204529 0.090393
0.818024 0.143494 0.180756
0.975250 0.111053 0.232239
1.000000 0.103851 0.246674
0.025848 0.531738 0.002197
0.014374 0.532135 0.002289
0.093323 0.528229 0.001709
0.261414 0.532257 0.000000
0.510193 0.520813 0.000000
0.816925 0.521729 0.085297
0.975006 0.504791 0.138611
1.000000 0.500214 0.153564
0.012390 0.822052 0.006104
0.003113 0.822205 0.006256
0.085419 0.820679 0.005219
0.261444 0.827545 0.000153
0.486450 0.825592 0.000000
0.760620 0.819763 0.000000
0.974762 0.877655 0.031708
1.000000 0.876801 0.047546
0.006348 0.967010 0.008881
0.000732 0.967041 0.009033
0.081360 0.966644 0.007721
0.265289 0.971100 0.001648
0.486725 0.978210 0.000000
0.745483 0.977081 0.000000
0.910309 0.976318 0.000000
0.993011 1.000000 0.000000
0.005096 1.000000 0.009766
0.000305 1.000000 0.009888
0.080261 1.000000 0.008484
0.266724 1.000000 0.002747
0.487122 1.000000 0.000031
0.740265 1.000000 0.000000
0.904419 1.000000 0.000000
0.950836 1.000000 0.000000
0.006897 0.002289 0.020142
0.000854 0.002289 0.020325
0.103455 0.000153 0.036072
0.314392 0.000000 0.110016
0.566284 0.004883 0.187775
0.836578 0.002869 0.274445
0.992920 0.000031 0.324585
1.000000 0.000092 0.338776
0.006897 0.000244 0.020599
0.000854 0.000244 0.020599
0.103027 0.000061 0.037872
0.308167 0.000000 0.108154
0.560547 0.002106 0.188019
0.830872 0.002075 0.274597
0.987213 0.000092 0.324799
1.000000 0.000000 0.338959
0.008301 0.071136 0.021057
0.001465 0.071136 0.021698
0.088104 0.073242 0.014801
0.328735 0.048309 0.089172
0.580017 0.042664 0.170837
0.850464 0.017273 0.258911
1.000000 0.000153 0.309509
1.000000 0.003845 0.324188
0.016266 0.254181 0.024414
0.005310 0.254181 0.024719
0.087280 0.249573 0.022705
0.297943 0.264862 0.000732
0.578308 0.191833 0.102905
0.849854 0.114746 0.196320
1.000000 0.075531 0.248688
1.000000 0.102173 0.264862
0.026581 0.533020 0.028992
0.016052 0.533020 0.029358
0.093903 0.530121 0.026978
0.263641 0.539368 0.002899
0.535767 0.548035 0.000000
0.848846 0.529205 0.093140
1.000000 0.503235 0.148773
1.000000 0.498444 0.167664
0.013580 0.822571 0.041931
0.003906 0.822571 0.042297
0.085968 0.821381 0.040009
0.267151 0.823303 0.028290
0.493256 0.858826 0.000000
0.789062 0.853638 0.000000
1.000000 0.903839 0.034576
1.000000 0.874451 0.057220
0.007141 0.967133 0.048401
0.000977 0.967133 0.048676
0.081879 0.966827 0.046448
0.272125 0.965759 0.041199
0.488068 1.000000 0.000153
0.763458 1.000000 0.000000
0.940033 1.000000 0.000000
0.995239 1.000000 0.002472
0.005676 1.000000 0.050140
0.000458 1.000000 0.050507
0.080719 1.000000 0.048248
0.271606 1.000000 0.042999
0.490692 1.000000 0.024689
0.742462 1.000000 0.012512
0.906708 1.000000 0.005798
0.953033 1.000000 0.004456
0.017090 0.009033 0.144196
0.005768 0.009033 0.144287
0.087311 0.009033 0.144196
0.311035 0.000122 0.183929
0.566467 0.000000 0.234100
0.836731 0.000000 0.314972
0.992950 0.000000 0.365448
1.000000 0.000153 0.379181
0.017090 0.003387 0.144440
0.005768 0.003387 0.144440
0.087311 0.003387 0.144440
0.308167 0.000000 0.183929
0.560669 0.000000 0.234802
0.830994 0.000000 0.315155
0.987244 0.000000 0.365356
1.000000 0.000000 0.379272
0.017090 0.075043 0.144043
0.005768 0.075043 0.144287
0.087311 0.075043 0.142242
0.318909 0.034760 0.174957
0.619476 0.000000 0.226135
0.888947 0.000000 0.313232
1.000000 0.000000 0.363861
1.000000 0.001892 0.378082
0.022858 0.254181 0.145294
0.009308 0.254181 0.145569
0.089874 0.254181 0.143127
0.289795 0.255493 0.133575
0.626892 0.148376 0.166504
0.957123 0.039093 0.261047
1.000000 0.062408 0.328186
1.000000 0.096405 0.353241
0.030182 0.533020 0.149139
0.022797 0.533020 0.149353
0.096527 0.533020 0.147003
0.277222 0.531189 0.136932
0.536255 0.544586 0.103241
0.899292 0.523834 0.144409
1.000000 0.488586 0.227844
1.000000 0.492004 0.267975
0.019775 0.822571 0.159760
0.007416 0.822571 0.160065
0.088562 0.822571 0.157684
0.277283 0.819824 0.152527
0.500458 0.849152 0.111694
0.804688 0.865875 0.080963
1.000000 0.904358 0.114655
1.000000 0.866943 0.172333
0.011719 0.967133 0.165070
0.002899 0.967133 0.165436
0.084564 0.967133 0.162964
0.274261 0.966431 0.157898
0.498077 0.993469 0.123749
0.772156 1.000000 0.091248
0.952850 1.000000 0.086334
1.000000 1.000000 0.128845
0.009796 1.000000 0.166595
0.002014 1.000000 0.166901
0.083405 1.000000 0.164429
0.273315 1.000000 0.159424
0.501526 1.000000 0.142548
0.749847 1.000000 0.136353
0.914062 1.000000 0.132141
0.960297 1.000000 0.130981
0.037659 0.032715 0.451935
0.030060 0.032715 0.451996
0.103149 0.032715 0.451935
0.287781 0.032715 0.451935
0.535095 0.033722 0.465729
0.836731 0.000000 0.517120
0.992950 0.000000 0.537292
1.000000 0.003296 0.541656
0.037628 0.026123 0.452087
0.030029 0.026123 0.452087
0.103149 0.026123 0.452087
0.287811 0.026123 0.452087
0.535095 0.027466 0.465881
0.830994 0.000000 0.516113
0.987244 0.000000 0.536865
1.000000 0.001587 0.541992
0.037628 0.091187 0.451843
0.030060 0.091125 0.451996
0.103119 0.091125 0.450714
0.287811 0.091125 0.450714
0.535095 0.087982 0.464478
0.886749 0.000000 0.523926
1.000000 0.006500 0.535767
1.000000 0.033356 0.538574
0.037628 0.262726 0.451843
0.030060 0.262695 0.451996
0.103119 0.262756 0.450470
0.287842 0.262726 0.446960
0.535095 0.247406 0.460724
0.908264 0.078857 0.498077
1.000000 0.078796 0.517731
1.000000 0.101868 0.528748
0.039001 0.533020 0.452606
0.031616 0.533020 0.452759
0.104401 0.533020 0.451172
0.288818 0.533020 0.447174
0.537323 0.536621 0.435913
0.893707 0.427826 0.441345
1.000000 0.429413 0.495331
1.000000 0.471924 0.527893
0.030090 0.822571 0.459351
0.022614 0.822571 0.459442
0.096466 0.822571 0.457947
0.282684 0.822571 0.453796
0.530457 0.820923 0.448792
0.803894 0.845673 0.413116
1.000000 0.868866 0.422424
1.000000 0.846588 0.465576
0.025391 0.967133 0.462646
0.013733 0.967133 0.462738
0.092468 0.967133 0.461334
0.279572 0.967133 0.457245
0.528381 0.966705 0.452179
0.782867 1.000000 0.410248
0.964722 1.000000 0.401123
1.000000 1.000000 0.433960
0.024231 1.000000 0.463562
0.011719 1.000000 0.463684
0.091339 1.000000 0.462189
0.278748 1.000000 0.458282
0.527924 1.000000 0.453125
0.776917 1.000000 0.438049
0.933167 1.000000 0.435516
0.979797 1.000000 0.434753
0.040924 0.036255 0.831390
0.033600 0.036224 0.831421
0.106171 0.036255 0.831390
0.290283 0.036255 0.831390
0.535034 0.036255 0.831390
0.805786 0.036255 0.831390
0.962280 0.031708 0.840424
1.000000 0.029968 0.843658
0.040924 0.029633 0.831451
0.033539 0.029633 0.831451
0.106232 0.029633 0.831451
0.290283 0.029633 0.831451
0.535156 0.029633 0.831451
0.805756 0.029633 0.831451
0.962280 0.025696 0.840515
1.000000 0.024475 0.843567
0.041046 0.094299 0.831360
0.033600 0.094238 0.831421
0.106354 0.094330 0.830994
0.290222 0.094330 0.830994
0.535156 0.094330 0.830994
0.805878 0.094330 0.830994
0.962280 0.082397 0.840088
1.000000 0.078278 0.843079
0.041046 0.265198 0.831360
0.033600 0.265167 0.831421
0.106262 0.265198 0.830902
0.290283 0.265259 0.829773
0.535065 0.265259 0.829773
0.805817 0.265259 0.829773
0.962280 0.231659 0.838745
1.000000 0.220093 0.841919
0.041046 0.533081 0.831360
0.033600 0.533020 0.831421
0.106262 0.533051 0.830902
0.290283 0.533020 0.829590
0.540436 0.538757 0.826355
0.808228 0.538757 0.826355
0.970673 0.498077 0.838196
1.000000 0.482635 0.837463
0.041046 0.822601 0.831360
0.033600 0.822510 0.831421
0.106262 0.822571 0.830902
0.290283 0.822540 0.829590
0.541534 0.825317 0.826050
0.871399 0.887299 0.785919
1.000000 0.837585 0.750549
1.000000 0.864868 0.772919
0.036957 0.967133 0.832367
0.029297 0.967133 0.832520
0.102539 0.967133 0.831879
0.287384 0.967133 0.830536
0.539642 0.967865 0.827087
0.870575 0.984039 0.786926
0.980438 0.991760 0.769287
1.000000 0.996674 0.771210
0.035614 1.000000 0.832733
0.027954 1.000000 0.832733
0.101410 1.000000 0.832306
0.286530 1.000000 0.830963
0.539093 1.000000 0.827393
0.870300 1.000000 0.787262
0.975067 1.000000 0.770386
1.000000 1.000000 0.770081
0.041046 0.036255 0.973206
0.033600 0.036163 0.973206
0.106171 0.036255 0.973206
0.290161 0.036255 0.973206
0.535034 0.036255 0.973206
0.805878 0.036255 0.973206
0.962311 0.036255 0.973206
1.000000 0.035004 0.973755
0.040924 0.029633 0.973236
0.033478 0.029633 0.973236
0.106201 0.029633 0.973236
0.290192 0.029633 0.973236
0.535217 0.029633 0.973236
0.805939 0.029633 0.973236
0.962250 0.029633 0.973236
1.000000 0.028564 0.973785
0.041046 0.094299 0.973206
0.033600 0.094360 0.973206
0.106201 0.094330 0.973114
0.290314 0.094330 0.973114
0.535156 0.094330 0.973114
0.805878 0.094330 0.973114
0.962311 0.094330 0.973114
1.000000 0.091278 0.973785
0.041046 0.265198 0.973206
0.033600 0.265320 0.973206
0.106262 0.265350 0.973083
0.290375 0.265259 0.972839
0.535034 0.265259 0.972839
0.805908 0.265259 0.972839
0.962341 0.265259 0.972839
1.000000 0.256592 0.973389
0.041046 0.533051 0.973206
0.033600 0.533020 0.973206
0.106262 0.533020 0.973083
0.290283 0.533020 0.972778
0.540405 0.538757 0.971985
0.808228 0.538757 0.971985
0.962921 0.538757 0.971985
1.000000 0.532196 0.972565
0.041046 0.822632 0.973206
0.033600 0.822662 0.973206
0.106262 0.822540 0.973083
0.290283 0.822540 0.972778
0.541534 0.825348 0.971924
0.871399 0.887299 0.962219
0.980560 0.891144 0.961639
1.000000 0.888519 0.962158
0.041046 0.967194 0.973206
0.033600 0.967163 0.973206
0.106262 0.967194 0.973083
0.290283 0.967133 0.972778
0.541534 0.967834 0.971924
0.871399 0.984039 0.962219
0.989166 0.993469 0.956543
1.000000 0.986725 0.942688
0.039978 1.000000 0.973175
0.032593 1.000000 0.973206
0.105316 1.000000 0.973053
0.289551 1.000000 0.972809
0.541046 1.000000 0.971985
0.871185 1.000000 0.962280
0.989105 1.000000 0.956604
1.000000 1.000000 0.952209
0.040955 0.036255 1.000000
0.033600 0.036285 1.000000
0.106323 0.036255 1.000000
0.290192 0.036255 1.000000
0.535187 0.036255 1.000000
0.805878 0.036255 1.000000
0.962219 0.036255 1.000000
1.000000 0.036255 1.000000
0.041107 0.029633 1.000000
0.033661 0.029633 1.000000
0.106323 0.029633 1.000000
0.290314 0.029633 1.000000
0.535065 0.029633 1.000000
0.805817 0.029633 1.000000
0.962402 0.029633 1.000000
1.000000 0.029633 1.000000
0.041046 0.094330 1.000000
0.033600 0.094421 1.000000
0.106201 0.094330 1.000000
0.290344 0.094330 1.000000
0.535004 0.094330 1.000000
0.805756 0.094330 1.000000
0.962189 0.094330 1.000000
1.000000 0.094330 1.000000
0.041046 0.265381 1.000000
0.033600 0.265167 1.000000
0.106262 0.265167 1.000000
0.290344 0.265259 1.000000
0.535187 0.265259 1.000000
0.805786 0.265259 1.000000
0.962372 0.265259 1.000000
1.000000 0.265259 1.000000
0.041046 0.533081 1.000000
0.033600 0.533051 1.000000
0.106262 0.533020 1.000000
0.290283 0.533020 1.000000
0.540466 0.538757 1.000000
0.808136 0.538757 1.000000
0.962860 0.538757 1.000000
1.000000 0.538757 1.000000
0.041046 0.822449 1.000000
0.033600 0.822571 1.000000
0.106262 0.822540 1.000000
0.290283 0.822510 1.000000
0.541534 0.825409 1.000000
0.871399 0.887329 1.000000
0.980560 0.891144 1.000000
1.000000 0.891144 1.000000
0.041046 0.967224 1.000000
0.033600 0.967163 1.000000
0.106262 0.967041 1.000000
0.290283 0.967163 1.000000
0.541534 0.967896 1.000000
0.871399 0.984039 1.000000
0.989166 0.993469 1.000000
1.000000 0.993774 1.000000
0.041046 1.000000 1.000000
0.033600 1.000000 1.000000
0.106262 1.000000 1.000000
0.290283 1.000000 1.000000
0.541534 1.000000 1.000000
0.871399 1.000000 1.000000
0.989166 1.000000 1.000000
1.000000 1.000000 1.000000
