luts/CINE SERIES_SISTERS 2.cube
#Created by: Adobe Photoshop Export Color Lookup Plugin
TITLE "20 (938)-1.jpg"
#LUT size
LUT_3D_SIZE 32
#data domain
DOMAIN_MIN 0.0 0.0 0.0
DOMAIN_MAX 1.0 1.0 1.0
#LUT data points
0.002350 0.002350 0.002075
0.003357 0.002716 0.002472
0.004700 0.003113 0.002869
0.006561 0.003540 0.003326
0.010651 0.003998 0.003876
0.027283 0.004547 0.004547
0.048187 0.005005 0.005341
0.073486 0.005341 0.006195
0.103180 0.005432 0.007019
0.137207 0.005066 0.007782
0.175598 0.004089 0.008514
0.218140 0.002289 0.008942
0.263824 0.000000 0.009460
0.307281 0.000000 0.012085
0.353699 0.000000 0.015320
0.402771 0.000000 0.019012
0.454010 0.000000 0.023376
0.506989 0.000000 0.028259
0.558777 0.000000 0.031677
0.610840 0.000000 0.034332
0.663391 0.000000 0.037079
0.715027 0.000000 0.039703
0.764435 0.000000 0.042297
0.810699 0.000000 0.044830
0.853302 0.000000 0.047363
0.891602 0.000000 0.049835
0.925018 0.000000 0.052246
0.953217 0.000000 0.054657
0.977051 0.000000 0.057098
0.998688 0.000000 0.059479
1.000000 0.004242 0.063232
1.000000 0.004242 0.063232
0.002838 0.003510 0.002228
0.003479 0.003510 0.002441
0.004700 0.003876 0.002747
0.006561 0.004395 0.003143
0.010651 0.004883 0.003540
0.027283 0.005371 0.004028
0.048187 0.005768 0.004456
0.073486 0.005890 0.004730
0.103180 0.005524 0.004822
0.137207 0.005066 0.005096
0.175598 0.004089 0.005280
0.218140 0.002289 0.005127
0.263824 0.000000 0.005066
0.307281 0.000000 0.007324
0.353699 0.000000 0.010071
0.402771 0.000000 0.013336
0.454010 0.000000 0.017181
0.506989 0.000000 0.021545
0.558777 0.000000 0.024902
0.610840 0.000000 0.027679
0.663391 0.000000 0.030365
0.715027 0.000000 0.033112
0.764435 0.000000 0.035797
0.810699 0.000000 0.038239
0.853302 0.000000 0.040863
0.891602 0.000000 0.043396
0.925018 0.000000 0.045685
0.953217 0.000000 0.048187
0.977051 0.000000 0.050537
0.998688 0.000000 0.053101
1.000000 0.004242 0.056854
1.000000 0.004242 0.056854
0.003357 0.005157 0.002380
0.004150 0.005157 0.002594
0.005035 0.005157 0.002838
0.006561 0.005524 0.003143
0.010651 0.006256 0.003540
0.027283 0.007019 0.004028
0.048187 0.007751 0.004456
0.073486 0.008270 0.004730
0.103180 0.008392 0.004822
0.137207 0.007874 0.004486
0.175598 0.006409 0.003632
0.218140 0.003662 0.002045
0.263824 0.000000 0.000122
0.307281 0.000000 0.001892
0.353699 0.000000 0.004120
0.402771 0.000000 0.006897
0.454010 0.000000 0.010132
0.506989 0.000000 0.013977
0.558777 0.000000 0.017273
0.610840 0.000000 0.020111
0.663391 0.000000 0.022919
0.715027 0.000000 0.025726
0.764435 0.000000 0.028290
0.810699 0.000000 0.031006
0.853302 0.000000 0.033600
0.891602 0.000000 0.036072
0.925018 0.000000 0.038605
0.953217 0.000000 0.040955
0.977051 0.000000 0.043427
0.998688 0.000000 0.045868
1.000000 0.004242 0.049622
1.000000 0.004242 0.049622
0.003967 0.007538 0.002502
0.004944 0.007538 0.002716
0.005981 0.007538 0.002960
0.007202 0.007538 0.003235
0.010651 0.007904 0.003540
0.027283 0.009003 0.004028
0.048187 0.010162 0.004456
0.073486 0.011200 0.004730
0.103180 0.011963 0.004822
0.137207 0.012115 0.004486
0.175598 0.011444 0.003632
0.218140 0.009613 0.002045
0.263824 0.006744 0.000000
0.307281 0.005310 0.000000
0.353699 0.003448 0.000000
0.402771 0.001099 0.000000
0.454010 0.000000 0.001617
0.506989 0.000000 0.004791
0.558777 0.000000 0.007874
0.610840 0.000000 0.010803
0.663391 0.000000 0.013824
0.715027 0.000000 0.016541
0.764435 0.000000 0.019287
0.810699 0.000000 0.021973
0.853302 0.000000 0.024567
0.891602 0.000000 0.027100
0.925018 0.000000 0.029602
0.953217 0.000000 0.032135
0.977051 0.000000 0.034576
0.998688 0.000000 0.037140
1.000000 0.004242 0.040833
1.000000 0.004242 0.040833
0.004761 0.018677 0.002686
0.005890 0.018677 0.002899
0.007172 0.018677 0.003082
0.008667 0.018677 0.003357
0.013855 0.018677 0.003662
0.027283 0.014679 0.004028
0.048187 0.013275 0.004456
0.073486 0.014984 0.004730
0.103180 0.016479 0.004822
0.137207 0.017548 0.004486
0.175598 0.017883 0.003632
0.218140 0.017151 0.002045
0.263824 0.015411 0.000000
0.307281 0.014801 0.000000
0.353699 0.013824 0.000000
0.402771 0.012329 0.000000
0.454010 0.010315 0.000000
0.506989 0.007843 0.000000
0.558777 0.004456 0.000000
0.610840 0.000977 0.000000
0.663391 0.000000 0.002167
0.715027 0.000000 0.005096
0.764435 0.000000 0.007874
0.810699 0.000000 0.010651
0.853302 0.000000 0.013336
0.891602 0.000000 0.015808
0.925018 0.000000 0.018494
0.953217 0.000000 0.020966
0.977051 0.000000 0.023315
0.998688 0.000000 0.025818
1.000000 0.004242 0.029785
1.000000 0.004242 0.029785
0.005646 0.039337 0.002838
0.007050 0.039337 0.002991
0.008606 0.039337 0.003174
0.010468 0.039337 0.003418
0.014984 0.039337 0.003754
0.031799 0.039337 0.004089
0.048187 0.033966 0.004456
0.073486 0.031860 0.004730
0.103180 0.029449 0.004822
0.137207 0.026642 0.004486
0.175598 0.026093 0.003632
0.218140 0.026825 0.002045
0.263824 0.026550 0.000000
0.307281 0.026886 0.000000
0.353699 0.027008 0.000000
0.402771 0.026703 0.000000
0.454010 0.026031 0.000000
0.506989 0.024750 0.000000
0.558777 0.021576 0.000000
0.610840 0.017853 0.000000
0.663391 0.014374 0.000000
0.715027 0.010956 0.000000
0.764435 0.007660 0.000000
0.810699 0.004456 0.000000
0.853302 0.001373 0.000000
0.891602 0.000000 0.001465
0.925018 0.000000 0.003998
0.953217 0.000000 0.006592
0.977051 0.000000 0.009155
0.998688 0.000000 0.011688
1.000000 0.004242 0.015686
1.000000 0.004242 0.015686
0.006622 0.064728 0.002930
0.008362 0.064728 0.003082
0.010284 0.064728 0.003235
0.012604 0.064728 0.003418
0.016357 0.064728 0.003723
0.033142 0.064728 0.004028
0.054291 0.064728 0.004486
0.073486 0.057587 0.004730
0.103180 0.055054 0.004822
0.137207 0.052246 0.004486
0.175598 0.049042 0.003632
0.218140 0.045593 0.002045
0.263824 0.042236 0.000000
0.307281 0.041870 0.000000
0.353699 0.043335 0.000000
0.402771 0.044495 0.000000
0.454010 0.045349 0.000000
0.506989 0.045654 0.000000
0.558777 0.042725 0.000000
0.610840 0.038696 0.000000
0.663391 0.034973 0.000000
0.715027 0.031433 0.000000
0.764435 0.027893 0.000000
0.810699 0.024750 0.000000
0.853302 0.021454 0.000000
0.891602 0.018463 0.000000
0.925018 0.015259 0.000000
0.953217 0.012390 0.000000
0.977051 0.009369 0.000000
0.998688 0.006592 0.000000
1.000000 0.010345 0.003784
1.000000 0.010345 0.003784
0.007629 0.094421 0.002869
0.009766 0.094421 0.002991
0.012115 0.094421 0.003143
0.014893 0.094421 0.003326
0.018372 0.094421 0.003540
0.034698 0.094421 0.003815
0.055878 0.094421 0.004181
0.081451 0.094421 0.004639
0.103180 0.085236 0.004822
0.137207 0.082245 0.004486
0.175598 0.078949 0.003632
0.218140 0.075317 0.002045
0.263824 0.071686 0.000000
0.307281 0.069550 0.000000
0.353699 0.068573 0.000000
0.402771 0.068481 0.000000
0.454010 0.069122 0.000000
0.506989 0.070312 0.000000
0.558777 0.067474 0.000000
0.610840 0.063263 0.000000
0.663391 0.059296 0.000000
0.715027 0.055481 0.000000
0.764435 0.051788 0.000000
0.810699 0.048401 0.000000
0.853302 0.045044 0.000000
0.891602 0.041840 0.000000
0.925018 0.038727 0.000000
0.953217 0.035767 0.000000
0.977051 0.032623 0.000000
0.998688 0.029846 0.000000
1.000000 0.033295 0.003784
1.000000 0.033295 0.003784
0.008575 0.127777 0.002655
0.011139 0.127777 0.002747
0.013977 0.127777 0.002869
0.017334 0.127777 0.002991
0.021515 0.127777 0.003174
0.036530 0.127777 0.003387
0.057495 0.127777 0.003693
0.083069 0.127777 0.004028
0.113312 0.127777 0.004456
0.137207 0.116241 0.004486
0.175598 0.112823 0.003632
0.218140 0.109009 0.002045
0.263824 0.104889 0.000000
0.307281 0.101440 0.000000
0.353699 0.099426 0.000000
0.402771 0.098450 0.000000
0.454010 0.098236 0.000000
0.506989 0.098846 0.000000
0.558777 0.095520 0.000000
0.610840 0.091003 0.000000
0.663391 0.086731 0.000000
0.715027 0.082581 0.000000
0.764435 0.078857 0.000000
0.810699 0.075256 0.000000
0.853302 0.071777 0.000000
0.891602 0.068329 0.000000
0.925018 0.065186 0.000000
0.953217 0.062103 0.000000
0.977051 0.058929 0.000000
0.998688 0.056030 0.000000
1.000000 0.059174 0.003784
1.000000 0.059174 0.003784
0.009369 0.164490 0.002197
0.012421 0.164490 0.002289
0.015778 0.164490 0.002350
0.019745 0.164490 0.002472
0.024719 0.164490 0.002563
0.038452 0.164490 0.002716
0.059448 0.164490 0.002930
0.084869 0.164490 0.003143
0.114960 0.164490 0.003448
0.149689 0.164490 0.003815
0.175598 0.150238 0.003632
0.218140 0.146271 0.002045
0.263824 0.141724 0.000000
0.307281 0.136780 0.000000
0.353699 0.133453 0.000000
0.402771 0.131470 0.000000
0.454010 0.130463 0.000000
0.506989 0.130280 0.000000
0.558777 0.126495 0.000000
0.610840 0.121643 0.000000
0.663391 0.116974 0.000000
0.715027 0.112671 0.000000
0.764435 0.108612 0.000000
0.810699 0.104919 0.000000
0.853302 0.101349 0.000000
0.891602 0.097748 0.000000
0.925018 0.094543 0.000000
0.953217 0.091217 0.000000
0.977051 0.087860 0.000000
0.998688 0.084900 0.000000
1.000000 0.087799 0.003784
1.000000 0.087799 0.003784
0.009949 0.204163 0.001434
0.013519 0.204163 0.001495
0.017456 0.204163 0.001556
0.022125 0.204163 0.001617
0.027893 0.204163 0.001648
0.040680 0.204163 0.001770
0.061523 0.204163 0.001862
0.086853 0.204163 0.002014
0.116821 0.204163 0.002167
0.151337 0.204163 0.002350
0.190674 0.204163 0.002563
0.218140 0.186829 0.002045
0.263824 0.181793 0.000000
0.307281 0.175171 0.000000
0.353699 0.170532 0.000000
0.402771 0.167450 0.000000
0.454010 0.165527 0.000000
0.506989 0.164520 0.000000
0.558777 0.160156 0.000000
0.610840 0.154785 0.000000
0.663391 0.149963 0.000000
0.715027 0.145325 0.000000
0.764435 0.141113 0.000000
0.810699 0.137085 0.000000
0.853302 0.133331 0.000000
0.891602 0.129700 0.000000
0.925018 0.126068 0.000000
0.953217 0.122833 0.000000
0.977051 0.119476 0.000000
0.998688 0.116119 0.000000
1.000000 0.118958 0.003784
1.000000 0.118958 0.003784
0.010254 0.246521 0.000336
0.014374 0.246521 0.000336
0.018921 0.246521 0.000336
0.024292 0.246521 0.000366
0.031036 0.246521 0.000366
0.043030 0.246521 0.000397
0.063782 0.246521 0.000427
0.088959 0.246521 0.000458
0.118866 0.246521 0.000488
0.153137 0.246521 0.000549
0.192261 0.246521 0.000549
0.236053 0.246521 0.000610
0.263824 0.224976 0.000000
0.307281 0.216492 0.000000
0.353699 0.210388 0.000000
0.402771 0.206085 0.000000
0.454010 0.203156 0.000000
0.506989 0.201385 0.000000
0.558777 0.196442 0.000000
0.610840 0.190704 0.000000
0.663391 0.185394 0.000000
0.715027 0.180450 0.000000
0.764435 0.175995 0.000000
0.810699 0.171661 0.000000
0.853302 0.167603 0.000000
0.891602 0.163910 0.000000
0.925018 0.160156 0.000000
0.953217 0.156647 0.000000
0.977051 0.153320 0.000000
0.998688 0.149872 0.000000
1.000000 0.152405 0.003784
1.000000 0.152405 0.003784
0.012207 0.286804 0.000000
0.016724 0.286804 0.000000
0.021729 0.286804 0.000000
0.027618 0.286804 0.000000
0.035034 0.286804 0.000000
0.047180 0.286804 0.000000
0.067322 0.286804 0.000000
0.091736 0.286804 0.000000
0.120636 0.286804 0.000000
0.153992 0.286804 0.000000
0.191833 0.286804 0.000000
0.234222 0.286804 0.000000
0.281311 0.286804 0.000000
0.307281 0.260925 0.000000
0.353699 0.253235 0.000000
0.402771 0.247559 0.000000
0.454010 0.243500 0.000000
0.506989 0.240784 0.000000
0.558777 0.235138 0.000000
0.610840 0.228882 0.000000
0.663391 0.223206 0.000000
0.715027 0.218079 0.000000
0.764435 0.213226 0.000000
0.810699 0.208832 0.000000
0.853302 0.204468 0.000000
0.891602 0.200531 0.000000
0.925018 0.196594 0.000000
0.953217 0.192932 0.000000
0.977051 0.189453 0.000000
0.998688 0.186005 0.000000
1.000000 0.188019 0.003784
1.000000 0.188019 0.003784
0.015167 0.327606 0.000000
0.020050 0.327606 0.000000
0.025452 0.327606 0.000000
0.031891 0.327606 0.000000
0.039886 0.327606 0.000000
0.052582 0.327606 0.000000
0.071991 0.327606 0.000000
0.095612 0.327606 0.000000
0.123535 0.327606 0.000000
0.155731 0.327606 0.000000
0.192383 0.327606 0.000000
0.233307 0.327606 0.000000
0.278717 0.327606 0.000000
0.327606 0.326843 0.000000
0.353699 0.298706 0.000000
0.402771 0.291626 0.000000
0.454010 0.286499 0.000000
0.506989 0.282684 0.000000
0.558777 0.276459 0.000000
0.610840 0.269562 0.000000
0.663391 0.263550 0.000000
0.715027 0.257874 0.000000
0.764435 0.252716 0.000000
0.810699 0.247986 0.000000
0.853302 0.243530 0.000000
0.891602 0.239319 0.000000
0.925018 0.235229 0.000000
0.953217 0.231476 0.000000
0.977051 0.227753 0.000000
0.998688 0.224121 0.000000
1.000000 0.225830 0.003784
1.000000 0.225830 0.003784
0.018616 0.370300 0.000000
0.023926 0.370300 0.000000
0.029755 0.370300 0.000000
0.036682 0.370300 0.000000
0.045349 0.370300 0.000000
0.058594 0.370300 0.000000
0.077515 0.370300 0.000000
0.100372 0.370300 0.000000
0.127563 0.370300 0.000000
0.158813 0.370300 0.000000
0.194427 0.370300 0.000000
0.234131 0.370300 0.000000
0.278198 0.370300 0.000000
0.326447 0.370300 0.000000
0.370300 0.362122 0.000000
0.402771 0.338135 0.000000
0.454010 0.331665 0.000000
0.506989 0.326874 0.000000
0.558777 0.319794 0.000000
0.610840 0.312531 0.000000
0.663391 0.305847 0.000000
0.715027 0.299927 0.000000
0.764435 0.294373 0.000000
0.810699 0.289368 0.000000
0.853302 0.284576 0.000000
0.891602 0.280121 0.000000
0.925018 0.276001 0.000000
0.953217 0.271973 0.000000
0.977051 0.268066 0.000000
0.998688 0.264038 0.000000
1.000000 0.265686 0.003784
1.000000 0.265686 0.003784
0.022583 0.414856 0.000000
0.028259 0.414856 0.000000
0.034546 0.414856 0.000000
0.042053 0.414856 0.000000
0.051361 0.414856 0.000000
0.065094 0.414856 0.000000
0.083496 0.414856 0.000000
0.105927 0.414856 0.000000
0.132385 0.414856 0.000000
0.162842 0.414856 0.000000
0.197510 0.414856 0.000000
0.236328 0.414856 0.000000
0.279297 0.414856 0.000000
0.326263 0.414856 0.000000
0.377045 0.414856 0.000000
0.414856 0.398346 0.000000
0.454010 0.379333 0.000000
0.506989 0.373352 0.000000
0.558777 0.365448 0.000000
0.610840 0.357513 0.000000
0.663391 0.350372 0.000000
0.715027 0.343933 0.000000
0.764435 0.338104 0.000000
0.810699 0.332764 0.000000
0.853302 0.327667 0.000000
0.891602 0.323029 0.000000
0.925018 0.318695 0.000000
0.953217 0.314240 0.000000
0.977051 0.310181 0.000000
0.998688 0.306396 0.000000
1.000000 0.307434 0.003784
1.000000 0.307434 0.003784
0.027039 0.461151 0.000000
0.033203 0.461151 0.000000
0.040039 0.461151 0.000000
0.048065 0.461151 0.000000
0.058105 0.461151 0.000000
0.072083 0.461151 0.000000
0.090088 0.461151 0.000000
0.111938 0.461151 0.000000
0.137787 0.461151 0.000000
0.167603 0.461151 0.000000
0.201569 0.461151 0.000000
0.239532 0.461151 0.000000
0.281525 0.461151 0.000000
0.327545 0.461151 0.000000
0.377228 0.461151 0.000000
0.430267 0.461151 0.000000
0.461151 0.435913 0.000000
0.506989 0.422089 0.000000
0.558777 0.413391 0.000000
0.610840 0.404755 0.000000
0.663391 0.397095 0.000000
0.715027 0.390228 0.000000
0.764435 0.384033 0.000000
0.810699 0.378235 0.000000
0.853302 0.372925 0.000000
0.891602 0.367950 0.000000
0.925018 0.363220 0.000000
0.953217 0.358673 0.000000
0.977051 0.354523 0.000000
0.998688 0.350220 0.000000
1.000000 0.350983 0.003784
1.000000 0.350983 0.003784
0.032074 0.508942 0.000000
0.038666 0.508942 0.000000
0.045959 0.508942 0.000000
0.054535 0.508942 0.000000
0.065369 0.508942 0.000000
0.079315 0.508942 0.000000
0.097046 0.508942 0.000000
0.118439 0.508942 0.000000
0.143890 0.508942 0.000000
0.173035 0.508942 0.000000
0.206421 0.508942 0.000000
0.243530 0.508942 0.000000
0.284790 0.508942 0.000000
0.329895 0.508942 0.000000
0.378540 0.508942 0.000000
0.430573 0.508942 0.000000
0.485779 0.508942 0.000000
0.508942 0.474823 0.000000
0.558777 0.463409 0.000000
0.610840 0.454071 0.000000
0.663391 0.445709 0.000000
0.715027 0.438293 0.000000
0.764435 0.431519 0.000000
0.810699 0.425537 0.000000
0.853302 0.419830 0.000000
0.891602 0.414581 0.000000
0.925018 0.409760 0.000000
0.953217 0.404877 0.000000
0.977051 0.400452 0.000000
0.998688 0.396149 0.000000
1.000000 0.396576 0.003784
1.000000 0.396576 0.003784
0.035492 0.555847 0.000000
0.042114 0.555847 0.000000
0.049561 0.555847 0.000000
0.058136 0.555847 0.000000
0.069092 0.555847 0.000000
0.082916 0.555847 0.000000
0.100250 0.555847 0.000000
0.121460 0.555847 0.000000
0.146484 0.555847 0.000000
0.175293 0.555847 0.000000
0.208191 0.555847 0.000000
0.244934 0.555847 0.000000
0.285583 0.555847 0.000000
0.329926 0.555847 0.000000
0.377960 0.555847 0.000000
0.429413 0.555847 0.000000
0.483734 0.555847 0.000000
0.540619 0.555847 0.000000
0.558777 0.515350 0.000000
0.610840 0.505219 0.000000
0.663391 0.496307 0.000000
0.715027 0.488403 0.000000
0.764435 0.481140 0.000000
0.810699 0.474792 0.000000
0.853302 0.468781 0.000000
0.891602 0.463074 0.000000
0.925018 0.457977 0.000000
0.953217 0.453003 0.000000
0.977051 0.448334 0.000000
0.998688 0.443604 0.000000
1.000000 0.443665 0.003784
1.000000 0.443665 0.003784
0.038300 0.603668 0.000000
0.044891 0.603668 0.000000
0.052185 0.603668 0.000000
0.060730 0.603668 0.000000
0.071564 0.603668 0.000000
0.085205 0.603668 0.000000
0.102417 0.603668 0.000000
0.123260 0.603668 0.000000
0.148163 0.603668 0.000000
0.176697 0.603668 0.000000
0.209198 0.603668 0.000000
0.245514 0.603668 0.000000
0.285645 0.603668 0.000000
0.329651 0.603668 0.000000
0.377136 0.603668 0.000000
0.427948 0.603668 0.000000
0.481628 0.603668 0.000000
0.537903 0.603668 0.000000
0.596405 0.603668 0.000000
0.610840 0.558472 0.000000
0.663391 0.548889 0.000000
0.715027 0.540375 0.000000
0.764435 0.532654 0.000000
0.810699 0.525757 0.000000
0.853302 0.519409 0.000000
0.891602 0.513519 0.000000
0.925018 0.507904 0.000000
0.953217 0.502716 0.000000
0.977051 0.497742 0.000000
0.998688 0.492828 0.000000
1.000000 0.492249 0.003784
1.000000 0.492249 0.003784
0.041107 0.652832 0.000000
0.047577 0.652832 0.000000
0.054810 0.652832 0.000000
0.063446 0.652832 0.000000
0.074005 0.652832 0.000000
0.087585 0.652832 0.000000
0.104675 0.652832 0.000000
0.125427 0.652832 0.000000
0.149902 0.652832 0.000000
0.178223 0.652832 0.000000
0.210388 0.652832 0.000000
0.246490 0.652832 0.000000
0.286255 0.652832 0.000000
0.329773 0.652832 0.000000
0.376801 0.652832 0.000000
0.427155 0.652832 0.000000
0.480347 0.652832 0.000000
0.536072 0.652832 0.000000
0.594025 0.652832 0.000000
0.652832 0.652283 0.000000
0.663391 0.603058 0.000000
0.715027 0.593933 0.000000
0.764435 0.585785 0.000000
0.810699 0.578369 0.000000
0.853302 0.571503 0.000000
0.891602 0.565399 0.000000
0.925018 0.559570 0.000000
0.953217 0.553802 0.000000
0.977051 0.548615 0.000000
0.998688 0.543549 0.000000
1.000000 0.542603 0.003784
1.000000 0.542603 0.003784
0.043976 0.702301 0.000000
0.050415 0.702301 0.000000
0.057648 0.702301 0.000000
0.066040 0.702301 0.000000
0.076691 0.702301 0.000000
0.090088 0.702301 0.000000
0.106903 0.702301 0.000000
0.127502 0.702301 0.000000
0.151855 0.702301 0.000000
0.180023 0.702301 0.000000
0.211975 0.702301 0.000000
0.247589 0.702301 0.000000
0.287170 0.702301 0.000000
0.330475 0.702301 0.000000
0.377045 0.702301 0.000000
0.427063 0.702301 0.000000
0.479858 0.702301 0.000000
0.534943 0.702301 0.000000
0.592316 0.702301 0.000000
0.651215 0.702301 0.000000
0.702301 0.694702 0.000000
0.715027 0.648926 0.000000
0.764435 0.640228 0.000000
0.810699 0.632477 0.000000
0.853302 0.625092 0.000000
0.891602 0.618591 0.000000
0.925018 0.612213 0.000000
0.953217 0.606445 0.000000
0.977051 0.601044 0.000000
0.998688 0.595551 0.000000
1.000000 0.594238 0.003784
1.000000 0.594238 0.003784
0.046783 0.750977 0.000000
0.053131 0.750977 0.000000
0.060333 0.750977 0.000000
0.068787 0.750977 0.000000
0.079254 0.750977 0.000000
0.092499 0.750977 0.000000
0.109375 0.750977 0.000000
0.129913 0.750977 0.000000
0.154114 0.750977 0.000000
0.181885 0.750977 0.000000
0.213654 0.750977 0.000000
0.249115 0.750977 0.000000
0.288391 0.750977 0.000000
0.331299 0.750977 0.000000
0.377625 0.750977 0.000000
0.427216 0.750977 0.000000
0.479706 0.750977 0.000000
0.534515 0.750977 0.000000
0.591492 0.750977 0.000000
0.649841 0.750977 0.000000
0.708191 0.750977 0.000000
0.750977 0.737579 0.000000
0.764435 0.695160 0.000000
0.810699 0.686829 0.000000
0.853302 0.679535 0.000000
0.891602 0.672485 0.000000
0.925018 0.665955 0.000000
0.953217 0.660004 0.000000
0.977051 0.654144 0.000000
0.998688 0.648529 0.000000
1.000000 0.646820 0.003784
1.000000 0.646820 0.003784
0.049652 0.797638 0.000000
0.056000 0.797638 0.000000
0.063110 0.797638 0.000000
0.071472 0.797638 0.000000
0.081879 0.797638 0.000000
0.095184 0.797638 0.000000
0.111786 0.797638 0.000000
0.132111 0.797638 0.000000
0.156158 0.797638 0.000000
0.183960 0.797638 0.000000
0.215576 0.797638 0.000000
0.250793 0.797638 0.000000
0.289856 0.797638 0.000000
0.332520 0.797638 0.000000
0.378601 0.797638 0.000000
0.427887 0.797638 0.000000
0.479980 0.797638 0.000000
0.534485 0.797638 0.000000
0.590973 0.797638 0.000000
0.649048 0.797638 0.000000
0.706909 0.797638 0.000000
0.762634 0.797638 0.000000
0.797638 0.780121 0.000000
0.810699 0.740540 0.000000
0.853302 0.733032 0.000000
0.891602 0.725800 0.000000
0.925018 0.719238 0.000000
0.953217 0.713226 0.000000
0.977051 0.707275 0.000000
0.998688 0.701630 0.000000
1.000000 0.699249 0.003784
1.000000 0.699249 0.003784
0.052460 0.841553 0.000000
0.058807 0.841553 0.000000
0.065918 0.841553 0.000000
0.074188 0.841553 0.000000
0.084595 0.841553 0.000000
0.097687 0.841553 0.000000
0.114319 0.841553 0.000000
0.134613 0.841553 0.000000
0.158478 0.841553 0.000000
0.186127 0.841553 0.000000
0.217438 0.841553 0.000000
0.252472 0.841553 0.000000
0.291382 0.841553 0.000000
0.333893 0.841553 0.000000
0.379791 0.841553 0.000000
0.428772 0.841553 0.000000
0.480530 0.841553 0.000000
0.534729 0.841553 0.000000
0.591156 0.841553 0.000000
0.648773 0.841553 0.000000
0.706329 0.841553 0.000000
0.761749 0.841553 0.000000
0.813629 0.841553 0.000000
0.841553 0.821594 0.000000
0.853302 0.784637 0.000000
0.891602 0.777618 0.000000
0.925018 0.771149 0.000000
0.953217 0.764984 0.000000
0.977051 0.759064 0.000000
0.998688 0.753540 0.000000
1.000000 0.750580 0.003784
1.000000 0.750580 0.003784
0.055267 0.881744 0.000000
0.061554 0.881744 0.000000
0.068665 0.881744 0.000000
0.076752 0.881744 0.000000
0.087128 0.881744 0.000000
0.100311 0.881744 0.000000
0.116791 0.881744 0.000000
0.136963 0.881744 0.000000
0.160889 0.881744 0.000000
0.188202 0.881744 0.000000
0.219513 0.881744 0.000000
0.254395 0.881744 0.000000
0.293091 0.881744 0.000000
0.335388 0.881744 0.000000
0.381165 0.881744 0.000000
0.429779 0.881744 0.000000
0.481415 0.881744 0.000000
0.535400 0.881744 0.000000
0.591461 0.881744 0.000000
0.648834 0.881744 0.000000
0.706207 0.881744 0.000000
0.761414 0.881744 0.000000
0.812988 0.881744 0.000000
0.859863 0.881744 0.000000
0.881744 0.860992 0.000000
0.891602 0.826508 0.000000
0.925018 0.820343 0.000000
0.953217 0.814331 0.000000
0.977051 0.808380 0.000000
0.998688 0.803070 0.000000
1.000000 0.799927 0.003784
1.000000 0.799927 0.003784
0.058075 0.917419 0.000000
0.064453 0.917419 0.000000
0.071259 0.917419 0.000000
0.079590 0.917419 0.000000
0.089813 0.917419 0.000000
0.102875 0.917419 0.000000
0.119324 0.917419 0.000000
0.139465 0.917419 0.000000
0.163086 0.917419 0.000000
0.190491 0.917419 0.000000
0.221680 0.917419 0.000000
0.256378 0.917419 0.000000
0.295105 0.917419 0.000000
0.337097 0.917419 0.000000
0.382507 0.917419 0.000000
0.431091 0.917419 0.000000
0.482605 0.917419 0.000000
0.536255 0.917419 0.000000
0.592010 0.917419 0.000000
0.649414 0.917419 0.000000
0.706421 0.917419 0.000000
0.761292 0.917419 0.000000
0.812744 0.917419 0.000000
0.859436 0.917419 0.000000
0.900696 0.917419 0.000000
0.917419 0.897278 0.000000
0.925018 0.865631 0.000000
0.953217 0.859802 0.000000
0.977051 0.854431 0.000000
0.998688 0.849243 0.000000
1.000000 0.846008 0.003784
1.000000 0.846008 0.003784
0.060852 0.947876 0.000000
0.067139 0.947876 0.000000
0.074066 0.947876 0.000000
0.082336 0.947876 0.000000
0.092621 0.947876 0.000000
0.105621 0.947876 0.000000
0.121979 0.947876 0.000000
0.141937 0.947876 0.000000
0.165619 0.947876 0.000000
0.192780 0.947876 0.000000
0.223907 0.947876 0.000000
0.258698 0.947876 0.000000
0.296936 0.947876 0.000000
0.338898 0.947876 0.000000
0.384186 0.947876 0.000000
0.432770 0.947876 0.000000
0.483856 0.947876 0.000000
0.537415 0.947876 0.000000
