luts/CINE SERIES_SISTERS 2.cube
#Created by: Adobe Photoshop Export Color Lookup Plugin
TITLE "20 (938)-1.jpg"
#LUT size
LUT_3D_SIZE 8
#data domain
#LUT data points
DOMAIN_MIN 0.000000 0.000000 0.000000
DOMAIN_MAX 0.903226 0.903226 0.903226
0.002350 0.002350 0.002075
0.010651 0.003998 0.003876
0.103180 0.005432 0.007019
0.263824 0.000000 0.009460
0.454010 0.000000 0.023376
0.663391 0.000000 0.037079
0.853302 0.000000 0.047363
0.977051 0.000000 0.057098
0.004761 0.018677 0.002686
0.013855 0.018677 0.003662
0.103180 0.016479 0.004822
0.263824 0.015411 0.000000
0.454010 0.010315 0.000000
0.663391 0.000000 0.002167
0.853302 0.000000 0.013336
0.977051 0.000000 0.023315
0.008575 0.127777 0.002655
0.021515 0.127777 0.003174
0.113312 0.127777 0.004456
0.263824 0.104889 0.000000
0.454010 0.098236 0.000000
0.663391 0.086731 0.000000
0.853302 0.071777 0.000000
0.977051 0.058929 0.000000
0.012207 0.286804 0.000000
0.035034 0.286804 0.000000
0.120636 0.286804 0.000000
0.281311 0.286804 0.000000
0.454010 0.243500 0.000000
0.663391 0.223206 0.000000
0.853302 0.204468 0.000000
0.977051 0.189453 0.000000
0.027039 0.461151 0.000000
0.058105 0.461151 0.000000
0.137787 0.461151 0.000000
0.281525 0.461151 0.000000
0.461151 0.435913 0.000000
0.663391 0.397095 0.000000
0.853302 0.372925 0.000000
0.977051 0.354523 0.000000
0.041107 0.652832 0.000000
0.074005 0.652832 0.000000
0.149902 0.652832 0.000000
0.286255 0.652832 0.000000
0.480347 0.652832 0.000000
0.663391 0.603058 0.000000
0.853302 0.571503 0.000000
0.977051 0.548615 0.000000
0.052460 0.841553 0.000000
0.084595 0.841553 0.000000
0.158478 0.841553 0.000000
0.291382 0.841553 0.000000
0.480530 0.841553 0.000000
0.706329 0.841553 0.000000
0.853302 0.784637 0.000000
0.977051 0.759064 0.000000
0.063690 0.973450 0.000000
0.095245 0.973450 0.000000
0.168121 0.973450 0.000000
0.299072 0.973450 0.000000
0.485474 0.973450 0.000000
0.707611 0.973450 0.000000
0.900482 0.973450 0.000000
0.977051 0.932251 0.000000
0.004669 0.005951 0.032532
0.010986 0.004791 0.032898
0.103180 0.005432 0.039978
0.263824 0.000000 0.048004
0.454010 0.000000 0.070862
0.663391 0.000000 0.085999
0.853302 0.000000 0.095306
0.977051 0.000000 0.104431
0.003418 0.027496 0.028839
0.009766 0.015381 0.027130
0.096436 0.016632 0.031036
0.258148 0.022125 0.038910
0.479736 0.012390 0.050629
0.704010 0.000000 0.054169
0.886017 0.000000 0.063721
0.996033 0.000000 0.073059
0.004395 0.132202 0.014252
0.015198 0.123627 0.014038
0.099487 0.118439 0.022522
0.255585 0.100189 0.027008
0.477142 0.082550 0.023621
0.719269 0.042450 0.000000
0.897614 0.025421 0.000000
1.000000 0.017242 0.005127
0.000000 0.289825 0.011292
0.017822 0.286499 0.010864
0.107361 0.282318 0.019867
0.272125 0.282318 0.027100
0.477142 0.245056 0.023621
0.719269 0.202881 0.000000
0.897614 0.175751 0.000000
1.000000 0.159882 0.005127
0.000000 0.462769 0.010742
0.011047 0.489197 0.002411
0.117554 0.485474 0.014526
0.278625 0.485474 0.018372
0.485474 0.461700 0.023163
0.719269 0.407654 0.000000
0.897614 0.366058 0.000000
1.000000 0.340210 0.005127
0.000000 0.653412 0.004547
0.019379 0.686829 0.000000
0.108734 0.708130 0.000244
0.268951 0.708130 0.000336
0.498138 0.708130 0.000427
0.719269 0.653259 0.000000
0.897614 0.592224 0.000000
1.000000 0.553070 0.005127
0.000000 0.841553 0.000092
0.031891 0.869843 0.000000
0.115814 0.887238 0.000000
0.265991 0.887238 0.000000
0.480499 0.887238 0.000000
0.737457 0.887238 0.000000
0.897614 0.830261 0.000000
1.000000 0.782990 0.005127
0.011658 0.973450 0.000000
0.043762 0.989532 0.000000
0.124725 0.999695 0.000000
0.269104 0.999695 0.000000
0.474915 0.999695 0.000000
0.721649 0.999695 0.000000
0.926666 0.999695 0.000000
1.000000 0.958527 0.005127
0.003632 0.011017 0.168732
0.014526 0.003754 0.169800
0.087006 0.003754 0.169800
0.263824 0.000000 0.186646
0.454010 0.000000 0.193970
0.663391 0.000000 0.203430
0.853302 0.000000 0.210846
0.977051 0.000000 0.219360
0.003235 0.036499 0.165131
0.017212 0.027679 0.162842
0.083557 0.020752 0.163208
0.258148 0.022125 0.177399
0.479736 0.012390 0.186340
0.704010 0.000000 0.183228
0.886017 0.000000 0.186859
0.996033 0.000000 0.193115
0.002319 0.154449 0.157043
0.012726 0.142853 0.154755
0.079468 0.115936 0.149567
0.242950 0.102905 0.155365
0.464294 0.099518 0.164581
0.707825 0.075928 0.156677
0.912964 0.047546 0.143860
1.000000 0.071777 0.169769
0.000000 0.299713 0.125031
0.013550 0.296661 0.125916
0.073975 0.277954 0.126373
0.241364 0.261627 0.137299
0.456177 0.234711 0.134277
0.699890 0.194244 0.112549
0.907318 0.149963 0.086273
1.000000 0.149506 0.102264
0.000000 0.470276 0.108612
0.004547 0.497009 0.100067
0.074219 0.479248 0.100800
0.248474 0.464447 0.124634
0.464447 0.451202 0.134125
0.699890 0.399170 0.112549
0.907318 0.352692 0.086273
1.000000 0.333496 0.102264
0.000000 0.658752 0.088470
0.000000 0.691498 0.069092
0.054291 0.700623 0.056000
0.240936 0.687653 0.094635
0.468018 0.687653 0.104767
0.699890 0.644562 0.112549
0.907318 0.594086 0.086273
1.000000 0.550720 0.102264
0.000000 0.844055 0.065918
0.000000 0.871460 0.043915
0.027893 0.904266 0.008331
0.227692 0.895630 0.058594
0.454193 0.895630 0.068787
0.726654 0.895630 0.080170
0.907318 0.846558 0.086273
1.000000 0.785736 0.102264
0.000000 0.973724 0.045227
0.000000 0.989624 0.022430
0.047028 1.000000 0.003143
0.241089 1.000000 0.060181
0.450653 1.000000 0.069489
0.702362 1.000000 0.079956
0.917908 1.000000 0.090027
1.000000 0.962860 0.102264
0.000000 0.019012 0.345581
0.008911 0.000000 0.347504
0.076752 0.000000 0.347504
0.228485 0.000000 0.347504
0.454010 0.000000 0.376068
0.663391 0.000000 0.376282
0.853302 0.000000 0.380676
0.977051 0.000000 0.388794
0.000000 0.053650 0.342010
0.014832 0.040344 0.356323
0.069031 0.020264 0.357483
0.231384 0.020264 0.357483
0.479736 0.012390 0.391296
0.704010 0.000000 0.374756
0.886017 0.000000 0.367828
0.996033 0.000000 0.369568
0.000000 0.161957 0.334015
0.012604 0.152039 0.347717
0.076141 0.125366 0.339630
0.223663 0.101227 0.338837
0.464294 0.099518 0.362518
0.707825 0.075928 0.350342
0.912964 0.047546 0.333649
1.000000 0.071777 0.345612
0.000000 0.326202 0.322083
0.009186 0.328033 0.334839
0.060303 0.302551 0.326721
0.212708 0.256958 0.313080
0.440918 0.240204 0.320984
0.684998 0.217346 0.312164
0.896484 0.188477 0.296509
1.000000 0.193024 0.308136
0.000000 0.479370 0.267731
0.003571 0.506927 0.279297
0.059753 0.489288 0.278717
0.198639 0.457825 0.278076
0.439087 0.438507 0.293671
0.675049 0.388519 0.268280
0.889038 0.342407 0.236664
1.000000 0.318542 0.232208
0.000000 0.665222 0.235657
0.000000 0.698059 0.229889
0.044525 0.707397 0.224976
0.182617 0.679230 0.227020
0.432251 0.662781 0.260223
0.675049 0.633148 0.268280
0.889038 0.582794 0.236664
1.000000 0.543152 0.232208
0.000000 0.847046 0.206268
0.000000 0.874115 0.193268
0.022980 0.906372 0.168610
0.158722 0.887909 0.171051
0.418335 0.876526 0.219208
0.688782 0.876526 0.230469
0.889038 0.836761 0.236664
1.000000 0.786652 0.232208
0.000000 0.974121 0.181366
0.000000 0.989777 0.164459
0.039551 1.000000 0.151154
0.160980 1.000000 0.145813
0.413910 1.000000 0.197327
0.673492 1.000000 0.207947
0.904694 1.000000 0.218323
1.000000 0.967804 0.232208
0.000000 0.034363 0.558868
0.001587 0.000000 0.561737
0.077667 0.000000 0.561737
0.217529 0.000000 0.561737
0.415192 0.000000 0.561737
0.663391 0.000000 0.606171
0.853302 0.000000 0.605042
0.977051 0.000000 0.611542
0.000000 0.077667 0.555328
0.000031 0.045959 0.611115
0.054260 0.006744 0.613007
0.213104 0.006744 0.613007
0.438599 0.006744 0.613007
0.704010 0.000000 0.636841
0.886017 0.000000 0.612793
0.996033 0.000000 0.606262
0.000000 0.177856 0.547272
0.000031 0.160065 0.602142
0.074066 0.135010 0.590851
0.206940 0.098938 0.590057
0.431976 0.098938 0.590057
0.707825 0.075928 0.618591
0.912964 0.047546 0.595612
1.000000 0.071777 0.582336
0.000000 0.329865 0.535278
0.000031 0.333099 0.588745
0.061615 0.308960 0.577148
0.205872 0.263947 0.555573
0.420410 0.238617 0.553497
0.684998 0.217346 0.565521
0.896484 0.188477 0.543488
1.000000 0.193024 0.538971
0.000000 0.520782 0.520569
0.000000 0.550964 0.572235
0.046265 0.527557 0.560425
0.162842 0.484100 0.538391
0.407867 0.423706 0.510284
0.656738 0.397339 0.502930
0.874786 0.367126 0.482086
1.000000 0.346191 0.470734
0.000000 0.671661 0.423401
0.000000 0.704620 0.439514
0.034790 0.714142 0.447784
0.148712 0.686432 0.446533
0.382477 0.647278 0.445587
0.650208 0.621735 0.469482
0.869568 0.571564 0.426910
1.000000 0.526031 0.390839
0.000000 0.850037 0.380920
0.000000 0.876709 0.380157
0.018036 0.908447 0.373047
0.129761 0.890411 0.372559
0.356201 0.863098 0.372833
0.650482 0.856384 0.420288
0.869568 0.826721 0.426910
1.000000 0.783051 0.390839
0.000000 0.974487 0.347229
0.000000 0.989929 0.337799
0.032104 1.000000 0.330170
0.133850 1.000000 0.327393
0.331146 1.000000 0.307220
0.635651 0.996735 0.370972
0.884186 0.996735 0.382263
1.000000 0.972534 0.390839
0.000000 0.045380 0.792603
0.000000 0.009521 0.794373
0.066711 0.000000 0.794861
0.201111 0.000000 0.794861
0.390503 0.000000 0.794861
0.619690 0.000000 0.800110
0.853302 0.000000 0.843781
0.977051 0.000000 0.845367
0.000000 0.088196 0.790436
0.000000 0.055298 0.832428
0.033844 0.000000 0.841797
0.184998 0.000000 0.841797
0.398315 0.000000 0.841797
0.658295 0.000000 0.846191
0.886017 0.000000 0.865082
0.996033 0.000000 0.855530
0.000000 0.184601 0.785431
0.000000 0.162109 0.828003
0.052063 0.125793 0.846008
0.171967 0.076538 0.845093
0.395020 0.076538 0.845093
0.667999 0.075928 0.850098
0.912964 0.047546 0.873291
1.000000 0.071777 0.845093
0.000000 0.331177 0.777771
0.000000 0.323883 0.821167
0.043213 0.299408 0.839508
0.183685 0.256226 0.821625
0.385223 0.217957 0.820007
0.657379 0.217346 0.825592
0.896484 0.188477 0.839294
1.000000 0.193024 0.819275
0.000000 0.514832 0.768158
0.000000 0.527191 0.812500
0.032288 0.517059 0.831177
0.145264 0.475159 0.812164
0.384918 0.417297 0.785675
0.644379 0.397339 0.791840
0.874786 0.367126 0.788116
1.000000 0.346191 0.771759
0.000000 0.684601 0.697815
0.000000 0.717560 0.745605
0.023804 0.728271 0.773224
0.111389 0.701233 0.767487
0.337555 0.662903 0.760193
0.625122 0.611176 0.743347
0.848877 0.578613 0.721741
0.989166 0.548340 0.700806
0.000000 0.853149 0.630127
0.000000 0.879425 0.652618
0.012878 0.910614 0.679077
0.099426 0.893066 0.673828
0.312256 0.866364 0.667084
0.610413 0.834106 0.687256
0.847992 0.816040 0.692749
0.988678 0.771790 0.645905
0.000000 0.974915 0.582916
0.000000 0.990112 0.588501
0.024292 1.000000 0.592804
0.105499 1.000000 0.593994
0.285736 1.000000 0.579681
0.595764 0.984680 0.628082
0.851715 0.984680 0.639191
0.988678 0.967194 0.645905
0.000000 0.056610 0.939270
0.000000 0.021637 0.939636
0.053864 0.000000 0.939819
0.184875 0.000000 0.939819
0.368652 0.000000 0.939819
0.586548 0.000000 0.939819
0.824158 0.000000 0.949890
0.977051 0.000000 0.960388
0.000000 0.098206 0.938843
0.000000 0.066193 0.952332
0.019806 0.000000 0.955017
0.163330 0.000000 0.955017
0.364929 0.000000 0.955017
0.605042 0.000000 0.955017
0.859009 0.000000 0.962769
0.996033 0.000000 0.967255
0.000000 0.192444 0.937866
0.000000 0.168182 0.951599
0.027893 0.115265 0.965240
0.132568 0.051178 0.964722
0.353485 0.051178 0.964722
0.618073 0.051178 0.964722
0.891785 0.047546 0.972076
1.000000 0.071777 0.966217
0.000000 0.335358 0.936340
0.000000 0.322723 0.950470
0.023102 0.288513 0.964417
0.157135 0.245361 0.958771
0.343964 0.192139 0.958099
0.607574 0.192139 0.958099
0.883636 0.188477 0.966522
1.000000 0.193024 0.961609
0.000000 0.514893 0.934387
0.000000 0.516876 0.949036
0.017151 0.505554 0.963440
0.123840 0.463623 0.957550
0.354492 0.405640 0.948700
0.594666 0.370972 0.948608
0.873413 0.367126 0.958557
1.000000 0.346191 0.953522
0.000000 0.720734 0.932159
0.000000 0.739166 0.947388
0.010529 0.754303 0.962311
0.086823 0.715790 0.956116
0.301575 0.660583 0.946716
0.582336 0.585266 0.935638
0.848877 0.578613 0.941956
0.989166 0.548340 0.935760
0.000000 0.856628 0.889221
0.000000 0.882477 0.911591
0.007019 0.913055 0.935791
0.065277 0.895966 0.932465
0.263275 0.870026 0.927795
0.559906 0.837616 0.922607
0.822388 0.803741 0.917755
0.974762 0.762115 0.900146
0.000000 0.975342 0.860840
0.000000 0.990295 0.876770
0.015442 1.000000 0.888306
0.073517 1.000000 0.892242
0.235046 1.000000 0.893250
0.529510 0.984619 0.886505
0.812103 0.970520 0.895905
0.974762 0.960236 0.897705
0.000000 0.069000 0.990082
0.000000 0.034698 0.990112
0.040710 0.000000 0.990173
0.169128 0.000000 0.990173
0.349060 0.000000 0.990173
0.561615 0.000000 0.990173
0.775330 0.000000 0.990173
0.947235 0.000000 0.992645
0.000000 0.109955 0.990051
0.000000 0.078369 0.995361
0.005768 0.000000 0.996368
0.144379 0.000000 0.996368
0.337860 0.000000 0.996368
0.566986 0.000000 0.996368
0.796814 0.000000 0.996368
0.968109 0.000000 0.998718
0.000000 0.202362 0.989960
0.000000 0.177094 0.995300
0.036652 0.134216 1.000000
0.119720 0.058075 1.000000
0.324646 0.058075 1.000000
0.567535 0.058075 1.000000
0.810425 0.058075 1.000000
0.975220 0.071777 1.000000
0.000000 0.342896 0.989838
0.000000 0.326752 0.995239
0.030731 0.294922 1.000000
0.146240 0.248260 1.000000
0.309814 0.179108 1.000000
0.560394 0.179108 1.000000
0.811920 0.179108 1.000000
0.979950 0.193024 1.000000
0.000000 0.519470 0.989655
0.000000 0.514801 0.995178
0.023438 0.496246 1.000000
0.116211 0.457092 1.000000
0.320862 0.392914 0.998627
0.545593 0.341339 0.998474
0.806732 0.341339 0.998474
0.985870 0.346191 1.000000
0.000000 0.721832 0.989471
0.000000 0.730194 0.995087
0.015320 0.727753 1.000000
0.082764 0.698730 1.000000
0.266144 0.646545 0.998596
0.547577 0.571320 0.993744
0.793304 0.550842 0.993744
0.982483 0.548340 0.996521
0.000000 0.901001 0.989288
0.000000 0.916199 0.994995
0.006958 0.925018 1.000000
0.048523 0.913086 1.000000
0.210602 0.887268 0.998566
0.517853 0.840912 0.993317
0.779327 0.777618 0.988647
0.973816 0.775146 0.991119
0.000000 0.975830 0.973938
0.000000 0.990479 0.980835
0.005676 1.000000 0.985748
0.038177 1.000000 0.987488
0.179565 1.000000 0.989746
0.487793 0.984955 0.987366
0.772522 0.969025 0.985016
0.958221 0.952118 0.982941
