luts/CINE SERIES_SISTERS 2.cube
#Created by: Adobe Photoshop Export Color Lookup Plugin
TITLE "20 (938)-1.jpg"
#LUT size
LUT_3D_SIZE 5
#data domain
#LUT data points
DOMAIN_MIN 0.000000 0.000000 0.000000
DOMAIN_MAX 0.903226 0.903226 0.903226
0.002350 0.002350 0.002075
0.073486 0.005341 0.006195
0.353699 0.000000 0.015320
0.715027 0.000000 0.039703
0.977051 0.000000 0.057098
0.007629 0.094421 0.002869
0.081451 0.094421 0.004639
0.353699 0.068573 0.000000
0.715027 0.055481 0.000000
0.977051 0.032623 0.000000
0.018616 0.370300 0.000000
0.100372 0.370300 0.000000
0.370300 0.362122 0.000000
0.715027 0.299927 0.000000
0.977051 0.268066 0.000000
0.043976 0.702301 0.000000
0.127502 0.702301 0.000000
0.377045 0.702301 0.000000
0.715027 0.648926 0.000000
0.977051 0.601044 0.000000
0.063690 0.973450 0.000000
0.144501 0.973450 0.000000
0.385986 0.973450 0.000000
0.762177 0.973450 0.000000
0.977051 0.932251 0.000000
0.004822 0.009979 0.128174
0.060608 0.004974 0.128998
0.353699 0.000000 0.148010
0.715027 0.000000 0.169830
0.977051 0.000000 0.184692
0.003143 0.116058 0.118988
0.055298 0.085815 0.113617
0.352203 0.072632 0.125549
0.771027 0.040222 0.119659
1.000000 0.047394 0.139404
0.000000 0.378662 0.079376
0.051361 0.377472 0.075500
0.361694 0.364777 0.101776
0.764679 0.282166 0.072510
1.000000 0.240021 0.073730
0.000000 0.706024 0.051117
0.023804 0.760284 0.012817
0.351715 0.750305 0.056976
0.764679 0.699982 0.072510
1.000000 0.610107 0.073730
0.000000 0.973663 0.016235
0.030334 1.000000 0.000671
0.346954 1.000000 0.036041
0.769806 1.000000 0.054169
1.000000 0.961609 0.073730
0.000000 0.026093 0.444946
0.051331 0.000000 0.447388
0.317261 0.000000 0.447388
0.715027 0.000000 0.482666
0.977051 0.000000 0.492645
0.000000 0.137207 0.435760
0.051819 0.103363 0.461884
0.323883 0.071716 0.461578
0.771027 0.040222 0.477448
1.000000 0.047394 0.461609
0.000000 0.420410 0.414154
0.033630 0.419037 0.437500
0.303864 0.337250 0.406036
0.731262 0.295227 0.396820
1.000000 0.265991 0.385651
0.000000 0.715820 0.312988
0.016510 0.769867 0.309906
0.265869 0.721222 0.311554
0.722687 0.680145 0.351562
1.000000 0.598236 0.306671
0.000000 0.974304 0.259033
0.018890 1.000000 0.234558
0.238403 1.000000 0.222992
0.722961 1.000000 0.283295
1.000000 0.970245 0.306671
0.000000 0.048035 0.842010
0.039429 0.000000 0.843842
0.284943 0.000000 0.843842
0.678101 0.000000 0.857269
0.977051 0.000000 0.886932
0.000000 0.157013 0.837830
0.022827 0.096283 0.893707
0.268555 0.042114 0.893188
0.737366 0.040222 0.904205
1.000000 0.047394 0.893738
0.000000 0.418884 0.827393
0.015839 0.408295 0.886261
0.268036 0.330353 0.859070
0.718750 0.295227 0.872467
1.000000 0.265991 0.858582
0.000000 0.726074 0.745758
0.008850 0.779877 0.821045
0.182190 0.732849 0.810669
0.677399 0.659607 0.795990
0.985413 0.604187 0.762665
0.000000 0.975006 0.656921
0.011505 1.000000 0.674438
0.163177 1.000000 0.676270
0.653564 0.981384 0.707031
0.985413 0.965546 0.720093
0.000000 0.069000 0.990082
0.017334 0.000000 0.990173
0.253662 0.000000 0.990173
0.616486 0.000000 0.990173
0.947235 0.000000 0.992645
0.000000 0.174072 0.989990
0.016907 0.110535 1.000000
0.218567 0.033691 1.000000
0.631317 0.033691 1.000000
0.974274 0.047394 1.000000
0.000000 0.427124 0.989746
0.012024 0.398010 1.000000
0.220581 0.314453 1.000000
0.620148 0.251862 1.000000
0.982819 0.265991 1.000000
0.000000 0.771973 0.989410
0.005646 0.788452 1.000000
0.131927 0.739655 1.000000
0.605560 0.620514 0.992493
0.980743 0.604858 0.995300
0.000000 0.975830 0.973938
0.002563 1.000000 0.985382
0.073242 1.000000 0.988617
0.563019 0.981018 0.986755
0.958221 0.952118 0.982941
