luts/CINEMATIC LUT.cube
LUT_3D_SIZE 6
0.000000 0.000000 0.000000
0.066751 0.000000 0.001974
0.212611 0.000000 0.006286
0.412880 0.000000 0.012208
0.629946 0.052474 0.017449
0.943843 0.207779 0.023450
0.001223 0.076532 0.000000
0.093402 0.065329 0.001387
0.238089 0.038117 0.006213
0.429605 0.040231 0.011807
0.642035 0.139566 0.015988
0.947800 0.287647 0.021900
0.105824 0.255339 0.000000
0.217235 0.249522 0.001191
0.333370 0.209084 0.005453
0.499629 0.188098 0.010784
0.690843 0.257169 0.014972
0.954515 0.385733 0.020052
0.246329 0.463659 0.000000
0.347256 0.460440 0.000619
0.468596 0.446339 0.004485
0.595330 0.410578 0.008961
0.764331 0.396459 0.014231
1.020106 0.511425 0.019362
0.424476 0.674187 0.000000
0.508559 0.673839 0.000917
0.620915 0.668588 0.004334
0.726124 0.654911 0.007716
0.836500 0.625426 0.011580
1.019739 0.649017 0.016482
0.703346 0.969135 0.000490
0.787318 0.970220 0.002941
0.864006 0.964852 0.005310
0.942938 0.959062 0.007755
0.990191 0.948996 0.009356
1.031975 0.923544 0.011116
0.000000 0.000732 0.076722
0.000000 0.000732 0.076419
0.000000 0.000732 0.081114
0.263406 0.000000 0.053023
0.569691 0.000000 0.049442
0.929067 0.000000 0.048193
0.007347 0.085287 0.090479
0.083207 0.086056 0.094513
0.253899 0.066608 0.061856
0.460674 0.078810 0.031204
0.672132 0.127798 0.017120
1.004995 0.263806 0.024081
0.046830 0.276279 0.104150
0.154325 0.275738 0.007339
0.337086 0.225975 0.013806
0.515246 0.204401 0.012937
0.708846 0.264874 0.015342
1.012928 0.388736 0.021709
0.207564 0.478854 0.000000
0.289110 0.470859 0.000000
0.460191 0.456770 0.004020
0.597460 0.418937 0.008850
0.771266 0.403542 0.014287
1.022693 0.514110 0.019382
0.408135 0.681968 0.000000
0.454638 0.681872 0.000000
0.608120 0.676766 0.003786
0.725136 0.661538 0.007548
0.837973 0.629060 0.011547
1.020980 0.651982 0.016456
0.698955 0.975303 0.000236
0.781952 0.974718 0.002689
0.866024 0.969806 0.005267
0.943314 0.963621 0.007671
0.990336 0.952913 0.009278
1.031906 0.928303 0.011015
0.000000 0.001806 0.198449
0.000000 0.001762 0.193117
0.000000 0.001890 0.206655
0.000000 0.002130 0.232751
0.523449 0.000000 0.216466
0.868613 0.000000 0.094992
0.030483 0.123168 0.210734
0.092612 0.131278 0.227163
0.197894 0.139291 0.249376
0.405076 0.075894 0.250168
0.656148 0.041418 0.151612
1.005205 0.290048 0.078178
0.108479 0.292644 0.278711
0.150742 0.303857 0.286675
0.294770 0.314487 0.299666
0.517112 0.309407 0.266365
0.726960 0.331294 0.102474
1.013677 0.410418 0.062030
0.147938 0.508902 0.293584
0.164290 0.513418 0.253675
0.386495 0.511415 0.101553
0.607752 0.468197 0.094978
0.795114 0.449993 0.046731
1.026830 0.544281 0.042451
0.266330 0.709298 0.066030
0.344351 0.708533 0.030888
0.522315 0.700397 0.003547
0.711096 0.681570 0.006717
0.839532 0.645469 0.011251
1.025396 0.658116 0.016458
0.645622 0.983117 0.000000
0.739013 0.981610 0.001282
0.836542 0.976189 0.004265
0.932689 0.971280 0.007198
0.992843 0.960939 0.009185
1.035235 0.936314 0.010946
0.000000 0.003228 0.353236
0.000000 0.003160 0.346005
0.000000 0.003228 0.352561
0.000000 0.003703 0.404486
0.440171 0.001269 0.463081
0.831677 0.000000 0.530181
0.063273 0.184150 0.350361
0.125203 0.197060 0.377599
0.184529 0.197527 0.396389
0.371659 0.215889 0.441361
0.572826 0.220162 0.469382
0.898474 0.226543 0.506665
0.114088 0.316653 0.392955
0.157142 0.332656 0.417875
0.273668 0.360046 0.454855
0.448396 0.387234 0.487213
0.653872 0.387173 0.494440
0.949166 0.396679 0.432707
0.215277 0.513456 0.482251
0.241538 0.519736 0.487282
0.325749 0.533406 0.501588
0.538675 0.555398 0.524312
0.753700 0.542667 0.493342
0.995459 0.559015 0.262007
0.256674 0.720771 0.512333
0.270760 0.724026 0.501305
0.307912 0.733688 0.450780
0.620375 0.727070 0.388858
0.826124 0.693740 0.399248
1.018505 0.704070 0.290412
0.355215 1.006146 0.415275
0.523104 1.004888 0.451049
0.700438 0.994684 0.448292
0.876661 0.982763 0.302310
0.983072 0.973155 0.296090
1.032374 0.948985 0.314167
0.000000 0.004583 0.501182
0.076092 0.003972 0.498451
0.112379 0.003848 0.511493
0.219512 0.003687 0.572048
0.479007 0.002447 0.623304
0.784892 0.038151 0.720681
0.118323 0.286016 0.523362
0.184867 0.312901 0.577805
0.248428 0.307617 0.589652
0.399385 0.318410 0.625876
0.594212 0.336875 0.649739
0.845840 0.420148 0.726816
0.162868 0.406520 0.552967
0.205523 0.428360 0.589004
0.295854 0.434247 0.611590
0.458966 0.453408 0.639774
0.644261 0.486489 0.675551
0.871739 0.547231 0.738334
0.218621 0.537176 0.592930
0.244135 0.543634 0.603519
0.322841 0.558074 0.627732
0.512663 0.582676 0.662741
0.696983 0.616874 0.698207
0.914485 0.636528 0.727993
0.308565 0.717577 0.669577
0.331038 0.721110 0.672537
0.382552 0.729393 0.680299
0.527920 0.745699 0.694883
0.757698 0.760434 0.705900
0.989866 0.748796 0.663480
0.398245 0.976404 0.772227
0.462698 0.976480 0.773900
0.507673 0.987456 0.754921
0.630090 1.002609 0.703408
0.915493 0.994240 0.655480
1.024031 0.968447 0.673950
0.308875 0.335833 0.803543
0.372116 0.321847 0.802042
0.462827 0.317699 0.809565
0.580602 0.328191 0.823821
0.726026 0.380915 0.851458
0.861652 0.408098 0.864154
0.330947 0.532381 0.803904
0.440569 0.555841 0.837945
0.535426 0.555371 0.844578
0.638120 0.550854 0.853319
0.769902 0.561119 0.872674
0.902056 0.554870 0.877137
0.369495 0.624374 0.815234
0.459595 0.647327 0.844504
0.544694 0.635433 0.849154
0.653134 0.634267 0.858356
0.783726 0.647159 0.877237
0.916585 0.654222 0.881373
0.364498 0.712221 0.818773
0.417737 0.728946 0.840088
0.544592 0.732866 0.855081
0.647202 0.714834 0.862388
0.782930 0.719684 0.879210
0.930175 0.733741 0.886270
0.379589 0.825781 0.843048
0.408403 0.830535 0.850097
0.495648 0.838022 0.865523
0.630318 0.833038 0.875368
0.768664 0.810900 0.881972
0.954481 0.823485 0.893174
0.417054 0.961552 0.880973
0.504960 0.965477 0.887871
0.576315 0.969033 0.892731
0.675270 0.972610 0.900641
0.793215 0.978718 0.907910
0.991491 0.977328 0.900850
