luts/CINE SERIES_THE BROOD_GREEN.cube
#Created by: Adobe Photoshop Export Color Lookup Plugin
TITLE "18 (1033).jpg"
#LUT size
LUT_3D_SIZE 32
#data domain
DOMAIN_MIN 0.0 0.0 0.0
DOMAIN_MAX 1.0 1.0 1.0
#LUT data points
0.007965 0.003296 0.000000
0.001312 0.002380 0.000000
0.000092 0.002472 0.000000
0.000031 0.002289 0.000000
0.000336 0.002441 0.000000
0.009888 0.003357 0.000153
0.037354 0.003479 0.003204
0.068481 0.001648 0.017883
0.102722 0.000763 0.032104
0.140686 0.001465 0.044220
0.186279 0.003143 0.058502
0.239288 0.006470 0.074860
0.298065 0.011597 0.092987
0.360077 0.018341 0.112152
0.423096 0.023987 0.131714
0.486847 0.026886 0.151611
0.551270 0.027771 0.172119
0.617035 0.025970 0.193298
0.685791 0.023621 0.215485
0.755951 0.017822 0.238037
0.821960 0.011047 0.259308
0.878082 0.006104 0.277374
0.922058 0.003021 0.291534
0.954834 0.001404 0.302063
0.978485 0.000458 0.309662
0.995239 0.000153 0.315063
1.000000 0.000000 0.318970
1.000000 0.000000 0.321838
1.000000 0.000000 0.323975
1.000000 0.000000 0.325470
1.000000 0.000031 0.326782
1.000000 0.000153 0.327728
0.010315 0.000458 0.000458
0.002075 0.000336 0.000000
0.000153 0.000153 0.000000
0.000000 0.000153 0.000000
0.000854 0.000336 0.000000
0.012573 0.000458 0.000702
0.039062 0.000153 0.005829
0.069153 0.000153 0.023041
0.102844 0.000305 0.034210
0.140778 0.000580 0.046173
0.186340 0.001190 0.060272
0.239349 0.002502 0.076569
0.298126 0.006439 0.094666
0.360138 0.012177 0.113770
0.423157 0.019196 0.133331
0.486877 0.024353 0.153168
0.551331 0.025482 0.173615
0.617096 0.024109 0.194794
0.685822 0.021210 0.216980
0.755981 0.015503 0.239502
0.821991 0.009705 0.260803
0.878113 0.005402 0.278870
0.922058 0.002686 0.292938
0.954834 0.001221 0.303497
0.978485 0.000458 0.311096
0.995239 0.000153 0.316498
1.000000 0.000000 0.320435
1.000000 0.000000 0.323273
1.000000 0.000000 0.325439
1.000000 0.000000 0.326996
1.000000 0.000000 0.328186
1.000000 0.000153 0.329163
0.012390 0.000061 0.001312
0.003082 0.000000 0.000305
0.000305 0.000000 0.000000
0.000031 0.000000 0.000000
0.001312 0.000000 0.000153
0.014984 0.000061 0.001587
0.040100 0.000153 0.008362
0.069275 0.000153 0.024506
0.102936 0.000153 0.035858
0.140869 0.000366 0.047668
0.186401 0.000793 0.061676
0.239410 0.001770 0.077881
0.298187 0.003601 0.095886
0.360168 0.008484 0.114960
0.423187 0.014923 0.134491
0.486938 0.022400 0.154297
0.551361 0.023895 0.174744
0.617096 0.022827 0.195953
0.685852 0.018646 0.218079
0.755981 0.013672 0.240601
0.821991 0.008728 0.261871
0.878113 0.004913 0.279938
0.922089 0.002441 0.294067
0.954834 0.001099 0.304596
0.978485 0.000427 0.312195
0.995239 0.000153 0.317627
1.000000 0.000000 0.321503
1.000000 0.000000 0.324310
1.000000 0.000000 0.326538
1.000000 0.000000 0.328064
1.000000 0.000000 0.329254
1.000000 0.000153 0.330261
0.013092 0.000000 0.001648
0.003418 0.000000 0.000458
0.000397 0.000000 0.000153
0.000061 0.000000 0.000000
0.001465 0.000000 0.000183
0.015747 0.000031 0.001923
0.040131 0.000122 0.009125
0.069305 0.000153 0.025024
0.102936 0.000153 0.036377
0.140869 0.000305 0.048126
0.186432 0.000732 0.062073
0.239410 0.001587 0.078278
0.298187 0.003265 0.096222
0.360199 0.007446 0.115356
0.423187 0.013672 0.134857
0.486938 0.020996 0.154694
0.551361 0.023438 0.175079
0.617126 0.021851 0.196289
0.685852 0.017944 0.218445
0.755981 0.013214 0.240997
0.821991 0.008453 0.262177
0.878113 0.004761 0.280304
0.922089 0.002380 0.294403
0.954834 0.001068 0.304901
0.978485 0.000427 0.312531
0.995239 0.000153 0.317932
1.000000 0.000000 0.321808
1.000000 0.000000 0.324646
1.000000 0.000000 0.326874
1.000000 0.000000 0.328430
1.000000 0.000000 0.329620
1.000000 0.000153 0.330566
0.011444 0.000122 0.000854
0.002625 0.000031 0.000153
0.000153 0.000000 0.000000
0.000031 0.000000 0.000000
0.000946 0.000000 0.000000
0.013855 0.000153 0.001099
0.039795 0.000153 0.007202
0.069244 0.000153 0.023804
0.102875 0.000183 0.035065
0.140839 0.000458 0.046997
0.186371 0.000977 0.061035
0.239380 0.001953 0.077271
0.298157 0.004883 0.095306
0.360138 0.010193 0.114410
0.423157 0.016876 0.133942
0.486908 0.023376 0.153809
0.551331 0.024597 0.174255
0.617096 0.023438 0.195404
0.685822 0.019958 0.217560
0.755981 0.014496 0.240143
0.821991 0.009186 0.261414
0.878113 0.005157 0.279449
0.922089 0.002533 0.293579
0.954834 0.001160 0.304108
0.978485 0.000458 0.311737
0.995239 0.000153 0.317047
1.000000 0.000000 0.321014
1.000000 0.000000 0.323822
1.000000 0.000000 0.326050
1.000000 0.000000 0.327576
1.000000 0.000000 0.328796
1.000000 0.000153 0.329773
0.007965 0.004333 0.000000
0.001251 0.003174 0.000000
0.000092 0.003113 0.000000
0.000061 0.002960 0.000000
0.000305 0.003235 0.000000
0.009644 0.004333 0.000000
0.036865 0.004700 0.002838
0.068207 0.002472 0.016876
0.102692 0.001373 0.031708
0.140686 0.001984 0.043823
0.186249 0.003906 0.058105
0.239258 0.007446 0.074493
0.298035 0.012787 0.092651
0.360046 0.019623 0.111847
0.423096 0.024506 0.131409
0.486847 0.027466 0.151306
0.551270 0.028290 0.171783
0.617035 0.026337 0.193024
0.685791 0.023895 0.215118
0.755951 0.018341 0.237732
0.821960 0.011505 0.259003
0.878082 0.006287 0.277100
0.922058 0.003113 0.291260
0.954834 0.001404 0.301788
0.978485 0.000519 0.309357
0.995239 0.000153 0.314819
1.000000 0.000000 0.318726
1.000000 0.000000 0.321533
1.000000 0.000000 0.323730
1.000000 0.000000 0.325256
1.000000 0.000031 0.326447
1.000000 0.000153 0.327423
0.004791 0.024109 0.000000
0.000916 0.023499 0.000000
0.000153 0.023071 0.000000
0.000153 0.022949 0.000000
0.000305 0.023224 0.000000
0.005859 0.024261 0.000000
0.032623 0.025970 0.000153
0.062988 0.026367 0.005524
0.102386 0.023651 0.025269
0.140381 0.022888 0.038300
0.185974 0.023712 0.052917
0.239014 0.025543 0.069641
0.297852 0.028137 0.087952
0.359863 0.031067 0.107239
0.422943 0.033295 0.126923
0.486694 0.035248 0.146942
0.551147 0.035156 0.167450
0.616943 0.032318 0.188751
0.685699 0.028503 0.210938
0.755890 0.024109 0.233582
0.821899 0.016144 0.254852
0.878052 0.008698 0.272980
0.922028 0.004272 0.287140
0.954803 0.001862 0.297729
0.978485 0.000732 0.305298
0.995239 0.000153 0.310699
1.000000 0.000000 0.314575
1.000000 0.000000 0.317505
1.000000 0.000000 0.319550
1.000000 0.000000 0.321167
1.000000 0.000153 0.322357
1.000000 0.000153 0.323395
0.004944 0.043945 0.000000
0.001373 0.043396 0.000000
0.000153 0.042938 0.000000
0.000153 0.042999 0.000000
0.000641 0.043121 0.000000
0.005859 0.044067 0.000000
0.027435 0.045685 0.000000
0.057617 0.047974 0.000153
0.096771 0.047974 0.009369
0.139984 0.044800 0.029907
0.185638 0.043457 0.045227
0.238708 0.043427 0.062408
0.297546 0.044189 0.080994
0.359619 0.045135 0.100525
0.422699 0.045990 0.120361
0.486511 0.046478 0.140442
0.550995 0.044861 0.161102
0.616791 0.040619 0.182434
0.685577 0.035522 0.204681
0.755768 0.029602 0.227386
0.821838 0.023407 0.248749
0.878021 0.013031 0.266846
0.921997 0.006287 0.281097
0.954773 0.002960 0.291595
0.978455 0.001343 0.299286
0.995209 0.000519 0.304657
1.000000 0.000153 0.308594
1.000000 0.000000 0.311401
1.000000 0.000153 0.313629
1.000000 0.000458 0.315186
1.000000 0.000732 0.316345
1.000000 0.001160 0.317352
0.006714 0.069855 0.000000
0.002136 0.069824 0.000000
0.000397 0.070160 0.000000
0.000336 0.070282 0.000000
0.001068 0.070007 0.000000
0.007782 0.069916 0.000000
0.027161 0.071228 0.000000
0.050446 0.072418 0.000000
0.090332 0.074860 0.000244
0.138306 0.073578 0.014618
0.185150 0.069305 0.034790
0.238281 0.066772 0.052551
0.297180 0.065186 0.071625
0.359283 0.063965 0.091400
0.422424 0.062714 0.111450
0.486237 0.061279 0.131714
0.550751 0.057983 0.152466
0.616608 0.052490 0.173920
0.685425 0.046143 0.196259
0.755646 0.039001 0.219086
0.821747 0.031738 0.240479
0.877960 0.024780 0.258667
0.921967 0.016205 0.272858
0.954742 0.009186 0.283447
0.978455 0.005341 0.291107
0.995209 0.003235 0.296509
1.000000 0.001984 0.300446
1.000000 0.001343 0.303314
1.000000 0.001831 0.305481
1.000000 0.002838 0.307007
1.000000 0.003723 0.308197
1.000000 0.004700 0.309204
0.008575 0.103516 0.000061
0.002838 0.104034 0.000092
0.000732 0.104431 0.000153
0.000641 0.104553 0.000153
0.001556 0.104248 0.000122
0.010040 0.103424 0.000031
0.028992 0.103699 0.000000
0.049286 0.105286 0.000000
0.080414 0.105774 0.000000
0.131042 0.109528 0.000366
0.184540 0.105774 0.020020
0.237732 0.099701 0.039856
0.296692 0.095245 0.059479
0.358856 0.091583 0.079681
0.421997 0.088318 0.100006
0.485901 0.084869 0.120483
0.550446 0.079773 0.141418
0.616333 0.072235 0.162994
0.685211 0.063782 0.185486
0.755493 0.054626 0.208374
0.821625 0.045410 0.229828
0.877869 0.037018 0.248077
0.921906 0.030029 0.262360
0.954712 0.024536 0.272980
0.978424 0.018829 0.280609
0.995209 0.013580 0.286072
1.000000 0.010223 0.290070
1.000000 0.008148 0.292816
1.000000 0.009705 0.295013
1.000000 0.012146 0.296570
1.000000 0.014313 0.297821
1.000000 0.016388 0.298798
0.010193 0.145569 0.000153
0.003723 0.146057 0.000153
0.001160 0.146454 0.000153
0.001068 0.146545 0.000153
0.002106 0.146271 0.000153
0.011749 0.145447 0.000153
0.032288 0.144073 0.000153
0.050690 0.145844 0.000000
0.078064 0.147919 0.000000
0.117920 0.147919 0.000000
0.180023 0.153442 0.000458
0.237061 0.145447 0.023834
0.296082 0.137054 0.044342
0.358276 0.130096 0.065094
0.421509 0.123718 0.085815
0.485474 0.117523 0.106537
0.550049 0.109772 0.127655
0.616028 0.099640 0.149414
0.684937 0.088715 0.172058
0.755280 0.076965 0.195068
0.821472 0.065369 0.216644
0.877777 0.054993 0.235016
0.921814 0.046539 0.249298
0.954681 0.040039 0.259918
0.978394 0.035156 0.267639
0.995178 0.031738 0.273102
1.000000 0.028961 0.277100
1.000000 0.027008 0.279938
1.000000 0.028229 0.282104
1.000000 0.030212 0.283691
1.000000 0.031708 0.284912
1.000000 0.032867 0.285919
0.012238 0.195374 0.000305
0.005035 0.195862 0.000336
0.001862 0.196198 0.000366
0.001709 0.196289 0.000366
0.003113 0.196045 0.000336
0.013977 0.195282 0.000305
0.033539 0.193970 0.000275
0.053925 0.193604 0.000153
0.078979 0.196014 0.000000
0.114166 0.198944 0.000000
0.163055 0.198151 0.000000
0.236237 0.205505 0.000519
0.295349 0.192322 0.025543
0.357635 0.181061 0.047333
0.420959 0.170929 0.068512
0.484955 0.161285 0.089600
0.549591 0.150238 0.111053
0.615631 0.137115 0.133026
0.684631 0.122986 0.155884
0.755035 0.108154 0.179047
0.821289 0.093689 0.200775
0.877625 0.080994 0.219177
0.921722 0.070709 0.233582
0.954620 0.062836 0.244263
0.978363 0.057068 0.251984
0.995148 0.052917 0.257446
1.000000 0.049835 0.261414
1.000000 0.047546 0.264374
1.000000 0.048737 0.266510
1.000000 0.050568 0.268127
1.000000 0.052063 0.269348
1.000000 0.053345 0.270325
0.014923 0.252411 0.000641
0.006714 0.252838 0.000702
0.002930 0.253174 0.000732
0.002716 0.253265 0.000732
0.004578 0.252991 0.000702
0.016754 0.252350 0.000641
0.035126 0.251099 0.000519
0.057373 0.249298 0.000458
0.081970 0.251373 0.000153
0.114441 0.254150 0.000000
0.157684 0.257812 0.000000
0.213470 0.253143 0.000000
0.294495 0.263031 0.000336
0.356873 0.246704 0.025848
0.420288 0.232147 0.048096
0.484344 0.218323 0.069733
0.549072 0.203461 0.091553
0.615204 0.187012 0.113892
0.684265 0.171265 0.136932
0.754761 0.155487 0.160278
0.821075 0.141022 0.182190
0.877472 0.128967 0.200745
0.921631 0.119629 0.215210
0.954529 0.112823 0.225983
0.978302 0.107971 0.233765
0.995117 0.104706 0.239227
1.000000 0.102234 0.243195
1.000000 0.100525 0.246094
1.000000 0.103668 0.248291
1.000000 0.107635 0.249878
1.000000 0.110748 0.251129
1.000000 0.113556 0.252106
0.018066 0.315582 0.001068
0.008972 0.316010 0.001099
0.004486 0.316284 0.001160
0.004089 0.316376 0.001160
0.006470 0.316162 0.001129
0.020264 0.315521 0.001068
0.036865 0.314392 0.000946
0.059082 0.312744 0.000732
0.086548 0.311798 0.000519
0.116974 0.315125 0.000153
0.156982 0.319458 0.000000
0.206787 0.318146 0.000000
0.268402 0.313385 0.000000
0.356018 0.328918 0.000000
0.419495 0.314209 0.024506
0.483673 0.300781 0.047119
0.548492 0.287170 0.069397
0.614716 0.272430 0.092133
0.683868 0.257935 0.115509
0.754425 0.243622 0.139160
0.820831 0.230774 0.161194
0.877319 0.220123 0.179871
0.921509 0.211761 0.194489
0.954468 0.205780 0.205292
0.978271 0.201477 0.213135
0.995117 0.198517 0.218628
1.000000 0.196411 0.222626
1.000000 0.194611 0.225616
1.000000 0.197052 0.227783
1.000000 0.200043 0.229340
1.000000 0.202271 0.230591
1.000000 0.204254 0.231598
0.022156 0.383881 0.001678
0.011902 0.384247 0.001709
0.006531 0.384521 0.001740
0.005890 0.384613 0.001770
0.008881 0.384399 0.001709
0.023468 0.383789 0.001648
0.038757 0.382812 0.001526
0.060944 0.381317 0.001343
0.090057 0.379333 0.001099
0.121185 0.381287 0.000458
0.158966 0.385529 0.000000
0.206573 0.387878 0.000000
0.260925 0.384094 0.000000
0.326050 0.379486 0.000000
0.412903 0.395020 0.000000
0.482941 0.388794 0.020508
0.547852 0.376007 0.044708
0.614166 0.362518 0.068024
0.683441 0.349335 0.091797
0.754059 0.336700 0.115692
0.820587 0.325165 0.138062
0.877136 0.315613 0.156952
0.921387 0.308716 0.171570
0.954376 0.303253 0.182556
0.978210 0.299652 0.190399
0.995087 0.297119 0.195953
1.000000 0.295166 0.200012
1.000000 0.293854 0.202942
1.000000 0.294891 0.205200
1.000000 0.296906 0.206757
1.000000 0.298218 0.208038
1.000000 0.299438 0.209076
0.024445 0.456360 0.002441
0.015442 0.456726 0.002502
0.009125 0.456970 0.002533
0.008362 0.457031 0.002533
0.011810 0.456848 0.002502
0.025330 0.456329 0.002441
0.040802 0.455444 0.002197
0.062897 0.454132 0.001984
0.091949 0.452362 0.001770
0.126312 0.451874 0.001190
0.162476 0.456177 0.000275
0.207825 0.461578 0.000000
0.261200 0.458435 0.000000
0.317841 0.454926 0.000000
0.384338 0.450714 0.000000
0.463562 0.458740 0.000000
0.547180 0.467865 0.012970
0.613556 0.455719 0.041565
0.682953 0.444153 0.065918
0.753693 0.432831 0.090332
0.820312 0.422821 0.112976
0.876923 0.414978 0.131958
0.921265 0.408661 0.146881
0.954285 0.404297 0.157867
0.978149 0.401031 0.165863
0.995026 0.399048 0.171417
1.000000 0.397400 0.175507
1.000000 0.396179 0.178467
1.000000 0.396606 0.180664
1.000000 0.397339 0.182281
1.000000 0.397919 0.183563
1.000000 0.398407 0.184601
0.025818 0.531921 0.003418
0.018585 0.532196 0.003479
0.011566 0.532410 0.003540
0.010529 0.532471 0.003601
0.014740 0.532288 0.003510
0.026917 0.531860 0.003387
0.042542 0.531097 0.003265
0.064331 0.529968 0.002930
0.093445 0.528412 0.002563
0.129730 0.526489 0.002106
0.166840 0.529144 0.000854
0.209625 0.535217 0.000000
0.261566 0.535431 0.000000
0.317505 0.532410 0.000000
0.375153 0.529297 0.000000
0.442200 0.525635 0.000000
0.513062 0.523956 0.000000
0.612946 0.550659 0.006470
0.682434 0.540466 0.038055
0.753296 0.530945 0.062988
0.820007 0.522491 0.086029
0.876709 0.515717 0.105408
0.921112 0.510712 0.120422
0.954193 0.507019 0.131592
0.978088 0.504578 0.139618
0.994995 0.502960 0.145233
1.000000 0.501617 0.149353
1.000000 0.500671 0.152374
1.000000 0.500153 0.154541
1.000000 0.499634 0.156219
1.000000 0.499420 0.157501
1.000000 0.499207 0.158569
0.023682 0.607666 0.004791
0.014160 0.607880 0.004852
0.008148 0.608063 0.004913
0.007507 0.608124 0.004944
0.010803 0.607971 0.004883
0.024719 0.607605 0.004761
0.040070 0.606964 0.004517
0.062347 0.605988 0.004150
0.091309 0.604736 0.003693
0.127808 0.603119 0.003204
0.168640 0.603363 0.001953
0.210266 0.609009 0.000305
0.260437 0.613220 0.000000
0.316040 0.610718 0.000000
0.372742 0.608154 0.000000
0.431793 0.605469 0.000000
0.500397 0.602356 0.000000
0.571381 0.599060 0.000000
0.681915 0.636108 0.002441
0.752869 0.628113 0.034088
0.819702 0.621399 0.057831
0.876495 0.616211 0.077545
0.920959 0.612366 0.092743
0.954102 0.609619 0.104034
0.978027 0.607758 0.112152
0.994965 0.606262 0.117920
1.000000 0.605347 0.122101
1.000000 0.604614 0.125153
1.000000 0.603271 0.127319
1.000000 0.601959 0.128967
1.000000 0.600708 0.130310
1.000000 0.599854 0.131378
0.020081 0.683746 0.006195
0.010437 0.683899 0.006348
0.005463 0.684052 0.006409
0.005035 0.684082 0.006439
0.007446 0.683990 0.006409
0.022461 0.683716 0.006165
0.037903 0.683197 0.005859
0.060059 0.682404 0.005554
0.089233 0.681366 0.005035
0.125702 0.680023 0.004456
0.169739 0.678375 0.003723
0.211761 0.684174 0.000885
0.259766 0.691101 0.000000
0.315186 0.689362 0.000000
0.371765 0.687286 0.000000
0.429474 0.685150 0.000000
0.490601 0.682922 0.000000
0.561310 0.680298 0.000000
0.635101 0.677551 0.000000
0.752472 0.722382 0.000458
0.819397 0.717438 0.028412
0.876251 0.713470 0.048950
0.920807 0.710876 0.064514
0.953979 0.708771 0.076050
0.977966 0.707520 0.084290
0.994934 0.706818 0.090057
1.000000 0.705933 0.094330
1.000000 0.705475 0.097382
1.000000 0.703369 0.099579
1.000000 0.700928 0.101288
1.000000 0.699036 0.102631
1.000000 0.697571 0.103729
0.015930 0.756897 0.007843
0.007446 0.757050 0.007904
0.003326 0.757172 0.007965
0.003082 0.757202 0.007996
0.004974 0.757111 0.007965
0.017761 0.756897 0.007782
0.035706 0.756470 0.007507
0.057983 0.755890 0.007111
0.087250 0.755066 0.006500
0.123901 0.754028 0.005768
0.167938 0.752747 0.005035
0.213806 0.755585 0.002350
0.260468 0.763947 0.000031
0.314728 0.764954 0.000000
0.371216 0.763367 0.000000
0.428650 0.761780 0.000000
0.487640 0.760101 0.000000
0.552277 0.758270 0.000000
0.625916 0.756165 0.000000
0.700775 0.754028 0.000000
0.816711 0.803558 0.000000
0.876038 0.803864 0.018433
0.920654 0.802063 0.036682
0.953888 0.800964 0.048492
0.977905 0.800507 0.056854
0.994904 0.799896 0.062836
1.000000 0.799438 0.067169
1.000000 0.799408 0.070190
1.000000 0.796326 0.072510
1.000000 0.793213 0.074188
1.000000 0.790680 0.075531
1.000000 0.788666 0.076630
0.012329 0.822113 0.009521
0.005157 0.822235 0.009613
0.001923 0.822327 0.009705
0.001770 0.822357 0.009766
0.003296 0.822266 0.009644
0.014313 0.822113 0.009460
0.033661 0.821777 0.009125
0.056122 0.821320 0.008575
0.085388 0.820740 0.007935
0.122131 0.819946 0.007202
0.166321 0.819000 0.006348
0.215881 0.819427 0.004456
0.261871 0.827576 0.000488
0.314636 0.832336 0.000000
0.370758 0.831177 0.000000
0.428345 0.830017 0.000000
0.487030 0.828796 0.000000
0.548218 0.827545 0.000000
0.618256 0.826050 0.000000
0.692963 0.824493 0.000000
0.763428 0.823029 0.000000
0.860352 0.864288 0.000000
0.920532 0.880737 0.004791
0.953796 0.880493 0.023254
0.977844 0.880188 0.031982
0.994873 0.880310 0.037994
1.000000 0.880066 0.042450
1.000000 0.880127 0.045563
1.000000 0.876404 0.047943
1.000000 0.872375 0.049683
1.000000 0.869659 0.050964
1.000000 0.867126 0.052094
0.010101 0.875397 0.010895
0.003510 0.875488 0.011017
0.001068 0.875549 0.011108
0.000977 0.875580 0.011169
0.001953 0.875519 0.011047
0.011444 0.875397 0.010864
0.032135 0.875153 0.010529
0.054474 0.874817 0.010040
0.083984 0.874390 0.009308
0.120636 0.873840 0.008453
0.165039 0.873138 0.007507
0.216614 0.872314 0.006470
0.263397 0.879730 0.001404
0.314606 0.887390 0.000000
0.370728 0.886566 0.000000
0.428192 0.885773 0.000000
0.486877 0.884888 0.000000
0.547821 0.884003 0.000000
0.612152 0.883087 0.000000
0.686981 0.881989 0.000000
0.757263 0.880920 0.000000
0.816956 0.880035 0.000000
0.892212 0.912262 0.000000
0.953735 0.943604 0.000031
0.977814 0.943787 0.004578
0.994843 0.944031 0.012268
1.000000 0.944031 0.020691
1.000000 0.944336 0.024719
1.000000 0.940002 0.027069
1.000000 0.935760 0.028870
1.000000 0.932251 0.030457
1.000000 0.929352 0.031677
0.007996 0.915955 0.012085
0.002563 0.916016 0.012238
0.000580 0.916077 0.012329
0.000488 0.916077 0.012329
0.001434 0.916046 0.012268
0.009796 0.915955 0.012085
0.030792 0.915833 0.011749
0.053284 0.915588 0.011108
0.082855 0.915253 0.010437
0.119690 0.914856 0.009552
0.164032 0.914337 0.008484
0.215637 0.913788 0.007355
0.264709 0.920074 0.002045
0.314453 0.929352 0.000000
0.370941 0.928802 0.000000
0.428162 0.928253 0.000000
0.486664 0.927673 0.000000
0.547791 0.927063 0.000000
0.611359 0.926453 0.000000
0.682526 0.925720 0.000000
0.752838 0.925018 0.000000
0.812286 0.924438 0.000000
0.858948 0.923950 0.000000
0.915070 0.948181 0.000000
0.962280 0.974121 0.000000
0.994812 0.991302 0.000000
1.000000 0.991791 0.000977
1.000000 0.991852 0.002899
1.000000 0.987518 0.004974
1.000000 0.982574 0.006897
1.000000 0.979004 0.008484
1.000000 0.975647 0.010223
0.006897 0.945740 0.013092
0.001984 0.945770 0.013214
0.000305 0.945801 0.013336
0.000305 0.945801 0.013397
0.000946 0.945770 0.013275
0.008148 0.945709 0.013031
0.029816 0.945618 0.012573
0.052460 0.945465 0.011993
0.082062 0.945221 0.011230
0.118988 0.944946 0.010315
0.163177 0.944580 0.009277
0.214966 0.944153 0.007996
0.265594 0.949097 0.003113
0.315002 0.959503 0.000000
0.370972 0.959747 0.000000
0.427979 0.959351 0.000000
0.487000 0.958984 0.000000
0.547607 0.958618 0.000000
0.611450 0.958191 0.000000
0.679352 0.957733 0.000000
0.749542 0.957275 0.000000
0.809143 0.956909 0.000000
0.855774 0.956573 0.000000
0.890503 0.956329 0.000000
0.931122 0.974274 0.000000
0.964783 0.992706 0.000000
0.989136 1.000000 0.000000
1.000000 1.000000 0.000000
1.000000 1.000000 0.000000
1.000000 1.000000 0.000000
1.000000 1.000000 0.000153
1.000000 1.000000 0.000427
0.006104 0.967010 0.013672
0.001587 0.967041 0.013855
0.000153 0.967072 0.013977
0.000153 0.967072 0.013977
0.000641 0.967072 0.013916
0.007355 0.967010 0.013672
0.029266 0.966919 0.013336
0.051727 0.966797 0.012634
0.081268 0.966675 0.011902
0.118347 0.966461 0.010895
0.162659 0.966217 0.009857
0.214478 0.965912 0.008575
0.266724 0.969269 0.004517
0.315460 0.980072 0.000061
0.371185 0.981903 0.000000
0.428314 0.981659 0.000000
0.486816 0.981415 0.000000
0.547852 0.981171 0.000000
0.611237 0.980927 0.000000
0.676941 0.980682 0.000000
0.747314 0.980377 0.000000
0.806915 0.980133 0.000000
0.853485 0.979950 0.000000
0.888062 0.979797 0.000000
0.913147 0.979706 0.000000
0.942291 0.992767 0.000000
0.966675 1.000000 0.000000
0.984314 1.000000 0.000000
0.993103 1.000000 0.000000
0.998047 1.000000 0.000000
1.000000 1.000000 0.000000
1.000000 1.000000 0.000000
0.005737 0.982239 0.014221
0.001343 0.982269 0.014374
0.000153 0.982269 0.014496
0.000153 0.982300 0.014557
0.000458 0.982269 0.014435
0.006989 0.982239 0.014160
0.028534 0.982178 0.013733
0.051544 0.982086 0.013153
0.080994 0.981995 0.012268
0.117950 0.981842 0.011383
0.162262 0.981659 0.010223
0.214233 0.981445 0.008972
0.266602 0.984985 0.004700
0.316345 0.994141 0.000275
0.371033 0.997681 0.000000
0.428345 0.997559 0.000000
0.487030 0.997437 0.000000
0.547638 0.997314 0.000000
0.611298 0.997162 0.000000
0.676147 0.997009 0.000000
0.745544 0.996826 0.000000
0.805176 0.996704 0.000000
0.851776 0.996582 0.000000
0.886414 0.996490 0.000000
0.911682 0.996429 0.000000
0.929230 0.996399 0.000000
0.950684 1.000000 0.000000
0.968414 1.000000 0.000000
0.977295 1.000000 0.000000
0.982330 1.000000 0.000000
0.986328 1.000000 0.000000
0.989563 1.000000 0.000000
0.005402 0.993317 0.014618
0.001282 0.993347 0.014740
0.000000 0.993347 0.014862
0.000000 0.993347 0.014923
0.000458 0.993347 0.014801
0.006531 0.993317 0.014557
0.028381 0.993286 0.014099
0.051056 0.993225 0.013550
0.080719 0.993134 0.012634
0.117584 0.993042 0.011719
0.162140 0.992950 0.010529
0.213989 0.992798 0.009277
0.266724 0.996399 0.004791
0.316315 1.000000 0.000244
0.370941 1.000000 0.000000
0.428406 1.000000 0.000000
0.487030 1.000000 0.000000
0.547852 1.000000 0.000000
0.611298 1.000000 0.000000
0.676178 1.000000 0.000000
0.744385 1.000000 0.000000
0.803955 1.000000 0.000000
0.850677 1.000000 0.000000
0.885254 1.000000 0.000000
0.910339 1.000000 0.000000
0.928070 1.000000 0.000000
0.940887 1.000000 0.000000
0.956757 1.000000 0.000000
0.965851 1.000000 0.000000
0.970978 1.000000 0.000000
0.975006 1.000000 0.000000
0.978271 1.000000 0.000000
0.005035 1.000000 0.014862
0.001099 1.000000 0.015045
0.000000 1.000000 0.015198
0.000000 1.000000 0.015198
0.000305 1.000000 0.015106
0.006165 1.000000 0.014862
0.027863 1.000000 0.014435
0.050812 1.000000 0.013733
0.080444 1.000000 0.012970
0.117401 1.000000 0.011932
0.161865 1.000000 0.010773
0.213623 1.000000 0.009521
0.267944 1.000000 0.006439
0.316315 1.000000 0.000214
0.371216 1.000000 0.000000
0.428406 1.000000 0.000000
0.487030 1.000000 0.000000
0.548096 1.000000 0.000000
