luts/Cinematic @crizomzeyahke.cube
TITLE "Generated by Resolve"
LUT_3D_SIZE 5
0 0 0
0.148287 0 0
0.394629 0 0
0.5617 0 0
0.895705 0 0
0 0.165743 0
0.0951247 0.154376 0
0.384543 0.0993668 0
0.568154 0 0
0.966598 0 0
0 0.388891 0
0.0062562 0.407431 0
0.362066 0.411917 0
0.557733 0.401709 0
0.968063 0 0
0 0.537514 0
0 0.553063 0
0.344488 0.561273 0
0.538674 0.558312 0
0.91873 0.477073 0
0.135637 0.797909 0
0.340002 0.83859 0
0.431952 0.851698 0
0.560662 0.834226 0
0.916503 0.811841 0
0 0 0.236835
0.145006 0 0.230762
0.394583 0 0.176028
0.560861 0 0
0.895033 0 0
0 0.162982 0.215366
0.0935225 0.155535 0.215228
0.389944 0.106355 0.170657
0.576654 0 0.0104829
0.98526 0 0
0 0.394873 0.114656
0.0240635 0.41413 0.142077
0.368704 0.418967 0.124483
0.568032 0.408118 0
0.992096 0 0
0 0.542092 0.0258793
0.0216678 0.55938 0.0570687
0.351736 0.568444 0.0463111
0.543893 0.564553 0
0.936355 0.465171 0
0.199466 0.810636 0
0.354971 0.850446 0
0.439261 0.862425 0
0.562112 0.840009 0
0.91783 0.814221 0
0 0 0.462745
0.15346 0 0.462562
0.386755 0 0.447745
0.550347 0 0.41294
0.874067 0 0
0 0.156832 0.456306
0.124865 0.155322 0.459281
0.386831 0.121355 0.455283
0.574411 0.00602731 0.43595
0.984527 0 0
0 0.393439 0.424445
0.0655528 0.413382 0.442908
0.369894 0.419516 0.451713
0.573571 0.407218 0.436759
0.999252 0 0
0 0.542031 0.404089
0.0524605 0.559289 0.423758
0.351507 0.568795 0.428931
0.541344 0.56463 0.412894
0.937667 0.457877 0
0.211688 0.808209 0.357046
0.356329 0.846845 0.33901
0.435584 0.857053 0.318761
0.553903 0.831083 0.305135
0.896819 0.801724 0
0.242939 0.0928511 0.703609
0.323583 0.0890364 0.705196
0.408896 0 0.676188
0.543816 0 0.627604
0.847837 0 0.567254
0.204044 0.259083 0.692454
0.320409 0.270817 0.704936
0.424994 0.26775 0.708751
0.574075 0.20827 0.694255
0.97464 0 0.646708
0 0.40296 0.644633
0.297841 0.427054 0.68864
0.4224 0.437308 0.71487
0.576196 0.429801 0.716548
0.995605 0 0.674388
0 0.543603 0.618189
0.266758 0.561074 0.661585
0.398352 0.570367 0.684031
0.547341 0.566369 0.685725
0.94258 0.447532 0.640909
0.312413 0.803189 0.662394
0.405295 0.840177 0.700755
0.459815 0.847242 0.706188
0.553201 0.81912 0.668086
0.868009 0.789731 0.598108
0.653361 0.580285 1
0.658534 0.582925 1
0.632395 0.545098 1
0.623346 0.473075 0.950195
0.844862 0.231525 0.917464
0.642161 0.574533 1
0.667857 0.597284 1
0.684733 0.607858 1
0.702754 0.595468 1
0.986236 0.491218 1
0.598032 0.55729 0.990021
0.661311 0.60856 1
0.697597 0.636194 1
0.725048 0.639185 1
1 0.575097 1
0.563531 0.597848 0.957641
0.631525 0.634668 1
0.667643 0.654612 1
0.694301 0.6542 1
0.946532 0.625223 1
0.637964 0.819196 1
0.686641 0.855329 1
0.69485 0.857557 1
0.682445 0.825025 1
0.868696 0.795346 1
