luts/CINE SERIES_THE BROOD_GREEN.cube
#Created by: Adobe Photoshop Export Color Lookup Plugin
TITLE "18 (1033).jpg"
#LUT size
LUT_3D_SIZE 5
#data domain
#LUT data points
DOMAIN_MIN 0.000000 0.000000 0.000000
DOMAIN_MAX 0.903226 0.903226 0.903226
0.007965 0.003296 0.000000
0.068481 0.001648 0.017883
0.423096 0.023987 0.131714
0.878082 0.006104 0.277374
1.000000 0.000000 0.323975
0.004944 0.043945 0.000000
0.057617 0.047974 0.000153
0.422699 0.045990 0.120361
0.878021 0.013031 0.266846
1.000000 0.000153 0.313629
0.022156 0.383881 0.001678
0.060944 0.381317 0.001343
0.412903 0.395020 0.000000
0.877136 0.315613 0.156952
1.000000 0.294891 0.205200
0.010101 0.875397 0.010895
0.054474 0.874817 0.010040
0.370728 0.886566 0.000000
0.816956 0.880035 0.000000
1.000000 0.940002 0.027069
0.005005 1.000000 0.015106
0.050476 1.000000 0.013977
0.372833 1.000000 0.000641
0.799469 1.000000 0.000000
0.951050 1.000000 0.000000
0.007446 0.001312 0.001953
0.065063 0.000244 0.022797
0.438751 0.007111 0.142670
0.892609 0.002899 0.287720
1.000000 0.000153 0.334167
0.007050 0.043457 0.001709
0.056366 0.046356 0.000977
0.439758 0.036591 0.130798
0.893890 0.007355 0.277222
1.000000 0.000549 0.323792
0.022827 0.385101 0.008881
0.061188 0.382568 0.007568
0.428467 0.409515 0.000000
0.893066 0.309204 0.163177
1.000000 0.294373 0.211945
0.010223 0.875671 0.031281
0.054810 0.875092 0.030090
0.370361 0.896027 0.000702
0.831451 0.897186 0.000000
1.000000 0.938965 0.028381
0.005219 1.000000 0.036102
0.050812 1.000000 0.035034
0.374725 1.000000 0.010895
0.800659 1.000000 0.001190
0.952179 1.000000 0.000153
0.026794 0.021698 0.270782
0.064972 0.021698 0.270782
0.418610 0.009979 0.305267
0.892761 0.000000 0.398010
1.000000 0.000732 0.432953
0.026794 0.055908 0.270630
0.064941 0.055908 0.269867
0.422974 0.039154 0.304932
0.922028 0.000000 0.396454
1.000000 0.005554 0.431580
0.030029 0.385315 0.271820
0.067749 0.385315 0.270691
0.415283 0.390106 0.255188
1.000000 0.150879 0.323029
1.000000 0.280334 0.413635
0.023224 0.875732 0.284149
0.061371 0.875732 0.283112
0.400452 0.873749 0.274475
0.861908 0.918213 0.213226
1.000000 0.922150 0.277405
0.015625 1.000000 0.288330
0.057495 1.000000 0.287292
0.398071 1.000000 0.278595
0.816315 1.000000 0.258667
0.968170 1.000000 0.255402
0.041077 0.036255 0.887939
0.078125 0.036255 0.887939
0.409943 0.036255 0.887939
0.862061 0.036255 0.887939
1.000000 0.032074 0.893768
0.041046 0.069092 0.887909
0.077972 0.069153 0.887817
0.410065 0.069153 0.887817
0.862030 0.069153 0.887817
1.000000 0.061157 0.893524
0.041046 0.390106 0.887909
0.078033 0.390015 0.887756
0.410034 0.390076 0.886139
0.862030 0.390076 0.886139
1.000000 0.359711 0.891876
0.041046 0.875824 0.887909
0.078033 0.875763 0.887756
0.410034 0.875671 0.886047
0.919769 0.932251 0.850342
1.000000 0.916168 0.832703
0.037476 1.000000 0.888611
0.074585 1.000000 0.888428
0.407928 1.000000 0.886688
0.919281 1.000000 0.850983
1.000000 1.000000 0.835388
0.040955 0.036255 1.000000
0.078064 0.036255 1.000000
0.410095 0.036255 1.000000
0.862030 0.036255 1.000000
1.000000 0.036255 1.000000
0.041046 0.069092 1.000000
0.078064 0.069153 1.000000
0.409943 0.069153 1.000000
0.861908 0.069153 1.000000
1.000000 0.069153 1.000000
0.041046 0.390076 1.000000
0.078033 0.390137 1.000000
0.410004 0.390076 1.000000
0.861908 0.390076 1.000000
1.000000 0.390076 1.000000
0.041046 0.875793 1.000000
0.078033 0.875641 1.000000
0.410034 0.875702 1.000000
0.919769 0.932251 1.000000
1.000000 0.934570 1.000000
0.041046 1.000000 1.000000
0.078033 1.000000 1.000000
0.410034 1.000000 1.000000
0.919769 1.000000 1.000000
1.000000 1.000000 1.000000
