luts/CINE SERIES_SISTERS.cube
#Created by: Adobe Photoshop Export Color Lookup Plugin
TITLE "33 (935).jpg"
#LUT size
LUT_3D_SIZE 5
#data domain
#LUT data points
DOMAIN_MIN 0.000000 0.000000 0.000000
DOMAIN_MAX 0.903226 0.903226 0.903226
0.004303 0.004303 0.000000
0.216888 0.004303 0.000000
0.640991 0.004211 0.000000
0.820953 0.004211 0.000000
0.894012 0.004364 0.000000
0.004303 0.086945 0.000000
0.067596 0.086945 0.000000
0.516144 0.050781 0.000000
0.783417 0.024872 0.000000
0.886261 0.005188 0.000000
0.004303 0.411011 0.000000
0.067627 0.411011 0.000000
0.336243 0.411011 0.000000
0.725311 0.316254 0.000000
0.872467 0.227051 0.000000
0.004242 0.726288 0.000000
0.067566 0.726288 0.000000
0.336182 0.726288 0.000000
0.651825 0.726288 0.000000
0.850983 0.692261 0.000000
0.004395 0.901520 0.000000
0.067566 0.901520 0.000000
0.336304 0.901520 0.000000
0.651917 0.901520 0.000000
0.837036 0.901520 0.000000
0.009399 0.005035 0.092194
0.063873 0.004669 0.105927
0.513733 0.004303 0.045959
0.782349 0.004303 0.014557
0.885712 0.004303 0.004517
0.004303 0.127045 0.092621
0.066040 0.081696 0.109314
0.513733 0.050842 0.045929
0.782349 0.024811 0.014496
0.885712 0.005066 0.004425
0.004303 0.461945 0.092560
0.067596 0.411011 0.116394
0.336273 0.411011 0.116364
0.725311 0.316315 0.046783
0.872467 0.227081 0.018066
0.004303 0.743622 0.092560
0.067596 0.726288 0.116333
0.336304 0.726288 0.116364
0.651825 0.726288 0.116364
0.850983 0.692230 0.064667
0.004303 0.904755 0.092682
0.067596 0.901520 0.116455
0.336243 0.901520 0.116364
0.651764 0.901520 0.116364
0.836914 0.901520 0.116364
0.030640 0.008240 0.455536
0.060883 0.008575 0.459717
0.263275 0.007324 0.503479
0.719299 0.004303 0.383789
0.870331 0.004303 0.200500
0.008514 0.056000 0.423187
0.055634 0.043396 0.464874
0.265808 0.072449 0.500092
0.719299 0.050842 0.383942
0.870331 0.024841 0.200500
0.004303 0.510864 0.458679
0.082306 0.455963 0.502441
0.291199 0.376038 0.522430
0.719299 0.316284 0.383881
0.870331 0.227081 0.200592
0.004303 0.760101 0.458588
0.086090 0.743622 0.505890
0.336273 0.726288 0.551849
0.651855 0.726288 0.551849
0.850983 0.692200 0.403717
0.004303 0.907990 0.458588
0.086090 0.904755 0.505829
0.336273 0.901520 0.551819
0.651825 0.901520 0.551849
0.836975 0.901520 0.551849
0.048157 0.011017 0.753387
0.060699 0.011322 0.754669
0.189148 0.012543 0.759857
0.603241 0.005035 0.850250
0.846771 0.004303 0.844727
0.017975 0.011505 0.748199
0.059387 0.026398 0.756714
0.191986 0.052002 0.764343
0.603027 0.069794 0.847321
0.846771 0.050842 0.844635
0.007568 0.440002 0.807220
0.059570 0.369995 0.797943
0.194275 0.306061 0.782104
0.606049 0.382904 0.830475
0.846771 0.316345 0.844696
0.008484 0.772003 0.839569
0.098022 0.754669 0.848267
0.323364 0.736206 0.856293
0.623993 0.702911 0.844788
0.846771 0.692200 0.844696
0.009094 0.911224 0.841187
0.107758 0.907990 0.850342
0.365479 0.904755 0.858948
0.651825 0.901520 0.866699
0.837006 0.901520 0.866730
0.052612 0.011749 0.827942
0.061096 0.012054 0.828583
0.173920 0.013214 0.830902
0.587555 0.006592 0.910339
0.826630 0.003845 0.940247
0.031250 0.012299 0.829102
0.060638 0.022614 0.829895
0.176270 0.047485 0.834808
0.588135 0.066467 0.907684
0.826569 0.077881 0.940247
0.007660 0.419647 0.886078
0.056183 0.353455 0.868439
0.172821 0.293121 0.849640
0.596039 0.376465 0.891266
0.826569 0.395660 0.940247
0.008881 0.767456 0.939697
0.090912 0.750183 0.939545
0.297821 0.721893 0.929932
0.611389 0.692566 0.907745
0.826385 0.720764 0.926453
0.020782 0.913940 0.940430
0.129089 0.910614 0.940948
0.382233 0.907227 0.940918
0.655792 0.903931 0.940887
0.833435 0.897644 0.937988
