luts/cinema look2-Lut_ sony footage.cube
TITLE "Generated by Resolve"
LUT_3D_SIZE 9
0.00802625 0.016556 0.0184024
0.0218967 0.0241703 0.0281071
0.0656291 0.0366979 0.0450141
0.149981 0.049546 0.0575265
0.299245 0.0520638 0.0591135
0.517968 0.0467536 0.0556802
0.705135 0.0387121 0.0488899
0.844602 0.0334325 0.0444038
0.869093 0.0326543 0.0437476
0.0483406 0.0715343 0.0713207
0.0593881 0.0820783 0.0783856
0.106966 0.0984817 0.0725567
0.216541 0.107057 0.0704051
0.401709 0.101076 0.0612192
0.592248 0.0661936 0.0522316
0.755566 0.0492103 0.0458228
0.874784 0.0411536 0.0423743
0.879408 0.0377356 0.0426642
0.0851606 0.136507 0.133349
0.0968795 0.146075 0.138613
0.115602 0.17641 0.134951
0.240681 0.196109 0.0680858
0.488731 0.183581 0.0480201
0.721019 0.163241 0.0317235
0.878645 0.142199 0.0256657
0.983444 0.137514 0.0235599
0.990066 0.142733 0.0230869
0.126223 0.222477 0.214145
0.139727 0.232975 0.21767
0.159808 0.258213 0.224582
0.189258 0.320882 0.170687
0.436164 0.346334 0.0442664
0.763439 0.308812 0.0226139
0.92517 0.296635 0.021561
1 0.297337 0.0232548
1 0.304006 0.0234684
0.170428 0.324575 0.310811
0.186236 0.33698 0.313664
0.20499 0.365347 0.321599
0.25272 0.439994 0.321813
0.332219 0.524819 0.239155
0.550042 0.559396 0.100343
0.835401 0.522133 0.0292973
0.98793 0.507729 0.0291752
1 0.506539 0.0299535
0.21239 0.419486 0.398123
0.231098 0.435828 0.403616
0.262592 0.471839 0.42504
0.325399 0.547585 0.449378
0.374289 0.661021 0.392325
0.477424 0.723934 0.323964
0.594339 0.750637 0.293645
0.710369 0.753796 0.195941
0.846128 0.745113 0.146715
0.253529 0.494087 0.473014
0.275456 0.514519 0.482841
0.309178 0.553582 0.507927
0.374975 0.632029 0.540139
0.45333 0.74287 0.538552
0.514839 0.821469 0.459907
0.59353 0.843336 0.442374
0.652873 0.8533 0.455146
0.71519 0.864973 0.451377
0.28838 0.556481 0.536187
0.3131 0.58146 0.550469
0.347677 0.621317 0.576776
0.421637 0.70074 0.61004
0.524208 0.799908 0.632029
0.588373 0.874189 0.593973
0.607996 0.877989 0.533074
0.643427 0.880354 0.506462
0.693721 0.888075 0.517372
0.335927 0.622736 0.612406
0.353689 0.651469 0.621668
0.388861 0.689067 0.645212
0.483955 0.768399 0.675273
0.596231 0.848173 0.707698
0.621897 0.882536 0.670695
0.61149 0.879973 0.586328
0.625177 0.880018 0.54316
0.657847 0.882414 0.514107
0.0110323 0.0222782 0.0273594
0.0244297 0.0291142 0.0425879
0.0713054 0.0403601 0.0709087
0.158755 0.0516518 0.0890822
0.313985 0.0533303 0.0909438
0.532784 0.0466621 0.084062
0.718196 0.0383154 0.0756695
0.854353 0.0332036 0.0691691
0.874189 0.0325475 0.0656901
0.0516976 0.0767681 0.0793927
0.0669261 0.086244 0.0882277
0.110918 0.101793 0.109026
0.224475 0.109392 0.112688
0.404517 0.0960861 0.0908827
0.596002 0.0608377 0.0776532
0.764569 0.0479744 0.0677348
0.880079 0.0399939 0.0614633
0.880858 0.0365911 0.0586404
0.0889754 0.143832 0.137102
0.105882 0.151583 0.146456
0.136004 0.177539 0.157549
0.268849 0.19202 0.11194
0.493599 0.181231 0.0672007
0.724865 0.158465 0.0442512
0.881041 0.135149 0.0353704
0.982681 0.130587 0.0305028
0.987655 0.135897 0.0273289
0.134905 0.230823 0.222065
0.154086 0.23917 0.231815
0.179095 0.261021 0.243732
0.220493 0.322133 0.204089
0.493248 0.332464 0.035111
0.779889 0.305959 0.0223545
0.929656 0.297414 0.0216678
1 0.298772 0.0233005
1 0.305608 0.0235294
0.185962 0.332937 0.326986
0.206317 0.34403 0.334478
0.232563 0.370886 0.34757
0.28011 0.442161 0.350423
0.357687 0.528405 0.254276
0.606348 0.553414 0.0707713
0.876646 0.516411 0.0281071
1 0.506172 0.0297704
1 0.506539 0.0299535
0.237385 0.427024 0.423926
0.25832 0.442161 0.43064
0.283146 0.476417 0.445136
0.348196 0.551217 0.47451
0.4038 0.664546 0.429358
0.502907 0.727642 0.334005
0.620401 0.753307 0.271748
0.744945 0.750912 0.174578
0.880507 0.74023 0.141176
0.278798 0.499565 0.49865
0.29897 0.518624 0.505455
0.328771 0.557214 0.526589
0.396078 0.633631 0.563973
0.484306 0.743297 0.571023
0.543282 0.822965 0.492836
0.614801 0.843381 0.458137
0.669551 0.853391 0.449531
0.733288 0.865064 0.437308
0.318425 0.562768 0.566186
0.341588 0.58529 0.577066
0.366705 0.622934 0.593393
0.440116 0.698543 0.630747
0.550668 0.798245 0.655985
0.613306 0.872679 0.624506
0.637278 0.882139 0.56762
0.670924 0.884733 0.536751
0.714427 0.891981 0.521523
0.366461 0.632563 0.642588
0.396155 0.659144 0.660563
0.431189 0.692164 0.679103
0.503029 0.759869 0.697383
0.611337 0.841825 0.722087
0.65449 0.887205 0.706905
0.641505 0.884123 0.618967
0.654795 0.884199 0.574823
0.686625 0.887175 0.543236
0.0161746 0.0302281 0.0408179
0.0241245 0.0352789 0.054551
0.073167 0.0440986 0.101884
0.166262 0.0530098 0.134829
0.332235 0.0547189 0.156542
0.554513 0.0461891 0.16405
0.738857 0.0373388 0.161639
0.873503 0.0321355 0.159915
0.892653 0.0314183 0.159777
0.0543984 0.0808118 0.0942702
0.065568 0.0923018 0.10164
0.109911 0.10695 0.147097
0.230411 0.110857 0.176989
0.412879 0.0919814 0.173693
0.611963 0.0586557 0.164996
0.779721 0.0454261 0.158663
0.894865 0.037171 0.155779
0.895933 0.0336309 0.155062
0.0941482 0.15201 0.156695
0.111345 0.160067 0.163684
0.149248 0.18088 0.180896
0.271931 0.195056 0.195605
0.500587 0.181155 0.175326
0.721325 0.141497 0.149706
0.864683 0.0969558 0.136645
0.965042 0.0883192 0.130175
0.977646 0.103532 0.124147
0.139132 0.244999 0.230655
0.160418 0.252338 0.23801
0.194903 0.269444 0.258503
0.261357 0.320806 0.258686
0.543923 0.316365 0.149447
0.777157 0.298909 0.108324
0.923995 0.286381 0.0863661
1 0.286839 0.0720531
1 0.29424 0.0737163
0.195743 0.350072 0.333043
0.222416 0.358282 0.347631
0.261372 0.380621 0.375036
0.326787 0.438041 0.398489
0.390845 0.520012 0.292439
0.667048 0.528939 0.0507973
0.906706 0.497322 0.0304112
1 0.490196 0.0324559
1 0.492943 0.0315862
0.255818 0.443183 0.43856
0.284703 0.455314 0.455543
0.323659 0.484581 0.483497
0.376745 0.54284 0.50988
0.429328 0.654215 0.467964
0.521737 0.720607 0.354192
0.647929 0.745052 0.229694
0.798825 0.735607 0.140658
0.931121 0.722423 0.125887
0.302281 0.514824 0.519295
0.332494 0.531136 0.537911
0.371206 0.563806 0.565835
0.41857 0.620844 0.594095
0.507546 0.731746 0.59678
0.559686 0.814023 0.519158
0.636744 0.839353 0.476295
0.686122 0.848783 0.429511
0.75639 0.859083 0.400687
0.343633 0.578668 0.588586
0.375875 0.598398 0.609842
0.415549 0.631388 0.637827
0.471366 0.685603 0.667781
0.572793 0.784863 0.677775
0.62501 0.859586 0.648005
0.66775 0.886427 0.599313
0.701717 0.889937 0.566781
0.741222 0.897642 0.530846
0.39028 0.648783 0.661646
0.428611 0.672831 0.687663
0.47422 0.702693 0.714031
0.54815 0.754238 0.743938
0.671336 0.836728 0.77499
0.734096 0.891981 0.788113
0.720088 0.896635 0.713268
0.724956 0.895582 0.656138
0.756695 0.900771 0.624994
0.0168917 0.0319982 0.0529793
0.0174258 0.0326848 0.060029
0.0599527 0.0447395 0.120485
0.176974 0.0556344 0.209598
0.354879 0.0548867 0.254704
0.580941 0.0440528 0.281712
0.764477 0.0346075 0.294286
0.897383 0.0289158 0.301671
0.913024 0.0283055 0.30338
0.0449378 0.0791028 0.100435
0.0565347 0.0911421 0.114687
0.0964675 0.114107 0.175189
0.231464 0.108064 0.272755
0.417731 0.0808576 0.285084
0.631495 0.0538643 0.293492
0.799802 0.040177 0.299916
0.912795 0.0313115 0.304601
0.913191 0.028336 0.304036
0.100175 0.155474 0.188907
0.116121 0.164813 0.19559
0.142367 0.189685 0.210941
0.264485 0.199603 0.317311
0.507317 0.180316 0.322286
0.732265 0.139559 0.309911
0.878599 0.0938125 0.307301
0.975418 0.0829633 0.307195
0.988296 0.103914 0.303731
0.148241 0.258976 0.273564
0.169741 0.265904 0.278965
0.204562 0.285008 0.294804
0.294408 0.324468 0.324651
0.541817 0.322652 0.322179
0.776425 0.305333 0.30042
0.923278 0.292241 0.290089
1 0.292775 0.286641
1 0.30135 0.284611
0.20502 0.372366 0.359243
0.231724 0.380896 0.366217
0.274586 0.403937 0.388067
0.361669 0.443549 0.437766
0.464973 0.517327 0.397513
0.781704 0.498665 0.271153
0.936477 0.48838 0.261173
1 0.489555 0.257649
1 0.495842 0.256123
0.266926 0.469551 0.448371
0.29839 0.481773 0.464073
0.346395 0.508568 0.499779
0.411093 0.548302 0.55317
0.530373 0.640589 0.584054
0.597696 0.708751 0.45478
0.78291 0.71313 0.258015
0.944854 0.695171 0.244923
0.989166 0.686183 0.255924
0.315373 0.542031 0.525765
0.350118 0.557031 0.548165
0.399924 0.58616 0.588678
0.454231 0.626688 0.638086
0.594919 0.724102 0.679988
0.640085 0.79646 0.638605
0.70428 0.829053 0.561044
0.766201 0.841978 0.467079
0.864851 0.841062 0.397147
0.357183 0.604578 0.594171
0.395178 0.623224 0.621302
0.446006 0.65275 0.660868
0.50341 0.691691 0.705333
0.656046 0.784588 0.753048
0.722087 0.84654 0.763684
0.753841 0.887327 0.718929
0.791196 0.901427 0.683406
0.830991 0.913832 0.639521
0.403616 0.672129 0.665553
0.448676 0.694377 0.695964
0.503319 0.721355 0.730724
0.564706 0.756542 0.769162
0.726375 0.841138 0.81976
0.799527 0.895247 0.845304
0.814847 0.917296 0.830991
0.809735 0.914031 0.775402
0.831601 0.919066 0.7402
0.0238499 0.0437629 0.0814832
0.0236515 0.0436408 0.0888533
0.0428931 0.0493782 0.131167
0.166567 0.0605631 0.279652
0.379797 0.0532082 0.387625
0.608362 0.0399939 0.434455
0.789334 0.0300755 0.458701
0.919234 0.0239719 0.473762
0.930617 0.0234684 0.476478
0.0489509 0.0902266 0.12958
0.0496529 0.0924086 0.137896
0.0764172 0.104509 0.191546
0.198566 0.0959029 0.335882
0.427024 0.0681773 0.425147
0.651438 0.0472877 0.455146
0.819333 0.0326696 0.471519
0.928679 0.0236667 0.481697
0.931228 0.0232853 0.483177
0.0765087 0.139376 0.189151
0.0895094 0.154253 0.20029
0.126589 0.193652 0.243137
0.225254 0.2159 0.380529
0.510597 0.171725 0.504799
0.737423 0.125216 0.5019
0.886778 0.0829175 0.502556
0.982055 0.0760357 0.505119
0.991699 0.0966812 0.503792
0.157259 0.264271 0.331273
0.178653 0.271275 0.337316
0.214603 0.29424 0.357473
0.283894 0.339742 0.381552
0.533608 0.327077 0.52665
0.771786 0.30837 0.511055
0.91957 0.295491 0.502373
1 0.29601 0.500038
1 0.305165 0.499214
0.218219 0.387304 0.420615
0.245655 0.39649 0.427726
0.28893 0.421317 0.447745
0.355856 0.458534 0.473823
0.520485 0.515526 0.520195
0.775662 0.505577 0.499504
0.926574 0.496971 0.489311
1 0.498421 0.486168
1 0.505257 0.484413
0.278981 0.490776 0.495003
0.310246 0.503883 0.505547
0.357809 0.533242 0.530571
0.412573 0.572015 0.564477
0.594095 0.643473 0.645945
0.666255 0.706447 0.573419
0.880156 0.693004 0.479652
0.97995 0.690837 0.496269
0.982452 0.691127 0.496208
0.326146 0.565652 0.556374
0.360342 0.581582 0.570916
0.410605 0.61294 0.601862
0.470146 0.653941 0.646067
0.653208 0.728557 0.731914
0.723156 0.791012 0.74612
0.766186 0.830259 0.675151
0.854154 0.840925 0.574945
0.949386 0.833082 0.56379
0.366583 0.628153 0.613504
0.404669 0.647684 0.633768
0.457984 0.677974 0.666621
0.522576 0.715862 0.711406
0.706905 0.790387 0.793271
0.785443 0.849577 0.821149
0.814435 0.888548 0.811353
0.847089 0.908873 0.777737
0.886778 0.921523 0.725826
0.413016 0.692317 0.675563
0.459953 0.715633 0.701259
0.516503 0.74316 0.733288
0.581109 0.775845 0.773388
0.766613 0.848127 0.849058
0.843565 0.902205 0.882719
0.881117 0.935119 0.898436
0.873243 0.933242 0.862364
0.885679 0.936355 0.829328
0.0299687 0.0551461 0.114351
0.0298772 0.0551461 0.123568
0.0355383 0.0568093 0.150851
0.135164 0.0641642 0.305577
0.384848 0.0536202 0.50898
0.630625 0.035996 0.587564
0.811536 0.0253452 0.622278
0.937423 0.0192264 0.642435
0.944869 0.0188907 0.645243
0.0529793 0.102785 0.167025
0.0530556 0.104356 0.177752
0.0657664 0.111345 0.21622
0.169451 0.111772 0.382193
0.429877 0.0679637 0.558984
0.668589 0.0406958 0.613993
0.836728 0.0251926 0.638956
0.945373 0.0186465 0.655283
0.945861 0.0186007 0.65713
0.0704509 0.148898 0.21915
0.0758679 0.155825 0.228641
0.104402 0.181247 0.273472
0.19971 0.221164 0.431037
0.488304 0.164034 0.652781
0.73843 0.0991531 0.679011
0.896132 0.0762493 0.686442
0.986831 0.0696269 0.69099
0.987533 0.0713817 0.690181
0.152575 0.259068 0.376196
0.171771 0.27158 0.382208
0.203677 0.300969 0.401144
0.267567 0.35108 0.434943
0.480705 0.346227 0.653758
0.76701 0.307195 0.703838
0.916091 0.293629 0.697551
1 0.294347 0.695598
1 0.304601 0.69482
0.229511 0.39379 0.486458
0.257298 0.403143 0.494514
0.301564 0.429221 0.516472
0.354635 0.464439 0.541024
0.504891 0.532265 0.591623
0.764218 0.50959 0.702647
0.917021 0.500557 0.694148
1 0.502007 0.690883
1 0.509682 0.688426
0.2916 0.502922 0.555291
0.322744 0.515938 0.565255
0.370275 0.546197 0.589471
0.424598 0.587243 0.618509
0.606806 0.65716 0.670497
0.729686 0.697963 0.692638
0.883757 0.694331 0.685298
0.965881 0.698955 0.688197
0.974227 0.70132 0.686885
0.336233 0.578988 0.606165
0.370932 0.596292 0.619623
0.420966 0.629068 0.646067
0.480705 0.672053 0.678721
0.669505 0.742016 0.744305
0.774731 0.793378 0.793851
0.812482 0.831464 0.759426
0.923506 0.831708 0.717708
0.957839 0.827512 0.725673
0.374624 0.641382 0.651759
0.413916 0.662867 0.669673
0.468193 0.693782 0.695537
0.533318 0.734188 0.72961
0.725185 0.802014 0.805142
0.825223 0.855573 0.854612
0.862425 0.890715 0.869047
0.886732 0.915404 0.844755
0.936294 0.9252 0.798321
0.422049 0.705272 0.702754
0.469871 0.729778 0.724254
0.526741 0.758434 0.750011
0.593439 0.792264 0.781888
0.785504 0.858015 0.861158
0.874723 0.909316 0.906813
0.915236 0.942626 0.928649
0.924758 0.954131 0.925246
0.927932 0.953948 0.895125
0.0346685 0.0648508 0.147402
0.034638 0.0649424 0.158206
0.0343938 0.0644694 0.180606
0.113497 0.070161 0.324224
0.364157 0.057969 0.584314
0.644511 0.0338903 0.711467
0.830167 0.0219425 0.757565
0.953094 0.016144 0.781109
0.95639 0.0160372 0.781903
0.0556191 0.113268 0.204654
0.0554665 0.114549 0.2177
0.0608225 0.118593 0.251423
0.149035 0.124041 0.416571
0.408087 0.0771496 0.646159
0.6813 0.0366369 0.741573
0.853544 0.0204776 0.77554
0.957565 0.0158389 0.795148
0.957656 0.0158083 0.796262
0.0722972 0.161074 0.258091
0.0732586 0.16556 0.26836
0.0898299 0.175906 0.307332
0.182757 0.223117 0.473793
0.443427 0.167361 0.727413
0.739483 0.0864271 0.810819
0.903899 0.071809 0.827375
0.990631 0.0655528 0.832578
0.988891 0.0608682 0.831113
0.138399 0.256794 0.400809
0.151858 0.271321 0.401755
0.184497 0.3066 0.428
0.253895 0.359976 0.479362
0.427451 0.370565 0.686076
0.756542 0.308827 0.840696
0.914549 0.291814 0.842496
1 0.292622 0.841138
1 0.303899 0.83978
0.234424 0.396002 0.53875
0.261784 0.405585 0.547463
0.306249 0.432883 0.570733
0.357824 0.469535 0.59704
0.492287 0.543374 0.64007
0.737011 0.517754 0.834012
0.910811 0.501274 0.842664
1 0.503212 0.837888
1 0.511345 0.834424
0.300267 0.507073 0.605783
0.332692 0.521263 0.618082
0.380743 0.552026 0.642496
0.435431 0.593896 0.671092
0.611276 0.662608 0.724208
0.716777 0.708812 0.764889
0.874769 0.697993 0.820127
0.956512 0.703593 0.817533
0.970077 0.706523 0.815198
0.345418 0.586252 0.651804
0.380529 0.603815 0.665934
0.430701 0.636698 0.691295
0.491432 0.680629 0.720958
0.671717 0.751171 0.769696
0.789731 0.801999 0.810025
0.855833 0.827314 0.826749
0.934279 0.833112 0.830289
0.957794 0.835035 0.83154
0.383383 0.649897 0.69192
0.42237 0.670039 0.707607
0.477653 0.701961 0.731182
0.542519 0.743389 0.760235
0.72668 0.812009 0.813764
0.841138 0.863508 0.865904
0.890242 0.894881 0.894316
0.913588 0.919142 0.882643
0.970779 0.921798 0.870283
0.430564 0.713283 0.733562
0.477867 0.737453 0.752056
0.535027 0.766476 0.77467
0.602808 0.801038 0.801129
0.788769 0.867369 0.863096
0.889876 0.916228 0.9178
0.935607 0.948257 0.9458
0.958175 0.969497 0.959121
0.958648 0.969818 0.937407
0.0382391 0.0729381 0.178668
0.0381628 0.0729686 0.190646
0.0381323 0.0729686 0.21529
0.104173 0.0781567 0.351446
0.340002 0.0630045 0.626322
0.65008 0.0340887 0.801389
0.84773 0.0199435 0.861006
0.965591 0.0147707 0.885542
0.965728 0.0147707 0.886458
0.0573739 0.121859 0.240406
0.0571298 0.123018 0.255192
0.0576791 0.125261 0.28571
0.137163 0.132876 0.448966
0.381857 0.089601 0.698299
0.683055 0.0372625 0.832212
0.869795 0.0187076 0.880812
0.96701 0.0146792 0.900191
0.967056 0.0146792 0.900771
0.0731212 0.170489 0.29395
0.0735485 0.174182 0.3066
0.0835584 0.181628 0.343587
0.176898 0.240772 0.510765
0.401266 0.202075 0.761791
0.732738 0.10486 0.905165
0.908385 0.0698405 0.927169
0.994125 0.0633097 0.933089
0.998672 0.0824598 0.933669
0.128847 0.264729 0.42681
0.141939 0.280552 0.429786
0.176623 0.317235 0.461006
0.244968 0.369772 0.515007
0.403143 0.390723 0.708812
0.726009 0.32639 0.916243
0.912978 0.299016 0.940291
1 0.298451 0.940993
1 0.309606 0.939544
0.238605 0.400519 0.580819
0.264164 0.409445 0.587701
0.307515 0.437873 0.609461
0.358816 0.475898 0.636408
0.484245 0.552193 0.676966
0.685039 0.540276 0.872374
0.903807 0.504829 0.938079
1 0.506325 0.93463
1 0.51371 0.930541
0.307057 0.509987 0.64596
0.339254 0.524117 0.658183
0.387625 0.555154 0.682719
0.442863 0.596902 0.711345
0.612848 0.665995 0.762753
0.707103 0.716976 0.794888
0.861357 0.702663 0.899367
0.952117 0.705669 0.899565
0.968505 0.709316 0.896086
0.352697 0.590112 0.688701
0.38793 0.607599 0.702831
0.438315 0.64033 0.727062
0.499702 0.684367 0.754314
0.675929 0.754116 0.799664
0.794781 0.805814 0.84181
0.853239 0.832868 0.869505
0.932708 0.836408 0.89514
0.958694 0.839658 0.895674
0.38938 0.652873 0.722789
0.430076 0.674617 0.73901
0.485237 0.705592 0.760418
0.550423 0.747784 0.787457
0.730022 0.816037 0.833188
0.844831 0.86981 0.87631
0.899504 0.900298 0.903761
0.938476 0.9178 0.916045
0.972641 0.922545 0.920241
0.437293 0.716915 0.759548
0.484993 0.741756 0.777523
0.542092 0.77055 0.797452
0.609888 0.805417 0.820615
0.791241 0.872114 0.873411
0.893675 0.922652 0.920592
0.945388 0.95317 0.953277
0.972412 0.974197 0.97203
0.981445 0.98233 0.962829
0.041413 0.0808881 0.21265
0.0413672 0.0809491 0.225818
0.0414435 0.081239 0.252293
0.101259 0.0858167 0.388479
0.321569 0.0676738 0.660807
0.65211 0.0347906 0.847364
0.862593 0.0190585 0.905776
0.969543 0.0145418 0.927413
0.969543 0.0145418 0.927413
0.0587778 0.12987 0.276936
0.0584878 0.130953 0.293233
0.0580758 0.132876 0.323949
0.139864 0.17293 0.508263
0.357855 0.129625 0.749615
0.671702 0.0409552 0.862959
0.871885 0.018555 0.907866
0.969543 0.0145418 0.927413
0.969543 0.0145418 0.927413
0.0735485 0.178805 0.329442
0.0737316 0.182223 0.344167
0.100175 0.228382 0.407843
0.182895 0.285969 0.54081
0.367834 0.276448 0.768902
0.707668 0.198016 0.944579
0.906233 0.158953 0.960037
1 0.155001 0.962783
1 0.170153 0.963546
0.141527 0.294881 0.487999
0.155489 0.311177 0.489296
0.187991 0.343877 0.51165
0.24712 0.390677 0.551583
0.396124 0.425467 0.725612
0.683116 0.373251 0.935973
0.902525 0.334051 0.96611
1 0.330053 0.968841
1 0.339925 0.969253
0.244404 0.409995 0.618112
0.270344 0.421836 0.625315
0.312917 0.45127 0.645411
0.363485 0.489342 0.670924
0.484169 0.567315 0.707729
0.647334 0.57116 0.875166
0.882002 0.524742 0.964004
0.997314 0.519997 0.963104
1 0.526299 0.961913
0.312215 0.513451 0.678859
0.345602 0.529534 0.692271
0.393729 0.560174 0.716243
0.449454 0.601984 0.744671
0.612299 0.672282 0.788678
0.702556 0.725139 0.818692
0.827695 0.719509 0.924514
0.946777 0.709789 0.934707
0.967727 0.712917 0.933913
0.358297 0.591287 0.718685
0.395041 0.610666 0.734585
0.445823 0.64332 0.758144
0.50753 0.686809 0.7832
0.681239 0.756069 0.826322
0.797009 0.809033 0.863401
0.846143 0.840055 0.884611
0.92726 0.839963 0.932784
0.95964 0.841856 0.934829
0.396201 0.65655 0.751797
0.437278 0.677882 0.766567
0.493202 0.709392 0.787091
0.55761 0.750622 0.81088
0.73489 0.818555 0.852338
0.848859 0.872755 0.893416
0.904646 0.90338 0.922011
0.939132 0.921965 0.940887
0.975158 0.925902 0.955352
0.444648 0.720684 0.784405
0.492332 0.745449 0.800855
0.550301 0.774517 0.819486
0.617151 0.808438 0.839445
0.794842 0.874891 0.886702
0.897017 0.926375 0.9299
0.94876 0.957855 0.958419
0.979416 0.978042 0.977279
1 0.990387 0.986679
