luts/CINEMA NOIR.cube
LUT_3D_SIZE 6
0.031568 0.031872 0.031374
0.164017 0.164315 0.163849
0.392802 0.393109 0.392686
0.600655 0.600961 0.600553
0.722598 0.722919 0.722527
0.805265 0.805618 0.805232
0.059113 0.059403 0.058921
0.151307 0.151603 0.151134
0.330354 0.330644 0.330212
0.550810 0.551120 0.550713
0.708580 0.708897 0.708502
0.792275 0.792625 0.792244
0.091487 0.091775 0.091298
0.160763 0.161058 0.160590
0.309378 0.309671 0.309233
0.521089 0.521412 0.521000
0.707496 0.707815 0.707420
0.800579 0.800930 0.800547
0.139046 0.139335 0.138865
0.219673 0.219969 0.219516
0.292490 0.292781 0.292347
0.498338 0.498660 0.498247
0.706792 0.707109 0.706715
0.811094 0.811449 0.811061
0.195079 0.195381 0.194916
0.215181 0.215479 0.215024
0.328263 0.328555 0.328119
0.509522 0.509847 0.509435
0.701182 0.701499 0.701103
0.822206 0.822561 0.822172
0.247882 0.248178 0.247739
0.259756 0.260048 0.259615
0.309999 0.310289 0.309855
0.458442 0.458762 0.458349
0.657633 0.657943 0.657540
0.829875 0.830232 0.829840
0.069049 0.069336 0.068860
0.194975 0.195274 0.194815
0.373810 0.374111 0.373681
0.579084 0.579392 0.578984
0.722208 0.722528 0.722139
0.799975 0.800326 0.799944
0.090318 0.090606 0.090129
0.159801 0.160100 0.159631
0.321997 0.322287 0.321855
0.530792 0.531108 0.530696
0.703017 0.703333 0.702938
0.789466 0.789812 0.789433
0.110907 0.111190 0.110719
0.175394 0.175694 0.175228
0.307332 0.307622 0.307186
0.509720 0.510041 0.509631
0.702131 0.702448 0.702051
0.794827 0.795175 0.794796
0.139900 0.140189 0.139720
0.194456 0.194756 0.194294
0.298749 0.299042 0.298604
0.494744 0.495072 0.494658
0.700027 0.700343 0.699947
0.803478 0.803830 0.803445
0.196643 0.196945 0.196481
0.224513 0.224811 0.224360
0.330140 0.330431 0.329998
0.513068 0.513386 0.512977
0.694452 0.694768 0.694370
0.819409 0.819763 0.819374
0.254480 0.254773 0.254339
0.263508 0.263798 0.263368
0.301875 0.302163 0.301729
0.454223 0.454542 0.454130
0.657525 0.657835 0.657432
0.843163 0.843524 0.843128
0.114953 0.115236 0.114765
0.214808 0.215105 0.214653
0.387922 0.388223 0.387798
0.567638 0.567945 0.567538
0.718964 0.719282 0.718891
0.799729 0.800079 0.799698
0.128015 0.128299 0.127829
0.191262 0.191562 0.191102
0.330983 0.331275 0.330842
0.524740 0.525062 0.524650
0.702651 0.702969 0.702572
0.789307 0.789653 0.789275
0.146725 0.147018 0.146548
0.202412 0.202711 0.202252
0.320985 0.321274 0.320841
0.508528 0.508845 0.508437
0.699239 0.699555 0.699157
0.798251 0.798601 0.798219
0.171416 0.171718 0.171250
0.211198 0.211496 0.211040
0.323118 0.323409 0.322973
0.497676 0.498001 0.497590
0.697949 0.698265 0.697868
0.804584 0.804937 0.804552
0.213622 0.213919 0.213467
0.231679 0.231974 0.231529
0.327153 0.327444 0.327010
0.511994 0.512311 0.511902
0.696989 0.697305 0.696909
0.817379 0.817734 0.817344
0.262690 0.262981 0.262551
0.268149 0.268436 0.268007
0.310765 0.311053 0.310621
0.421278 0.421588 0.421171
0.651330 0.651639 0.651236
0.850997 0.851360 0.850964
0.164332 0.164633 0.164164
0.232368 0.232662 0.232217
0.389712 0.390012 0.389592
0.556650 0.556960 0.556551
0.709184 0.709501 0.709107
0.795212 0.795562 0.795182
0.171192 0.171494 0.171025
0.225078 0.225374 0.224926
0.337056 0.337350 0.336915
0.524500 0.524823 0.524412
0.697751 0.698068 0.697671
0.789521 0.789867 0.789489
0.183039 0.183340 0.182872
0.235670 0.235966 0.235520
0.342482 0.342775 0.342345
0.512768 0.513086 0.512675
0.696756 0.697073 0.696675
0.798203 0.798552 0.798170
0.206665 0.206965 0.206509
0.243896 0.244190 0.243750
0.345895 0.346189 0.345757
0.502406 0.502726 0.502317
0.698626 0.698942 0.698545
0.807146 0.807499 0.807114
0.241781 0.242079 0.241635
0.250259 0.250553 0.250114
0.348651 0.348946 0.348515
0.499662 0.499981 0.499571
0.698952 0.699268 0.698872
0.825413 0.825771 0.825379
0.281233 0.281517 0.281089
0.285253 0.285536 0.285107
0.330801 0.331093 0.330659
0.462601 0.462918 0.462505
0.648600 0.648909 0.648505
0.864347 0.864711 0.864314
0.216341 0.216637 0.216187
0.261251 0.261539 0.261104
0.384327 0.384627 0.384205
0.557635 0.557947 0.557537
0.702679 0.702996 0.702601
0.788274 0.788622 0.788243
0.226923 0.227217 0.226770
0.275919 0.276206 0.275773
0.384200 0.384500 0.384075
0.555266 0.555576 0.555167
0.695872 0.696188 0.695790
0.784266 0.784609 0.784233
0.233631 0.233927 0.233480
0.282067 0.282357 0.281921
0.379902 0.380204 0.379777
0.545905 0.546221 0.545812
0.696697 0.697013 0.696616
0.796763 0.797113 0.796731
0.254218 0.254513 0.254078
0.280650 0.280941 0.280507
0.376100 0.376401 0.375973
0.522399 0.522718 0.522306
0.700282 0.700599 0.700201
0.811587 0.811940 0.811554
0.277487 0.277771 0.277343
0.289803 0.290087 0.289657
0.370180 0.370480 0.370051
0.514698 0.515021 0.514608
0.705712 0.706031 0.705634
0.845559 0.845921 0.845524
0.307225 0.307510 0.307079
0.309267 0.309553 0.309120
0.335103 0.335397 0.334959
0.468181 0.468504 0.468093
0.671293 0.671606 0.671205
0.906143 0.906502 0.906093
0.237677 0.237974 0.237527
0.276312 0.276600 0.276170
0.372130 0.372431 0.372004
0.537652 0.537971 0.537559
0.677865 0.678179 0.677778
0.786629 0.786976 0.786597
0.250229 0.250526 0.250089
0.307039 0.307329 0.306895
0.438033 0.438348 0.437936
0.595872 0.596173 0.595768
0.679275 0.679588 0.679187
0.791515 0.791863 0.791484
0.259451 0.259744 0.259314
0.303338 0.303624 0.303193
0.407563 0.407867 0.407450
0.567465 0.567773 0.567366
0.677349 0.677663 0.677262
0.805869 0.806221 0.805837
0.277115 0.277399 0.276972
0.307190 0.307477 0.307044
0.397204 0.397509 0.397087
0.530528 0.530849 0.530438
0.678266 0.678580 0.678179
0.821015 0.821370 0.820980
0.301071 0.301354 0.300926
0.305578 0.305863 0.305433
0.375576 0.375878 0.375448
0.514712 0.515038 0.514625
0.705441 0.705759 0.705366
0.864052 0.864416 0.864019
0.337062 0.337357 0.336910
0.340114 0.340408 0.339961
0.344202 0.344496 0.344052
0.436504 0.436815 0.436402
0.663407 0.663718 0.663316
0.950786 0.951141 0.950739
