luts/CINEMA NOIR.cube
LUT_3D_SIZE 16
0.031568 0.031872 0.031374
0.038947 0.039247 0.038821
0.087259 0.087545 0.087071
0.164017 0.164315 0.163849
0.244513 0.244805 0.244362
0.320190 0.320480 0.320048
0.392802 0.393109 0.392686
0.464718 0.465039 0.464627
0.535879 0.536192 0.535784
0.600655 0.600961 0.600553
0.652338 0.652646 0.652242
0.690441 0.690755 0.690356
0.722598 0.722919 0.722527
0.757471 0.757796 0.757428
0.787726 0.788074 0.787694
0.805265 0.805618 0.805232
0.035980 0.036282 0.035787
0.044837 0.045133 0.044644
0.091754 0.092042 0.091565
0.156649 0.156942 0.156474
0.225970 0.226268 0.225817
0.295158 0.295446 0.295014
0.364581 0.364880 0.364449
0.436597 0.436910 0.436497
0.512093 0.512411 0.511999
0.581117 0.581425 0.581018
0.638694 0.638999 0.638595
0.684528 0.684843 0.684443
0.719655 0.719975 0.719584
0.752494 0.752818 0.752443
0.781462 0.781804 0.781429
0.798737 0.799088 0.798706
0.047437 0.047732 0.047244
0.052716 0.053010 0.052523
0.093317 0.093604 0.093130
0.153044 0.153335 0.152867
0.215649 0.215946 0.215492
0.277595 0.277888 0.277452
0.343263 0.343559 0.343121
0.413548 0.413853 0.413436
0.490985 0.491309 0.490895
0.564254 0.564562 0.564155
0.624892 0.625196 0.624789
0.674715 0.675028 0.674627
0.713592 0.713910 0.713517
0.746939 0.747263 0.746885
0.776231 0.776568 0.776196
0.794298 0.794648 0.794267
0.059113 0.059403 0.058921
0.064525 0.064813 0.064335
0.101056 0.101341 0.100868
0.151307 0.151603 0.151134
0.207307 0.207604 0.207149
0.267368 0.267659 0.267219
0.330354 0.330644 0.330212
0.397896 0.398199 0.397781
0.474516 0.474842 0.474428
0.550810 0.551120 0.550713
0.614919 0.615223 0.614815
0.668158 0.668470 0.668067
0.708580 0.708897 0.708502
0.741683 0.742006 0.741626
0.773137 0.773473 0.773101
0.792275 0.792625 0.792244
0.069778 0.070065 0.069590
0.077773 0.078060 0.077584
0.109516 0.109805 0.109331
0.155486 0.155780 0.155312
0.205086 0.205383 0.204928
0.260435 0.260726 0.260285
0.322361 0.322651 0.322220
0.388038 0.388342 0.387917
0.461895 0.462216 0.461805
0.539103 0.539415 0.539007
0.607300 0.607605 0.607197
0.663694 0.664004 0.663601
0.706136 0.706452 0.706057
0.739717 0.740039 0.739659
0.772459 0.772796 0.772423
0.793196 0.793545 0.793163
0.080669 0.080957 0.080480
0.089096 0.089384 0.088907
0.119007 0.119295 0.118822
0.159390 0.159682 0.159216
0.203150 0.203449 0.202989
0.256380 0.256673 0.256234
0.314686 0.314978 0.314544
0.380154 0.380455 0.380027
0.451843 0.452159 0.451747
0.529798 0.530117 0.529704
0.602240 0.602542 0.602137
0.661815 0.662124 0.661720
0.706319 0.706636 0.706242
0.741024 0.741346 0.740967
0.774561 0.774900 0.774526
0.795652 0.796001 0.795620
0.091487 0.091775 0.091298
0.108128 0.108414 0.107941
0.130817 0.131104 0.130634
0.160763 0.161058 0.160590
0.201720 0.202019 0.201560
0.249259 0.249553 0.249112
0.309378 0.309671 0.309233
0.371274 0.371572 0.371144
0.442614 0.442925 0.442512
0.521089 0.521412 0.521000
0.597378 0.597678 0.597273
0.660287 0.660597 0.660193
0.707496 0.707815 0.707420
0.743830 0.744150 0.743773
0.778526 0.778866 0.778491
0.800579 0.800930 0.800547
0.107040 0.107325 0.106852
0.124425 0.124713 0.124242
0.156564 0.156861 0.156392
0.177089 0.177389 0.176923
0.202086 0.202384 0.201927
0.245557 0.245850 0.245407
0.300837 0.301124 0.300690
0.365335 0.365633 0.365208
0.433134 0.433447 0.433031
0.511403 0.511724 0.511314
0.590690 0.590995 0.590588
0.657402 0.657712 0.657307
0.707456 0.707775 0.707379
0.745890 0.746212 0.745835
0.781539 0.781881 0.781506
0.804828 0.805180 0.804796
0.124200 0.124484 0.124014
0.153453 0.153747 0.153278
0.185012 0.185307 0.184847
0.206324 0.206620 0.206166
0.216484 0.216781 0.216330
0.243804 0.244097 0.243653
0.295963 0.296251 0.295818
0.356126 0.356424 0.355992
0.425243 0.425555 0.425138
0.502365 0.502682 0.502271
0.583738 0.584046 0.583638
0.654081 0.654389 0.653986
0.706630 0.706947 0.706552
0.747282 0.747605 0.747229
0.783755 0.784098 0.783722
0.808343 0.808696 0.808309
0.139046 0.139335 0.138865
0.179442 0.179738 0.179274
0.202505 0.202804 0.202344
0.219673 0.219969 0.219516
0.229428 0.229723 0.229274
0.248007 0.248299 0.247858
0.292490 0.292781 0.292347
0.350637 0.350934 0.350499
0.416981 0.417287 0.416873
0.498338 0.498660 0.498247
0.579892 0.580198 0.579791
0.652052 0.652359 0.651956
0.706792 0.707109 0.706715
0.748630 0.748954 0.748580
0.785785 0.786132 0.785754
0.811094 0.811449 0.811061
0.169685 0.169983 0.169516
0.200494 0.200793 0.200334
0.217030 0.217328 0.216875
0.222800 0.223096 0.222646
0.234017 0.234313 0.233867
0.256580 0.256874 0.256433
0.299673 0.299965 0.299527
0.350906 0.351201 0.350771
0.416669 0.416978 0.416560
0.496915 0.497239 0.496828
0.577021 0.577325 0.576919
0.649716 0.650023 0.649617
0.706447 0.706764 0.706370
0.749596 0.749917 0.749546
0.787528 0.787874 0.787495
0.813889 0.814244 0.813857
0.176332 0.176634 0.176166
0.199665 0.199964 0.199506
0.209091 0.209389 0.208935
0.214637 0.214935 0.214483
0.232034 0.232330 0.231883
0.268279 0.268569 0.268133
0.313295 0.313584 0.313152
0.362944 0.363242 0.362811
0.424569 0.424881 0.424464
0.502209 0.502527 0.502116
0.579817 0.580126 0.579717
0.645317 0.645624 0.645220
0.704207 0.704524 0.704127
0.750115 0.750437 0.750063
0.790983 0.791329 0.790950
0.817394 0.817749 0.817361
0.195079 0.195381 0.194916
0.201936 0.202237 0.201776
0.205830 0.206131 0.205671
0.215181 0.215479 0.215024
0.239454 0.239748 0.239304
0.278580 0.278872 0.278436
0.328263 0.328555 0.328119
0.380795 0.381095 0.380672
0.441993 0.442306 0.441893
0.509522 0.509847 0.509435
0.583201 0.583506 0.583100
0.648568 0.648875 0.648471
0.701182 0.701499 0.701103
0.749105 0.749429 0.749053
0.794323 0.794670 0.794292
0.822206 0.822561 0.822172
0.213364 0.213662 0.213210
0.214283 0.214579 0.214128
0.223289 0.223586 0.223137
0.233522 0.233817 0.233372
0.247810 0.248104 0.247662
0.286989 0.287278 0.286841
0.335320 0.335612 0.335182
0.386866 0.387168 0.386743
0.448313 0.448629 0.448217
0.515317 0.515633 0.515223
0.584318 0.584626 0.584218
0.650172 0.650480 0.650077
0.703042 0.703358 0.702963
0.751050 0.751375 0.751001
0.798989 0.799339 0.798957
0.826910 0.827267 0.826875
0.234865 0.235161 0.234716
0.237606 0.237902 0.237459
0.239674 0.239971 0.239527
0.242728 0.243026 0.242582
0.258369 0.258662 0.258224
0.281149 0.281436 0.281006
0.320443 0.320736 0.320301
0.366445 0.366744 0.366313
0.425609 0.425916 0.425504
0.496895 0.497219 0.496807
0.569196 0.569506 0.569099
0.636942 0.637250 0.636846
0.691120 0.691436 0.691037
0.742154 0.742476 0.742099
0.803411 0.803762 0.803378
0.831315 0.831674 0.831280
0.247882 0.248178 0.247739
0.251437 0.251732 0.251295
0.255357 0.255650 0.255215
0.259756 0.260048 0.259615
0.265326 0.265616 0.265185
0.277718 0.278008 0.277577
0.309999 0.310289 0.309855
0.343840 0.344135 0.343700
0.393833 0.394136 0.393715
0.458442 0.458762 0.458349
0.528498 0.528813 0.528405
0.597496 0.597803 0.597396
0.657633 0.657943 0.657540
0.710793 0.711111 0.710719
0.764668 0.765002 0.764627
0.829875 0.830232 0.829840
0.037941 0.038241 0.037747
0.048431 0.048726 0.048239
0.099034 0.099319 0.098845
0.165539 0.165836 0.165370
0.236419 0.236713 0.236267
0.308338 0.308627 0.308194
0.379120 0.379422 0.378995
0.451049 0.451367 0.450954
0.524186 0.524501 0.524091
0.591173 0.591479 0.591071
0.646348 0.646654 0.646250
0.688954 0.689269 0.688870
0.723048 0.723369 0.722978
0.757472 0.757797 0.757427
0.785667 0.786014 0.785635
0.801967 0.802319 0.801935
0.044149 0.044446 0.043956
0.050111 0.050405 0.049918
0.094251 0.094538 0.094061
0.155826 0.156118 0.155650
0.219757 0.220054 0.219601
0.285131 0.285421 0.284988
0.352021 0.352318 0.351882
0.420769 0.421077 0.420660
0.495434 0.495756 0.495343
0.567484 0.567793 0.567386
0.628413 0.628717 0.628312
0.676389 0.676703 0.676301
0.713498 0.713816 0.713423
0.746975 0.747297 0.746920
0.777676 0.778014 0.777640
0.795717 0.796067 0.795686
0.053409 0.053702 0.053216
0.057969 0.058261 0.057777
0.092101 0.092387 0.091913
0.149593 0.149885 0.149416
0.210492 0.210791 0.210336
0.271506 0.271801 0.271362
0.336120 0.336414 0.335978
0.404469 0.404772 0.404355
0.480225 0.480549 0.480136
0.555336 0.555646 0.555239
0.619169 0.619473 0.619065
0.670075 0.670387 0.669984
0.709369 0.709686 0.709292
0.742201 0.742523 0.742143
0.772798 0.773133 0.772761
0.791706 0.792055 0.791675
0.063473 0.063761 0.063284
0.066989 0.067276 0.066799
0.098829 0.099114 0.098639
0.146027 0.146321 0.145851
0.201634 0.201930 0.201475
0.261796 0.262087 0.261647
0.324708 0.324997 0.324566
0.391581 0.391885 0.391464
0.466694 0.467017 0.466605
0.543952 0.544264 0.543856
0.610972 0.611277 0.610869
0.664492 0.664803 0.664401
0.705495 0.705811 0.705416
0.738271 0.738593 0.738211
0.769699 0.770033 0.769660
0.789434 0.789782 0.789402
0.072742 0.073029 0.072554
0.080153 0.080440 0.079965
0.106821 0.107108 0.106634
0.149930 0.150221 0.149752
0.198151 0.198449 0.197990
0.254174 0.254466 0.254024
0.316479 0.316769 0.316337
0.382551 0.382853 0.382425
0.455677 0.455996 0.455586
0.533987 0.534303 0.533891
0.604807 0.605111 0.604705
0.660781 0.661090 0.660687
0.703460 0.703776 0.703380
0.736796 0.737117 0.736736
0.768757 0.769091 0.768718
0.790091 0.790438 0.790058
0.083017 0.083305 0.082828
0.090862 0.091149 0.090673
0.116369 0.116655 0.116183
0.154444 0.154736 0.154268
0.197367 0.197666 0.197205
0.250663 0.250956 0.250516
0.309586 0.309879 0.309443
0.375369 0.375670 0.375239
0.447454 0.447767 0.447356
0.525981 0.526303 0.525890
0.600577 0.600879 0.600474
0.659242 0.659551 0.659148
0.703818 0.704135 0.703740
0.738420 0.738742 0.738362
0.770828 0.771164 0.770791
0.792447 0.792795 0.792414
0.093178 0.093465 0.092988
0.107158 0.107443 0.106970
0.125467 0.125755 0.125284
0.157068 0.157364 0.156896
0.198383 0.198682 0.198223
0.245655 0.245949 0.245507
0.305684 0.305975 0.305537
0.367508 0.367806 0.367379
0.438925 0.439237 0.438823
0.517274 0.517597 0.517186
0.594850 0.595151 0.594746
0.657507 0.657816 0.657412
0.704989 0.705307 0.704911
0.741341 0.741661 0.741284
0.774736 0.775075 0.774702
0.796959 0.797308 0.796928
0.105618 0.105902 0.105429
0.119452 0.119740 0.119267
0.142698 0.142992 0.142522
0.165879 0.166178 0.165710
0.198999 0.199297 0.198840
0.243554 0.243847 0.243403
0.298770 0.299056 0.298622
0.362970 0.363268 0.362841
0.430357 0.430670 0.430254
0.507686 0.508004 0.507595
0.587657 0.587963 0.587555
0.654213 0.654522 0.654118
0.704915 0.705233 0.704836
0.743258 0.743579 0.743201
0.777055 0.777393 0.777020
0.800488 0.800840 0.800457
0.121385 0.121669 0.121199
0.139901 0.140191 0.139721
0.157050 0.157343 0.156876
0.181770 0.182066 0.181604
0.206393 0.206692 0.206236
0.242804 0.243097 0.242652
0.295728 0.296017 0.295584
0.355684 0.355981 0.355547
0.423993 0.424304 0.423888
0.500031 0.500347 0.499937
0.581109 0.581418 0.581010
0.651093 0.651401 0.650998
0.704095 0.704412 0.704016
0.744454 0.744776 0.744398
0.778840 0.779179 0.778805
0.803488 0.803840 0.803455
0.135851 0.136139 0.135670
0.159760 0.160052 0.159585
0.173811 0.174107 0.173641
0.191068 0.191367 0.190903
0.215100 0.215397 0.214942
0.245612 0.245905 0.245463
0.292745 0.293038 0.292601
0.351240 0.351537 0.351102
0.416773 0.417079 0.416665
0.496670 0.496994 0.496581
0.577943 0.578248 0.577842
0.649136 0.649444 0.649039
0.703691 0.704008 0.703613
0.745546 0.745869 0.745493
0.781238 0.781582 0.781206
0.806618 0.806971 0.806585
0.165301 0.165601 0.165133
0.183788 0.184088 0.183624
0.192171 0.192471 0.192009
0.201684 0.201983 0.201525
0.221831 0.222128 0.221677
0.255018 0.255311 0.254870
0.300089 0.300379 0.299942
0.351620 0.351915 0.351486
0.416753 0.417063 0.416644
0.495264 0.495586 0.495175
0.574551 0.574857 0.574450
0.646529 0.646836 0.646430
0.702845 0.703162 0.702767
0.746877 0.747198 0.746824
0.784276 0.784621 0.784243
0.810564 0.810918 0.810532
0.183518 0.183819 0.183353
0.210072 0.210371 0.209916
0.216019 0.216318 0.215865
0.220701 0.220999 0.220548
0.233860 0.234156 0.233709
0.268522 0.268811 0.268375
0.315024 0.315315 0.314882
0.363754 0.364052 0.363619
0.423895 0.424205 0.423788
0.501006 0.501323 0.500912
0.578469 0.578778 0.578370
0.641929 0.642236 0.641832
0.699576 0.699893 0.699496
0.747283 0.747604 0.747230
0.789090 0.789434 0.789057
0.815416 0.815770 0.815383
0.197090 0.197392 0.196927
0.205574 0.205873 0.205414
0.219510 0.219808 0.219355
0.228733 0.229029 0.228580
0.242359 0.242654 0.242211
0.279091 0.279384 0.278947
0.329190 0.329482 0.329046
0.380645 0.380945 0.380522
0.441687 0.442001 0.441586
0.509978 0.510301 0.509890
0.583510 0.583815 0.583409
0.645800 0.646108 0.645703
0.696611 0.696927 0.696530
0.746063 0.746386 0.746009
0.793434 0.793781 0.793402
0.821641 0.821996 0.821606
0.215637 0.215933 0.215483
0.220258 0.220554 0.220105
0.227452 0.227748 0.227301
0.233911 0.234206 0.233762
0.246819 0.247112 0.246670
0.285429 0.285716 0.285281
0.333187 0.333480 0.333048
0.385888 0.386190 0.385763
0.448322 0.448637 0.448225
0.515551 0.515868 0.515457
0.582101 0.582410 0.582002
0.646703 0.647011 0.646607
0.700378 0.700694 0.700298
0.749682 0.750006 0.749633
0.798749 0.799099 0.798717
0.826937 0.827294 0.826901
0.237287 0.237584 0.237139
0.239803 0.240100 0.239656
0.240934 0.241232 0.240788
0.245077 0.245374 0.244932
0.259331 0.259624 0.259188
0.280062 0.280351 0.279920
0.318141 0.318434 0.317998
0.361603 0.361901 0.361469
0.421773 0.422080 0.421666
0.493186 0.493510 0.493098
0.564425 0.564736 0.564328
0.632958 0.633265 0.632860
0.690956 0.691272 0.690873
0.743432 0.743755 0.743377
0.804484 0.804836 0.804451
0.834024 0.834383 0.833989
0.250147 0.250442 0.250004
0.253575 0.253870 0.253434
0.256618 0.256911 0.256477
0.259823 0.260115 0.259683
0.264657 0.264947 0.264517
0.277215 0.277503 0.277073
0.307146 0.307435 0.307001
0.340527 0.340820 0.340387
0.392932 0.393235 0.392814
0.458255 0.458576 0.458164
0.528699 0.529014 0.528604
0.598066 0.598373 0.597966
0.658661 0.658971 0.658568
0.712667 0.712985 0.712594
0.768272 0.768606 0.768233
0.837005 0.837364 0.836970
0.053327 0.053619 0.053133
0.061863 0.062153 0.061672
0.114208 0.114493 0.114022
0.178659 0.178957 0.178494
0.242438 0.242732 0.242288
0.306710 0.306997 0.306565
0.374261 0.374561 0.374133
0.444036 0.444351 0.443939
0.516741 0.517057 0.516646
0.584616 0.584925 0.584516
0.641741 0.642047 0.641642
0.686430 0.686745 0.686346
0.723451 0.723772 0.723382
0.758686 0.759014 0.758641
0.786489 0.786835 0.786456
0.801862 0.802214 0.801830
0.059866 0.060156 0.059675
0.062360 0.062649 0.062169
0.106619 0.106906 0.106432
0.165026 0.165321 0.164854
0.223990 0.224286 0.223836
0.283471 0.283763 0.283329
0.347299 0.347596 0.347158
0.414923 0.415228 0.414811
0.488865 0.489188 0.488774
0.561204 0.561512 0.561106
0.624128 0.624430 0.624024
0.673917 0.674229 0.673828
0.712707 0.713025 0.712632
0.746577 0.746901 0.746523
0.777257 0.777595 0.777222
0.795539 0.795889 0.795508
0.068887 0.069175 0.068699
0.072214 0.072501 0.072025
0.101166 0.101453 0.100979
0.155303 0.155596 0.155127
0.212496 0.212794 0.212340
0.270142 0.270434 0.269996
0.330444 0.330735 0.330301
0.395441 0.395744 0.395325
0.469049 0.469373 0.468961
0.544242 0.544554 0.544147
0.612190 0.612495 0.612087
0.665999 0.666310 0.665908
0.706218 0.706534 0.706138
0.740278 0.740600 0.740220
0.771584 0.771919 0.771547
0.790567 0.790916 0.790535
0.076582 0.076869 0.076393
0.079412 0.079699 0.079224
0.108647 0.108933 0.108460
0.150640 0.150935 0.150466
0.203302 0.203599 0.203143
0.260857 0.261148 0.260708
0.320795 0.321084 0.320653
0.385194 0.385498 0.385073
0.458503 0.458823 0.458412
0.535642 0.535956 0.535546
0.605978 0.606283 0.605876
0.662067 0.662376 0.661973
0.704045 0.704361 0.703966
0.738288 0.738610 0.738229
0.769749 0.770084 0.769711
0.789270 0.789618 0.789238
0.083574 0.083862 0.083384
0.087988 0.088275 0.087798
0.118315 0.118604 0.118131
0.155026 0.155319 0.154851
0.199341 0.199639 0.199180
0.253250 0.253541 0.253100
0.312905 0.313195 0.312763
0.377094 0.377394 0.376964
0.448703 0.449018 0.448609
0.527231 0.527550 0.527138
0.600761 0.601064 0.600658
0.658941 0.659249 0.658846
0.702650 0.702968 0.702571
0.737392 0.737713 0.737333
0.769331 0.769666 0.769292
0.789915 0.790262 0.789882
0.091313 0.091601 0.091123
0.099749 0.100035 0.099560
0.125241 0.125528 0.125057
0.159499 0.159792 0.159324
0.199317 0.199616 0.199155
0.249710 0.250004 0.249562
0.306670 0.306963 0.306525
0.370558 0.370856 0.370426
0.441548 0.441859 0.441447
0.519512 0.519837 0.519423
0.595924 0.596224 0.595819
0.656980 0.657289 0.656885
0.702882 0.703201 0.702804
0.738522 0.738842 0.738462
0.770916 0.771252 0.770878
0.791488 0.791836 0.791457
0.100022 0.100307 0.099833
0.110833 0.111118 0.110646
0.134530 0.134820 0.134350
0.161824 0.162122 0.161653
0.200276 0.200573 0.200116
0.245683 0.245977 0.245535
0.304492 0.304782 0.304345
0.365647 0.365944 0.365518
0.436181 0.436493 0.436078
0.512884 0.513207 0.512795
0.590352 0.590655 0.590250
0.654641 0.654950 0.654545
0.703569 0.703887 0.703490
0.740642 0.740961 0.740583
0.773739 0.774076 0.773704
0.794670 0.795019 0.794639
0.109138 0.109421 0.108950
0.124162 0.124450 0.123978
0.149226 0.149521 0.149051
0.168344 0.168641 0.168175
0.200285 0.200582 0.200126
0.243900 0.244194 0.243750
0.298753 0.299039 0.298606
0.362108 0.362406 0.361978
0.429116 0.429428 0.429012
0.504682 0.505000 0.504590
0.583370 0.583677 0.583269
0.651175 0.651484 0.651080
0.703428 0.703745 0.703348
0.742594 0.742915 0.742536
0.775908 0.776246 0.775873
0.797969 0.798320 0.797938
0.124909 0.125194 0.124724
0.138477 0.138766 0.138296
0.161974 0.162266 0.161800
0.181604 0.181900 0.181438
0.204668 0.204967 0.204509
0.242865 0.243159 0.242714
0.295954 0.296244 0.295811
0.355343 0.355641 0.355206
0.422402 0.422712 0.422296
0.497388 0.497706 0.497295
0.577320 0.577628 0.577221
0.648208 0.648516 0.648112
0.702293 0.702610 0.702213
0.743341 0.743663 0.743285
0.777600 0.777940 0.777566
0.801015 0.801366 0.800983
0.135950 0.136236 0.135767
0.155108 0.155400 0.154932
0.172326 0.172622 0.172155
0.186012 0.186312 0.185846
0.209910 0.210208 0.209751
0.243699 0.243993 0.243551
0.293439 0.293733 0.293295
0.352159 0.352455 0.352022
0.417354 0.417659 0.417245
0.495087 0.495413 0.495000
0.575239 0.575543 0.575138
0.646868 0.647175 0.646770
0.701642 0.701959 0.701563
0.743798 0.744119 0.743743
0.779501 0.779844 0.779468
0.804128 0.804481 0.804095
0.160876 0.161175 0.160706
0.173938 0.174239 0.173772
0.184619 0.184919 0.184456
0.195482 0.195781 0.195322
0.216887 0.217184 0.216733
0.253354 0.253647 0.253205
0.300781 0.301069 0.300633
0.353829 0.354125 0.353697
0.418919 0.419229 0.418810
0.495249 0.495570 0.495161
0.572244 0.572550 0.572144
0.644521 0.644828 0.644423
0.700758 0.701075 0.700679
0.744817 0.745138 0.744763
0.782427 0.782770 0.782394
0.808417 0.808770 0.808384
0.179441 0.179742 0.179275
0.202792 0.203091 0.202633
0.209364 0.209663 0.209207
0.214448 0.214747 0.214292
0.229176 0.229472 0.229023
0.267051 0.267340 0.266905
0.315887 0.316178 0.315745
0.365777 0.366076 0.365643
0.426255 0.426565 0.426149
0.502158 0.502477 0.502065
0.577549 0.577859 0.577451
0.640215 0.640521 0.640118
0.697342 0.697658 0.697260
0.745101 0.745420 0.745045
0.787394 0.787738 0.787361
0.813617 0.813970 0.813584
0.197009 0.197311 0.196848
0.202124 0.202424 0.201964
0.218232 0.218530 0.218077
0.225991 0.226288 0.225838
0.240214 0.240509 0.240065
0.279407 0.279699 0.279261
0.329941 0.330231 0.329797
0.382029 0.382329 0.381906
0.443527 0.443843 0.443428
0.511730 0.512050 0.511640
0.584623 0.584928 0.584522
0.645536 0.645844 0.645438
0.694561 0.694878 0.694479
0.743648 0.743970 0.743592
0.792428 0.792775 0.792396
0.820732 0.821087 0.820697
0.217044 0.217340 0.216890
0.219702 0.219998 0.219548
0.227978 0.228274 0.227827
0.232726 0.233021 0.232576
0.247266 0.247559 0.247117
0.286323 0.286609 0.286176
0.333914 0.334207 0.333775
0.386586 0.386888 0.386462
0.448844 0.449159 0.448747
0.516399 0.516717 0.516306
0.583278 0.583587 0.583179
0.646373 0.646681 0.646278
0.698281 0.698597 0.698201
0.747662 0.747986 0.747611
0.798508 0.798857 0.798475
0.827147 0.827505 0.827112
0.239220 0.239516 0.239073
0.240672 0.240969 0.240525
0.242621 0.242918 0.242474
0.249530 0.249825 0.249386
0.260910 0.261201 0.260767
0.279444 0.279734 0.279303
0.316238 0.316531 0.316095
0.358601 0.358897 0.358467
0.419959 0.420266 0.419851
0.491815 0.492139 0.491727
0.563337 0.563646 0.563239
0.631998 0.632306 0.631900
0.690857 0.691172 0.690774
0.745738 0.746062 0.745685
0.805692 0.806045 0.805660
0.835724 0.836084 0.835689
0.252810 0.253104 0.252668
0.254813 0.255107 0.254673
0.258935 0.259227 0.258795
0.262008 0.262298 0.261867
0.265789 0.266078 0.265648
0.278957 0.279245 0.278814
0.304663 0.304951 0.304518
0.336961 0.337253 0.336821
0.390868 0.391171 0.390749
0.457862 0.458182 0.457770
0.528812 0.529128 0.528717
0.598301 0.598609 0.598201
0.658681 0.658992 0.658589
0.713958 0.714276 0.713886
0.769779 0.770113 0.769740
0.840906 0.841267 0.840871
0.069049 0.069336 0.068860
0.076145 0.076432 0.075956
0.127686 0.127975 0.127504
0.194975 0.195274 0.194815
0.254303 0.254594 0.254153
0.313123 0.313412 0.312980
0.373810 0.374111 0.373681
0.439935 0.440249 0.439836
0.511117 0.511436 0.511024
0.579084 0.579392 0.578984
0.637652 0.637957 0.637553
0.684134 0.684448 0.684049
0.722208 0.722528 0.722139
0.756625 0.756953 0.756579
0.784276 0.784621 0.784244
0.799975 0.800326 0.799944
0.075653 0.075939 0.075464
0.079814 0.080101 0.079625
0.117335 0.117623 0.117150
0.173827 0.174123 0.173658
0.228920 0.229216 0.228768
0.285496 0.285788 0.285354
0.345191 0.345487 0.345050
0.410184 0.410488 0.410071
0.482677 0.483002 0.482589
0.555143 0.555453 0.555046
0.619904 0.620207 0.619799
0.671468 0.671780 0.671378
0.710920 0.711237 0.710844
0.744024 0.744346 0.743967
0.774480 0.774816 0.774444
0.793270 0.793619 0.793239
0.083326 0.083614 0.083137
0.084721 0.085009 0.084531
0.114747 0.115032 0.114560
0.162047 0.162342 0.161874
0.216018 0.216316 0.215862
0.272026 0.272318 0.271879
0.330065 0.330354 0.329922
0.393343 0.393647 0.393227
0.466022 0.466345 0.465933
0.541064 0.541376 0.540968
0.609561 0.609867 0.609459
0.664341 0.664651 0.664249
0.705103 0.705419 0.705023
0.739153 0.739476 0.739095
0.770177 0.770511 0.770139
0.789327 0.789674 0.789295
0.090318 0.090606 0.090129
0.095079 0.095366 0.094889
0.120974 0.121262 0.120790
0.159801 0.160100 0.159631
0.209867 0.210164 0.209711
0.265094 0.265384 0.264945
0.321997 0.322287 0.321855
0.383288 0.383592 0.383164
0.453940 0.454259 0.453849
0.530792 0.531108 0.530696
0.602594 0.602898 0.602491
0.660180 0.660489 0.660086
0.703017 0.703333 0.702938
0.737709 0.738030 0.737649
0.769707 0.770043 0.769669
0.789466 0.789812 0.789433
0.096394 0.096680 0.096204
0.100195 0.100481 0.100006
0.131055 0.131345 0.130873
0.166633 0.166929 0.166463
0.206683 0.206982 0.206524
0.258323 0.258613 0.258174
0.315070 0.315360 0.314927
0.376440 0.376740 0.376310
0.445702 0.446015 0.445604
0.523441 0.523764 0.523351
0.598057 0.598357 0.597953
0.657592 0.657901 0.657497
0.701955 0.702273 0.701877
0.737128 0.737449 0.737067
0.769924 0.770260 0.769886
0.790347 0.790694 0.790315
0.102944 0.103229 0.102756
0.112551 0.112836 0.112364
0.134498 0.134785 0.134316
0.172102 0.172398 0.171932
0.208351 0.208650 0.208193
0.254888 0.255182 0.254742
0.309379 0.309672 0.309235
0.370408 0.370706 0.370277
0.439144 0.439454 0.439042
0.515546 0.515873 0.515459
0.592122 0.592421 0.592017
0.654871 0.655180 0.654775
0.701858 0.702175 0.701779
0.738119 0.738439 0.738059
0.771527 0.771864 0.771491
0.791988 0.792335 0.791957
0.110907 0.111190 0.110719
0.119654 0.119938 0.119468
0.143794 0.144085 0.143616
0.175394 0.175694 0.175228
0.209872 0.210170 0.209716
0.252157 0.252449 0.252008
0.307332 0.307622 0.307186
0.366417 0.366715 0.366289
0.434734 0.435048 0.434632
0.509720 0.510041 0.509631
0.586468 0.586772 0.586366
0.652007 0.652316 0.651911
0.702131 0.702448 0.702051
0.740058 0.740378 0.739999
0.773742 0.774079 0.773707
0.794827 0.795175 0.794796
0.118997 0.119280 0.118810
0.134223 0.134511 0.134042
0.154944 0.155239 0.154771
0.180220 0.180517 0.180054
0.209340 0.209636 0.209183
0.250608 0.250901 0.250457
0.302549 0.302835 0.302402
0.363432 0.363729 0.363301
