luts/CINE SERIES_SISTERS.cube
#Created by: Adobe Photoshop Export Color Lookup Plugin
TITLE "33 (935).jpg"
#LUT size
LUT_3D_SIZE 8
#data domain
#LUT data points
DOMAIN_MIN 0.000000 0.000000 0.000000
DOMAIN_MAX 0.903226 0.903226 0.903226
0.004303 0.004303 0.000000
0.066864 0.004303 0.000000
0.284882 0.004303 0.000000
0.546326 0.004272 0.000000
0.711182 0.004333 0.000000
0.804352 0.004333 0.000000
0.859924 0.004211 0.000000
0.894012 0.004364 0.000000
0.004303 0.027191 0.000000
0.019196 0.027191 0.000000
0.180054 0.019958 0.000000
0.457001 0.013397 0.000000
0.664703 0.007294 0.000000
0.780365 0.004395 0.000000
0.848053 0.004333 0.000000
0.889618 0.004333 0.000000
0.004303 0.116913 0.000000
0.019196 0.116913 0.000000
0.090942 0.116913 0.000000
0.353668 0.086090 0.000000
0.607239 0.061371 0.000000
0.752228 0.041504 0.000000
0.834808 0.025269 0.000000
0.884949 0.011871 0.000000
0.004303 0.299438 0.000000
0.019226 0.299438 0.000000
0.090942 0.299438 0.000000
0.238190 0.299438 0.000000
0.529358 0.242310 0.000000
0.714691 0.189850 0.000000
0.817139 0.144226 0.000000
0.877960 0.106537 0.000000
0.004303 0.519348 0.000000
0.019135 0.519348 0.000000
0.090912 0.519348 0.000000
0.238251 0.519348 0.000000
0.437958 0.519348 0.000000
0.663788 0.474335 0.000000
0.791382 0.427582 0.000000
0.866028 0.379730 0.000000
0.004211 0.692047 0.000000
0.019257 0.692047 0.000000
0.090912 0.692047 0.000000
0.238220 0.692047 0.000000
0.437927 0.692047 0.000000
0.615692 0.692047 0.000000
0.765015 0.669006 0.000000
0.853699 0.644653 0.000000
0.004364 0.812775 0.000000
0.019257 0.812775 0.000000
0.090881 0.812775 0.000000
0.238129 0.812775 0.000000
0.437927 0.812775 0.000000
0.615723 0.812775 0.000000
0.743927 0.812775 0.000000
0.843719 0.802521 0.000000
0.004395 0.901520 0.000000
0.019135 0.901520 0.000000
0.090912 0.901520 0.000000
0.238159 0.901520 0.000000
0.437988 0.901520 0.000000
0.615601 0.901520 0.000000
0.743927 0.901520 0.000000
0.837036 0.901520 0.000000
0.006592 0.004639 0.043793
0.019287 0.004639 0.045044
0.176483 0.004303 0.038483
0.454590 0.004303 0.022675
0.663147 0.004303 0.012177
0.779510 0.004303 0.006561
0.847626 0.004211 0.003387
0.889465 0.004395 0.001587
0.004303 0.040161 0.043365
0.019104 0.024628 0.046539
0.176483 0.019958 0.038483
0.454590 0.013367 0.022644
0.663147 0.007263 0.012054
0.779510 0.004303 0.006561
0.847626 0.004211 0.003387
0.889465 0.004395 0.001587
0.004303 0.142273 0.043518
0.019196 0.116913 0.051178
0.090942 0.116913 0.051178
0.353668 0.086121 0.033142
0.607239 0.061432 0.017975
0.752228 0.041565 0.009644
0.834808 0.025360 0.005096
0.884827 0.011688 0.002655
0.004303 0.331757 0.043549
0.019196 0.299438 0.051147
0.090942 0.299438 0.051178
0.238159 0.299438 0.051178
0.529358 0.242340 0.032043
0.714691 0.189850 0.018311
0.817139 0.144196 0.010468
0.877960 0.106506 0.005798
0.004303 0.542603 0.043457
0.019196 0.519348 0.051178
0.090942 0.519348 0.051178
0.238159 0.519348 0.051178
0.437958 0.519348 0.051178
0.663788 0.474426 0.035767
0.791382 0.427399 0.023682
0.866028 0.379608 0.015656
0.004303 0.704010 0.043579
0.019196 0.692047 0.051239
0.090912 0.692047 0.051178
0.238159 0.692047 0.051178
0.437958 0.692047 0.051178
0.615692 0.692047 0.051178
0.765015 0.669006 0.039520
0.853699 0.644501 0.028992
0.004303 0.818176 0.043457
0.019196 0.812775 0.051178
0.090973 0.812775 0.051178
0.238220 0.812775 0.051178
0.437927 0.812775 0.051178
0.615692 0.812775 0.051178
0.743805 0.812775 0.051178
0.843719 0.802612 0.041779
0.004303 0.903381 0.043579
0.019196 0.901520 0.051086
0.091034 0.901520 0.051178
0.238220 0.901520 0.051178
0.437927 0.901520 0.051178
0.615662 0.901520 0.051178
0.743958 0.901520 0.051178
0.836945 0.901520 0.051178
0.010834 0.005219 0.117523
0.023010 0.005310 0.119446
0.084778 0.004822 0.137848
0.350098 0.004303 0.091248
0.605164 0.004303 0.045685
0.750977 0.004303 0.023071
0.833954 0.004303 0.011810
0.884399 0.004303 0.006012
0.005157 0.029907 0.109497
0.018982 0.019775 0.121887
0.085175 0.026398 0.136749
0.350098 0.019958 0.091217
0.605164 0.013367 0.045593
0.750977 0.007263 0.023254
0.833954 0.004303 0.011810
0.884399 0.004303 0.006012
0.004303 0.171295 0.118134
0.025848 0.142273 0.133881
0.088196 0.109589 0.142944
0.350098 0.086090 0.091248
0.605164 0.061371 0.045654
0.750977 0.041473 0.023163
0.833954 0.025330 0.011871
0.884399 0.011719 0.005920
0.004303 0.364563 0.118103
0.025848 0.331757 0.133911
0.090942 0.299438 0.151764
0.238190 0.299438 0.151794
0.529358 0.242401 0.084961
0.714691 0.189880 0.044189
0.817139 0.144257 0.023315
0.877960 0.106659 0.012177
0.004303 0.564972 0.118195
0.025848 0.542603 0.133850
0.090942 0.519348 0.151825
0.238220 0.519348 0.151794
0.437958 0.519348 0.151794
0.663788 0.474304 0.094788
0.791382 0.427460 0.057068
0.866028 0.379669 0.034943
0.004303 0.715637 0.118042
0.025848 0.704010 0.133789
0.090942 0.692047 0.151855
0.238190 0.692047 0.151794
0.438019 0.692047 0.151794
0.615692 0.692047 0.151794
0.765015 0.668945 0.104736
0.853699 0.644562 0.069916
0.004303 0.823517 0.118103
0.025848 0.818176 0.133789
0.090942 0.812775 0.151733
0.238129 0.812775 0.151794
0.438080 0.812775 0.151794
0.615753 0.812775 0.151794
0.743866 0.812775 0.151794
0.843719 0.802551 0.110748
0.004303 0.905243 0.118225
0.025848 0.903381 0.133820
0.090942 0.901520 0.151703
0.238190 0.901520 0.151794
0.438080 0.901520 0.151794
0.615601 0.901520 0.151794
0.743927 0.901520 0.151794
0.837097 0.901520 0.151794
0.022675 0.006989 0.320404
0.031921 0.007111 0.321838
0.077118 0.007477 0.327942
0.199158 0.005707 0.362335
0.522247 0.004303 0.286163
0.711121 0.004303 0.159943
0.815247 0.004303 0.078156
0.876892 0.004303 0.042877
0.006989 0.014465 0.298401
0.028687 0.017487 0.323639
0.078247 0.023590 0.329773
0.199646 0.025482 0.360901
0.522247 0.019958 0.286194
0.711121 0.013367 0.159882
0.815247 0.007263 0.078094
0.876892 0.004303 0.042877
0.005890 0.127106 0.300751
0.024200 0.091217 0.312592
0.070343 0.073151 0.337280
0.203094 0.101257 0.356873
0.522247 0.086090 0.286163
0.711121 0.061371 0.159882
0.815247 0.041473 0.078125
0.876892 0.025299 0.042969
0.004303 0.397522 0.311615
0.033081 0.364563 0.339630
0.099060 0.325623 0.364807
0.216248 0.272125 0.374969
0.522247 0.242340 0.286133
0.711121 0.189941 0.159943
0.815247 0.144196 0.078156
0.876892 0.106628 0.042908
0.004303 0.586395 0.311554
0.033081 0.564972 0.339539
0.102844 0.542603 0.368469
0.238190 0.519348 0.398193
0.437988 0.519348 0.398224
0.663788 0.474396 0.287231
0.791382 0.427429 0.177917
0.866028 0.379608 0.102386
0.004303 0.726929 0.311646
0.033081 0.715637 0.339539
0.102844 0.704010 0.368500
0.238190 0.692047 0.398193
0.437958 0.692047 0.398224
0.615662 0.692047 0.398224
0.765015 0.668915 0.304077
0.853699 0.644470 0.209381
0.004303 0.828766 0.311462
0.033081 0.823517 0.339539
0.102844 0.818176 0.368469
0.238190 0.812775 0.398254
0.437988 0.812775 0.398224
0.615631 0.812775 0.398224
0.743866 0.812775 0.398224
0.843719 0.802490 0.314240
0.004303 0.907074 0.311554
0.033081 0.905243 0.339691
0.102844 0.903381 0.368439
0.238190 0.901520 0.398193
0.438049 0.901520 0.398224
0.615723 0.901520 0.398224
0.743866 0.901520 0.398224
0.837006 0.901520 0.398224
0.037689 0.009338 0.575623
0.042938 0.009430 0.576416
0.070557 0.009766 0.579651
0.154724 0.010498 0.586334
0.351929 0.006989 0.634918
0.653778 0.004303 0.632050
0.785278 0.004303 0.555908
0.862305 0.004303 0.474579
0.024323 0.009369 0.560822
0.041382 0.015442 0.577423
0.071350 0.019562 0.580780
0.155579 0.023438 0.587799
0.352234 0.024139 0.634186
0.653778 0.019958 0.631958
0.785278 0.013367 0.555939
0.862305 0.007263 0.474457
0.009857 0.061432 0.550262
0.020966 0.042969 0.566986
0.065765 0.048615 0.585236
0.159058 0.073212 0.593445
0.354370 0.092621 0.630310
0.653778 0.086090 0.632019
0.785278 0.061371 0.556061
0.862305 0.041473 0.474548
0.005615 0.345337 0.592743
0.027893 0.292999 0.596710
0.075073 0.244171 0.598236
0.155060 0.207520 0.605438
0.364746 0.261719 0.623688
0.653778 0.242340 0.631989
0.785278 0.189911 0.556061
0.862305 0.144196 0.474487
0.004303 0.607025 0.606140
0.039337 0.582306 0.624146
0.106415 0.556152 0.641449
0.225067 0.524231 0.653809
0.384399 0.483337 0.651855
0.653778 0.474365 0.632019
0.785278 0.427490 0.555969
0.862305 0.379639 0.474487
0.004303 0.737915 0.606079
0.040985 0.726929 0.626434
0.115784 0.715637 0.645935
0.255402 0.704010 0.664703
0.437988 0.692047 0.682373
0.615662 0.692047 0.682373
0.765015 0.668945 0.624268
0.853699 0.644592 0.555267
0.004303 0.833893 0.606232
0.040985 0.828766 0.626434
0.115784 0.823517 0.646057
0.255402 0.818176 0.664703
0.437988 0.812775 0.682373
0.615662 0.812775 0.682373
0.743866 0.812775 0.682373
0.843719 0.802490 0.629761
0.004303 0.908936 0.606140
0.040985 0.907074 0.626495
0.115784 0.905243 0.645996
0.255402 0.903381 0.664673
0.437988 0.901520 0.682434
0.615662 0.901520 0.682373
0.743835 0.901520 0.682373
0.837006 0.901520 0.682373
0.046814 0.010803 0.730225
0.049713 0.010864 0.730621
0.067383 0.011230 0.732269
0.131500 0.011871 0.735565
0.309845 0.011505 0.757538
0.558807 0.004913 0.820709
0.751343 0.004028 0.824890
0.849213 0.004303 0.805695
0.039703 0.010925 0.725128
0.048950 0.014282 0.731171
0.067841 0.017334 0.732971
0.132080 0.021362 0.736664
0.310852 0.025360 0.757141
0.558594 0.022552 0.819824
0.751465 0.018646 0.824890
0.849213 0.013367 0.805542
0.011475 0.027771 0.722137
0.022461 0.018829 0.728363
0.065338 0.036316 0.735687
0.134674 0.057251 0.740753
0.314301 0.078583 0.755188
0.558197 0.093140 0.815247
0.751465 0.080444 0.824890
0.849213 0.061371 0.805542
0.009857 0.292725 0.752075
0.027466 0.247162 0.746796
0.062347 0.204437 0.740631
0.120300 0.173737 0.749237
0.326233 0.237976 0.765625
0.560455 0.262787 0.806854
0.751404 0.229919 0.824890
0.849213 0.189911 0.805603
0.003418 0.583862 0.807983
0.033661 0.550415 0.805603
0.089264 0.515808 0.801819
0.185699 0.480621 0.795776
0.334320 0.450897 0.785614
0.572632 0.496246 0.798828
0.751404 0.465729 0.824890
0.849213 0.427490 0.805573
0.007050 0.744690 0.807831
0.045807 0.732758 0.814789
0.117249 0.720276 0.821350
0.241547 0.707489 0.827698
0.408386 0.687012 0.827026
0.582336 0.665497 0.818878
0.750854 0.664398 0.817017
0.849213 0.644562 0.805603
0.007507 0.838959 0.809723
0.049744 0.833893 0.817047
0.129852 0.828766 0.823975
0.270996 0.823120 0.830627
0.445953 0.817291 0.836670
0.608459 0.811371 0.842499
0.739258 0.810211 0.841431
0.843048 0.802521 0.825897
0.007507 0.910767 0.809753
0.049744 0.908936 0.817047
0.129852 0.907074 0.824158
0.272980 0.905243 0.830841
0.452332 0.903381 0.837189
0.615662 0.901520 0.843231
0.743866 0.901520 0.843231
0.837006 0.901520 0.843262
0.050903 0.011475 0.799194
0.052917 0.011566 0.799438
0.066345 0.011871 0.800385
0.122070 0.012543 0.802277
0.295258 0.011902 0.814575
0.542969 0.006439 0.876099
0.717285 0.003571 0.910339
0.836182 0.004028 0.907410
0.046387 0.011627 0.798126
0.052582 0.013824 0.799774
0.066650 0.016479 0.800903
0.122620 0.020599 0.803162
0.297028 0.026062 0.812653
0.542969 0.022919 0.875305
0.717224 0.022614 0.910339
0.836243 0.018646 0.907410
0.012207 0.013550 0.798248
0.032684 0.017975 0.800140
0.065216 0.031128 0.802856
0.124634 0.050629 0.806610
0.300751 0.073486 0.811646
0.543640 0.087799 0.871002
0.717377 0.097168 0.910339
0.836334 0.080414 0.907410
0.010254 0.273834 0.824493
0.026062 0.230255 0.815063
0.056427 0.190002 0.806885
0.105865 0.160126 0.813599
0.311493 0.228973 0.829285
0.548004 0.254150 0.862946
0.715271 0.271088 0.901062
0.836273 0.229889 0.907410
0.004730 0.559204 0.881927
0.032715 0.528625 0.875549
0.083160 0.497009 0.867920
0.170288 0.464996 0.858521
0.314178 0.437897 0.845886
0.563141 0.490265 0.861084
0.716034 0.501373 0.889069
0.836243 0.465729 0.907410
0.007050 0.739288 0.901825
0.042389 0.727509 0.903473
0.108063 0.715179 0.905090
0.223450 0.695404 0.899841
0.387054 0.671478 0.889618
0.568634 0.654968 0.877197
0.725555 0.681885 0.884399
0.835510 0.663971 0.904358
0.013306 0.841766 0.901398
0.055542 0.836334 0.903168
0.134674 0.830811 0.904907
0.267975 0.825348 0.906586
0.438446 0.819794 0.908203
0.602661 0.809845 0.905945
0.729492 0.798279 0.898926
0.837585 0.800446 0.897217
0.014130 0.912628 0.902313
0.059418 0.910767 0.904114
0.145142 0.908936 0.905945
0.290771 0.906982 0.907745
0.465210 0.905151 0.909393
0.621796 0.903229 0.910980
0.742096 0.901245 0.912537
0.835876 0.901245 0.912537
0.052612 0.011749 0.827942
0.054077 0.011841 0.828125
0.065979 0.012146 0.828766
0.118744 0.012787 0.830078
0.291748 0.013733 0.837097
0.537598 0.008179 0.898346
0.713440 0.003448 0.938843
0.826630 0.003845 0.940247
0.049194 0.011932 0.828308
0.054016 0.013641 0.828339
0.066406 0.016174 0.829224
0.119354 0.020416 0.830933
0.292786 0.025940 0.836731
0.537933 0.024353 0.897583
0.713074 0.022308 0.937958
0.826660 0.024353 0.940247
0.017090 0.012512 0.829468
0.036804 0.017761 0.829834
0.065399 0.029175 0.830902
0.121185 0.048279 0.834106
0.296387 0.071289 0.838348
0.539124 0.085480 0.895111
0.712280 0.094849 0.934479
0.826630 0.104736 0.940247
0.012054 0.268555 0.852600
0.025787 0.224976 0.843353
0.054474 0.186035 0.835541
0.100494 0.155792 0.840515
0.307068 0.226532 0.855988
0.544220 0.252533 0.885712
0.710815 0.267914 0.924988
0.826477 0.281189 0.940247
0.006409 0.550781 0.910980
0.032196 0.521515 0.904755
0.080811 0.490479 0.895782
0.164368 0.459656 0.885132
0.308655 0.434204 0.869995
0.560120 0.488586 0.887177
0.713074 0.500183 0.912109
0.826141 0.506836 0.938202
0.007446 0.737610 0.939423
0.041626 0.725861 0.939331
0.105286 0.710907 0.937134
0.216736 0.688599 0.927582
0.380463 0.665771 0.914825
0.563629 0.651062 0.901825
0.723694 0.680756 0.910034
0.825592 0.685455 0.928345
0.013611 0.840302 0.940063
0.054535 0.835175 0.940277
0.131470 0.829651 0.940216
0.260345 0.824158 0.940186
0.430084 0.818604 0.940125
0.597626 0.803955 0.931152
0.726227 0.794617 0.922791
0.831665 0.809509 0.925415
0.020782 0.913940 0.940430
0.068054 0.911957 0.940704
0.156647 0.910126 0.940948
0.299164 0.908173 0.940918
0.469727 0.906281 0.940918
0.623199 0.904358 0.940887
0.741608 0.902466 0.940857
0.833435 0.897644 0.937988
