luts/Cinematic @crizomzeyahke.cube
TITLE "Generated by Resolve"
LUT_3D_SIZE 9
0 0 0
0.00817884 0 0
0.148287 0 0
0.28394 0 0
0.394629 0 0
0.481163 0 0
0.5617 0 0
0.724681 0 0
0.895705 0 0
0 0.0301366 0
0 0.0223545 0
0.126467 0.0146334 0
0.272145 0 0
0.387976 0 0
0.475013 0 0
0.555306 0 0
0.718364 0 0
0.902922 0 0
0 0.165743 0
0 0.1608 0
0.0951247 0.154376 0
0.257893 0.136507 0
0.384543 0.0993668 0
0.477684 0.0541085 0
0.568154 0 0
0.761593 0 0
0.966598 0 0
0 0.277562 0
0 0.282124 0
0.03888 0.290959 0
0.230076 0.294972 0
0.376883 0.287861 0
0.47541 0.274754 0
0.569284 0.248661 0
0.769894 0 0
0.982757 0 0
0 0.388891 0
0 0.398032 0
0.0062562 0.407431 0
0.204685 0.413077 0
0.362066 0.411917 0
0.464652 0.40798 0
0.557733 0.401709 0
0.752224 0.340642 0
0.968063 0 0
0 0.474388 0
0 0.481804 0
0 0.489296 0
0.191226 0.494484 0
0.349355 0.49485 0
0.454475 0.493538 0
0.545937 0.490929 0
0.727016 0.474434 0
0.943389 0 0
0 0.537514 0
0 0.544747 0
0 0.553063 0
0.194751 0.560113 0
0.344488 0.561273 0
0.448631 0.560342 0
0.538674 0.558312 0
0.705425 0.551385 0
0.91873 0.477073 0
0 0.639002 0
0 0.657008 0
0.108507 0.675319 0
0.255283 0.689296 0
0.363958 0.691112 0
0.455344 0.688167 0
0.540246 0.683848 0
0.699245 0.679179 0
0.908949 0.666621 0
0.135637 0.797909 0
0.27779 0.818463 0
0.340002 0.83859 0
0.380346 0.852491 0
0.431952 0.851698 0
0.491508 0.844739 0
0.560662 0.834226 0
0.71754 0.822187 0
0.916503 0.811841 0
0 0 0.124132
0.00277714 0 0.118761
0.150469 0 0.104021
0.284947 0 0.0764019
0.394903 0 0.026215
0.481453 0 0
0.561654 0 0
0.724117 0 0
0.895964 0 0
0 0.0281529 0.100984
0 0.0220035 0.0996719
0.135897 0.0110628 0.0861524
0.274571 0 0.0610208
0.388769 0 0.0144656
0.475303 0 0
0.555993 0 0
0.721263 0 0
0.909545 0 0
0 0.16553 0.0787823
0 0.162203 0.0680858
0.092958 0.157015 0.0534371
0.262242 0.137636 0.0447852
0.387121 0.102815 0.0128939
0.480598 0.0602579 0
0.572519 0 0
0.770352 0 0
0.976287 0 0
0 0.279347 0.00929274
0 0.285985 0.0112306
0.0440375 0.295781 0.0178073
0.235187 0.300114 0.0180514
0.38088 0.292378 0
0.479286 0.279988 0
0.574823 0.25388 0
0.780499 0 0
0.994537 0 0
0 0.392126 0
0 0.401602 0
0.0159457 0.411124 0
0.210956 0.416922 0
0.365957 0.415732 0
0.468421 0.411704 0
0.562982 0.405325 0
0.76286 0.337102 0
0.980545 0 0
0 0.477073 0
0 0.484535 0
0.000411994 0.492042 0
0.198352 0.497154 0
0.353475 0.497642 0
0.457572 0.496147 0
0.54995 0.493523 0
0.737041 0.475288 0
0.954971 0 0
0 0.539895 0
0 0.547539 0
0.00915541 0.556374 0
0.203113 0.56376 0
0.348577 0.564996 0
0.451484 0.563928 0
0.541451 0.561547 0
0.713481 0.554086 0
0.928008 0.471534 0
0 0.645045 0
0 0.663294 0
0.128954 0.681697 0
0.263005 0.695857 0
0.367926 0.697215 0
0.457969 0.694224 0
0.542367 0.689265 0
0.705135 0.68423 0
0.915557 0.670588 0
0.172961 0.8047 0
0.291173 0.825422 0
0.34818 0.845029 0
0.38677 0.858976 0
0.436225 0.857801 0
0.493812 0.849775 0
0.561913 0.837919 0
0.719249 0.82475 0
0.918151 0.813687 0
0 0 0.236835
0 0 0.234668
0.145006 0 0.230762
0.283192 0 0.213993
0.394583 0 0.176028
0.481071 0 0.10808
0.560861 0 0
0.72256 0 0
0.895033 0 0
0 0.0250706 0.227283
0 0.0199588 0.228046
0.126558 0.0108797 0.225757
0.273884 0 0.207156
0.388846 0 0.167254
0.475349 0 0.100496
0.55639 0 0
0.723445 0 0
0.915526 0 0
0 0.162982 0.215366
0 0.159152 0.213886
0.0935225 0.155535 0.215228
0.267369 0.136416 0.200977
0.389944 0.106355 0.170657
0.483162 0.0656291 0.118853
0.576654 0 0.0104829
0.777996 0 0
0.98526 0 0
0 0.280201 0.166537
0 0.288792 0.172091
0.0487831 0.299901 0.178973
0.237064 0.305028 0.174395
0.385183 0.296056 0.158358
0.482994 0.284153 0.116838
0.580179 0.257969 0.00987259
0.790249 0 0
1 0 0
0 0.394873 0.114656
0 0.404562 0.128252
0.0240635 0.41413 0.142077
0.215442 0.420356 0.145815
0.368704 0.418967 0.124483
0.472038 0.414832 0.0878767
0.568032 0.408118 0
0.773236 0.331914 0
0.992096 0 0
0 0.47924 0.0656901
0 0.486885 0.0826581
0.0113832 0.494423 0.0990768
0.204715 0.499626 0.10692
0.356497 0.50016 0.0896773
0.460288 0.498558 0.0530709
0.553735 0.495735 0
0.745876 0.47567 0
0.965331 0 0
0 0.542092 0.0258793
0 0.550042 0.0420691
0.0216678 0.55938 0.0570687
0.209796 0.566995 0.0626383
0.351736 0.568444 0.0463111
0.453513 0.567041 0.0100557
0.543893 0.564553 0
0.720272 0.556359 0
0.936355 0.465171 0
0 0.650324 0
0 0.66862 0
0.14757 0.687327 0
0.269276 0.701549 0
0.371267 0.702754 0
0.459892 0.699489 0
0.543999 0.693874 0
0.709545 0.688334 0
0.919753 0.673106 0
0.199466 0.810636 0
0.301671 0.831159 0
0.354971 0.850446 0
0.391989 0.864256 0
0.439261 0.862425 0
0.495323 0.853681 0
0.562112 0.840009 0
0.718929 0.825971 0
0.91783 0.814221 0
0 0 0.360067
0 0 0.359457
0.139071 0 0.358877
0.275654 0 0.351797
0.390799 0 0.334218
0.477073 0 0.307927
0.556237 0 0.265843
0.713878 0 0
0.886168 0 0
0 0.0189517 0.355489
0 0.0157015 0.356573
0.121416 0.00840772 0.355993
0.265003 0 0.349523
0.384894 0 0.330983
0.472526 0 0.30547
0.553719 0 0.267201
0.72015 0 0
0.914137 0 0
0 0.156039 0.350011
0 0.152316 0.35082
0.102602 0.150561 0.352804
0.259358 0.138476 0.351431
0.389181 0.108141 0.339345
0.483223 0.067689 0.322271
0.576898 0 0.292332
0.778363 0 0
0.986694 0 0
0 0.276921 0.322362
0 0.286641 0.330068
0.0642252 0.298268 0.339544
0.240604 0.303685 0.346197
0.388647 0.294362 0.339666
0.485008 0.283406 0.324697
0.582437 0.257725 0.297398
0.793606 0 0
1 0 0
0 0.394339 0.299153
0 0.404105 0.309361
0.0327916 0.414115 0.320012
0.217273 0.420905 0.325521
0.366049 0.420325 0.316091
0.474357 0.414771 0.308141
0.571038 0.407858 0.286564
0.778195 0.325872 0
0.996612 0 0
0 0.479347 0.276875
0 0.487129 0.289448
0.0185092 0.494682 0.301488
0.208103 0.500191 0.308843
0.354665 0.500877 0.302968
0.459876 0.499229 0.290791
0.55491 0.495964 0.269001
0.749538 0.474845 0
0.969558 0 0
0 0.542275 0.259907
0 0.550423 0.274006
0.0290379 0.559808 0.286961
0.213443 0.56762 0.294697
0.35079 0.569223 0.289525
0.452277 0.567788 0.275685
0.543267 0.564889 0.248508
0.720058 0.556161 0
0.93753 0.462028 0
0 0.650858 0.223102
0 0.66894 0.229343
0.155108 0.687694 0.233265
0.271199 0.701534 0.232074
0.370504 0.703075 0.219043
0.458289 0.699519 0.193011
0.542473 0.693629 0.129488
0.705913 0.68719 0
0.916167 0.671031 0
0.204105 0.810513 0
0.302541 0.830472 0
0.355428 0.849775 0
0.391775 0.863371 0
0.43769 0.86099 0
0.492744 0.851392 0
0.558541 0.83653 0
0.710353 0.821424 0
0.908751 0.808682 0
0 0 0.462745
0.0114748 0 0.462531
0.15346 0 0.462562
0.273442 0 0.458274
0.386755 0 0.447745
0.472007 0 0.432197
0.550347 0 0.41294
0.701656 0 0.351415
0.874067 0 0
0 0.0218967 0.459998
0 0.0187381 0.460761
0.137224 0.0122225 0.460472
0.263523 0 0.456611
0.380468 0 0.445914
0.468193 0 0.431693
0.549493 0 0.415183
0.714 0 0.353826
0.908949 0 0
0 0.156832 0.456306
0 0.154726 0.457359
0.124865 0.155322 0.459281
0.262287 0.14844 0.459663
0.386831 0.121355 0.455283
0.481376 0.0808423 0.447456
0.574411 0.00602731 0.43595
0.775036 0 0.331777
0.984527 0 0
0 0.275898 0.438621
0 0.286473 0.445792
0.0994278 0.29839 0.454002
0.254994 0.304433 0.459739
0.386145 0.298512 0.459617
0.48423 0.286137 0.453025
0.581903 0.261051 0.442084
0.792676 0 0.316594
1 0 0
0 0.393439 0.424445
0 0.403311 0.433463
0.0655528 0.413382 0.442908
0.234501 0.419974 0.449653
0.369894 0.419516 0.451713
0.476921 0.41352 0.448096
0.573571 0.407218 0.436759
0.781003 0.321798 0.328756
0.999252 0 0
0 0.478981 0.411643
0 0.486824 0.421302
0.0455482 0.494453 0.431281
0.222934 0.500069 0.438239
0.355749 0.501045 0.437415
0.456886 0.500023 0.429953
0.55668 0.495399 0.423301
0.753246 0.473259 0.345724
0.972366 0 0
0 0.542031 0.404089
0 0.550103 0.414115
0.0524605 0.559289 0.423758
0.225681 0.567193 0.430518
0.351507 0.568795 0.428931
0.450187 0.567895 0.422599
0.541344 0.56463 0.412894
0.718685 0.555215 0.356756
0.937667 0.457877 0
0 0.64947 0.399298
0 0.667613 0.406928
0.172885 0.685969 0.414191
0.277409 0.699886 0.418372
0.370733 0.701427 0.415488
0.456336 0.697902 0.408316
0.539834 0.691981 0.397192
0.698787 0.684337 0.341573
0.909819 0.667109 0
0.211688 0.808209 0.357046
0.304906 0.827832 0.350408
0.356329 0.846845 0.33901
0.391302 0.859846 0.325277
0.435584 0.857053 0.318761
0.489021 0.846326 0.314458
0.553903 0.831083 0.305135
0.698238 0.815167 0.132845
0.896819 0.801724 0
0 0 0.548669
0.0625772 0 0.549035
0.19321 0 0.549218
0.283818 0 0.545937
0.386465 0 0.538506
0.468284 0 0.527947
0.545022 0 0.51574
0.688228 0 0.492973
0.860151 0 0.331762
0 0.0419776 0.547066
0.0467536 0.0369726 0.547189
0.18172 0.0323796 0.547372
0.275242 0.0126497 0.54435
0.38024 0 0.537423
0.465309 0 0.528588
0.545815 0 0.519158
0.705943 0 0.499474
0.902068 0 0
0 0.172747 0.544152
0.0310369 0.172366 0.545373
0.177447 0.175647 0.547753
0.279133 0.174044 0.549218
0.389715 0.152941 0.546975
0.480217 0.113619 0.542855
0.570764 0.0406348 0.53698
0.768795 0 0.508629
0.979141 0 0
0 0.280766 0.53283
0 0.291844 0.538979
0.164034 0.303532 0.545556
0.277409 0.31046 0.551232
0.390555 0.306188 0.551934
0.483223 0.295735 0.549477
0.578653 0.272923 0.544076
0.788235 0 0.511437
1 0 0
0 0.394095 0.523445
0 0.404211 0.531167
0.133608 0.414328 0.538994
0.263218 0.420966 0.544869
0.379538 0.420783 0.547387
0.474998 0.416876 0.547463
0.571313 0.409842 0.542794
0.77847 0.329274 0.512413
0.998581 0 0
0 0.479179 0.514412
0 0.486946 0.522942
0.109819 0.494713 0.531472
0.252369 0.50016 0.537667
0.36643 0.50106 0.539223
0.46099 0.499657 0.539864
0.558602 0.495109 0.537728
0.756344 0.472313 0.510842
0.974731 0 0
0 0.54197 0.509483
0 0.549859 0.518227
0.112184 0.558892 0.526513
0.252461 0.566598 0.532418
0.359792 0.568093 0.532769
0.451606 0.567361 0.530587
0.537789 0.564965 0.524025
0.72015 0.553658 0.504997
0.939712 0.448707 0
0 0.647807 0.509941
0.032929 0.665721 0.517418
0.209751 0.683619 0.524086
0.293095 0.697414 0.528527
0.375845 0.698543 0.527504
0.45684 0.695491 0.523781
0.537545 0.690059 0.51696
0.689326 0.681529 0.499245
0.902968 0.662226 0
0.233097 0.804913 0.507362
0.314336 0.82446 0.510185
0.361761 0.843091 0.512001
0.394598 0.855695 0.513222
0.435966 0.852064 0.510338
0.486931 0.840421 0.505318
0.549935 0.825086 0.498436
0.68394 0.808698 0.478996
0.883223 0.794705 0
0.242939 0.0928511 0.703609
0.290867 0.0915389 0.704601
0.323583 0.0890364 0.705196
0.353399 0.0546273 0.697734
0.408896 0 0.676188
0.473701 0 0.651835
0.543816 0 0.627604
0.67686 0 0.605005
0.847837 0 0.567254
0.229831 0.204578 0.699733
0.280903 0.20148 0.699809
0.316243 0.199634 0.700481
0.346303 0.175891 0.693019
0.404608 0.104128 0.675013
0.472435 0.0215 0.655802
0.546975 0 0.64004
0.69955 0 0.627955
0.896147 0 0.594919
0.204044 0.259083 0.692454
0.273152 0.262409 0.696605
0.320409 0.270817 0.704936
0.361837 0.27628 0.711406
0.424994 0.26775 0.708751
0.494194 0.249012 0.702266
0.574075 0.20827 0.694255
0.764111 0 0.685466
0.97464 0 0.646708
0.0745251 0.311467 0.665324
0.245747 0.32636 0.683894
0.318944 0.342596 0.704707
0.368246 0.353658 0.720394
0.431739 0.352529 0.723339
0.500816 0.345983 0.721813
0.583215 0.330846 0.717021
0.784375 0 0.710521
1 0 0.672862
0 0.40296 0.644633
0.199435 0.414878 0.665537
0.297841 0.427054 0.68864
0.35491 0.436164 0.70782
0.4224 0.437308 0.71487
0.493965 0.435325 0.717937
0.576196 0.429801 0.716548
0.774365 0.37116 0.71014
0.995605 0 0.674388
0 0.482292 0.626047
0.14139 0.49102 0.647852
0.275425 0.499794 0.671366
0.339208 0.506264 0.690837
0.408865 0.507622 0.698863
0.482078 0.506676 0.703517
0.562905 0.503838 0.706157
0.751034 0.483406 0.699031
0.97261 0 0.662547
0 0.543603 0.618189
0.122042 0.551659 0.638911
0.266758 0.561074 0.661585
0.331411 0.568841 0.679088
0.398352 0.570367 0.684031
0.470481 0.569238 0.684764
0.547341 0.566369 0.685725
0.720012 0.555703 0.684092
0.94258 0.447532 0.640909
0.00291447 0.6477 0.626276
0.215747 0.665217 0.646311
0.303899 0.682994 0.666636
0.354543 0.696498 0.682521
0.408606 0.6972 0.682841
0.472221 0.693706 0.677607
0.542992 0.687953 0.668452
0.6757 0.680873 0.652247
0.900771 0.656687 0.60827
0.312413 0.803189 0.662394
0.367376 0.822354 0.682002
0.405295 0.840177 0.700755
0.43209 0.852232 0.713375
0.459815 0.847242 0.706188
0.49868 0.834897 0.689845
0.553201 0.81912 0.668086
0.670329 0.8038 0.642725
0.868009 0.789731 0.598108
0.485252 0.406302 0.882994
0.492378 0.407324 0.884138
0.498726 0.407919 0.884932
0.498863 0.396612 0.876799
0.499596 0.358862 0.851545
0.519112 0.302724 0.821805
0.562249 0.204578 0.791547
0.675395 0 0.76672
0.842695 0 0.752071
0.479835 0.413489 0.878569
0.486 0.413062 0.878584
0.492317 0.413169 0.879026
0.492744 0.403296 0.871199
0.497673 0.376471 0.850874
0.522255 0.343984 0.829618
0.571191 0.310658 0.814084
0.704601 0.183642 0.80531
0.896986 0 0.805814
0.47071 0.41738 0.871077
0.484352 0.423514 0.877317
0.502251 0.435065 0.888777
0.519081 0.444556 0.898436
0.536461 0.441932 0.896925
0.563027 0.433265 0.890486
0.610239 0.42153 0.883803
0.770642 0.359442 0.87982
0.97705 0 0.883864
0.438621 0.415915 0.845289
0.473854 0.4365 0.868147
0.506447 0.458976 0.893019
0.530678 0.474754 0.910689
0.551247 0.477531 0.91487
0.578576 0.474937 0.913817
0.625483 0.468894 0.910964
0.793027 0.426673 0.910277
1 0 0.915663
0.406149 0.450935 0.820996
0.451118 0.469184 0.84831
0.489281 0.488441 0.876539
0.518807 0.503761 0.898878
0.542992 0.508186 0.906676
0.573831 0.509133 0.910307
0.620508 0.506554 0.910323
0.783047 0.482719 0.910491
0.997803 0 0.915343
0.372519 0.503655 0.797726
0.426398 0.516625 0.827161
0.46894 0.530282 0.856962
0.501427 0.54165 0.881117
0.527474 0.545083 0.890028
0.560754 0.546166 0.895399
0.607874 0.545312 0.898299
0.758816 0.532555 0.898116
0.973571 0 0.900404
0.35816 0.555428 0.787488
0.414496 0.566079 0.816403
0.45774 0.578225 0.845518
0.489326 0.588373 0.867994
0.513817 0.590661 0.874708
0.545556 0.589715 0.876387
0.591913 0.587625 0.878294
0.725856 0.580545 0.880232
0.940734 0.509255 0.878386
0.385962 0.654765 0.799847
0.43331 0.672541 0.826444
0.471122 0.690745 0.852857
0.497978 0.704036 0.8719
0.516609 0.704646 0.87364
0.542626 0.700389 0.869261
0.583551 0.693584 0.862623
0.692332 0.684703 0.85771
0.899321 0.662089 0.854139
0.471717 0.807172 0.850492
0.503288 0.825757 0.873716
0.530449 0.843473 0.895781
0.548241 0.85449 0.909422
0.553079 0.847959 0.901015
0.562661 0.834485 0.883726
0.589029 0.817807 0.861997
0.678004 0.802121 0.840482
0.854261 0.789944 0.819272
0.653361 0.580285 1
0.655756 0.581384 1
0.658534 0.582925 1
0.651469 0.573297 1
0.632395 0.545098 1
0.618875 0.510796 0.980453
0.623346 0.473075 0.950195
0.693355 0.429175 0.925963
0.844862 0.231525 0.917464
0.647776 0.577295 1
0.649882 0.578012 1
0.651942 0.578698 1
0.646754 0.571221 1
0.633844 0.550622 1
0.629175 0.529427 0.993179
0.643565 0.513344 0.979797
0.731014 0.496071 0.973602
0.904173 0.386709 0.979629
0.642161 0.574533 1
0.652094 0.582879 1
0.667857 0.597284 1
0.681163 0.609003 1
0.684733 0.607858 1
0.688594 0.602045 1
0.702754 0.595468 1
0.80116 0.584085 1
0.986236 0.491218 1
0.621866 0.561105 1
0.648524 0.584726 1
0.675914 0.609918 1
0.69572 0.627848 1
0.704158 0.632181 1
0.711238 0.631312 1
0.726772 0.629068 1
0.826215 0.621698 1
1 0.544106 1
0.598032 0.55729 0.990021
0.629511 0.582055 1
0.661311 0.60856 1
0.685389 0.628824 1
0.697597 0.636194 1
0.708141 0.638743 1
0.725048 0.639185 1
0.819303 0.634623 1
1 0.575097 1
0.574197 0.569772 0.967727
0.609339 0.59144 0.998764
0.642939 0.614298 1
0.669535 0.633234 1
0.682414 0.639841 1
0.69485 0.643168 1
0.712062 0.644022 1
0.797192 0.640635 1
0.981598 0.598749 1
0.563531 0.597848 0.957641
0.598871 0.615625 0.988464
0.631525 0.634668 1
0.656931 0.650599 1
0.667643 0.654612 1
0.677897 0.6551 1
0.694301 0.6542 1
0.76788 0.65124 1
0.946532 0.625223 1
0.578775 0.678111 0.970428
0.610636 0.697887 0.998581
0.640192 0.717769 1
0.661524 0.732235 1
0.667689 0.732891 1
0.672068 0.728191 1
0.682399 0.720668 1
0.739452 0.711177 1
0.90103 0.695781 1
0.637964 0.819196 1
0.66331 0.837751 1
0.686641 0.855329 1
0.700359 0.865293 1
0.69485 0.857557 1
0.685161 0.842573 1
0.682445 0.825025 1
0.724086 0.808454 1
0.868696 0.795346 1
