luts/Cool look.cube
LUT_3D_SIZE 6
0.010245 0.010245 0.010245
0.133614 0.010237 0.010237
0.389498 0.010200 0.010200
0.611589 0.010114 0.010114
0.787537 0.009975 0.009975
0.929667 0.009791 0.009791
0.010223 0.203528 0.010223
0.133613 0.203288 0.010215
0.389498 0.203261 0.010174
0.611589 0.189900 0.010084
0.787537 0.173433 0.009944
0.929667 0.158245 0.009760
0.010105 0.425410 0.010105
0.134928 0.425410 0.010097
0.389495 0.422846 0.010060
0.611588 0.394100 0.009957
0.787536 0.358576 0.009810
0.929667 0.325933 0.009627
0.009829 0.616413 0.009829
0.120494 0.616413 0.009819
0.360344 0.616413 0.009777
0.611587 0.610169 0.009691
0.787535 0.554432 0.009530
0.929666 0.503325 0.009348
0.009365 0.767150 0.009365
0.102046 0.767150 0.009354
0.319010 0.767149 0.009308
0.553598 0.767149 0.009212
0.787533 0.757756 0.009057
0.929663 0.687258 0.008877
0.008717 0.887639 0.008717
0.084830 0.887638 0.008706
0.280316 0.887638 0.008656
0.492125 0.887638 0.008554
0.713795 0.887637 0.008386
0.929660 0.876540 0.008140
0.010242 0.010242 0.226468
0.133108 0.010235 0.226468
0.389498 0.010197 0.226949
0.611589 0.010110 0.211935
0.787537 0.009970 0.193395
0.929668 0.009787 0.176352
0.010220 0.202849 0.226484
0.134371 0.202958 0.229259
0.412629 0.180995 0.205770
0.633553 0.147973 0.170658
0.803453 0.126913 0.147525
0.942083 0.116076 0.134958
0.010102 0.425410 0.228244
0.076258 0.430657 0.176562
0.392286 0.423765 0.164939
0.623547 0.384828 0.148645
0.799479 0.345891 0.135851
0.940631 0.313275 0.127402
0.009825 0.616413 0.213992
0.040633 0.619624 0.141590
0.342721 0.618847 0.133621
0.613078 0.610622 0.129494
0.792749 0.550477 0.124516
0.936147 0.498242 0.120909
0.009361 0.767150 0.195658
0.027813 0.769169 0.126995
0.297135 0.769017 0.120267
0.546608 0.768340 0.119050
0.788431 0.758033 0.117564
0.932755 0.685623 0.116406
0.008713 0.887639 0.178444
0.023867 0.888979 0.121189
0.259771 0.888980 0.115479
0.483157 0.888757 0.115160
0.710768 0.888224 0.114819
0.930298 0.876822 0.114524
0.010228 0.010228 0.469236
0.131429 0.010219 0.469235
0.384715 0.010183 0.469235
0.611589 0.010095 0.441527
0.787537 0.009954 0.401570
0.929668 0.009770 0.364864
0.010202 0.201363 0.469235
0.124183 0.194857 0.495048
0.404361 0.173232 0.488944
0.631506 0.144371 0.441966
0.802434 0.125456 0.393492
0.941532 0.114999 0.354843
0.010087 0.418726 0.469233
0.072274 0.422124 0.476307
0.390777 0.424376 0.474294
0.635071 0.409913 0.453501
0.820419 0.384914 0.423618
0.941824 0.405914 0.437305
0.009809 0.616413 0.445987
0.039741 0.619241 0.432824
0.340451 0.623116 0.427796
0.615875 0.613370 0.419313
0.808424 0.564786 0.399594
0.941453 0.549251 0.437563
0.009343 0.767150 0.406512
0.027604 0.769021 0.388828
0.278113 0.774825 0.370229
0.542280 0.772434 0.367483
0.791590 0.760159 0.355809
0.940500 0.700104 0.389086
0.008694 0.887638 0.369375
0.023809 0.888999 0.352590
0.235553 0.894420 0.330313
0.474867 0.893512 0.329783
0.708167 0.891315 0.323343
0.932975 0.878440 0.315302
0.010194 0.010194 0.673579
0.115089 0.010186 0.673579
0.348237 0.010145 0.673579
0.599955 0.010063 0.673578
0.787537 0.009921 0.621850
0.929668 0.009738 0.564392
0.010166 0.186990 0.673579
0.102210 0.175705 0.706588
0.355417 0.158280 0.699406
0.615749 0.138362 0.689099
0.800823 0.122855 0.625868
0.940662 0.113823 0.563729
0.010040 0.387801 0.673578
0.062916 0.384016 0.689647
0.381052 0.418969 0.699757
0.624752 0.404076 0.694995
0.818729 0.379142 0.643512
0.941778 0.403960 0.602957
0.009777 0.600270 0.673576
0.038105 0.602047 0.677331
0.334250 0.609844 0.684422
0.612952 0.615081 0.679636
0.809121 0.605374 0.663275
0.941470 0.608405 0.657495
0.009307 0.767149 0.629633
0.027202 0.768753 0.624984
0.274695 0.773695 0.621441
0.579808 0.772920 0.647966
0.791913 0.764708 0.643794
0.940378 0.739663 0.655282
0.008655 0.887638 0.571416
0.023731 0.888883 0.564494
0.233849 0.893790 0.556879
0.533322 0.896838 0.605317
0.734236 0.893726 0.606166
0.935358 0.883043 0.596025
0.010142 0.010142 0.833906
0.096222 0.010133 0.833906
0.305908 0.010092 0.833906
0.532717 0.010006 0.833906
0.770020 0.009868 0.833905
0.929667 0.009685 0.771237
0.010112 0.170255 0.833906
0.078668 0.154497 0.865008
0.306895 0.143951 0.858952
0.540479 0.130637 0.851261
0.780842 0.119455 0.844579
0.939464 0.112219 0.776028
0.009982 0.351774 0.833906
0.054375 0.346217 0.852022
0.369063 0.410499 0.869214
0.571285 0.395226 0.866956
0.801318 0.370239 0.861965
0.941747 0.400561 0.790782
0.009709 0.543831 0.833905
0.035514 0.542205 0.841619
0.324862 0.564994 0.860628
0.605079 0.611367 0.859234
0.799865 0.601460 0.855019
0.941326 0.606782 0.811945
0.009250 0.742957 0.833903
0.026593 0.744098 0.836267
0.269528 0.750706 0.844127
0.575344 0.761703 0.845662
0.789057 0.765622 0.841134
0.940096 0.762936 0.830521
0.008592 0.887638 0.781040
0.023634 0.888648 0.779265
0.231111 0.893022 0.779185
0.529448 0.895513 0.796173
0.766251 0.892298 0.819629
0.934171 0.886330 0.816493
0.010074 0.010074 0.974839
0.081287 0.010065 0.974839
0.272283 0.010025 0.974839
0.479340 0.009941 0.974839
0.696134 0.009806 0.974839
0.920042 0.009609 0.974838
0.010045 0.156932 0.974839
0.129477 0.203530 0.974839
0.293458 0.203528 0.974839
0.489891 0.203525 0.974839
0.700593 0.203520 0.974838
0.920641 0.203512 0.974838
0.009917 0.323114 0.974839
0.133603 0.345056 0.974839
0.383275 0.425406 0.974839
0.539030 0.425405 0.974839
0.722752 0.425403 0.974838
0.922613 0.425400 0.974838
0.009651 0.498774 0.974838
0.133593 0.509900 0.974838
0.389485 0.558245 0.974838
0.606689 0.616412 0.974838
0.755002 0.616412 0.974838
0.925431 0.616411 0.974837
0.009201 0.681144 0.974837
0.133573 0.686241 0.974837
0.389475 0.709359 0.974837
0.611585 0.741113 0.974837
0.785369 0.767148 0.974837
0.927622 0.767147 0.974836
0.008503 0.868513 0.974836
0.133561 0.869744 0.974836
0.389511 0.874445 0.974836
0.611583 0.880246 0.974836
0.787530 0.884907 0.974835
0.929176 0.887636 0.974835
