luts/Cool_cannon.cube
TITLE "Generated by Resolve"
LUT_3D_SIZE 9
0.00138857 0 0.0110475
0.0727855 0.00202945 0.0259709
0.216403 0.00833143 0.0532692
0.340414 0.0175937 0.0798352
0.439277 0.0272831 0.103822
0.52401 0.0377966 0.128923
0.602884 0.0510872 0.154223
0.68069 0.0682536 0.179599
0.769787 0.08925 0.205768
0.018204 0.123949 0.0220951
0.0820172 0.113939 0.0526284
0.216114 0.117433 0.0637827
0.35137 0.118242 0.0766003
0.463111 0.12491 0.101671
0.560678 0.134524 0.127794
0.645365 0.147143 0.155825
0.723171 0.162173 0.184176
0.797879 0.177493 0.211246
0.044419 0.269444 0.0481727
0.102449 0.254002 0.0670787
0.227543 0.25417 0.0983597
0.348302 0.255268 0.116335
0.460914 0.255695 0.130449
0.564172 0.2589 0.150057
0.657954 0.264149 0.174609
0.74313 0.271427 0.199649
0.823713 0.279515 0.224613
0.073991 0.391119 0.0905776
0.109224 0.379614 0.086305
0.243046 0.372305 0.117372
0.352468 0.373327 0.140139
0.459205 0.372442 0.159335
0.564706 0.370825 0.181491
0.660975 0.371817 0.199786
0.74815 0.375998 0.22269
0.832181 0.381323 0.245655
0.101457 0.491814 0.144854
0.120912 0.486641 0.123125
0.245472 0.478935 0.133761
0.362844 0.475639 0.162081
0.46006 0.476585 0.180133
0.561257 0.475593 0.200336
0.663569 0.47332 0.225971
0.755917 0.474403 0.248035
0.842344 0.477363 0.268574
0.127031 0.585138 0.194553
0.148592 0.584009 0.17171
0.253407 0.579232 0.164385
0.370977 0.574655 0.183337
0.471382 0.573816 0.204379
0.564141 0.575021 0.221637
0.661234 0.574441 0.242252
0.760327 0.572442 0.268208
0.85153 0.573037 0.292165
0.154147 0.676402 0.243687
0.178912 0.676936 0.215244
0.267811 0.674693 0.198703
0.380636 0.670939 0.207462
0.483436 0.668894 0.228595
0.577462 0.669108 0.246937
0.667079 0.670542 0.263615
0.760662 0.67039 0.283543
0.856809 0.668818 0.308278
0.183474 0.770581 0.287175
0.209796 0.767742 0.255467
0.286442 0.767315 0.232624
0.395117 0.763882 0.238865
0.496498 0.76173 0.252949
0.59205 0.761135 0.271489
0.681437 0.762387 0.288106
0.768399 0.764218 0.303746
0.859495 0.764599 0.322957
0.21384 0.866621 0.324788
0.238682 0.859861 0.292927
0.306706 0.858335 0.26569
0.412467 0.855222 0.271366
0.510246 0.853529 0.276997
0.606958 0.852476 0.295033
0.697429 0.853239 0.311955
0.782956 0.855604 0.327428
0.868894 0.858137 0.343267
0.00323491 0.00205997 0.188724
0.0846571 0.00758373 0.182467
0.225574 0.016968 0.186542
0.346853 0.027985 0.205447
0.450294 0.0380865 0.227604
0.539651 0.0487526 0.245823
0.619379 0.0601053 0.263569
0.694804 0.0751202 0.282551
0.771145 0.0949874 0.303746
0.0246128 0.127611 0.203845
0.0830549 0.118975 0.196063
0.221195 0.119646 0.192416
0.358679 0.118135 0.216144
0.477623 0.120562 0.23592
0.579599 0.132235 0.255665
0.668544 0.146426 0.275868
0.746502 0.161913 0.296391
0.819821 0.177722 0.317556
0.0466621 0.278645 0.205966
0.0884565 0.270604 0.196811
0.222904 0.260029 0.209064
0.349279 0.259297 0.222065
0.472557 0.25655 0.23447
0.587121 0.254871 0.250965
0.691463 0.255329 0.269169
0.782879 0.259251 0.289357
0.861021 0.268299 0.312413
0.0772717 0.403113 0.218387
0.094728 0.399329 0.199985
0.210346 0.386587 0.209827
0.349432 0.377722 0.244419
0.458274 0.376226 0.261799
0.568505 0.374075 0.271321
0.67805 0.371771 0.280964
0.779477 0.37116 0.296483
0.870405 0.373251 0.316106
0.10547 0.505898 0.245441
0.121691 0.506218 0.225528
0.19382 0.498009 0.216861
0.34844 0.483726 0.250675
0.456214 0.480919 0.275166
0.561044 0.478981 0.292653
0.667155 0.476402 0.3093
0.767849 0.475883 0.320333
0.864057 0.47657 0.333867
0.131258 0.599542 0.279713
0.146731 0.604074 0.260075
0.182422 0.602853 0.229191
0.339666 0.588693 0.255909
0.460594 0.581262 0.285389
0.560159 0.58027 0.305074
0.661967 0.57847 0.322652
0.765545 0.575677 0.343725
0.860883 0.575448 0.360464
0.159304 0.690745 0.318807
0.171283 0.695903 0.300298
0.205402 0.698726 0.265187
0.333516 0.69015 0.267384
0.460533 0.680842 0.294209
0.567437 0.676829 0.318257
0.662791 0.676539 0.335912
0.761349 0.675044 0.353857
0.862119 0.672267 0.377127
0.187488 0.781231 0.357687
0.199817 0.784833 0.338003
0.234577 0.789548 0.301717
0.337087 0.786023 0.286946
0.462043 0.777752 0.307881
0.573846 0.772061 0.33164
0.672679 0.770169 0.352071
0.764401 0.770642 0.368719
0.85977 0.769802 0.387381
0.217746 0.877348 0.39118
0.231785 0.873213 0.371176
0.264912 0.878248 0.336477
0.348669 0.877974 0.311192
0.46891 0.871565 0.327382
0.581323 0.865965 0.348302
0.682673 0.863325 0.369192
0.775845 0.863233 0.387655
0.86508 0.8645 0.404303
0.00874342 0.0087129 0.342702
0.0870832 0.0140688 0.340215
0.227634 0.0233005 0.338079
0.350866 0.0330816 0.334142
0.451637 0.0449683 0.334401
0.539742 0.0569619 0.344182
0.62002 0.0687419 0.35935
0.696178 0.0821698 0.376303
0.771634 0.100771 0.394903
0.0318456 0.128023 0.360128
0.0825208 0.119188 0.369833
0.226062 0.117327 0.361593
0.363119 0.118227 0.35465
0.477943 0.12311 0.357763
0.578073 0.135241 0.373846
0.670329 0.148684 0.391943
0.752209 0.163775 0.407385
0.827192 0.179431 0.422507
0.0556649 0.27512 0.365087
0.0886091 0.269581 0.372076
0.208301 0.262791 0.366659
0.350668 0.259861 0.35462
0.469749 0.258106 0.366094
0.586282 0.254963 0.385824
0.695689 0.253712 0.401617
0.794247 0.255711 0.416297
0.875654 0.266117 0.43151
0.0781109 0.400366 0.364172
0.094789 0.400565 0.363546
0.175753 0.394461 0.359564
0.33225 0.38471 0.35404
0.454078 0.379751 0.363668
0.573236 0.374258 0.377188
0.685679 0.37055 0.391913
0.791196 0.368658 0.406989
0.888136 0.369162 0.422812
0.106493 0.504952 0.371008
0.123003 0.510307 0.363851
0.14876 0.509026 0.352209
0.303975 0.498604 0.349538
0.448997 0.485496 0.370062
0.557656 0.481956 0.391012
0.667811 0.479225 0.39762
0.777234 0.476143 0.407568
0.880903 0.474266 0.421042
0.133379 0.601801 0.387396
0.14902 0.61091 0.375296
0.16611 0.612894 0.360739
0.285695 0.605936 0.349676
0.434073 0.592264 0.366812
0.555367 0.584024 0.395819
0.659342 0.581308 0.415091
0.763378 0.578805 0.429953
0.865538 0.577493 0.437583
0.162005 0.695216 0.41268
0.173846 0.704494 0.397635
0.192508 0.710262 0.379538
0.274464 0.708507 0.354772
0.42031 0.695781 0.368994
0.552743 0.684123 0.397574
0.658213 0.680201 0.421057
0.759152 0.678035 0.438727
0.861921 0.675013 0.457984
0.190448 0.786862 0.441596
0.198764 0.794064 0.426307
0.222522 0.801831 0.4038
0.274418 0.805478 0.367025
0.411887 0.795483 0.375738
0.546868 0.783627 0.400015
0.661662 0.776547 0.426734
0.759304 0.774975 0.446036
0.857755 0.773342 0.463325
0.220661 0.883268 0.468742
0.227359 0.882139 0.454536
0.254002 0.890379 0.430045
0.29192 0.896864 0.388602
0.412818 0.891035 0.389029
0.543221 0.881407 0.407279
0.662669 0.873304 0.432578
0.766217 0.869795 0.455497
0.8598 0.869718 0.473259
0.0134127 0.0140841 0.441184
0.0849317 0.019379 0.45127
0.219654 0.0286717 0.452888
0.340826 0.0383001 0.448188
0.444389 0.0481575 0.442969
0.536095 0.0608835 0.438727
0.617899 0.0738842 0.441413
0.694636 0.088304 0.452384
0.769863 0.106325 0.469444
0.0369116 0.129946 0.471763
0.0882734 0.123552 0.493858
0.222553 0.120653 0.49929
0.359716 0.121675 0.492393
0.478309 0.12459 0.487114
0.579156 0.137987 0.479469
0.66833 0.152575 0.483268
0.748531 0.167468 0.495323
0.823835 0.182879 0.510399
0.0627451 0.271366 0.483299
0.102129 0.267811 0.504585
0.204425 0.262211 0.514214
0.349676 0.257893 0.504616
0.472526 0.256489 0.495872
0.584909 0.25658 0.493538
0.689067 0.256962 0.507088
0.787717 0.258213 0.525154
0.873549 0.267079 0.538857
0.0841993 0.394156 0.483711
0.111681 0.39588 0.501595
0.172503 0.392096 0.509834
0.321813 0.383963 0.504417
0.452155 0.378592 0.494011
0.566842 0.375967 0.493019
0.67808 0.371817 0.51281
0.787305 0.36846 0.528923
0.889326 0.367987 0.543053
0.107057 0.499657 0.48574
0.122942 0.506371 0.496529
0.142184 0.507149 0.500481
0.28867 0.49926 0.496757
0.426276 0.491173 0.490303
0.55079 0.485283 0.49012
0.666056 0.480064 0.50486
0.778515 0.475608 0.518639
0.883894 0.473213 0.532128
0.134676 0.59855 0.494591
0.149554 0.60824 0.496864
0.164858 0.613077 0.494713
0.25774 0.610742 0.486976
0.394018 0.602945 0.482551
0.534615 0.591959 0.484596
0.654856 0.584024 0.509422
0.763027 0.581094 0.515801
0.871229 0.577661 0.526589
0.163607 0.693965 0.511193
0.175128 0.704204 0.506798
0.190463 0.712734 0.499916
0.23801 0.716091 0.481559
0.373251 0.708476 0.477165
0.513787 0.697505 0.480369
0.648951 0.685084 0.505394
0.756161 0.680415 0.52929
0.857542 0.678172 0.543725
0.192996 0.789425 0.53286
0.200214 0.795865 0.524285
0.218372 0.806165 0.513039
0.251652 0.813352 0.488655
0.360555 0.809766 0.47715
0.500298 0.798962 0.481819
0.6392 0.78587 0.502678
0.753307 0.778805 0.529702
0.855268 0.77583 0.549828
0.223239 0.88661 0.555856
0.226932 0.885573 0.546151
0.249302 0.896132 0.530282
0.279667 0.905211 0.504189
0.358663 0.906874 0.482704
0.491341 0.898482 0.485313
0.628611 0.886427 0.502968
0.751766 0.876921 0.530327
0.854002 0.873884 0.553338
0.0175479 0.0188296 0.517968
0.0829023 0.0241245 0.53283
0.208286 0.03299 0.540383
0.326314 0.0428321 0.540887
0.429618 0.0529793 0.538872
0.524971 0.0636912 0.53492
0.611872 0.0771496 0.531518
0.691875 0.0935836 0.533959
0.771389 0.112078 0.545495
0.0413367 0.133196 0.555657
0.0937209 0.130007 0.586053
0.21767 0.128862 0.603449
0.348867 0.131746 0.603296
0.46424 0.136492 0.598947
0.570428 0.14255 0.592782
0.663157 0.1561 0.583719
0.745022 0.171603 0.581735
0.820523 0.187228 0.588037
0.0670634 0.269017 0.576944
0.108888 0.267613 0.609415
0.203525 0.262592 0.641245
0.34461 0.258228 0.639597
0.468742 0.256077 0.632013
0.58378 0.255772 0.623911
0.689754 0.257511 0.617319
0.784848 0.261387 0.618997
0.868391 0.270344 0.627543
0.0889296 0.389242 0.583902
0.121508 0.391348 0.613184
0.179889 0.38938 0.64004
0.317861 0.382406 0.643565
0.4477 0.376959 0.635981
0.567788 0.37351 0.626062
0.679026 0.372076 0.619745
0.781231 0.371679 0.627649
0.880018 0.371283 0.645289
0.109438 0.494331 0.587488
0.133898 0.500069 0.61059
0.166796 0.501717 0.63035
0.28603 0.496788 0.63798
0.419013 0.489799 0.633951
0.546365 0.483894 0.625513
0.662074 0.48098 0.617441
0.768124 0.478294 0.631861
0.875135 0.47483 0.649836
0.136126 0.594369 0.5944
0.149996 0.602594 0.609018
0.167529 0.608789 0.622278
0.254856 0.607797 0.628214
0.387137 0.601022 0.625284
0.517952 0.593835 0.620371
0.64242 0.587945 0.613748
0.755291 0.58291 0.627161
0.867979 0.577661 0.641703
0.165576 0.692287 0.608576
0.175433 0.69984 0.613718
0.191501 0.708965 0.61973
0.231586 0.714443 0.619165
0.358526 0.709072 0.615702
0.488197 0.702007 0.611139
0.62031 0.693507 0.606683
0.751705 0.683146 0.619318
0.854582 0.680858 0.631342
0.195712 0.790845 0.627604
0.201114 0.793378 0.624659
0.219669 0.804364 0.624247
0.248508 0.813031 0.616587
0.337301 0.81326 0.60798
0.465782 0.806714 0.602884
0.59675 0.798627 0.600153
0.733272 0.787076 0.609781
0.852216 0.778149 0.639719
0.225879 0.888457 0.646891
0.228824 0.885771 0.640116
0.2495 0.896254 0.633677
0.275761 0.906752 0.621164
0.330037 0.912749 0.604212
0.451087 0.908492 0.598108
0.582879 0.90042 0.596948
0.717769 0.889647 0.606424
0.8439 0.879423 0.632807
0.0229191 0.0245212 0.604532
0.0836347 0.0288548 0.605524
0.201175 0.0373388 0.616266
0.314763 0.0470436 0.620829
0.416281 0.0571756 0.622263
0.512108 0.0682689 0.62118
0.603922 0.0820783 0.62179
0.691524 0.0993362 0.624292
0.777386 0.11696 0.633143
0.0461738 0.138308 0.631815
0.0989242 0.137438 0.660014
0.214923 0.13843 0.68191
0.33843 0.14229 0.688258
0.449088 0.147601 0.688304
0.553292 0.154696 0.685206
0.650111 0.162722 0.680262
0.737179 0.175952 0.673289
0.816083 0.19147 0.670893
0.0709697 0.269352 0.658
0.113832 0.269154 0.689998
0.209277 0.265843 0.730541
0.33962 0.261311 0.746014
0.460761 0.259205 0.745449
0.57499 0.258671 0.739391
0.681178 0.260227 0.731014
0.778729 0.264363 0.722362
0.864591 0.273304 0.717128
0.0919051 0.386633 0.670497
0.126589 0.388556 0.701778
0.1953 0.38761 0.738323
0.317021 0.381872 0.761212
0.442618 0.376791 0.760708
0.563027 0.373053 0.75375
0.676493 0.371191 0.745342
0.782147 0.371466 0.738201
0.878935 0.373495 0.737819
0.111666 0.491157 0.67837
0.139666 0.495232 0.704585
0.18674 0.497612 0.735698
0.28893 0.494392 0.761303
0.41619 0.488563 0.762631
0.541497 0.482963 0.75671
0.660227 0.479271 0.747631
0.77052 0.477562 0.740017
0.872236 0.477226 0.74284
0.137316 0.593576 0.690318
0.1561 0.597665 0.706172
0.188251 0.602991 0.730541
0.261326 0.604135 0.753902
0.385946 0.598733 0.756817
0.513527 0.592126 0.75375
0.637995 0.586206 0.746654
0.753536 0.582895 0.737728
0.857893 0.581033 0.743938
0.16846 0.69366 0.704952
0.176654 0.69572 0.710903
0.199023 0.70399 0.727901
0.240574 0.709865 0.744823
0.358236 0.706355 0.747875
0.484733 0.699886 0.745968
0.610834 0.692958 0.741787
0.733486 0.687236 0.733761
0.844968 0.682857 0.743084
0.198764 0.79205 0.721599
0.202655 0.790341 0.719585
0.223774 0.800092 0.728756
0.250874 0.809125 0.736278
0.337392 0.810376 0.738796
0.459068 0.805432 0.736614
0.58439 0.798886 0.732952
0.70956 0.792325 0.728649
0.839963 0.783093 0.731167
0.228626 0.889754 0.738552
0.230991 0.885786 0.733242
0.252506 0.893477 0.734203
0.277623 0.904082 0.734005
0.327016 0.911162 0.730556
0.438529 0.9093 0.727337
0.560983 0.90428 0.723461
0.68481 0.898161 0.720027
0.812863 0.890288 0.720134
0.0299229 0.0322118 0.708598
0.0906691 0.0362249 0.70631
0.203037 0.0440528 0.707317
0.312123 0.052842 0.7084
0.412207 0.0630808 0.710384
0.50927 0.0756085 0.713085
0.603723 0.0903792 0.716976
0.694835 0.105303 0.721843
0.782376 0.12192 0.72697
0.0523384 0.14522 0.731899
0.10399 0.144854 0.736049
0.215259 0.147539 0.752422
0.330816 0.152468 0.761288
0.437079 0.158602 0.765133
0.538582 0.165759 0.765499
0.634531 0.173983 0.763409
0.72517 0.182986 0.760952
0.80882 0.195972 0.756939
0.0757305 0.272984 0.75285
0.119951 0.272343 0.763027
0.216678 0.270359 0.801907
0.3364 0.266499 0.826871
0.451133 0.265629 0.831556
0.561898 0.265385 0.83064
0.666941 0.26659 0.826154
0.764645 0.270481 0.818982
0.855711 0.276463 0.811521
0.0953994 0.388342 0.76614
0.131823 0.388037 0.779492
0.21059 0.387488 0.817487
0.320729 0.383169 0.838636
0.439567 0.379004 0.83917
0.556329 0.375494 0.839155
0.668711 0.373556 0.8392
0.774227 0.373632 0.83946
0.87274 0.375998 0.839033
0.114488 0.492805 0.776745
0.144778 0.492821 0.787778
0.206332 0.49485 0.820874
0.299046 0.492805 0.838331
0.41767 0.488289 0.838743
0.538338 0.483223 0.838773
0.656046 0.479286 0.838972
0.767178 0.477256 0.839063
0.871931 0.476936 0.839628
0.139788 0.595453 0.788251
0.160815 0.594202 0.793484
0.208423 0.598596 0.821637
0.276936 0.600229 0.837659
0.391379 0.596735 0.838437
0.512993 0.591104 0.838575
0.634699 0.58558 0.838666
0.750591 0.581735 0.838941
0.859571 0.579797 0.839429
0.168795 0.695613 0.801343
0.181567 0.692943 0.802518
0.217807 0.698833 0.823133
0.264866 0.704051 0.836301
0.366842 0.702663 0.83801
0.485451 0.697704 0.838254
0.608667 0.691707 0.838666
0.72929 0.686244 0.839063
0.843671 0.682658 0.839567
0.201175 0.793591 0.815991
0.205768 0.790188 0.813519
0.231968 0.795926 0.824582
0.263005 0.804105 0.835874
0.347387 0.806226 0.837964
0.460502 0.803006 0.838163
0.582238 0.79736 0.838697
0.704509 0.791409 0.839536
0.824384 0.786206 0.837644
0.231632 0.890883 0.826932
0.23357 0.8869 0.822049
0.256245 0.890608 0.823697
0.281346 0.900572 0.831922
0.335637 0.90724 0.836439
0.439689 0.907088 0.836698
0.558129 0.90309 0.834348
0.679286 0.897749 0.829297
0.800793 0.892287 0.823789
0.0365759 0.0396582 0.79852
0.0972915 0.0433051 0.794614
0.206928 0.0507362 0.793851
0.314916 0.0593271 0.792737
0.414191 0.069688 0.792569
0.511147 0.0824598 0.793271
0.604883 0.0963149 0.79472
0.695567 0.110994 0.797314
0.783612 0.126116 0.800748
0.0577859 0.151003 0.815747
0.108248 0.150561 0.817426
0.216587 0.153582 0.821683
0.328267 0.159152 0.823011
0.431724 0.165454 0.827344
0.531716 0.172534 0.828229
0.627192 0.18088 0.826886
0.717891 0.189883 0.824491
0.805203 0.199344 0.823026
0.0795605 0.276326 0.83032
0.123812 0.275364 0.832334
0.220645 0.27396 0.860471
0.334997 0.270787 0.884581
0.44625 0.270604 0.886625
0.55462 0.271107 0.886946
0.65832 0.272862 0.884901
0.756558 0.276005 0.881117
0.849882 0.279896 0.875013
0.0979629 0.390219 0.837919
0.136095 0.389212 0.841627
0.216617 0.38851 0.872923
0.321843 0.383993 0.89218
0.437751 0.380499 0.892607
0.553552 0.377188 0.892882
0.665278 0.375051 0.892714
0.770916 0.375143 0.892836
0.869963 0.377157 0.893263
0.116457 0.494484 0.843091
0.148302 0.493141 0.846845
0.212955 0.494728 0.872786
0.301549 0.49276 0.891615
0.417685 0.488563 0.892256
0.536934 0.48368 0.892378
0.654353 0.479759 0.892363
0.765682 0.477653 0.892531
0.870878 0.477272 0.892897
0.141192 0.596841 0.848692
0.164187 0.594797 0.851087
0.214664 0.598642 0.873289
0.28249 0.600046 0.88896
0.391135 0.596948 0.891829
0.511757 0.59147 0.891829
0.633219 0.585992 0.891905
0.749447 0.582177 0.89218
0.858747 0.580179 0.892561
0.169543 0.696681 0.855955
0.183825 0.693706 0.855558
0.223239 0.698924 0.874678
0.273335 0.703593 0.886473
0.365805 0.703334 0.891386
0.484535 0.698283 0.891814
0.607385 0.692226 0.891829
0.728298 0.686671 0.892256
0.84268 0.683177 0.892653
0.200824 0.794812 0.864851
0.207385 0.790982 0.862257
0.237842 0.79617 0.874006
0.273152 0.803723 0.886549
0.34667 0.806745 0.891234
0.459464 0.803769 0.891539
0.581643 0.797909 0.892149
0.703746 0.791943 0.892653
0.823819 0.786664 0.890883
0.233555 0.891951 0.874418
0.235279 0.888075 0.870161
0.257038 0.891249 0.873167
0.281544 0.901045 0.883284
0.33492 0.907851 0.889647
0.438743 0.907805 0.890349
0.557153 0.903639 0.887541
0.678325 0.898405 0.882445
0.799863 0.892729 0.877119
0.0404669 0.0443122 0.851057
0.100145 0.0477607 0.847211
0.208515 0.0550851 0.846036
0.316014 0.0637369 0.844892
0.41471 0.0740826 0.844434
0.511086 0.0866255 0.844709
0.604273 0.10016 0.845685
0.694804 0.114488 0.84799
0.782666 0.12958 0.851179
0.060853 0.154421 0.867506
0.110872 0.153857 0.868971
0.217609 0.156603 0.872816
0.328313 0.162554 0.874098
0.431418 0.168643 0.878325
0.530541 0.175799 0.878752
0.625666 0.184115 0.877073
0.715938 0.193545 0.874632
0.802945 0.203403 0.873106
0.0820783 0.278294 0.881361
0.12578 0.27744 0.883085
0.2215 0.275837 0.90988
0.334417 0.27303 0.933715
0.444862 0.273152 0.93576
0.552331 0.274128 0.936156
0.655344 0.276509 0.934264
0.753292 0.280186 0.930632
0.845899 0.284947 0.924697
0.099733 0.39176 0.888624
0.138109 0.390402 0.891737
0.218311 0.389776 0.922454
0.32047 0.384573 0.945708
0.436454 0.380941 0.946242
0.552361 0.377493 0.946319
0.664195 0.37557 0.946166
0.770031 0.37557 0.946288
0.869108 0.377584 0.946517
0.118395 0.495705 0.893126
0.150515 0.494087 0.896773
0.215534 0.495476 0.92221
0.302068 0.493294 0.942535
0.416403 0.489128 0.946014
0.536034 0.484184 0.945983
0.653346 0.480339 0.945937
0.764904 0.478202 0.946075
0.870176 0.477775 0.946334
0.14258 0.597971 0.898375
0.166232 0.595651 0.900572
0.21825 0.599145 0.922789
0.287129 0.600244 0.938186
0.38967 0.597314 0.945037
0.510597 0.591897 0.945174
0.632517 0.586511 0.945541
0.748501 0.582605 0.945434
0.857954 0.580789 0.945953
0.170367 0.698039 0.905318
0.185809 0.694713 0.905013
0.22768 0.699565 0.924437
0.280201 0.703716 0.936477
0.365118 0.70367 0.944595
0.483223 0.698772 0.944976
0.606409 0.692622 0.945052
0.72752 0.687144 0.945647
0.842023 0.683833 0.946014
0.200824 0.79588 0.913344
0.20856 0.791836 0.911055
0.242679 0.796628 0.9234
0.281605 0.803784 0.937011
0.345693 0.80734 0.944396
0.458396 0.804227 0.944854
0.58053 0.798459 0.945357
0.702663 0.792493 0.945724
0.823163 0.787396 0.944442
0.233814 0.892958 0.922164
0.236591 0.888991 0.918364
0.26099 0.891661 0.922667
0.288075 0.901274 0.934447
0.334356 0.908339 0.942962
0.438132 0.908278 0.943542
0.555993 0.90428 0.940658
0.677867 0.899199 0.936004
0.79971 0.893263 0.930663
