luts/Cool_cannon.cube
TITLE "Generated by Resolve"
LUT_3D_SIZE 5
0.00138857 0 0.0110475
0.216403 0.00833143 0.0532692
0.439277 0.0272831 0.103822
0.602884 0.0510872 0.154223
0.769787 0.08925 0.205768
0.044419 0.269444 0.0481727
0.227543 0.25417 0.0983597
0.460914 0.255695 0.130449
0.657954 0.264149 0.174609
0.823713 0.279515 0.224613
0.101457 0.491814 0.144854
0.245472 0.478935 0.133761
0.46006 0.476585 0.180133
0.663569 0.47332 0.225971
0.842344 0.477363 0.268574
0.154147 0.676402 0.243687
0.267811 0.674693 0.198703
0.483436 0.668894 0.228595
0.667079 0.670542 0.263615
0.856809 0.668818 0.308278
0.21384 0.866621 0.324788
0.306706 0.858335 0.26569
0.510246 0.853529 0.276997
0.697429 0.853239 0.311955
0.868894 0.858137 0.343267
0.00874342 0.0087129 0.342702
0.227634 0.0233005 0.338079
0.451637 0.0449683 0.334401
0.62002 0.0687419 0.35935
0.771634 0.100771 0.394903
0.0556649 0.27512 0.365087
0.208301 0.262791 0.366659
0.469749 0.258106 0.366094
0.695689 0.253712 0.401617
0.875654 0.266117 0.43151
0.106493 0.504952 0.371008
0.14876 0.509026 0.352209
0.448997 0.485496 0.370062
0.667811 0.479225 0.39762
0.880903 0.474266 0.421042
0.162005 0.695216 0.41268
0.192508 0.710262 0.379538
0.42031 0.695781 0.368994
0.658213 0.680201 0.421057
0.861921 0.675013 0.457984
0.220661 0.883268 0.468742
0.254002 0.890379 0.430045
0.412818 0.891035 0.389029
0.662669 0.873304 0.432578
0.8598 0.869718 0.473259
0.0175479 0.0188296 0.517968
0.208286 0.03299 0.540383
0.429618 0.0529793 0.538872
0.611872 0.0771496 0.531518
0.771389 0.112078 0.545495
0.0670634 0.269017 0.576944
0.203525 0.262592 0.641245
0.468742 0.256077 0.632013
0.689754 0.257511 0.617319
0.868391 0.270344 0.627543
0.109438 0.494331 0.587488
0.166796 0.501717 0.63035
0.419013 0.489799 0.633951
0.662074 0.48098 0.617441
0.875135 0.47483 0.649836
0.165576 0.692287 0.608576
0.191501 0.708965 0.61973
0.358526 0.709072 0.615702
0.62031 0.693507 0.606683
0.854582 0.680858 0.631342
0.225879 0.888457 0.646891
0.2495 0.896254 0.633677
0.330037 0.912749 0.604212
0.582879 0.90042 0.596948
0.8439 0.879423 0.632807
0.0299229 0.0322118 0.708598
0.203037 0.0440528 0.707317
0.412207 0.0630808 0.710384
0.603723 0.0903792 0.716976
0.782376 0.12192 0.72697
0.0757305 0.272984 0.75285
0.216678 0.270359 0.801907
0.451133 0.265629 0.831556
0.666941 0.26659 0.826154
0.855711 0.276463 0.811521
0.114488 0.492805 0.776745
0.206332 0.49485 0.820874
0.41767 0.488289 0.838743
0.656046 0.479286 0.838972
0.871931 0.476936 0.839628
0.168795 0.695613 0.801343
0.217807 0.698833 0.823133
0.366842 0.702663 0.83801
0.608667 0.691707 0.838666
0.843671 0.682658 0.839567
0.231632 0.890883 0.826932
0.256245 0.890608 0.823697
0.335637 0.90724 0.836439
0.558129 0.90309 0.834348
0.800793 0.892287 0.823789
0.0404669 0.0443122 0.851057
0.208515 0.0550851 0.846036
0.41471 0.0740826 0.844434
0.604273 0.10016 0.845685
0.782666 0.12958 0.851179
0.0820783 0.278294 0.881361
0.2215 0.275837 0.90988
0.444862 0.273152 0.93576
0.655344 0.276509 0.934264
0.845899 0.284947 0.924697
0.118395 0.495705 0.893126
0.215534 0.495476 0.92221
0.416403 0.489128 0.946014
0.653346 0.480339 0.945937
0.870176 0.477775 0.946334
0.170367 0.698039 0.905318
0.22768 0.699565 0.924437
0.365118 0.70367 0.944595
0.606409 0.692622 0.945052
0.842023 0.683833 0.946014
0.233814 0.892958 0.922164
0.26099 0.891661 0.922667
0.334356 0.908339 0.942962
0.555993 0.90428 0.940658
0.79971 0.893263 0.930663
