luts/Cool_cannon.cube
TITLE "Generated by Resolve"
LUT_3D_SIZE 33
0.00138857 0 0.0110475
0.0121157 0.00030518 0.0115816
0.0251469 0.000640879 0.0149538
0.0440833 0.00120546 0.0200351
0.0727855 0.00202945 0.0259709
0.109895 0.00315862 0.032929
0.146075 0.00451667 0.0395972
0.181872 0.00628672 0.0464485
0.216403 0.00833143 0.0532692
0.249592 0.0104982 0.0600137
0.281254 0.0127565 0.0666056
0.311971 0.0152895 0.0734264
0.340414 0.0175937 0.0798352
0.36701 0.019913 0.0862745
0.392142 0.0222629 0.0919966
0.416373 0.0248875 0.0980392
0.439277 0.0272831 0.103822
0.461341 0.0297551 0.10985
0.482826 0.0324102 0.116182
0.503471 0.0349737 0.122484
0.52401 0.0377966 0.128923
0.543816 0.0407111 0.13521
0.563455 0.0439307 0.141405
0.583307 0.0474861 0.147875
0.602884 0.0510872 0.154223
0.622065 0.054963 0.160418
0.641443 0.0593118 0.166873
0.660655 0.0636912 0.173098
0.68069 0.0682536 0.179599
0.702205 0.0734264 0.186236
0.724514 0.0785534 0.192676
0.747127 0.0840162 0.199145
0.769787 0.08925 0.205768
0.002121 0.0123751 0.0159609
0.0167697 0.0131685 0.016083
0.0319829 0.0137942 0.0190738
0.0486458 0.014435 0.021973
0.0748913 0.0148928 0.0258335
0.111727 0.0154574 0.0312963
0.147005 0.0169833 0.0365454
0.181216 0.0187686 0.0424506
0.214817 0.020737 0.0484169
0.247593 0.0228275 0.0543832
0.279423 0.0250706 0.0604715
0.310506 0.0275883 0.0669871
0.340185 0.0303502 0.0735637
0.367971 0.0329747 0.0799268
0.394095 0.0356603 0.0867933
0.419043 0.0383917 0.0932479
0.443198 0.041474 0.0997635
0.466255 0.044419 0.106279
0.488136 0.0476692 0.112093
0.510597 0.0505837 0.121813
0.531853 0.0542916 0.128801
0.552285 0.0579538 0.135409
0.572564 0.0621958 0.141878
0.592874 0.0671855 0.148547
0.613031 0.0725261 0.15523
0.632654 0.0776684 0.161608
0.652155 0.0833143 0.168093
0.671519 0.0886244 0.174548
0.690837 0.0938277 0.181079
0.710338 0.0990921 0.187549
0.731456 0.103975 0.194553
0.753491 0.108812 0.201221
0.77583 0.113497 0.207706
0.0069276 0.0427405 0.0188602
0.0211795 0.0395666 0.0207828
0.0360876 0.0397803 0.0260624
0.0524453 0.0407416 0.0290684
0.0754864 0.0419928 0.0307622
0.10808 0.0423285 0.0332647
0.146014 0.0423438 0.0375219
0.18323 0.0423438 0.0421912
0.219272 0.0423285 0.0469215
0.25333 0.0428931 0.0520638
0.284794 0.0449073 0.0583963
0.315389 0.0473487 0.0655985
0.345281 0.05037 0.0731823
0.373495 0.0534066 0.0802472
0.400061 0.0565042 0.0869917
0.425956 0.0600748 0.0930648
0.45098 0.0637827 0.0997482
0.474907 0.0677806 0.106523
0.4981 0.0720684 0.113344
0.520546 0.0765393 0.120317
0.542168 0.0814527 0.127138
0.563195 0.0859998 0.133761
0.583642 0.0906233 0.140322
0.603998 0.0950942 0.147204
0.623941 0.0999008 0.153887
0.643626 0.104448 0.160555
0.663096 0.109071 0.167102
0.68217 0.113329 0.173602
0.701228 0.117601 0.180117
0.72018 0.121843 0.18674
0.739788 0.126116 0.194049
0.75993 0.130297 0.200443
0.78117 0.134386 0.206729
0.0130007 0.0831464 0.0209812
0.0268406 0.0774243 0.0249943
0.0412757 0.0753338 0.0340124
0.0559701 0.076112 0.0398718
0.0764172 0.0786603 0.0419318
0.108492 0.079118 0.0444495
0.14464 0.0798505 0.0468452
0.181353 0.0800031 0.0491646
0.2177 0.0801709 0.0525216
0.252934 0.0803388 0.0563973
0.287373 0.0803998 0.0607462
0.320668 0.0809796 0.0657206
0.351354 0.0827344 0.0719158
0.38088 0.0846723 0.0784619
0.408515 0.0866255 0.085008
0.434821 0.0894026 0.0914626
0.460014 0.0926986 0.0987564
0.484291 0.0961471 0.105913
0.50782 0.0996262 0.113161
0.530648 0.103502 0.120302
0.552529 0.10724 0.127443
0.5738 0.111131 0.134386
0.594736 0.114977 0.141634
0.614923 0.118807 0.148486
0.634882 0.122835 0.155383
0.654688 0.127047 0.162356
0.674174 0.131075 0.169238
0.693309 0.135027 0.175921
0.712383 0.138994 0.182666
0.731289 0.143267 0.189319
0.750286 0.147234 0.196246
0.768917 0.151308 0.202655
0.78851 0.15523 0.209018
0.018204 0.123949 0.0220951
0.0321508 0.117449 0.0271458
0.0462501 0.113451 0.0376898
0.0606851 0.112581 0.046891
0.0820172 0.113939 0.0526284
0.110994 0.116426 0.055314
0.145159 0.117098 0.0579995
0.181003 0.117266 0.0617075
0.216114 0.117433 0.0637827
0.25098 0.117708 0.066041
0.285328 0.117861 0.068864
0.319051 0.117845 0.0719921
0.35137 0.118242 0.0766003
0.381018 0.119448 0.0829023
0.409369 0.121172 0.0889448
0.436774 0.122957 0.0953994
0.463111 0.12491 0.101671
0.488746 0.127016 0.10811
0.513527 0.129244 0.114488
0.537453 0.131624 0.12105
0.560678 0.134524 0.127794
0.583383 0.13698 0.1346
0.604852 0.139956 0.141466
0.625238 0.143572 0.148638
0.645365 0.147143 0.155825
0.665309 0.15111 0.163119
0.684871 0.154711 0.170306
0.704204 0.158419 0.177279
0.723171 0.162173 0.184176
0.742 0.165866 0.190967
0.76109 0.169879 0.198108
0.779538 0.173602 0.20473
0.797879 0.177493 0.211246
0.0233005 0.162539 0.0255589
0.0366369 0.1561 0.0291905
0.05066 0.151385 0.0394141
0.0662394 0.149233 0.050248
0.0893416 0.149157 0.0587778
0.119234 0.150744 0.0644236
0.148577 0.152728 0.0679179
0.181369 0.153552 0.071107
0.216785 0.153429 0.0753338
0.250629 0.153536 0.078172
0.284001 0.153796 0.0801862
0.317006 0.153948 0.0822919
0.349508 0.153979 0.0849012
0.380484 0.154406 0.0887007
0.408743 0.155306 0.0944076
0.436423 0.156893 0.100465
0.463249 0.158541 0.106569
0.489494 0.159945 0.112688
0.514961 0.161807 0.11902
0.539818 0.163653 0.125658
0.563745 0.165667 0.132204
0.586816 0.168246 0.138888
0.609049 0.170489 0.145388
0.630655 0.173053 0.15198
0.651896 0.175463 0.158648
0.672831 0.178042 0.165377
0.693233 0.181109 0.172015
0.713344 0.183642 0.178515
0.733166 0.186404 0.184985
0.75227 0.189487 0.191745
0.771313 0.193225 0.199008
0.789929 0.196719 0.205982
0.80827 0.20029 0.21268
0.029984 0.199481 0.0332647
0.0411078 0.193713 0.0326696
0.0548104 0.188846 0.0413825
0.0709544 0.185687 0.0526131
0.0955825 0.184451 0.0627756
0.12726 0.184848 0.0707713
0.156634 0.186236 0.0762036
0.185336 0.188159 0.0797436
0.216922 0.188724 0.0828565
0.251255 0.188525 0.0875257
0.284504 0.188632 0.0914626
0.316594 0.188861 0.0944381
0.347997 0.189014 0.0966659
0.378332 0.189334 0.0990311
0.407706 0.189548 0.101839
0.435523 0.190326 0.107042
0.463004 0.191592 0.113024
0.489372 0.192889 0.118837
0.515328 0.194125 0.124849
0.540352 0.195743 0.130968
0.56466 0.197375 0.137209
0.58851 0.199344 0.143755
0.611322 0.201404 0.150195
0.633646 0.203311 0.156802
0.655238 0.205585 0.163409
0.676371 0.207782 0.170016
0.697261 0.210391 0.176745
0.717708 0.212726 0.183246
0.737728 0.215091 0.189639
0.757549 0.217609 0.196078
0.777188 0.220096 0.202457
0.796918 0.222797 0.208988
0.816175 0.225299 0.215198
0.0371557 0.23537 0.0405127
0.0468605 0.229755 0.0378576
0.0588388 0.225208 0.0438392
0.0742504 0.221744 0.0542153
0.0998093 0.219562 0.065095
0.133318 0.218967 0.0746777
0.164019 0.219532 0.0820172
0.19295 0.220829 0.0871901
0.221195 0.22237 0.0910201
0.25182 0.223102 0.0946975
0.284627 0.222736 0.0995041
0.317037 0.222538 0.104372
0.347967 0.222751 0.108125
0.3776 0.222873 0.110933
0.406088 0.223224 0.113588
0.434409 0.223423 0.116182
0.461967 0.223865 0.120043
0.488609 0.225086 0.12578
0.51458 0.226108 0.131487
0.539925 0.227222 0.137255
0.56463 0.228595 0.143206
0.588663 0.229908 0.149294
0.612299 0.231785 0.155825
0.635081 0.233478 0.162356
0.657038 0.235264 0.16875
0.678614 0.23711 0.175189
0.699855 0.23917 0.181704
0.720592 0.241367 0.188113
0.741054 0.243397 0.194553
0.761044 0.245624 0.200824
0.781216 0.247959 0.207355
0.800885 0.250324 0.213596
0.820539 0.252674 0.219944
0.044419 0.269444 0.0481727
0.0537881 0.264118 0.045304
0.0623789 0.26006 0.047013
0.0769055 0.256489 0.0562753
0.102449 0.254002 0.0670787
0.13724 0.252537 0.0776074
0.169604 0.252293 0.0864424
0.199298 0.252964 0.0933394
0.227543 0.25417 0.0983597
0.255253 0.25539 0.102037
0.284947 0.255848 0.105913
0.316747 0.255604 0.110903
0.348302 0.255268 0.116335
0.377951 0.255131 0.120745
0.405936 0.255177 0.124346
0.433585 0.255467 0.127504
0.460914 0.255695 0.130449
0.488365 0.256092 0.133639
0.514275 0.256901 0.138766
0.539467 0.257786 0.14432
0.564172 0.2589 0.150057
0.588403 0.260029 0.155901
0.612406 0.261448 0.162188
0.635447 0.262776 0.168414
0.657954 0.264149 0.174609
0.679713 0.265873 0.180789
0.701396 0.267781 0.187228
0.722423 0.269535 0.193423
0.74313 0.271427 0.199649
0.763622 0.273259 0.205951
0.784192 0.275303 0.212406
0.804074 0.27747 0.218585
0.823713 0.279515 0.224613
0.0517433 0.30222 0.0570077
0.0599069 0.297383 0.0532692
0.0686503 0.293492 0.0548104
0.0781567 0.290394 0.0586709
0.103548 0.287495 0.0694743
0.13901 0.285344 0.0800641
0.173053 0.284413 0.0898604
0.204349 0.284413 0.0979934
0.233204 0.285084 0.104189
0.260838 0.28603 0.108919
0.288121 0.287007 0.112871
0.317143 0.287495 0.116976
0.347539 0.287312 0.122087
0.377798 0.286641 0.127596
0.406195 0.286336 0.132647
0.433814 0.286168 0.13695
0.460792 0.286305 0.140734
0.487663 0.286748 0.144472
0.514046 0.286961 0.14789
0.539834 0.287327 0.15172
0.564202 0.288182 0.15729
0.58854 0.289342 0.163149
0.612238 0.29041 0.168963
0.63534 0.291569 0.174899
0.658228 0.292653 0.180972
0.680629 0.294118 0.187106
0.702251 0.295613 0.193088
0.723613 0.29723 0.199207
0.74464 0.298665 0.205188
0.765286 0.300511 0.211246
0.786007 0.302327 0.217517
0.806378 0.304097 0.223713
0.826352 0.306065 0.229709
0.0593423 0.333608 0.0665293
0.0657969 0.329259 0.0616922
0.0746471 0.32546 0.0631723
0.0831311 0.322515 0.0655985
0.104799 0.319844 0.0724498
0.140078 0.317372 0.0827344
0.175463 0.315724 0.0928054
0.207996 0.315022 0.101854
0.237644 0.315267 0.109026
0.265675 0.315847 0.114794
0.292622 0.31667 0.119417
0.319783 0.317647 0.123644
0.347845 0.317891 0.127855
0.376761 0.317464 0.132845
0.405585 0.316808 0.13846
0.433799 0.316274 0.143999
0.461295 0.316182 0.149233
0.48777 0.316182 0.153674
0.513832 0.316258 0.157717
0.539361 0.316442 0.161501
0.564645 0.316701 0.165286
0.589181 0.317372 0.170184
0.612589 0.318318 0.175845
0.635569 0.319295 0.181567
0.658274 0.320272 0.187335
0.680827 0.321645 0.193393
0.702846 0.322744 0.199252
0.724514 0.324025 0.205203
0.745785 0.325414 0.211093
0.766812 0.327077 0.21709
0.787579 0.328542 0.22298
0.807996 0.33019 0.228824
0.828336 0.332128 0.234836
0.0666514 0.363165 0.0778363
0.070634 0.359747 0.0708629
0.0794842 0.356115 0.0720836
0.0879683 0.353185 0.0743114
0.105898 0.350729 0.0772869
0.140169 0.348104 0.0855573
0.176471 0.346044 0.0957809
0.210269 0.344732 0.105394
0.24094 0.344366 0.11339
0.26952 0.344564 0.119829
0.296971 0.345296 0.125399
0.323232 0.34609 0.129915
0.349691 0.346593 0.134035
0.376776 0.346685 0.138369
0.404334 0.346258 0.143282
0.43267 0.345602 0.149004
0.460685 0.345037 0.154986
0.487709 0.344518 0.160449
0.513787 0.344381 0.165393
0.539406 0.344335 0.16997
0.56463 0.344579 0.17438
0.589334 0.344747 0.178531
0.613596 0.344961 0.182635
0.636942 0.345724 0.18822
0.659464 0.346761 0.193988
0.681651 0.347662 0.199634
0.703441 0.348806 0.20531
0.7252 0.349889 0.211048
0.746654 0.351385 0.216938
0.767987 0.35256 0.222736
0.788907 0.353841 0.228489
0.809934 0.355428 0.234531
0.830442 0.356909 0.240284
0.073991 0.391119 0.0905776
0.0780194 0.387991 0.0843671
0.0834516 0.385153 0.0816968
0.0915847 0.382025 0.08365
0.109224 0.379614 0.086305
0.139208 0.377279 0.0889906
0.17673 0.374823 0.0990616
0.21149 0.373022 0.108766
0.243046 0.372305 0.117372
0.272511 0.372107 0.12462
0.300237 0.372274 0.130648
0.32694 0.372686 0.135836
0.352468 0.373327 0.140139
0.378103 0.373709 0.144167
0.404288 0.373877 0.148669
0.431388 0.373419 0.153719
0.459205 0.372442 0.159335
0.486686 0.371695 0.165286
0.513527 0.371237 0.171191
0.539528 0.371008 0.176608
0.564706 0.370825 0.181491
0.589456 0.370779 0.186145
0.613855 0.371176 0.190829
0.637675 0.371389 0.195163
0.660975 0.371817 0.199786
0.683055 0.372747 0.2056
0.705058 0.373907 0.211383
0.72668 0.37496 0.217075
0.74815 0.375998 0.22269
0.769497 0.377234 0.228519
0.790707 0.378668 0.234333
0.81149 0.37995 0.239948
0.832181 0.381323 0.245655
0.0813458 0.417472 0.103944
0.0852522 0.414771 0.0983749
0.0892195 0.412329 0.0948196
0.0943618 0.410086 0.0931563
0.112215 0.407324 0.0949874
0.141451 0.404929 0.0975662
0.176425 0.402975 0.102815
0.211658 0.400916 0.112398
0.244511 0.399619 0.121279
0.274556 0.398932 0.128969
0.302754 0.398733 0.135485
0.329595 0.398871 0.141085
0.355627 0.399451 0.146059
0.380331 0.399954 0.150134
0.405203 0.400153 0.154162
0.430747 0.400031 0.158526
0.457618 0.399619 0.163653
0.484932 0.398901 0.169436
0.512215 0.398016 0.175509
0.538857 0.397299 0.181567
0.564645 0.396841 0.187335
0.589776 0.396857 0.192874
0.614176 0.396841 0.19791
0.63798 0.396979 0.202609
0.661341 0.397391 0.207279
0.684627 0.39794 0.211978
0.707103 0.398535 0.217197
0.72871 0.399512 0.222965
0.750088 0.400824 0.228748
0.771542 0.401801 0.234485
0.79263 0.402991 0.240146
0.813336 0.404211 0.24564
0.834379 0.405661 0.251453
0.0882124 0.443015 0.118135
0.0920882 0.44062 0.112795
0.0958724 0.43859 0.109148
0.100145 0.436652 0.105562
0.114595 0.434638 0.104005
0.143404 0.432212 0.106218
0.176822 0.430045 0.108812
0.211749 0.427939 0.116335
0.245197 0.42623 0.125338
0.275853 0.425315 0.13315
0.304921 0.424933 0.140246
0.332296 0.424903 0.146456
0.358358 0.424979 0.151644
0.383276 0.425299 0.156237
0.407187 0.425635 0.160128
0.431998 0.426093 0.164355
0.457404 0.425849 0.168795
0.483619 0.425376 0.173877
0.510582 0.424567 0.179644
0.537682 0.423941 0.186023
0.56405 0.423224 0.192233
0.589609 0.42269 0.198245
0.614359 0.422446 0.203845
0.638743 0.422644 0.209461
0.662348 0.422797 0.214542
0.685496 0.423041 0.219455
0.708278 0.423529 0.224201
0.730968 0.424247 0.229007
0.75256 0.425086 0.23447
0.773709 0.426108 0.240223
0.79469 0.427222 0.245853
0.815732 0.42858 0.251575
0.836484 0.429725 0.257115
0.0950332 0.467765 0.132082
0.0988022 0.465965 0.126619
0.102434 0.464256 0.122683
0.106538 0.462333 0.118776
0.116808 0.461097 0.11281
0.145724 0.458579 0.114824
0.178531 0.456352 0.117159
0.2112 0.454688 0.120287
0.245472 0.452888 0.129458
0.277012 0.451606 0.13756
0.306523 0.450843 0.144854
0.334218 0.450385 0.151263
0.360693 0.450355 0.156863
0.385794 0.450523 0.161807
0.409857 0.451057 0.16614
0.433661 0.451392 0.170077
0.458091 0.451469 0.174105
0.483238 0.451331 0.178683
0.509209 0.450996 0.183948
0.535866 0.450248 0.189807
0.562478 0.449454 0.196109
0.588998 0.448753 0.202716
0.61445 0.448295 0.209079
0.639109 0.447959 0.215015
0.662928 0.447959 0.220645
0.686549 0.448371 0.226276
0.709484 0.448569 0.231266
0.732052 0.449058 0.236194
0.754192 0.449653 0.240864
0.776318 0.450462 0.245655
0.797528 0.451362 0.251499
0.818357 0.45243 0.257282
0.839246 0.45359 0.263005
0.101457 0.491814 0.144854
0.105089 0.490394 0.139742
0.108766 0.489143 0.135821
0.113176 0.48777 0.131792
0.120912 0.486641 0.123125
0.147982 0.484657 0.123522
0.180331 0.482612 0.125826
0.212848 0.480629 0.128283
0.245472 0.478935 0.133761
0.277546 0.47744 0.141878
0.30753 0.476326 0.149172
0.336065 0.475975 0.156176
0.362844 0.475639 0.162081
0.38819 0.475685 0.167193
0.41239 0.475807 0.17171
0.436194 0.476127 0.175982
0.46006 0.476585 0.180133
0.484306 0.476692 0.184298
0.509194 0.476539 0.188907
0.534813 0.476097 0.194202
0.561257 0.475593 0.200336
0.587671 0.474754 0.206668
0.613626 0.474006 0.213184
0.638758 0.473503 0.219593
0.663569 0.47332 0.225971
0.687388 0.47332 0.231907
0.710521 0.473503 0.237507
0.733501 0.473869 0.242893
0.755917 0.474403 0.248035
0.778012 0.474876 0.252811
0.799863 0.475547 0.257557
0.821332 0.47628 0.262684
0.842344 0.477363 0.268574
0.107973 0.515663 0.157641
0.111467 0.514504 0.152895
0.115129 0.51339 0.148836
0.119631 0.512322 0.144503
0.127581 0.511711 0.135882
0.150729 0.510063 0.132235
0.182422 0.508003 0.13434
0.214466 0.50602 0.136584
0.246036 0.504494 0.138994
0.278141 0.503212 0.146593
0.308751 0.501884 0.154101
0.337804 0.50103 0.160983
0.364858 0.500526 0.167117
0.390738 0.500389 0.17258
0.415167 0.50074 0.177508
0.439078 0.500847 0.181918
0.462348 0.501228 0.186038
0.485863 0.501534 0.190112
0.510399 0.501732 0.194736
0.535134 0.501564 0.199481
0.56025 0.501228 0.204761
0.586267 0.500511 0.210651
0.612406 0.499962 0.217197
0.638209 0.499245 0.223774
0.663264 0.498726 0.23035
0.687556 0.49836 0.236622
0.711528 0.498543 0.242847
0.7346 0.498726 0.248646
0.757351 0.498817 0.254002
0.779599 0.49926 0.25922
0.801907 0.49984 0.264515
0.823514 0.500496 0.269322
0.845121 0.501152 0.274052
0.11429 0.538933 0.170077
0.117769 0.537987 0.165454
0.121447 0.537331 0.16173
0.126238 0.536568 0.157183
0.134234 0.535973 0.148302
0.153857 0.535119 0.141085
0.185 0.533089 0.142901
0.217029 0.53135 0.145159
0.248142 0.529732 0.147448
0.278965 0.528313 0.151568
0.30988 0.527016 0.158984
0.3393 0.525917 0.165927
0.366995 0.525505 0.172351
0.393118 0.525246 0.178058
0.417731 0.525124 0.183078
0.441779 0.525261 0.187793
0.465385 0.525567 0.192309
0.488731 0.526024 0.196551
0.512306 0.526207 0.200732
0.536355 0.526314 0.205234
0.561044 0.526268 0.210239
0.586084 0.525994 0.21561
0.611521 0.525383 0.221454
0.637186 0.524636 0.22771
0.662669 0.524086 0.234287
0.687694 0.523766 0.241062
0.712016 0.523369 0.247532
0.735683 0.523262 0.253605
0.75903 0.5234 0.259709
0.78175 0.523659 0.265415
0.803861 0.52401 0.270695
0.825559 0.524559 0.275776
0.847364 0.525292 0.280781
0.120714 0.562127 0.182452
0.124102 0.561486 0.178225
0.127642 0.560784 0.174411
0.132952 0.560372 0.169055
0.14107 0.560006 0.160342
0.157656 0.559808 0.150042
0.188388 0.557992 0.151736
0.219669 0.5561 0.153643
0.250492 0.554513 0.155795
0.280659 0.553124 0.157961
0.311482 0.551904 0.164431
0.340856 0.551034 0.17142
0.369131 0.550134 0.177813
0.395377 0.549783 0.183581
0.420127 0.549508 0.188769
0.444678 0.549706 0.193896
0.468437 0.549844 0.198459
0.491737 0.550072 0.202777
0.514778 0.550408 0.206897
0.538308 0.550835 0.211322
0.562234 0.550881 0.215793
0.586419 0.550835 0.22063
0.611322 0.5505 0.226017
0.63653 0.550072 0.231968
0.66183 0.549447 0.238224
0.687099 0.548852 0.244816
0.711803 0.548318 0.251392
0.736339 0.548058 0.258061
0.759915 0.547951 0.264347
0.782895 0.547936 0.270283
0.805615 0.548211 0.276097
0.827756 0.548699 0.281575
0.849485 0.549081 0.286702
0.127031 0.585138 0.194553
0.130266 0.584436 0.190417
0.13402 0.5841 0.186969
0.1402 0.584024 0.180896
0.148592 0.584009 0.17171
0.161547 0.583963 0.158862
0.191791 0.582238 0.160449
0.222721 0.580545 0.16231
0.253407 0.579232 0.164385
0.283162 0.577996 0.166506
0.312963 0.576776 0.170047
0.342626 0.575555 0.176898
0.370977 0.574655 0.183337
0.397833 0.574304 0.189425
0.422858 0.573953 0.194675
0.447303 0.573754 0.199664
0.471382 0.573816 0.204379
0.494896 0.574212 0.208972
0.518013 0.574472 0.213306
0.540764 0.574884 0.217456
0.564141 0.575021 0.221637
0.588022 0.575341 0.226383
0.612024 0.575174 0.231144
0.63653 0.574868 0.236484
0.661234 0.574441 0.242252
0.68658 0.574014 0.248707
0.711543 0.573434 0.255131
0.736019 0.572961 0.261769
0.760327 0.572442 0.268208
0.783993 0.572503 0.274739
0.806958 0.572427 0.28072
0.829282 0.572702 0.286458
0.85153 0.573037 0.292165
0.133257 0.607996 0.206882
0.136599 0.607614 0.202991
0.140169 0.607202 0.199542
0.147158 0.60734 0.192782
0.156069 0.607462 0.182849
0.167041 0.607858 0.169055
0.195636 0.6065 0.169314
0.226215 0.604852 0.171054
0.256413 0.603433 0.172946
0.286061 0.60209 0.174884
0.314824 0.601114 0.176928
0.344701 0.600122 0.182773
0.373342 0.599115 0.189197
0.399954 0.598474 0.194995
0.425269 0.598032 0.200351
0.450217 0.597955 0.205646
0.474418 0.597894 0.210452
0.497856 0.598047 0.215015
0.521111 0.598245 0.21944
0.54406 0.598596 0.223713
0.567041 0.599039 0.228061
0.590188 0.599191 0.232395
0.613519 0.599298 0.236789
0.637552 0.59939 0.241901
0.661692 0.5991 0.247105
0.686305 0.598733 0.252857
0.710918 0.598184 0.258961
0.73608 0.597772 0.265568
0.760525 0.597284 0.272023
0.784527 0.596857 0.278553
0.807874 0.596674 0.28484
0.831022 0.596811 0.291142
0.853681 0.596872 0.296986
0.140093 0.63093 0.219074
0.14287 0.630335 0.215106
0.147066 0.630259 0.211231
0.154513 0.630488 0.203952
0.163775 0.6309 0.193942
0.17438 0.631327 0.180713
0.199756 0.630381 0.178088
0.229877 0.628794 0.17969
0.259922 0.627298 0.18146
0.28954 0.626215 0.183459
0.318151 0.625284 0.185443
0.346868 0.624186 0.188861
0.375601 0.623133 0.195132
0.402396 0.622461 0.200885
0.428092 0.622065 0.206363
0.453193 0.621698 0.211536
0.477317 0.621637 0.21648
0.501335 0.621668 0.221332
0.524681 0.621958 0.225879
0.547677 0.622187 0.230213
0.570214 0.622507 0.234348
0.592828 0.622873 0.238468
0.615839 0.623301 0.242863
0.639139 0.623331 0.247364
0.66273 0.623316 0.252186
0.686732 0.62324 0.257496
0.711147 0.622873 0.263172
0.735729 0.622324 0.26923
0.760082 0.62179 0.275502
0.784695 0.62153 0.282216
0.808606 0.621103 0.288594
0.831983 0.62089 0.294911
0.854917 0.620752 0.30103
0.147051 0.653635 0.231571
0.149264 0.653147 0.227207
0.154498 0.653178 0.222202
0.162417 0.653681 0.21445
0.171344 0.654032 0.204715
0.18175 0.654505 0.191913
0.20441 0.653864 0.186862
0.23415 0.652613 0.188464
0.263828 0.651255 0.190158
0.292607 0.65005 0.191943
0.321324 0.648966 0.19379
0.349432 0.648081 0.195682
0.37818 0.647211 0.201328
0.405097 0.646387 0.207019
0.430854 0.645823 0.212345
0.455985 0.645396 0.217502
0.480522 0.645411 0.22266
0.504387 0.64535 0.227405
0.527916 0.64535 0.231952
0.551171 0.645518 0.236301
0.573816 0.645991 0.240726
0.596292 0.646372 0.244862
0.61854 0.646693 0.24889
0.641367 0.646906 0.253086
0.664729 0.647181 0.257847
0.688045 0.647105 0.262654
0.711925 0.646922 0.267918
0.735882 0.646769 0.273503
0.760281 0.646326 0.279561
0.784695 0.645792 0.285725
0.80882 0.645243 0.292012
0.832837 0.645151 0.298695
0.856245 0.644877 0.305013
0.154147 0.676402 0.243687
0.155779 0.675669 0.238697
0.162203 0.676127 0.232792
0.170245 0.676509 0.22472
0.178912 0.676936 0.215244
0.189319 0.67776 0.202914
0.209033 0.67744 0.195682
0.238514 0.67602 0.197086
0.267811 0.674693 0.198703
0.296513 0.673625 0.200427
0.325078 0.67277 0.202319
0.352865 0.671855 0.204089
0.380636 0.670939 0.207462
0.407706 0.670085 0.213031
0.433692 0.669535 0.218448
0.459174 0.669108 0.223697
0.483436 0.668894 0.228595
0.507713 0.66865 0.233417
0.53135 0.668925 0.238209
0.554498 0.668956 0.242588
0.577462 0.669108 0.246937
0.599741 0.669459 0.251102
0.622293 0.669993 0.255436
0.644572 0.670375 0.259541
0.667079 0.670542 0.263615
0.689906 0.670665 0.26804
0.713344 0.670787 0.27303
0.73666 0.670741 0.278126
0.760662 0.67039 0.283543
0.784924 0.670176 0.289586
0.809049 0.669734 0.295674
0.833051 0.669276 0.301946
0.856809 0.668818 0.308278
0.161166 0.699031 0.255467
0.163043 0.698421 0.249714
0.16994 0.698711 0.243015
0.177935 0.699367 0.234989
0.186725 0.699962 0.225666
0.19675 0.700511 0.213443
0.213993 0.700618 0.204318
0.243305 0.699229 0.205646
0.272358 0.698283 0.20734
0.300908 0.697093 0.208957
0.329137 0.695979 0.210636
0.35642 0.695155 0.21236
0.383597 0.694575 0.214145
0.410651 0.693736 0.219303
0.4365 0.693065 0.224537
0.461784 0.692515 0.229618
0.486763 0.692226 0.234653
0.510933 0.692119 0.239612
0.534569 0.692042 0.244221
0.557809 0.692088 0.248692
0.581018 0.692424 0.253315
0.603738 0.692531 0.257572
0.625834 0.692897 0.261631
0.6477 0.693416 0.265644
0.6701 0.693904 0.26978
0.692485 0.694179 0.273884
0.71516 0.694331 0.278294
0.738109 0.694362 0.282979
0.7617 0.694408 0.288212
0.785489 0.694148 0.293568
0.809125 0.693782 0.29929
0.83328 0.693553 0.30544
0.856962 0.693156 0.311589
0.168475 0.722332 0.266682
0.170459 0.720958 0.259968
0.17763 0.721523 0.253254
0.185901 0.722026 0.244862
0.194415 0.72253 0.235645
0.204257 0.723293 0.223865
0.219028 0.723842 0.213016
0.247837 0.722667 0.214343
0.276692 0.721309 0.215717
0.305211 0.720256 0.217304
0.333349 0.719203 0.218982
0.360937 0.718456 0.220783
0.387564 0.717754 0.222461
0.413489 0.717037 0.225528
0.439704 0.716381 0.230762
0.464942 0.715984 0.235889
0.489998 0.71548 0.240803
0.514321 0.715206 0.24567
0.538323 0.715068 0.250431
0.561502 0.715221 0.255024
0.584634 0.715312 0.259434
0.607279 0.715465 0.263661
0.629801 0.715999 0.267964
0.651606 0.716411 0.271931
0.673487 0.716854 0.275822
0.695552 0.717266 0.27982
0.717952 0.717678 0.28397
0.74049 0.717815 0.288365
