luts/Cool look.cube
LUT_3D_SIZE 16
0.010245 0.010245 0.010245
0.010245 0.010245 0.010245
0.051987 0.010242 0.010242
0.133614 0.010237 0.010237
0.220060 0.010229 0.010229
0.306498 0.010217 0.010217
0.389498 0.010200 0.010200
0.468376 0.010178 0.010178
0.542660 0.010149 0.010149
0.611589 0.010114 0.010114
0.674809 0.010073 0.010073
0.733403 0.010027 0.010027
0.787537 0.009975 0.009975
0.838527 0.009916 0.009916
0.885897 0.009855 0.009855
0.929667 0.009791 0.009791
0.010244 0.063201 0.010244
0.010245 0.063190 0.010243
0.051987 0.067115 0.010241
0.133614 0.069045 0.010236
0.220060 0.069834 0.010228
0.306498 0.069771 0.010215
0.389498 0.069031 0.010198
0.468376 0.067909 0.010176
0.542660 0.066564 0.010147
0.611589 0.065032 0.010112
0.674809 0.063393 0.010071
0.733403 0.061730 0.010025
0.787537 0.060087 0.009972
0.838527 0.058519 0.009914
0.885897 0.057014 0.009853
0.929667 0.055536 0.009789
0.010237 0.130348 0.010237
0.010245 0.130347 0.010237
0.051986 0.130283 0.010235
0.133614 0.134397 0.010229
0.220060 0.136100 0.010220
0.306498 0.135967 0.010208
0.389498 0.134389 0.010190
0.468376 0.131990 0.010167
0.542660 0.129106 0.010138
0.611589 0.125849 0.010103
0.674809 0.122352 0.010062
0.733403 0.118795 0.010015
0.787537 0.115301 0.009962
0.838527 0.111934 0.009905
0.885897 0.108742 0.009844
0.929667 0.105599 0.009779
0.010223 0.203528 0.010223
0.010245 0.203527 0.010222
0.056640 0.203527 0.010220
0.133613 0.203288 0.010215
0.220060 0.205927 0.010206
0.306497 0.205746 0.010192
0.389498 0.203261 0.010174
0.468376 0.199523 0.010150
0.542660 0.194981 0.010120
0.611589 0.189900 0.010084
0.674809 0.184433 0.010043
0.733402 0.178883 0.009996
0.787537 0.173433 0.009944
0.838527 0.168172 0.009885
0.885897 0.163164 0.009823
0.929667 0.158245 0.009760
0.010198 0.278970 0.010198
0.010245 0.278970 0.010197
0.058660 0.278970 0.010194
0.137179 0.278970 0.010189
0.220059 0.278311 0.010182
0.306497 0.278033 0.010167
0.389497 0.274643 0.010147
0.468376 0.269477 0.010122
0.542660 0.263290 0.010092
0.611589 0.256287 0.010055
0.674808 0.248745 0.010013
0.733402 0.241118 0.009965
0.787537 0.233628 0.009913
0.838527 0.226406 0.009855
0.885897 0.219545 0.009793
0.929668 0.212787 0.009730
0.010158 0.353772 0.010158
0.010245 0.353772 0.010158
0.058749 0.353772 0.010156
0.137350 0.353772 0.010151
0.221091 0.353771 0.010142
0.306496 0.352331 0.010131
0.389496 0.348001 0.010110
0.468375 0.341323 0.010083
0.542659 0.333424 0.010051
0.611589 0.324467 0.010013
0.674808 0.314781 0.009970
0.733402 0.305009 0.009921
0.787537 0.295422 0.009869
0.838527 0.286203 0.009810
0.885897 0.277418 0.009749
0.929667 0.268763 0.009685
0.010105 0.425410 0.010105
0.010245 0.425410 0.010104
0.057268 0.425410 0.010102
0.134928 0.425410 0.010097
0.217704 0.425409 0.010088
0.303791 0.425409 0.010076
0.389495 0.422846 0.010060
0.468375 0.414732 0.010031
0.542659 0.405088 0.009996
0.611588 0.394100 0.009957
0.674808 0.382306 0.009913
0.733401 0.370321 0.009864
0.787536 0.358576 0.009810
0.838526 0.347351 0.009751
0.885896 0.336513 0.009689
0.929667 0.325933 0.009627
0.010033 0.493204 0.010033
0.010245 0.493204 0.010033
0.054842 0.493204 0.010030
0.130951 0.493204 0.010025
0.212125 0.493204 0.010016
0.296586 0.493204 0.010002
0.383634 0.493204 0.009986
0.468374 0.489547 0.009964
0.542659 0.478013 0.009927
0.611588 0.465001 0.009885
0.674807 0.451028 0.009839
0.733401 0.436827 0.009789
0.787536 0.422881 0.009734
0.838526 0.409547 0.009676
0.885896 0.396784 0.009614
0.929666 0.384170 0.009552
0.009942 0.557135 0.009942
0.010245 0.557135 0.009941
0.051876 0.557135 0.009938
0.126075 0.557135 0.009932
0.205280 0.557135 0.009923
0.287829 0.557135 0.009909
0.372750 0.557135 0.009892
0.459817 0.557134 0.009869
0.542658 0.552236 0.009841
0.611588 0.537119 0.009798
0.674807 0.520857 0.009750
0.733400 0.504427 0.009697
0.787536 0.488240 0.009642
0.838526 0.472683 0.009583
0.885896 0.457917 0.009521
0.929666 0.443343 0.009460
0.009829 0.616413 0.009829
0.010245 0.616413 0.009829
0.048467 0.616413 0.009825
0.120494 0.616413 0.009819
0.197455 0.616413 0.009810
0.277640 0.616413 0.009795
0.360344 0.616413 0.009777
0.444885 0.616413 0.009754
0.531260 0.616413 0.009725
0.611587 0.610169 0.009691
0.674806 0.591651 0.009641
0.733399 0.572914 0.009587
0.787535 0.554432 0.009530
0.838525 0.536797 0.009470
0.885895 0.519918 0.009408
0.929666 0.503325 0.009348
0.009696 0.670629 0.009696
0.010245 0.670629 0.009695
0.044759 0.670629 0.009692
0.114401 0.670629 0.009686
0.188937 0.670629 0.009676
0.266582 0.670629 0.009661
0.346692 0.670629 0.009642
0.428693 0.670629 0.009618
0.512369 0.670628 0.009588
0.597427 0.670628 0.009553
0.674806 0.663157 0.009511
0.733398 0.642181 0.009455
0.787535 0.621487 0.009396
0.838525 0.601611 0.009336
0.885895 0.582639 0.009273
0.929665 0.563988 0.009215
0.009542 0.720764 0.009542
0.010245 0.720764 0.009541
0.041001 0.720764 0.009538
0.108178 0.720764 0.009531
0.180179 0.720764 0.009521
0.255316 0.720764 0.009505
0.332795 0.720763 0.009485
0.412127 0.720763 0.009461
0.493075 0.720763 0.009431
0.575338 0.720763 0.009393
0.658843 0.720763 0.009350
0.733397 0.712373 0.009300
0.787534 0.689348 0.009240
0.838524 0.667142 0.009178
0.885894 0.646121 0.009116
0.929664 0.625379 0.009059
0.009365 0.767150 0.009365
0.010245 0.767150 0.009364
0.037300 0.767150 0.009361
0.102046 0.767150 0.009354
0.171610 0.767150 0.009343
0.244173 0.767150 0.009328
0.319010 0.767149 0.009308
0.395737 0.767149 0.009283
0.474019 0.767149 0.009251
0.553598 0.767149 0.009212
0.634284 0.767149 0.009169
0.716080 0.767149 0.009116
0.787533 0.757756 0.009057
0.838523 0.733353 0.008994
0.885893 0.710054 0.008932
0.929663 0.687258 0.008877
0.009166 0.810527 0.009166
0.010245 0.810527 0.009166
0.033732 0.810527 0.009162
0.096099 0.810527 0.009155
0.163228 0.810527 0.009144
0.233348 0.810527 0.009128
0.305723 0.810527 0.009108
0.379856 0.810527 0.009081
0.455428 0.810527 0.009049
0.532453 0.810527 0.009009
0.610530 0.810527 0.008963
0.689719 0.810527 0.008911
0.769623 0.810526 0.008850
0.838522 0.800327 0.008781
0.885892 0.774810 0.008718
0.929662 0.749973 0.008665
0.008949 0.850763 0.008949
0.010245 0.850763 0.008948
0.030327 0.850763 0.008944
0.090423 0.850763 0.008937
0.155238 0.850763 0.008926
0.222993 0.850763 0.008910
0.292886 0.850763 0.008888
0.364554 0.850763 0.008861
0.437718 0.850763 0.008828
0.512147 0.850762 0.008788
0.587542 0.850762 0.008741
0.664200 0.850762 0.008686
0.741517 0.850762 0.008624
0.819811 0.850762 0.008552
0.885892 0.840020 0.008472
0.929662 0.812937 0.008422
0.008717 0.887639 0.008717
0.010245 0.887639 0.008717
0.026999 0.887639 0.008713
0.084830 0.887638 0.008706
0.147375 0.887638 0.008694
0.212782 0.887639 0.008678
0.280316 0.887638 0.008656
0.349552 0.887638 0.008629
0.420263 0.887638 0.008594
0.492125 0.887638 0.008554
0.565152 0.887638 0.008505
0.639103 0.887637 0.008450
0.713795 0.887637 0.008386
0.789566 0.887637 0.008313
0.865725 0.887637 0.008232
0.929660 0.876540 0.008140
0.010245 0.010245 0.069539
0.010245 0.010244 0.069539
0.051987 0.010242 0.073945
0.133614 0.010237 0.076113
0.220060 0.010229 0.077015
0.306498 0.010217 0.076942
0.389498 0.010200 0.076105
0.468376 0.010177 0.074837
0.542660 0.010149 0.073331
0.611589 0.010114 0.071619
0.674809 0.010073 0.069778
0.733403 0.010026 0.067903
0.787537 0.009974 0.066070
0.838527 0.009916 0.064306
0.885897 0.009855 0.062619
0.929668 0.009791 0.060964
0.010244 0.063175 0.069535
0.010245 0.063052 0.070329
0.059372 0.056977 0.064796
0.142907 0.047907 0.056525
0.227742 0.041883 0.051056
0.312224 0.038514 0.047846
0.393816 0.036759 0.045903
0.471540 0.035981 0.044683
0.545146 0.035836 0.043961
0.613476 0.036103 0.043615
0.676413 0.036650 0.043546
0.734500 0.037398 0.043725
0.788470 0.038279 0.044084
0.839273 0.039269 0.044612
0.886583 0.040288 0.045255
0.930300 0.041315 0.045960
0.010237 0.130348 0.073976
0.010245 0.132144 0.056424
0.052853 0.130572 0.052545
0.138588 0.130745 0.048073
0.225813 0.129673 0.044281
0.311574 0.127873 0.041629
0.393683 0.125471 0.039992
0.471683 0.122771 0.039139
0.545287 0.119942 0.038845
0.613718 0.116944 0.038969
0.676479 0.113860 0.039401
0.734622 0.110819 0.040031
0.788743 0.107915 0.040818
0.839363 0.105198 0.041718
0.886690 0.102660 0.042670
0.930500 0.100216 0.043650
0.010222 0.203527 0.076203
0.010245 0.204943 0.047932
0.050730 0.204592 0.044001
0.134221 0.203492 0.042892
0.222609 0.204205 0.041328
0.309464 0.202639 0.040102
0.392406 0.199350 0.039298
0.470894 0.195119 0.038899
0.544850 0.190423 0.038866
0.613378 0.185323 0.039143
0.676429 0.179937 0.039640
0.734567 0.174603 0.040312
0.788524 0.169420 0.041111
0.839311 0.164502 0.042012
0.886693 0.159834 0.042975
0.930449 0.155284 0.043931
0.010197 0.278970 0.077169
0.010245 0.279950 0.044667
0.049855 0.279874 0.040238
0.134372 0.279544 0.039930
0.220490 0.278446 0.039560
0.307836 0.277023 0.039120
0.391229 0.272858 0.038878
0.470094 0.267210 0.038861
0.544305 0.260724 0.039072
0.613012 0.253578 0.039486
0.676109 0.246056 0.040065
0.734399 0.238493 0.040771
0.788475 0.231150 0.041604
0.839322 0.224103 0.042499
0.886650 0.217439 0.043441
0.930397 0.210910 0.044391
0.010158 0.353772 0.077205
0.010245 0.354368 0.043475
0.048799 0.354389 0.038945
0.132875 0.354203 0.038899
0.219498 0.354065 0.038855
0.306720 0.352333 0.038843
0.390357 0.347347 0.038923
0.469414 0.340203 0.039161
0.543739 0.331981 0.039539
0.612611 0.322822 0.040064
0.675793 0.313086 0.040706
0.734162 0.303336 0.041456
0.788309 0.293793 0.042284
0.839128 0.284672 0.043169
0.886571 0.276003 0.044104
0.930359 0.267521 0.045022
0.010105 0.425410 0.076485
0.010245 0.425864 0.043254
0.047056 0.425897 0.038983
0.129727 0.425799 0.039032
0.215097 0.425748 0.039115
0.302878 0.425592 0.039251
0.389750 0.422945 0.039438
0.468869 0.414317 0.039812
0.543391 0.404318 0.040311
0.612230 0.393157 0.040907
0.675586 0.381204 0.041602
0.733943 0.369224 0.042355
0.788279 0.357450 0.043184
0.838999 0.346214 0.044062
0.886573 0.335602 0.044967
0.930210 0.325115 0.045854
0.010033 0.493204 0.075314
0.010245 0.493510 0.043668
0.044824 0.493588 0.039825
0.125547 0.493495 0.039903
0.209038 0.493515 0.040043
0.295007 0.493437 0.040225
0.382994 0.493340 0.040478
0.468527 0.489517 0.040812
0.543056 0.477785 0.041381
0.612004 0.464504 0.042019
0.675239 0.450365 0.042728
0.733756 0.436125 0.043497
0.787971 0.422189 0.044312
0.838911 0.408836 0.045159
0.886338 0.396093 0.046031
0.930064 0.383614 0.046876
0.009941 0.557135 0.073881
0.010245 0.557423 0.044554
0.042378 0.557443 0.041203
0.120767 0.557436 0.041298
0.202083 0.557384 0.041449
0.285843 0.557370 0.041660
0.371712 0.557316 0.041926
0.459398 0.557260 0.042281
0.542764 0.552195 0.042703
0.611841 0.536881 0.043374
0.675172 0.520535 0.044094
0.733546 0.503948 0.044846
0.787934 0.487769 0.045639
0.838730 0.472244 0.046463
0.886292 0.457466 0.047293
0.930065 0.442976 0.048081
0.009829 0.616413 0.072211
0.010245 0.616515 0.045814
0.039697 0.616559 0.042952
0.115454 0.616528 0.043042
0.194290 0.616508 0.043199
0.275652 0.616504 0.043400
0.358984 0.616499 0.043686
0.444171 0.616484 0.044034
0.530944 0.616490 0.044460
0.611677 0.610160 0.044966
0.675032 0.591503 0.045670
0.733574 0.572691 0.046411
0.787680 0.554232 0.047178
0.838660 0.536495 0.047957
0.886064 0.519589 0.048732
0.929994 0.503143 0.049460
0.009696 0.670629 0.070403
0.010245 0.670808 0.047365
0.036911 0.670792 0.044931
0.109794 0.670771 0.045020
0.185941 0.670782 0.045169
0.264598 0.670770 0.045366
0.345322 0.670674 0.045643
0.427845 0.670610 0.045982
0.511867 0.670622 0.046390
0.597240 0.670596 0.046880
0.674879 0.663243 0.047429
0.733539 0.642156 0.048149
0.787683 0.621403 0.048879
0.838565 0.601443 0.049621
0.886106 0.582513 0.050348
0.929929 0.563850 0.051021
0.009541 0.720764 0.068558
0.010245 0.720971 0.049135
0.034196 0.720991 0.047069
0.104150 0.720980 0.047164
0.177558 0.720987 0.047297
0.253489 0.720963 0.047490
0.331495 0.720933 0.047751
0.411222 0.720898 0.048074
0.492485 0.720858 0.048462
0.575010 0.720813 0.048920
0.658671 0.720769 0.049441
0.733500 0.712298 0.050053
0.787620 0.689343 0.050743
0.838491 0.667071 0.051448
0.885936 0.645983 0.052120
0.929761 0.625325 0.052724
0.009364 0.767150 0.066724
0.010245 0.767235 0.051064
0.031666 0.767265 0.049309
0.098662 0.767260 0.049393
0.169365 0.767250 0.049520
0.242621 0.767238 0.049711
0.317915 0.767222 0.049952
0.394901 0.767204 0.050256
0.473448 0.767182 0.050615
0.553222 0.767173 0.051058
0.633986 0.767214 0.051550
0.716069 0.767189 0.052124
0.787609 0.757778 0.052743
0.838490 0.733366 0.053401
0.885934 0.709939 0.054017
0.929793 0.687253 0.054564
0.009166 0.810527 0.064948
0.010245 0.810482 0.053106
0.029346 0.810515 0.051612
0.093454 0.810510 0.051684
0.161481 0.810502 0.051808
0.232093 0.810492 0.051981
0.304822 0.810479 0.052212
0.379183 0.810538 0.052493
0.455036 0.810520 0.052837
0.532162 0.810530 0.053234
0.610270 0.810509 0.053704
0.689550 0.810488 0.054234
0.769576 0.810466 0.054835
0.838482 0.800371 0.055490
0.885934 0.774829 0.056059
0.929780 0.750004 0.056540
0.008948 0.850763 0.063223
0.010245 0.850725 0.055199
0.027273 0.850760 0.053897
0.088565 0.850756 0.053963
0.154018 0.850750 0.054086
0.222114 0.850742 0.054241
0.292266 0.850731 0.054458
0.364115 0.850793 0.054715
0.437408 0.850777 0.055042
0.511886 0.850804 0.055418
0.587464 0.850786 0.055857
0.664090 0.850766 0.056353
0.741464 0.850748 0.056913
0.819756 0.850729 0.057536
0.885905 0.840034 0.058209
0.929772 0.812959 0.058616
0.008717 0.887639 0.061530
0.010245 0.887635 0.057245
0.025323 0.887673 0.056105
0.083809 0.887670 0.056175
0.146690 0.887664 0.056278
0.212299 0.887657 0.056432
0.279969 0.887648 0.056628
0.349229 0.887637 0.056869
0.420003 0.887763 0.057170
0.491994 0.887749 0.057521
0.565007 0.887734 0.057923
0.639129 0.887717 0.058389
0.713874 0.887700 0.058905
0.789542 0.887684 0.059480
0.865761 0.887668 0.060108
0.929719 0.876636 0.060798
0.010244 0.010244 0.144784
0.010245 0.010244 0.144784
0.051866 0.010241 0.144784
0.133614 0.010237 0.149549
0.220061 0.010228 0.151469
0.306498 0.010216 0.151316
0.389498 0.010199 0.149540
0.468376 0.010176 0.146822
0.542660 0.010147 0.143602
0.611589 0.010113 0.139925
0.674809 0.010072 0.135998
0.733403 0.010025 0.132007
0.787537 0.009972 0.128074
0.838527 0.009915 0.124296
0.885897 0.009854 0.120708
0.929667 0.009789 0.117171
0.010242 0.067062 0.144784
0.010245 0.060799 0.154013
0.058209 0.054844 0.151809
0.142029 0.046936 0.149942
0.227287 0.041502 0.147386
0.312013 0.038364 0.144808
0.393689 0.036702 0.141868
0.471485 0.035966 0.138649
0.545083 0.035836 0.135311
0.613450 0.036114 0.131787
0.676383 0.036668 0.128178
0.734464 0.037419 0.124607
0.788456 0.038301 0.121199
0.839297 0.039283 0.117997
0.886572 0.040305 0.115012
0.930290 0.041338 0.112120
0.010236 0.130165 0.144783
0.010245 0.131321 0.147267
0.052468 0.129984 0.146557
0.143550 0.125122 0.141803
0.236771 0.116154 0.133159
0.325318 0.105230 0.122420
0.407189 0.095449 0.112576
0.483524 0.087651 0.104528
0.555356 0.081695 0.098156
0.622127 0.077312 0.093251
0.683547 0.074146 0.089517
0.740732 0.071889 0.086610
0.793920 0.070294 0.084391
0.843984 0.069202 0.082693
0.890853 0.068504 0.081432
0.934203 0.068094 0.080528
0.010221 0.203527 0.149702
0.010245 0.204766 0.145061
0.036902 0.206455 0.132156
0.135410 0.203752 0.127592
0.230528 0.199853 0.119988
0.320713 0.193712 0.111602
0.404455 0.186594 0.103625
0.482354 0.179597 0.096692
0.555102 0.173013 0.090966
0.622379 0.166867 0.086494
0.684150 0.161087 0.083069
0.741443 0.155778 0.080478
0.794554 0.150901 0.078557
0.844732 0.146443 0.077178
0.891644 0.142372 0.076184
0.934922 0.138519 0.075532
0.010197 0.278970 0.151809
0.010245 0.279875 0.144230
0.018384 0.282787 0.114358
0.124859 0.281657 0.109690
0.222034 0.278922 0.106072
0.313757 0.274026 0.100913
0.399010 0.267022 0.095836
0.478266 0.259216 0.091207
0.552184 0.251213 0.087191
0.620251 0.243124 0.083871
0.682638 0.235063 0.081283
0.740352 0.227304 0.079263
0.793739 0.219955 0.077741
0.844081 0.213075 0.076621
0.891140 0.206666 0.075829
0.934582 0.200484 0.075310
0.010157 0.353772 0.151898
0.010245 0.354371 0.143153
0.010245 0.357030 0.101865
0.115342 0.356720 0.096364
0.213733 0.355579 0.094525
0.308069 0.352762 0.092261
0.394420 0.345279 0.089157
0.474562 0.336247 0.086189
0.549301 0.326632 0.083522
0.618143 0.316494 0.081246
0.681119 0.306175 0.079430
0.738961 0.296044 0.077964
0.792793 0.286398 0.076843
0.843311 0.277269 0.076023
0.890489 0.268682 0.075435
0.934174 0.260379 0.075072
0.010104 0.425410 0.150362
0.010245 0.425864 0.141260
0.010245 0.428043 0.093746
0.107545 0.427946 0.087479
0.204604 0.427379 0.086542
0.299238 0.426652 0.085367
0.390843 0.423263 0.083989
0.471558 0.412807 0.082128
0.546929 0.401429 0.080417
0.616181 0.389305 0.078946
0.679434 0.376766 0.077734
0.737860 0.364355 0.076757
0.791859 0.352371 0.076002
0.842480 0.341077 0.075458
0.889858 0.330387 0.075086
0.933503 0.320001 0.074865
0.010032 0.493204 0.147863
0.010245 0.493494 0.138812
0.010245 0.495237 0.088426
0.100984 0.495250 0.081752
0.195810 0.494996 0.081262
0.288193 0.494575 0.080641
0.380600 0.494028 0.079922
0.469280 0.489762 0.079116
0.544918 0.476620 0.078038
0.614604 0.462425 0.077114
0.678180 0.447593 0.076377
0.736632 0.432855 0.075790
0.790950 0.418659 0.075340
0.841723 0.405077 0.075024
0.889128 0.392300 0.074829
0.932983 0.379889 0.074755
0.009940 0.557135 0.144797
0.010245 0.557417 0.136124
0.010245 0.558789 0.084895
0.095236 0.558856 0.078174
0.187349 0.558631 0.077917
0.277202 0.558382 0.077602
0.367063 0.558093 0.077239
0.457755 0.557782 0.076815
0.543401 0.552425 0.076376
0.613302 0.536016 0.075847
0.677045 0.518953 0.075437
0.735707 0.501853 0.075125
0.790076 0.485339 0.074904
0.841101 0.469654 0.074781
0.888518 0.454727 0.074743
0.932363 0.440206 0.074771
0.009828 0.616413 0.141252
0.010245 0.616512 0.133166
0.010245 0.617605 0.082612
0.089816 0.617728 0.076105
0.178867 0.617546 0.075984
0.265834 0.617470 0.075830
0.353008 0.617239 0.075651
0.440945 0.617105 0.075459
0.529784 0.616829 0.075261
0.612148 0.610301 0.075076
0.676034 0.590875 0.074896
0.734962 0.571484 0.074781
0.789308 0.552654 0.074742
0.840398 0.534670 0.074758
0.888014 0.517669 0.074828
0.932027 0.501072 0.074941
0.009695 0.670629 0.137382
0.010245 0.670804 0.130084
0.010245 0.671626 0.081204
0.084627 0.671837 0.075062
0.170389 0.671673 0.075016
0.254321 0.671596 0.074965
0.338503 0.671492 0.074900
0.423517 0.671281 0.074837
0.509513 0.671184 0.074786
0.596395 0.671005 0.074753
0.675277 0.663470 0.074744
0.734234 0.641648 0.074776
0.788829 0.620472 0.074849
0.839914 0.600262 0.074976
0.887482 0.581067 0.075124
0.931507 0.562427 0.075295
0.009541 0.720764 0.133436
0.010245 0.720969 0.127039
0.010245 0.721645 0.080461
0.079737 0.721736 0.074743
0.162175 0.721687 0.074743
0.243038 0.721677 0.074745
0.324226 0.721536 0.074754
0.406259 0.721411 0.074771
0.489224 0.721213 0.074801
0.573195 0.721183 0.074862
0.658032 0.720986 0.074942
0.733531 0.712304 0.075062
0.788299 0.688838 0.075223
0.839414 0.666484 0.075415
0.887013 0.645048 0.075627
0.931025 0.624323 0.075829
0.009363 0.767150 0.129532
0.010245 0.767234 0.124176
0.010245 0.767796 0.080211
0.075225 0.767953 0.074932
0.154363 0.767883 0.074960
0.232216 0.767787 0.074989
0.310501 0.767780 0.075035
0.389632 0.767766 0.075110
0.469724 0.767671 0.075199
0.550791 0.767535 0.075308
0.632861 0.767489 0.075454
0.715522 0.767333 0.075631
0.787851 0.757852 0.075846
0.838946 0.733049 0.076088
0.886675 0.709482 0.076318
0.930641 0.686532 0.076545
0.009165 0.810527 0.125738
0.010245 0.810482 0.121526
0.010245 0.811066 0.080330
0.071085 0.811105 0.075490
0.146984 0.811121 0.075529
0.221893 0.811096 0.075581
0.297365 0.811019 0.075655
0.373710 0.810958 0.075752
0.451049 0.810881 0.075872
0.529287 0.810850 0.076020
0.608448 0.810818 0.076206
0.688378 0.810726 0.076411
0.769143 0.810519 0.076666
0.838697 0.800321 0.076950
0.886452 0.774737 0.077219
0.930322 0.749605 0.077445
0.008947 0.850763 0.122090
0.010245 0.850725 0.119124
0.010245 0.851283 0.080742
0.067302 0.851331 0.076300
0.140085 0.851348 0.076354
0.212186 0.851273 0.076411
0.284938 0.851253 0.076489
0.358578 0.851254 0.076611
0.433237 0.851169 0.076756
0.508775 0.851097 0.076917
0.585213 0.851036 0.077124
0.662585 0.851026 0.077345
0.740577 0.850954 0.077630
0.819598 0.850841 0.077918
0.886066 0.840028 0.078273
0.930091 0.812836 0.078506
0.008716 0.887639 0.118485
0.010245 0.887635 0.116835
0.010245 0.888110 0.081348
0.063695 0.888075 0.077269
0.133368 0.888023 0.077312
0.202719 0.888207 0.077389
0.272765 0.888120 0.077477
0.343805 0.888155 0.077593
0.415854 0.888026 0.077754
0.488798 0.887957 0.077915
0.562613 0.887937 0.078136
0.637245 0.887904 0.078380
0.712682 0.887882 0.078647
0.788896 0.887736 0.078956
0.865626 0.887675 0.079319
0.929967 0.876670 0.079721
0.010242 0.010242 0.226468
0.010245 0.010241 0.226468
0.056168 0.010239 0.226468
0.133108 0.010235 0.226468
0.220060 0.010226 0.229948
0.306498 0.010214 0.229710
0.389498 0.010197 0.226949
0.468376 0.010174 0.222711
0.542660 0.010145 0.217650
0.611589 0.010110 0.211935
0.674809 0.010069 0.205773
0.733403 0.010023 0.199523
0.787537 0.009970 0.193395
0.838527 0.009913 0.187493
0.885897 0.009851 0.181891
0.929668 0.009787 0.176352
0.010240 0.068917 0.226468
0.010245 0.055492 0.241656
0.058433 0.050714 0.238285
0.139943 0.045288 0.233564
0.226451 0.040817 0.231957
0.311583 0.038072 0.228698
0.393476 0.036596 0.224285
0.471348 0.035938 0.219156
0.545027 0.035845 0.213679
0.613400 0.036141 0.207788
0.676283 0.036701 0.201663
0.734569 0.037453 0.195556
0.788473 0.038345 0.189648
0.839317 0.039324 0.184022
0.886550 0.040351 0.178729
0.930270 0.041373 0.173544
0.010234 0.134126 0.226485
0.010245 0.132418 0.233849
0.050482 0.128170 0.238453
0.142158 0.123176 0.236303
0.235832 0.114209 0.232520
0.324479 0.103834 0.224595
0.406498 0.094570 0.215538
0.483036 0.087092 0.206896
0.555066 0.081349 0.199086
0.622010 0.077093 0.191818
0.683433 0.074004 0.185101
0.740609 0.071795 0.178849
0.793819 0.070240 0.173115
0.843941 0.069173 0.167910
0.890772 0.068490 0.163110
0.934307 0.068079 0.158627
0.010220 0.202849 0.226484
0.010245 0.203705 0.228208
0.035065 0.204873 0.231405
0.134371 0.202958 0.229259
0.231342 0.198445 0.224346
0.324784 0.191292 0.216597
0.412629 0.180995 0.205770
0.493065 0.169319 0.193421
0.566655 0.157961 0.181405
0.633553 0.147973 0.170658
0.694692 0.139547 0.161514
0.751028 0.132591 0.153878
0.803453 0.126913 0.147525
0.852746 0.122277 0.142278
0.899103 0.118566 0.138008
0.942083 0.116076 0.134958
0.010194 0.278970 0.230485
0.010245 0.279789 0.228595
0.017493 0.282273 0.222066
0.119227 0.282089 0.215758
0.222331 0.278912 0.211846
0.318676 0.272916 0.204464
0.407739 0.264116 0.195146
0.489411 0.253950 0.184967
0.564423 0.243401 0.174771
0.632479 0.233051 0.165396
0.694510 0.223321 0.157165
0.751493 0.214370 0.150073
0.804270 0.206324 0.144066
0.853920 0.199066 0.139019
0.900337 0.192581 0.134844
0.941951 0.195297 0.145733
0.010156 0.353772 0.230646
0.010245 0.354327 0.227034
0.010245 0.356790 0.213254
0.096743 0.358838 0.195539
0.207374 0.357167 0.191676
0.309393 0.353211 0.186577
0.400059 0.343652 0.179339
0.482787 0.332677 0.171668
0.558814 0.321253 0.164038
0.628008 0.309625 0.156931
0.690672 0.298223 0.150552
0.748393 0.287394 0.144935
0.801962 0.277239 0.140082
0.851961 0.267848 0.135917
0.898748 0.259212 0.132398
0.942008 0.251925 0.131834
0.010102 0.425410 0.228244
0.010245 0.425809 0.223902
0.010245 0.427873 0.205845
0.076258 0.430657 0.176562
0.190094 0.429842 0.172307
0.294175 0.428226 0.168940
0.392286 0.423765 0.164939
0.476325 0.411303 0.159438
0.553370 0.398340 0.153904
0.623547 0.384828 0.148645
0.687018 0.371362 0.143899
0.745571 0.358283 0.139606
0.799479 0.345891 0.135851
0.850002 0.334362 0.132528
0.897163 0.323600 0.129724
0.940631 0.313275 0.127402
0.010030 0.493204 0.224335
0.010245 0.493525 0.219743
0.010245 0.495141 0.199396
0.060486 0.497868 0.161557
0.174764 0.497586 0.156599
0.277691 0.496611 0.154457
0.376988 0.495350 0.151883
0.470673 0.490255 0.148967
