luts/correction cannon MS.cube
TITLE "Generated by Resolve"
LUT_3D_SIZE 9
0 0 0
0.0642252 0 0
0.238621 0 0
0.353964 0 0
0.419638 0 0
0.470817 0 0
0.534005 0 0.00917067
0.621805 0.00471504 0.0166018
0.708629 0.0166018 0.0244297
0 0.118822 0
0.0313115 0.0986801 0.0301671
0.169528 0.106508 0.00445563
0.309285 0.10811 0
0.408423 0.115023 0
0.481132 0.128496 0.0133974
0.541176 0.1458 0.0395666
0.618051 0.159716 0.0526436
0.705074 0.171237 0.059266
0 0.279118 0
0.0658427 0.242374 0.0460517
0.191363 0.246876 0.0840925
0.293141 0.25687 0.0859236
0.386557 0.266178 0.08336
0.471916 0.276844 0.090837
0.545739 0.290013 0.106783
0.61799 0.303746 0.120684
0.705028 0.314199 0.120485
0 0.405203 0
0.0859998 0.371893 0.0548409
0.231876 0.366995 0.120806
0.329213 0.37438 0.152743
0.407858 0.384543 0.172503
0.482048 0.396323 0.185885
0.552544 0.409216 0.197314
0.622385 0.422477 0.205097
0.704875 0.433433 0.19762
0 0.504417 0.0241703
0.118959 0.48011 0.0890211
0.270756 0.471702 0.159365
0.371481 0.475578 0.204471
0.448264 0.484276 0.23563
0.517006 0.495781 0.260334
0.580865 0.509148 0.278447
0.645762 0.523003 0.285206
0.718822 0.535607 0.278233
0 0.596307 0.0868391
0.168139 0.578271 0.142245
0.315999 0.570642 0.208637
0.418479 0.572457 0.258396
0.495399 0.57966 0.293858
0.562768 0.589929 0.323293
0.623285 0.602365 0.347707
0.684352 0.616129 0.352377
0.748486 0.629343 0.350607
0.0290074 0.692012 0.134844
0.224933 0.670863 0.201328
0.366751 0.664073 0.262776
0.468467 0.664454 0.312688
0.54548 0.669932 0.35024
0.612039 0.678782 0.381262
0.671931 0.690715 0.396857
0.729595 0.703456 0.406195
0.788144 0.716197 0.410193
0.0595865 0.792828 0.161776
0.263493 0.766949 0.235737
0.41265 0.755199 0.306508
0.51577 0.753048 0.358343
0.593088 0.757061 0.393988
0.659541 0.764965 0.419226
0.719356 0.775235 0.437064
0.775753 0.786679 0.45037
0.831678 0.798566 0.459449
0.087068 0.889906 0.185901
0.290974 0.862608 0.257816
0.443503 0.848219 0.327855
0.551537 0.842786 0.38172
0.633463 0.843778 0.42118
0.702983 0.849256 0.450645
0.764172 0.857832 0.472282
0.820737 0.868193 0.488655
0.876005 0.879347 0.50135
0 0 0.239338
0.086244 0 0.197391
0.275212 0 0.176242
0.410849 0 0.15642
0.490211 0 0.144228
0.540764 0 0.141314
0.584054 0 0.146532
0.654551 0 0.154467
0.741955 0.00810254 0.162097
0 0.133455 0.176837
0.0333867 0.101717 0.146899
0.215854 0.095079 0.132906
0.370031 0.0910811 0.12256
0.487297 0.0936599 0.120348
0.567437 0.106325 0.129809
0.622019 0.126131 0.147539
0.669413 0.148013 0.167712
0.737621 0.164355 0.181476
0 0.309926 0.118074
0.0114137 0.265721 0.126146
0.194385 0.250217 0.193515
0.315343 0.257038 0.170504
0.444373 0.257908 0.145968
0.553735 0.262135 0.145556
0.631632 0.273716 0.164462
0.69189 0.289738 0.189425
0.74548 0.307439 0.214725
0 0.446357 0.0957809
0 0.40679 0.114794
0.223484 0.376287 0.204913
0.334081 0.379568 0.237842
0.425681 0.388006 0.235248
0.523278 0.3953 0.223148
0.612192 0.403677 0.224552
0.686778 0.414832 0.239033
0.75227 0.427985 0.259068
0 0.549859 0.113939
0.00970474 0.524102 0.122698
0.236179 0.492241 0.205234
0.36733 0.485756 0.263569
0.455344 0.491722 0.287938
0.535622 0.500938 0.300298
0.611811 0.511589 0.308141
0.683665 0.523064 0.317082
0.752209 0.535058 0.328191
0 0.640024 0.157137
0.0531167 0.625299 0.160784
0.257359 0.601068 0.22414
0.399084 0.589685 0.289067
0.493065 0.591211 0.329183
0.570916 0.598367 0.35729
0.639475 0.608515 0.379202
0.703151 0.620264 0.395026
0.76553 0.632441 0.40705
0 0.725994 0.21062
0.117617 0.715373 0.217899
0.298421 0.697963 0.268482
0.4365 0.686519 0.328023
0.533974 0.684901 0.374121
0.61239 0.689632 0.408896
0.679133 0.698116 0.436805
0.738888 0.708782 0.459724
0.795865 0.7205 0.477134
0 0.821332 0.244038
0.184985 0.799771 0.277653
0.348928 0.786191 0.321859
0.479515 0.775692 0.375265
0.577111 0.772457 0.421592
0.656077 0.77525 0.459251
0.722255 0.782269 0.489403
0.780743 0.791745 0.515114
0.835981 0.802731 0.534295
0.0093843 0.918227 0.265843
0.225101 0.889769 0.313024
0.401297 0.869047 0.375631
0.524666 0.859632 0.424048
0.620935 0.855726 0.468986
0.700298 0.857252 0.507881
0.766659 0.863172 0.539956
0.824704 0.872343 0.563394
0.880049 0.883391 0.576562
0 0 0.451987
0.0890669 0 0.410513
0.279744 0 0.37702
0.419959 0 0.348806
0.51223 0 0.319554
0.573358 0 0.29543
0.621195 0 0.282795
0.676158 0 0.280842
0.764508 0.00366217 0.286213
0 0.126101 0.406241
0.0251164 0.0965744 0.373342
0.234287 0.0844434 0.334051
0.398764 0.0783551 0.313527
0.528786 0.0786297 0.296223
0.624704 0.088716 0.284489
0.684047 0.109102 0.281575
0.728649 0.133257 0.286458
0.770275 0.157794 0.29572
0 0.306447 0.346166
0 0.278523 0.320607
0.196475 0.254215 0.296773
0.354299 0.248844 0.285313
0.493034 0.245212 0.276036
0.614496 0.246082 0.271885
0.705287 0.25507 0.277012
0.765499 0.271977 0.291341
0.813367 0.291997 0.309331
0 0.453666 0.297887
0 0.433509 0.268711
0.175723 0.39791 0.277668
0.337514 0.383185 0.33698
0.443183 0.389151 0.315984
0.570199 0.388998 0.290455
0.681392 0.391302 0.285664
0.764294 0.4 0.298589
0.826413 0.413825 0.32076
0 0.566735 0.278462
0 0.55819 0.243717
0.162997 0.522316 0.265324
0.361608 0.493706 0.343923
0.459434 0.496132 0.373419
0.549432 0.504173 0.367971
0.648081 0.510536 0.350729
0.740383 0.517113 0.346487
0.817502 0.526329 0.358358
0 0.662943 0.287388
0 0.665202 0.248692
0.165194 0.63827 0.266255
0.370352 0.60705 0.340276
0.490288 0.599329 0.394202
0.576516 0.604425 0.416632
0.654856 0.613001 0.423743
0.731594 0.622141 0.425086
0.805905 0.631373 0.429358
0 0.751308 0.316777
0.00604257 0.75552 0.284077
0.195148 0.739849 0.29192
0.383581 0.713481 0.350042
0.51632 0.699809 0.410407
0.610254 0.699367 0.449195
0.685969 0.70544 0.472999
0.753506 0.714153 0.490593
0.818235 0.723949 0.502846
0 0.841077 0.347601
0.083711 0.8374 0.332128
0.249271 0.827008 0.339193
0.413779 0.807401 0.382483
0.545022 0.793179 0.43743
0.644587 0.788861 0.483558
0.721981 0.792157 0.516533
0.787915 0.799313 0.542382
0.848478 0.808423 0.563745
0 0.938689 0.363546
0.158343 0.915068 0.382452
0.309987 0.906905 0.392447
0.456718 0.891829 0.428504
0.580697 0.879301 0.476738
0.681071 0.873747 0.5234
0.760174 0.875288 0.560876
0.826337 0.881361 0.590707
0.886229 0.889784 0.616342
0 0 0.581003
0.0796674 0 0.568185
0.270344 0 0.533013
0.407919 0 0.495659
0.503594 0 0.459831
0.574945 0 0.428168
0.631785 0 0.406043
0.688975 0 0.395239
0.778866 0.000900282 0.398383
0 0.119295 0.573449
0.019379 0.0929122 0.56109
0.236332 0.0783398 0.521813
0.403983 0.0722362 0.491417
0.537591 0.0718395 0.469627
0.643946 0.0799878 0.445762
0.714214 0.0988937 0.424308
0.763775 0.123156 0.411566
0.806821 0.148516 0.406592
0 0.295949 0.528069
0 0.272328 0.522042
0.188586 0.249973 0.494041
0.370352 0.23975 0.459464
0.516747 0.234409 0.443442
0.647227 0.233646 0.427588
0.750225 0.24036 0.417166
0.819043 0.256275 0.413428
0.866438 0.277836 0.416175
0 0.442893 0.479362
0 0.430808 0.46949
0.126741 0.408179 0.448936
0.338201 0.386786 0.426963
0.474006 0.382498 0.417563
0.610147 0.377966 0.407645
0.728389 0.378058 0.402808
0.823468 0.384115 0.404761
0.890303 0.397559 0.415106
0 0.561883 0.44622
0 0.56437 0.42501
0.0843366 0.544427 0.403128
0.318639 0.512474 0.409369
0.46215 0.498894 0.462028
0.565484 0.50454 0.439796
0.687648 0.504341 0.416831
0.796826 0.505928 0.41062
0.883955 0.512383 0.418463
0 0.665934 0.432914
0 0.679973 0.399008
0.0737621 0.666606 0.376303
0.304265 0.63331 0.395621
0.483436 0.606332 0.464805
0.579355 0.607599 0.495293
0.664561 0.615244 0.489448
0.760403 0.62063 0.469795
0.855421 0.624949 0.459953
0 0.759899 0.440543
0 0.776226 0.402319
0.0948043 0.773007 0.374838
0.303532 0.744488 0.393866
0.488899 0.714534 0.459098
0.607767 0.705074 0.512779
0.689509 0.709514 0.533578
0.76463 0.717189 0.537499
0.842527 0.72462 0.532982
0 0.851637 0.457496
0.0117342 0.860395 0.426383
0.148486 0.861891 0.399863
0.32256 0.842817 0.409522
0.496574 0.815961 0.462867
0.629114 0.800381 0.522728
0.719646 0.799268 0.559838
0.792676 0.804746 0.580514
0.86067 0.812345 0.594049
0 0.950576 0.467048
0.0883192 0.938582 0.459968
0.217258 0.940139 0.440543
0.365469 0.927733 0.446265
0.518029 0.907637 0.485237
0.650568 0.891676 0.54023
0.748745 0.886717 0.585763
0.824964 0.889586 0.617517
0.891859 0.896025 0.642069
0 0 0.641474
0.0640574 0 0.655131
0.247059 0 0.634485
0.383368 0 0.600076
0.483314 0 0.56492
0.562539 0 0.53341
0.627405 0 0.509514
0.697505 0 0.499794
0.788449 0 0.503105
0 0.114458 0.668971
0.0175631 0.0923018 0.695369
0.230335 0.0771954 0.672999
0.400839 0.0704204 0.640101
0.533379 0.0710765 0.610956
0.639796 0.0797589 0.581262
0.717281 0.0971542 0.552758
0.775402 0.119753 0.530663
0.824613 0.144167 0.515541
0 0.284611 0.650477
0 0.267109 0.6795
0.18349 0.246754 0.661768
0.373648 0.234043 0.626261
0.522423 0.228855 0.600504
0.65597 0.227314 0.582025
0.767269 0.232227 0.563363
0.846464 0.246387 0.545434
0.900084 0.267613 0.532357
0 0.429145 0.614206
0 0.423346 0.636759
0.12285 0.40325 0.625925
0.330724 0.383291 0.598627
0.488243 0.374609 0.56791
0.630671 0.368536 0.554345
0.755779 0.367407 0.540581
0.859953 0.371771 0.531655
0.936767 0.383612 0.527443
0 0.54963 0.583169
0 0.556725 0.592248
0.0706493 0.542107 0.579843
0.277806 0.520745 0.560189
0.461738 0.502373 0.540429
0.591562 0.498665 0.531899
0.72137 0.494652 0.522927
0.83505 0.494621 0.518135
0.932586 0.498634 0.517876
0 0.659022 0.56434
0 0.676829 0.555856
0.0364385 0.672618 0.536706
0.235523 0.652461 0.517342
0.441596 0.623789 0.522744
0.581552 0.609735 0.573648
0.677867 0.615412 0.553048
0.793484 0.615061 0.530495
0.902205 0.615045 0.521737
0 0.758404 0.56141
0 0.779553 0.539345
0.0396124 0.786343 0.510384
0.223758 0.768719 0.492576
0.427558 0.738033 0.509346
0.601007 0.710994 0.574838
0.691508 0.711833 0.604059
0.771725 0.718822 0.598413
0.866178 0.722927 0.576715
0 0.856718 0.568032
0 0.869017 0.542611
0.0814679 0.880949 0.508202
0.234943 0.871 0.487175
0.424613 0.842878 0.505501
0.604501 0.812863 0.567864
0.717418 0.803571 0.619043
0.795117 0.807691 0.638743
0.869184 0.814603 0.640696
0 0.957122 0.573388
0.0469825 0.950622 0.558373
0.147112 0.961959 0.526284
0.274128 0.958724 0.50338
0.436179 0.938552 0.514275
0.607401 0.911284 0.566796
0.735119 0.896254 0.624811
0.822812 0.895201 0.661173
0.895552 0.900389 0.680827
0 0 0.683024
0.0506142 0 0.705074
0.221088 0 0.699092
0.35462 0 0.67599
0.458427 0 0.648142
0.54435 0 0.620661
0.615747 0 0.598413
0.705257 0 0.599527
0.796399 0 0.603159
0 0.112718 0.726757
0.0210269 0.095964 0.773007
0.218662 0.0824292 0.778897
0.385565 0.0755779 0.756573
0.51667 0.0767376 0.726482
0.623224 0.0856947 0.693202
0.705608 0.101762 0.662745
0.771389 0.122225 0.638025
0.827741 0.144808 0.618692
0 0.275517 0.733425
0 0.262928 0.792142
0.181048 0.245533 0.802701
0.369436 0.23212 0.777935
0.522271 0.225925 0.749142
0.655848 0.224933 0.723705
0.766598 0.23032 0.70042
0.850919 0.243503 0.676066
0.912917 0.263188 0.652918
0 0.416617 0.716487
0 0.414374 0.769512
0.125154 0.39855 0.782315
0.325414 0.379934 0.762295
0.492576 0.368429 0.730709
0.636576 0.362966 0.705699
0.76466 0.361089 0.689799
0.876005 0.363882 0.674235
0.962768 0.373922 0.657603
0 0.537209 0.69546
0 0.545235 0.733181
0.0744945 0.535851 0.743954
0.27219 0.516564 0.730617
0.454109 0.499214 0.705638
0.605432 0.491142 0.675822
0.740398 0.485725 0.664408
0.860151 0.484565 0.651621
0.965423 0.487098 0.641779
0 0.648844 0.679469
0 0.66537 0.697673
0.0381781 0.666606 0.701167
0.221515 0.650446 0.687037
0.403708 0.631083 0.669093
0.580118 0.613184 0.64918
0.700969 0.610101 0.641566
0.825071 0.605707 0.632685
0.937072 0.604288 0.626535
0 0.752331 0.674479
0 0.772519 0.674861
0.0288396 0.784436 0.665736
0.186801 0.774578 0.646891
0.362951 0.755428 0.629068
0.559915 0.727596 0.631861
0.693477 0.713573 0.679942
0.783886 0.718853 0.659937
0.897246 0.717357 0.636866
0 0.858686 0.678981
0 0.86743 0.666224
0.0561074 0.884718 0.645136
0.181125 0.883604 0.619226
0.349111 0.865232 0.603525
0.54461 0.835355 0.617365
0.710246 0.809308 0.678523
0.796887 0.809766 0.707408
0.875639 0.816083 0.700877
0 0.960311 0.681956
0.0322423 0.953597 0.668437
0.109545 0.971099 0.641535
0.208392 0.977081 0.609995
0.353368 0.964752 0.592798
0.538293 0.936889 0.61033
0.710491 0.908507 0.669139
0.82063 0.899351 0.719738
0.897841 0.903166 0.739803
0 0 0.752514
0.0429847 0 0.74345
0.201617 0 0.746197
0.330373 0 0.733166
0.435126 0 0.713588
0.5252 0 0.691875
0.621332 0 0.691264
0.713283 0 0.693629
0.804257 0.000244144 0.697017
0 0.113924 0.770779
0.0276799 0.102235 0.816968
0.206744 0.0927596 0.83653
0.363607 0.0872969 0.82916
0.491585 0.0885023 0.807568
0.599847 0.0964218 0.779156
0.687465 0.110567 0.751431
0.759503 0.128923 0.727962
0.821958 0.149599 0.708095
0 0.270634 0.794079
0 0.261387 0.857221
0.183276 0.247974 0.894667
0.361379 0.235187 0.892531
0.513115 0.228443 0.871199
0.646265 0.227649 0.843534
0.755566 0.233829 0.814923
0.841306 0.246906 0.786816
0.909682 0.264973 0.76022
0 0.407874 0.793759
0 0.406271 0.857862
0.136217 0.39501 0.901244
0.322713 0.378424 0.900099
0.489219 0.366308 0.876005
0.637766 0.359701 0.84799
0.766567 0.35819 0.825696
0.877272 0.36144 0.806531
0.967987 0.370733 0.784512
0 0.527321 0.784421
0 0.533684 0.837613
0.0906386 0.52903 0.877653
0.273045 0.512627 0.879484
0.449302 0.496284 0.860182
0.610162 0.485313 0.829862
0.746181 0.480613 0.80676
0.868299 0.478782 0.792264
0.979904 0.479835 0.776928
0 0.640635 0.77673
0 0.653147 0.811444
0.0580758 0.657649 0.841306
0.223377 0.645106 0.842741
0.398032 0.627405 0.829313
0.572549 0.610407 0.804349
0.714229 0.603067 0.775845
0.842405 0.597406 0.765988
0.959976 0.594934 0.752407
0 0.75256 0.780285
0 0.761898 0.791058
0.0495155 0.774731 0.805982
0.186099 0.769436 0.802976
0.350515 0.753277 0.788663
0.525765 0.733852 0.770459
0.691066 0.717067 0.751125
0.803998 0.714214 0.743908
0.926406 0.708583 0.734127
0 0.859098 0.784527
0 0.860258 0.77966
0.066453 0.878141 0.779263
0.168582 0.882261 0.767712
0.315541 0.870237 0.749859
0.485191 0.851102 0.73225
0.670466 0.825162 0.733852
0.798932 0.811399 0.779553
0.887694 0.816114 0.758953
0 0.961547 0.786648
0.0392615 0.950454 0.775265
0.105013 0.969787 0.763287
0.182467 0.981048 0.741894
0.30367 0.976303 0.718944
0.468269 0.957656 0.704448
0.652705 0.930282 0.717159
0.812879 0.905486 0.775082
0.899794 0.905394 0.805173
0 0 0.84892
0.0444343 0 0.828107
0.195468 0 0.811658
0.320012 0 0.798718
0.428885 0 0.789822
0.532113 0 0.784237
0.629175 0 0.782376
0.721523 0 0.783566
0.81239 0.00138857 0.786282
0 0.116457 0.857145
0.0351873 0.1093 0.852018
0.199207 0.103838 0.87541
0.344732 0.100694 0.877241
0.467796 0.102373 0.865354
0.57615 0.109331 0.845243
0.667475 0.121706 0.82324
0.744518 0.13814 0.802976
0.819333 0.154223 0.790524
0 0.270512 0.866972
0.0213931 0.262547 0.902083
0.189425 0.253544 0.945113
0.351919 0.243458 0.96025
0.496498 0.237308 0.952834
0.626612 0.236606 0.931502
0.735546 0.242603 0.904418
0.824247 0.254673 0.87686
0.897917 0.271046 0.850568
0 0.405066 0.87187
1.5259e-05 0.401282 0.918868
0.156252 0.393423 0.974441
0.323735 0.379705 0.999207
0.483238 0.36788 0.992309
0.631769 0.360616 0.970138
0.761059 0.359121 0.945312
0.870481 0.363195 0.92076
0.960784 0.37293 0.89427
0 0.524941 0.874296
0 0.524895 0.914534
0.119814 0.522408 0.971206
0.280262 0.509743 0.99884
0.446754 0.494865 0.992798
0.60737 0.483253 0.96846
0.74786 0.477394 0.942397
0.870985 0.475731 0.921904
0.981933 0.477119 0.903426
0 0.641398 0.876509
0 0.642847 0.900801
0.0925917 0.647669 0.948592
0.234501 0.63946 0.974197
0.398383 0.623728 0.971038
0.567803 0.607584 0.951339
0.719219 0.597192 0.922759
0.847913 0.592462 0.900526
0.967651 0.589349 0.88542
0 0.753094 0.880217
0 0.751934 0.887297
0.0847334 0.763272 0.920439
0.199863 0.761944 0.939513
0.351431 0.748348 0.936233
0.519463 0.73051 0.921965
0.683406 0.714473 0.897658
0.816724 0.707515 0.870008
0.942458 0.700786 0.860212
0 0.859342 0.884291
0.0249943 0.851682 0.877867
0.0966506 0.867491 0.89543
0.183581 0.873915 0.904158
0.313985 0.865522 0.897948
0.473854 0.84892 0.883162
0.63949 0.830625 0.865858
0.795697 0.815061 0.847288
0.906218 0.811933 0.83978
0 0.961791 0.886183
0.0424811 0.949187 0.874739
0.123354 0.96257 0.876295
0.189593 0.97528 0.872724
0.2907 0.975372 0.860471
0.436637 0.962539 0.843122
0.597467 0.945022 0.827329
0.773266 0.921263 0.828809
0.902617 0.907591 0.874434
0 0 0.94374
0.0472877 0 0.922744
0.198871 0 0.906142
0.324208 0 0.892729
0.434272 0 0.882979
0.538582 0 0.876295
0.63653 0 0.873259
0.729458 0 0.873213
0.820661 0.00262455 0.874861
0 0.119158 0.95169
0.0385138 0.113024 0.933379
0.19585 0.113451 0.917403
0.330755 0.113588 0.916793
0.448188 0.116136 0.912322
0.554788 0.122774 0.899886
0.647578 0.133974 0.884169
0.736767 0.14522 0.878172
0.827268 0.155154 0.878859
0 0.272709 0.962371
0.0392157 0.265217 0.948577
0.196765 0.260182 0.981903
0.344594 0.253681 1
0.478737 0.2495 1
0.603281 0.249302 0.993439
0.711345 0.254704 0.9738
0.802838 0.26537 0.951339
0.881498 0.27985 0.928145
0 0.406561 0.968261
0.0312657 0.398962 0.968292
0.17789 0.393942 1
0.328649 0.383993 1
0.475471 0.373999 1
0.618204 0.367025 1
0.745205 0.365606 1
0.853513 0.36994 1
0.944778 0.379431 0.987594
0 0.526055 0.971466
0.0229496 0.518959 0.976577
0.153384 0.517494 1
0.29601 0.508247 1
0.447135 0.495521 1
0.601862 0.484016 1
0.742916 0.477424 1
0.866972 0.475563 1
0.976913 0.477623 1
0 0.642329 0.974304
0.0231937 0.634775 0.974517
0.13312 0.638651 1
0.257816 0.633371 1
0.403906 0.620661 1
0.564843 0.605753 1
0.716182 0.59472 1
0.849424 0.588754 1
0.970535 0.585687 1
0 0.753735 0.978271
0.0354467 0.743206 0.96936
0.126177 0.752224 1
0.228077 0.752682 1
0.360098 0.742748 1
0.51902 0.726635 1
0.678233 0.711345 1
0.821515 0.701244 1
0.947707 0.695613 0.992508
0 0.859648 0.982284
0.0403754 0.847852 0.971771
0.133928 0.856443 0.994751
0.21413 0.862898 1
0.324788 0.858366 1
0.473869 0.843946 1
0.632502 0.827298 1
0.787594 0.812421 0.99202
0.918761 0.805158 0.963943
0 0.961852 0.98407
0.0422217 0.949157 0.97261
0.153445 0.953063 0.977829
0.217594 0.964599 0.991379
0.302739 0.967605 0.996735
0.434165 0.958038 0.989364
0.586404 0.942824 0.97586
0.743755 0.926268 0.960159
0.898619 0.911467 0.941909
