luts/Correction2.cube
LUT_3D_SIZE 6
0.000000 0.000000 0.000000
0.000000 0.000000 0.000000
0.362035 0.000111 0.000000
0.890791 0.077570 0.039897
1.000020 0.113187 0.087550
1.000020 0.113188 0.091744
0.000000 0.000102 0.000000
0.000000 0.000000 0.000000
0.305617 0.013818 0.000000
0.819726 0.062362 0.026856
1.000020 0.113219 0.084643
1.000020 0.113188 0.091081
0.023490 0.359168 0.006665
0.013015 0.319259 0.003300
0.247410 0.287666 0.001733
0.757978 0.314510 0.021542
1.000020 0.113224 0.083933
1.000020 0.113188 0.090805
0.173538 0.821603 0.126077
0.160611 0.782289 0.112721
0.166122 0.766512 0.104256
0.663176 0.732757 0.100133
0.987246 0.716047 0.121300
1.000020 0.162197 0.068807
0.232218 0.981437 0.243557
0.232689 0.981437 0.207004
0.232896 0.981437 0.196948
0.612247 0.981437 0.175358
0.930061 0.981437 0.194582
0.988107 0.960288 0.193652
0.246951 0.981437 0.652290
0.241031 0.981437 0.596166
0.289941 0.981437 0.569382
0.598865 0.981437 0.524185
0.882808 0.979926 0.482788
0.987321 0.981437 0.245542
0.000000 0.000000 0.000000
0.000000 0.000000 0.000000
0.360411 0.000139 0.016184
0.887473 0.076840 0.066208
1.000020 0.113187 0.087351
1.000020 0.113188 0.091694
0.000000 0.000000 0.000000
0.000000 0.000000 0.000000
0.371984 0.000415 0.001644
0.882212 0.075689 0.038319
1.000020 0.113194 0.086685
1.000020 0.113188 0.091593
0.018801 0.342094 0.008473
0.015908 0.330786 0.004170
0.234188 0.280518 0.001357
0.779688 0.260062 0.019180
1.000020 0.113224 0.084469
1.000020 0.113188 0.090996
0.167645 0.803829 0.120151
0.164338 0.793684 0.116550
0.156385 0.763302 0.105795
0.653435 0.725260 0.097470
0.988322 0.690808 0.115188
1.000020 0.127311 0.084466
0.231490 0.981437 0.309151
0.232122 0.981437 0.245828
0.232674 0.981437 0.204018
0.578553 0.981437 0.176784
0.926490 0.981044 0.193627
0.988570 0.951677 0.190786
0.241319 0.981437 0.652463
0.239642 0.981437 0.621290
0.259335 0.981437 0.573647
0.564796 0.981437 0.525027
0.872605 0.979933 0.482412
0.986718 0.981437 0.254858
0.000000 0.000000 0.266290
0.000000 0.000000 0.279555
0.379002 0.004002 0.340339
0.883779 0.082786 0.510954
1.000020 0.115704 0.460386
1.000020 0.113188 0.091702
0.000000 0.000000 0.260306
0.000000 0.000000 0.334267
0.371483 0.003530 0.346543
0.868601 0.077839 0.444236
1.000020 0.113797 0.317112
1.000020 0.113188 0.091558
0.009979 0.308505 0.296239
0.005286 0.287227 0.282002
0.166444 0.217435 0.258338
0.841626 0.081166 0.287793
1.000020 0.113190 0.093072
1.000020 0.113188 0.091444
0.157103 0.771786 0.420964
0.152739 0.759502 0.365662
0.153218 0.761391 0.207819
0.632253 0.713734 0.114682
0.995426 0.618579 0.099065
1.000020 0.113188 0.091300
0.230595 0.981437 0.537955
0.230602 0.981437 0.479902
0.231119 0.981437 0.334575
0.434105 0.981437 0.232755
0.918484 0.978977 0.193752
0.988557 0.932037 0.184429
0.235743 0.981437 0.724688
0.234421 0.981437 0.684746
0.237168 0.981437 0.626594
0.455515 0.981632 0.569647
0.841398 0.979397 0.515508
0.985864 0.981493 0.291696
0.004832 0.010152 0.874503
0.005207 0.010529 0.880292
0.471411 0.032069 0.909357
0.889077 0.099289 0.909357
1.000020 0.132712 0.909357
1.000020 0.129742 0.909357
0.003547 0.008849 0.852047
0.008487 0.013748 0.906902
0.397105 0.026507 0.909439
0.865139 0.093223 0.907644
1.000020 0.130697 0.909110
1.000020 0.126456 0.844290
0.013039 0.244912 0.848085
0.004097 0.148922 0.856811
0.057870 0.014831 0.898728
0.832277 0.086089 0.905501
1.000020 0.128607 0.896514
1.000020 0.121669 0.704430
0.144641 0.732414 0.832910
0.138592 0.714590 0.814916
0.132542 0.696912 0.810521
0.561553 0.617948 0.781361
0.997938 0.419488 0.768612
1.000020 0.120904 0.676888
0.228160 0.976616 0.870199
0.226734 0.973851 0.840985
0.226476 0.975799 0.784536
0.274447 0.975269 0.725116
0.882817 0.947308 0.637724
0.983493 0.897403 0.414616
0.234158 0.981437 0.903137
0.233788 0.981437 0.875878
0.233694 0.981437 0.823409
0.348962 0.981437 0.769144
0.791647 0.978117 0.704621
0.978121 0.979711 0.572730
0.023316 0.027477 0.909357
0.023316 0.027477 0.909357
0.441159 0.043005 0.909357
0.903861 0.110853 0.909357
1.000020 0.138481 0.909357
1.000020 0.138481 0.909357
0.023243 0.027422 0.909357
0.023319 0.027477 0.909357
0.274243 0.033017 0.909357
0.856711 0.101779 0.909357
1.000020 0.138481 0.909357
1.000020 0.138507 0.909357
0.034714 0.263867 0.909357
0.023884 0.161069 0.909357
0.019761 0.070928 0.909357
0.776222 0.087303 0.909357
1.000020 0.138525 0.909357
1.000020 0.138438 0.909357
0.149867 0.731196 0.909357
0.140836 0.703206 0.909357
0.129421 0.665884 0.909357
0.507039 0.574128 0.909357
0.993028 0.370548 0.909357
1.000020 0.138365 0.909357
0.222781 0.951206 0.909357
0.220433 0.944620 0.909357
0.218256 0.938040 0.909357
0.229807 0.930059 0.909357
0.850983 0.885629 0.909357
0.978403 0.829663 0.909357
0.236886 0.981437 0.909357
0.236882 0.981437 0.909357
0.236776 0.981437 0.909357
0.302811 0.981437 0.909357
0.786776 0.973503 0.909357
0.957117 0.971067 0.909357
0.054419 0.388412 0.909357
0.052274 0.377219 0.909357
0.218680 0.362792 0.909357
0.807339 0.293529 0.909357
1.000020 0.139758 0.909357
1.000020 0.138481 0.909357
0.046971 0.352675 0.909357
0.036116 0.280789 0.909357
0.061254 0.250723 0.909357
0.735725 0.138587 0.909357
1.000020 0.137739 0.909357
1.000020 0.138481 0.909357
0.083900 0.512524 0.909357
0.065096 0.438572 0.909357
0.052473 0.379755 0.909357
0.636744 0.251560 0.909357
1.000020 0.140403 0.909357
1.000020 0.138481 0.909357
0.157901 0.754326 0.909357
0.142507 0.706652 0.909357
0.131979 0.673502 0.909357
0.531367 0.627522 0.909357
0.922504 0.559484 0.909357
1.000020 0.187222 0.909357
0.219873 0.941034 0.909357
0.214319 0.924148 0.909357
0.210258 0.912413 0.909357
0.440811 0.894436 0.909357
0.861157 0.884415 0.909357
0.974332 0.857721 0.909357
0.239675 0.981437 0.909357
0.236877 0.981437 0.909357
0.237839 0.981437 0.909357
0.522883 0.973670 0.909357
0.849357 0.963697 0.909357
0.956158 0.960922 0.909357
