luts/Correction3.cube
LUT_3D_SIZE 16
0.000000 0.000000 0.000000
0.002782 0.000000 0.000000
0.031291 0.000000 0.000000
0.078349 0.000000 0.000000
0.137725 0.000000 0.000000
0.203485 0.000000 0.000000
0.274687 0.000000 0.000000
0.350543 0.000000 0.000000
0.430759 0.000000 0.000000
0.513107 0.000000 0.000000
0.593488 0.000000 0.000000
0.671535 0.000000 0.000000
0.746041 0.000000 0.000000
0.816953 0.000000 0.000000
0.882426 0.000000 0.000000
0.940801 0.000000 0.000000
0.000000 0.014652 0.000000
0.002782 0.014652 0.000000
0.031291 0.018892 0.000000
0.078349 0.021927 0.000000
0.137725 0.024372 0.000000
0.203485 0.026447 0.000000
0.274687 0.028287 0.000000
0.350543 0.029925 0.000000
0.430759 0.031430 0.000000
0.513107 0.032687 0.000000
0.593488 0.033518 0.000000
0.671535 0.034002 0.000000
0.746041 0.034192 0.000000
0.816953 0.034127 0.000000
0.882426 0.033827 0.000000
0.940801 0.033233 0.000000
0.000000 0.048836 0.000000
0.005754 0.048836 0.000000
0.031291 0.048836 0.000000
0.078349 0.056678 0.000000
0.137725 0.062989 0.000000
0.203485 0.068367 0.000000
0.274687 0.073121 0.000000
0.350543 0.077366 0.000000
0.430759 0.081255 0.000000
0.513107 0.084503 0.000000
0.593488 0.086652 0.000000
0.671535 0.087884 0.000000
0.746041 0.088379 0.000000
0.816953 0.088197 0.000000
0.882426 0.087422 0.000000
0.940801 0.085905 0.000000
0.000000 0.098538 0.000000
0.008072 0.098538 0.000000
0.038471 0.098538 0.000000
0.078349 0.098538 0.000000
0.137725 0.109059 0.000000
0.203485 0.117866 0.000000
0.274687 0.125514 0.000000
0.350543 0.132277 0.000000
0.430759 0.138397 0.000000
0.513107 0.143494 0.000000
0.593488 0.146818 0.000000
0.671535 0.148741 0.000000
0.746041 0.149481 0.000000
0.816953 0.149248 0.000000
0.882426 0.148030 0.000000
0.940801 0.145658 0.000000
0.000000 0.157217 0.000000
0.010015 0.157217 0.000000
0.044336 0.157217 0.000000
0.088940 0.157217 0.000000
0.137725 0.157217 0.000000
0.203485 0.169285 0.000000
0.274687 0.179758 0.000000
0.350543 0.189013 0.000000
0.430759 0.197411 0.000000
0.513107 0.204353 0.000000
0.593488 0.208914 0.000000
0.671535 0.211532 0.000000
0.746041 0.212569 0.000000
0.816953 0.212240 0.000000
0.882426 0.210560 0.000000
0.940801 0.207313 0.000000
0.000000 0.221850 0.000000
0.011708 0.221850 0.000000
0.049368 0.221850 0.000000
0.097827 0.221850 0.000000
0.149963 0.221850 0.000000
0.203485 0.221850 0.000000
0.274687 0.235243 0.000000
0.350543 0.247006 0.000000
0.430759 0.257735 0.000000
0.513107 0.266586 0.000000
0.593488 0.272385 0.000000
0.671535 0.275726 0.000000
0.746041 0.277074 0.000000
0.816953 0.276625 0.000000
0.882426 0.274494 0.000000
0.940801 0.270352 0.000000
0.000000 0.291665 0.000000
0.013229 0.291665 0.000000
0.053839 0.291665 0.000000
0.105570 0.291665 0.000000
0.160656 0.291665 0.000000
0.217118 0.291665 0.000000
0.274687 0.291665 0.000000
0.350543 0.306034 0.000000
0.430759 0.319058 0.000000
0.513107 0.329925 0.000000
0.593488 0.336970 0.000000
0.671535 0.340997 0.000000
0.746041 0.342669 0.000000
0.816953 0.342151 0.000000
0.882426 0.339541 0.000000
0.940801 0.334536 0.000000
0.000000 0.365969 0.000000
0.014610 0.365969 0.000000
0.057850 0.365969 0.000000
0.112413 0.365969 0.000000
0.170018 0.365969 0.000000
0.229153 0.365969 0.000000
0.289357 0.365969 0.000000
0.350543 0.365969 0.000000
0.430759 0.381340 0.000000
0.513107 0.394130 0.000000
0.593488 0.402481 0.000000
0.671535 0.407305 0.000000
0.746041 0.409197 0.000000
0.816953 0.408536 0.000000
0.882426 0.405494 0.000000
0.940801 0.399549 0.000000
0.000000 0.444390 0.000000
0.015888 0.444390 0.000000
0.061558 0.444390 0.000000
0.118619 0.444390 0.000000
0.178597 0.444390 0.000000
0.240050 0.444390 0.000000
0.302679 0.444390 0.000000
0.366301 0.444390 0.000000
0.430759 0.444390 0.000000
0.513107 0.459135 0.000000
0.593488 0.468802 0.000000
0.671535 0.474373 0.000000
0.746041 0.476575 0.000000
0.816953 0.475868 0.000000
0.882426 0.472352 0.000000
0.940801 0.465432 0.000000
0.000000 0.524821 0.000000
0.016965 0.524821 0.000000
0.064643 0.524821 0.000000
0.123792 0.524821 0.000000
0.185651 0.524821 0.000000
0.249057 0.524821 0.000000
0.313745 0.524821 0.000000
0.379340 0.524821 0.000000
0.445884 0.524821 0.000000
0.513107 0.524821 0.000000
0.593488 0.535816 0.000000
0.671535 0.542110 0.000000
0.746041 0.544673 0.000000
0.816953 0.543836 0.000000
0.882426 0.539811 0.000000
0.940801 0.531950 0.000000
0.000000 0.603358 0.000000
0.017678 0.603358 0.000000
0.066711 0.603358 0.000000
0.127160 0.603358 0.000000
0.190298 0.603358 0.000000
0.255010 0.603358 0.000000
0.320923 0.603358 0.000000
0.387916 0.603358 0.000000
0.455736 0.603358 0.000000
0.524364 0.603358 0.000000
0.593488 0.603358 0.000000
0.671535 0.610470 0.000000
0.746041 0.613336 0.000000
0.816953 0.612358 0.000000
0.882426 0.607885 0.000000
0.940801 0.599083 0.000000
0.000000 0.679435 0.000000
0.018096 0.679435 0.000000
0.067890 0.679435 0.000000
0.129104 0.679435 0.000000
0.192971 0.679435 0.000000
0.258418 0.679435 0.000000
0.325057 0.679435 0.000000
0.392854 0.679435 0.000000
0.461412 0.679435 0.000000
0.530795 0.679435 0.000000
0.600812 0.679435 0.000000
0.671535 0.679435 0.000000
0.746041 0.682721 0.000000
0.816953 0.681525 0.000000
0.882426 0.676542 0.000000
0.940801 0.666832 0.000000
0.000000 0.752194 0.000000
0.018260 0.752194 0.000000
0.068368 0.752194 0.000000
0.129895 0.752194 0.000000
0.194027 0.752194 0.000000
0.259807 0.752194 0.000000
0.326809 0.752194 0.000000
0.394787 0.752194 0.000000
0.463716 0.752194 0.000000
0.533413 0.752194 0.000000
0.603718 0.752194 0.000000
0.674782 0.752194 0.000000
0.746041 0.752194 0.000000
0.816953 0.751191 0.000000
0.882426 0.745668 0.000000
0.940801 0.734959 0.000000
0.000000 0.821471 0.000000
0.018206 0.821471 0.000000
0.068200 0.821471 0.000000
0.129642 0.821471 0.000000
0.193699 0.821471 0.000000
0.259350 0.821471 0.000000
0.326214 0.821471 0.000000
0.394166 0.821471 0.000000
0.462955 0.821471 0.000000
0.532547 0.821471 0.000000
0.602702 0.821471 0.000000
0.673637 0.821471 0.000000
0.744827 0.821471 0.000000
0.816953 0.821471 0.000000
0.882426 0.815385 0.000000
0.940801 0.803771 0.000000
0.000000 0.885355 0.000000
0.017942 0.885355 0.000000
0.067441 0.885355 0.000000
0.128392 0.885355 0.000000
0.191983 0.885355 0.000000
0.257180 0.885355 0.000000
0.323600 0.885355 0.000000
0.391022 0.885355 0.000000
0.459359 0.885355 0.000000
0.528403 0.885355 0.000000
0.598179 0.885355 0.000000
0.668524 0.885355 0.000000
0.739260 0.885355 0.000000
0.810750 0.885355 0.000000
0.882426 0.885355 0.000000
0.940801 0.872707 0.000000
0.000000 0.942336 0.000000
0.017432 0.942336 0.000000
0.065987 0.942336 0.000000
0.125990 0.942336 0.000000
0.188694 0.942336 0.000000
0.252949 0.942336 0.000000
0.318463 0.942336 0.000000
0.384901 0.942336 0.000000
0.452306 0.942336 0.000000
0.520426 0.942336 0.000000
0.589152 0.942336 0.000000
0.658554 0.942336 0.000000
0.728299 0.942336 0.000000
0.798784 0.942336 0.000000
0.869567 0.942336 0.000000
0.940801 0.942336 0.000000
0.000000 0.000000 0.010655
0.002782 0.000000 0.010655
0.031291 0.000000 0.014614
0.078349 0.000000 0.017478
0.137725 0.000000 0.019797
0.203485 0.000000 0.021779
0.274687 0.000000 0.023538
0.350543 0.000000 0.025114
0.430759 0.000000 0.026561
0.513107 0.000000 0.027772
0.593488 0.000000 0.028572
0.671535 0.000000 0.029041
0.746041 0.000000 0.029223
0.816953 0.000000 0.029162
0.882426 0.000000 0.028871
0.940801 0.000000 0.028296
0.000000 0.014652 0.010655
0.002782 0.014652 0.010655
0.031291 0.014652 0.010655
0.078349 0.014652 0.010655
0.137725 0.014652 0.010655
0.203485 0.014652 0.010655
0.274687 0.014652 0.010655
0.350543 0.014652 0.010655
0.430759 0.014652 0.010655
0.513107 0.014652 0.010655
0.593488 0.014652 0.010655
0.671535 0.014652 0.010655
0.746041 0.014652 0.010655
0.816953 0.014652 0.010655
0.882426 0.014652 0.010655
0.940801 0.014652 0.010655
0.000000 0.048836 0.014614
0.002782 0.048836 0.010655
0.031291 0.048836 0.010655
0.078349 0.054573 0.010655
0.137725 0.059540 0.010655
0.203485 0.063923 0.010655
0.274687 0.067886 0.010655
0.350543 0.071453 0.010655
0.430759 0.074762 0.010655
0.513107 0.077540 0.010655
0.593488 0.079373 0.010655
0.671535 0.080431 0.010655
0.746041 0.080843 0.010655
0.816953 0.080682 0.010655
0.882426 0.079979 0.010655
0.940801 0.078637 0.010655
0.000000 0.098538 0.017478
0.002782 0.098538 0.010655
0.036536 0.098538 0.010655
0.078349 0.098538 0.010655
0.137725 0.107756 0.010655
0.203485 0.115721 0.010655
0.274687 0.122788 0.010655
0.350543 0.129099 0.010655
0.430759 0.134860 0.010655
0.513107 0.139662 0.010655
0.593488 0.142806 0.010655
0.671535 0.144557 0.010655
0.746041 0.145288 0.010655
0.816953 0.144984 0.010655
0.882426 0.143816 0.010655
0.940801 0.141505 0.010655
0.000000 0.157217 0.019797
0.002782 0.157217 0.010655
0.041132 0.157217 0.010655
0.087622 0.157217 0.010655
0.137725 0.157217 0.010655
0.203485 0.168425 0.010655
0.274687 0.178320 0.010655
0.350543 0.187172 0.010655
0.430759 0.195242 0.010655
0.513107 0.201937 0.010655
0.593488 0.206317 0.010655
0.671535 0.208823 0.010655
0.746041 0.209824 0.010655
0.816953 0.209435 0.010655
0.882426 0.207764 0.010655
0.940801 0.204590 0.010655
0.000000 0.221850 0.021779
0.002782 0.221850 0.010655
0.045206 0.221850 0.010655
0.095673 0.221850 0.010655
0.149112 0.221850 0.010655
0.203485 0.221850 0.010655
0.274687 0.234613 0.010655
0.350543 0.245997 0.010655
0.430759 0.256386 0.010655
0.513107 0.264967 0.010655
0.593488 0.270651 0.010655
0.671535 0.273869 0.010655
0.746041 0.275119 0.010655
0.816953 0.274629 0.010655
0.882426 0.272499 0.010655
0.940801 0.268415 0.010655
0.000000 0.291665 0.023538
0.002782 0.291665 0.010655
0.048910 0.291665 0.010655
0.102817 0.291665 0.010655
0.159157 0.291665 0.010655
0.216489 0.291665 0.010655
0.274687 0.291665 0.010655
0.350543 0.305591 0.010655
0.430759 0.318302 0.010655
0.513107 0.328874 0.010655
0.593488 0.335785 0.010655
0.671535 0.339725 0.010655
0.746041 0.341310 0.010655
0.816953 0.340693 0.010655
0.882426 0.338051 0.010655
0.940801 0.333037 0.010655
0.000000 0.365969 0.025114
0.002782 0.365969 0.010655
0.052275 0.365969 0.010655
0.109207 0.365969 0.010655
0.168178 0.365969 0.010655
0.228093 0.365969 0.010655
0.288895 0.365969 0.010655
0.350543 0.365969 0.010655
0.430759 0.380960 0.010655
0.513107 0.393504 0.010655
0.593488 0.401698 0.010655
0.671535 0.406335 0.010655
0.746041 0.408169 0.010655
0.816953 0.407481 0.010655
0.882426 0.404398 0.010655
0.940801 0.398401 0.010655
0.000000 0.444390 0.026561
0.002782 0.444390 0.010655
0.055384 0.444390 0.010655
0.115031 0.444390 0.010655
0.176383 0.444390 0.010655
0.238676 0.444390 0.010655
0.301899 0.444390 0.010655
0.365962 0.444390 0.010655
0.430759 0.444390 0.010655
0.513107 0.458852 0.010655
0.593488 0.468319 0.010655
0.671535 0.473724 0.010655
0.746041 0.475888 0.010655
0.816953 0.475057 0.010655
0.882426 0.471457 0.010655
0.940801 0.464500 0.010655
0.000000 0.524821 0.027772
0.002782 0.524821 0.010655
0.058017 0.524821 0.010655
0.119890 0.524821 0.010655
0.183191 0.524821 0.010655
0.247433 0.524821 0.010655
0.312691 0.524821 0.010655
0.378680 0.524821 0.010655
0.445562 0.524821 0.010655
0.513107 0.524821 0.010655
0.593488 0.535579 0.010655
0.671535 0.541732 0.010655
0.746041 0.544160 0.010655
0.816953 0.543236 0.010655
0.882426 0.539158 0.010655
0.940801 0.531239 0.010655
0.000000 0.603358 0.028572
0.002782 0.603358 0.010655
0.059763 0.603358 0.010655
0.123074 0.603358 0.010655
0.187671 0.603358 0.010655
0.253232 0.603358 0.010655
0.319706 0.603358 0.010655
0.387082 0.603358 0.010655
0.455256 0.603358 0.010655
0.524127 0.603358 0.010655
0.593488 0.603358 0.010655
0.671535 0.610311 0.010655
0.746041 0.613002 0.010655
0.816953 0.611907 0.010655
0.882426 0.607380 0.010655
0.940801 0.598554 0.010655
0.000000 0.679435 0.029041
0.002782 0.679435 0.010655
0.060765 0.679435 0.010655
0.124883 0.679435 0.010655
0.190214 0.679435 0.010655
0.256498 0.679435 0.010655
0.323757 0.679435 0.010655
0.391862 0.679435 0.010655
0.460773 0.679435 0.010655
0.530421 0.679435 0.010655
0.600644 0.679435 0.010655
0.671535 0.679435 0.010655
0.746041 0.682553 0.010655
0.816953 0.681376 0.010655
0.882426 0.676214 0.010655
0.940801 0.666463 0.010655
0.000000 0.752194 0.029223
0.002782 0.752194 0.010655
0.061146 0.752194 0.010655
0.125602 0.752194 0.010655
0.191206 0.752194 0.010655
0.257786 0.752194 0.010655
0.325377 0.752194 0.010655
0.393791 0.752194 0.010655
0.462975 0.752194 0.010655
0.532886 0.752194 0.010655
0.603392 0.752194 0.010655
0.674599 0.752194 0.010655
0.746041 0.752194 0.010655
0.816953 0.750991 0.010655
0.882426 0.745336 0.010655
0.940801 0.734631 0.010655
0.000000 0.821471 0.029162
0.002782 0.821471 0.010655
0.061004 0.821471 0.010655
0.125313 0.821471 0.010655
0.190833 0.821471 0.010655
0.257314 0.821471 0.010655
0.324762 0.821471 0.010655
0.393053 0.821471 0.010655
0.462124 0.821471 0.010655
0.531925 0.821471 0.010655
0.602240 0.821471 0.010655
0.673309 0.821471 0.010655
0.744669 0.821471 0.010655
0.816953 0.821471 0.010655
0.882426 0.815257 0.010655
0.940801 0.803586 0.010655
0.000000 0.885355 0.028871
0.002782 0.885355 0.010655
0.060330 0.885355 0.010655
0.124117 0.885355 0.010655
0.189154 0.885355 0.010655
0.255146 0.885355 0.010655
0.322083 0.885355 0.010655
0.389887 0.885355 0.010655
0.458470 0.885355 0.010655
0.527778 0.885355 0.010655
0.597661 0.885355 0.010655
0.668131 0.885355 0.010655
0.738937 0.885355 0.010655
0.810671 0.885355 0.010655
0.882426 0.885355 0.010655
0.940801 0.872649 0.010655
0.000000 0.942336 0.028296
0.002782 0.942336 0.010655
0.059059 0.942336 0.010655
0.121806 0.942336 0.010655
0.185861 0.942336 0.010655
0.250942 0.942336 0.010655
0.316927 0.942336 0.010655
0.383778 0.942336 0.010655
0.451361 0.942336 0.010655
0.519652 0.942336 0.010655
0.588595 0.942336 0.010655
0.658148 0.942336 0.010655
0.728018 0.942336 0.010655
0.798686 0.942336 0.010655
0.869434 0.942336 0.010655
0.940801 0.942336 0.010655
0.000000 0.000000 0.043453
0.005754 0.000000 0.043453
0.031291 0.000000 0.043453
0.078349 0.000000 0.051116
0.137725 0.000000 0.057304
0.203485 0.000000 0.062598
0.274687 0.000000 0.067271
0.350543 0.000000 0.071453
0.430759 0.000000 0.075296
0.513107 0.000000 0.078501
0.593488 0.000000 0.080631
0.671535 0.000000 0.081865
0.746041 0.000000 0.082353
0.816953 0.000000 0.082180
0.882426 0.000000 0.081407
0.940801 0.000000 0.079895
0.000000 0.018892 0.043453
0.002782 0.014652 0.043453
0.031291 0.014652 0.043453
0.078349 0.014652 0.049057
0.137725 0.014652 0.053934
0.203485 0.014652 0.058228
0.274687 0.014652 0.062120
0.350543 0.014652 0.065638
0.430759 0.014652 0.068890
0.513107 0.014652 0.071631
0.593488 0.014652 0.073440
0.671535 0.014652 0.074482
0.746041 0.014652 0.074885
0.816953 0.014652 0.074727
0.882426 0.014652 0.074035
0.940801 0.014652 0.072708
0.000000 0.048836 0.043453
0.002782 0.048836 0.043453
0.031291 0.048836 0.043453
0.078349 0.048836 0.043453
0.137725 0.048836 0.043453
0.203485 0.048836 0.043453
0.274687 0.048836 0.043453
0.350543 0.048836 0.043453
0.430759 0.048836 0.043453
0.513107 0.048836 0.043453
0.593488 0.048836 0.043453
0.671535 0.048836 0.043453
0.746041 0.048836 0.043453
0.816953 0.048836 0.043453
0.882426 0.048836 0.043453
0.940801 0.048836 0.043453
0.000000 0.098538 0.051116
0.002782 0.098538 0.049057
0.031291 0.098538 0.043453
0.078349 0.098538 0.043453
0.137725 0.103978 0.043453
0.203485 0.109054 0.043453
0.274687 0.113778 0.043453
0.350543 0.118123 0.043453
0.430759 0.122212 0.043453
0.513107 0.125636 0.043453
0.593488 0.127855 0.043453
0.671535 0.129106 0.043453
0.746041 0.129556 0.043453
0.816953 0.129289 0.043453
0.882426 0.128336 0.043453
0.940801 0.126560 0.043453
0.000000 0.157217 0.057304
0.002782 0.157217 0.053934
0.031291 0.157217 0.043453
0.083805 0.157217 0.043453
0.137725 0.157217 0.043453
0.203485 0.165829 0.043453
0.274687 0.173766 0.043453
0.350543 0.181024 0.043453
0.430759 0.187826 0.043453
0.513107 0.193448 0.043453
0.593488 0.197120 0.043453
0.671535 0.199184 0.043453
0.746041 0.199912 0.043453
0.816953 0.199449 0.043453
0.882426 0.197883 0.043453
0.940801 0.194974 0.043453
0.000000 0.221850 0.062598
0.002782 0.221850 0.058228
0.031291 0.221850 0.043453
0.088929 0.221850 0.043453
0.146480 0.221850 0.043453
0.203485 0.221850 0.043453
0.274687 0.232712 0.043453
0.350543 0.242626 0.043453
0.430759 0.251811 0.043453
0.513107 0.259499 0.043453
0.593488 0.264486 0.043453
0.671535 0.267230 0.043453
0.746041 0.268282 0.043453
0.816953 0.267640 0.043453
0.882426 0.265548 0.043453
0.940801 0.261554 0.043453
0.000000 0.291665 0.067271
0.002782 0.291665 0.062120
0.031291 0.291665 0.043453
0.093690 0.291665 0.043453
0.154537 0.291665 0.043453
0.214551 0.291665 0.043453
0.274687 0.291665 0.043453
0.350543 0.304130 0.043453
0.430759 0.315672 0.043453
0.513107 0.325383 0.043453
0.593488 0.331542 0.043453
0.671535 0.335086 0.043453
0.746041 0.336276 0.043453
0.816953 0.335586 0.043453
0.882426 0.332904 0.043453
0.940801 0.327897 0.043453
0.000000 0.365969 0.071453
0.002782 0.365969 0.065638
0.031291 0.365969 0.043453
0.098101 0.365969 0.043453
0.161922 0.365969 0.043453
0.224650 0.365969 0.043453
0.287421 0.365969 0.043453
0.350543 0.365969 0.043453
0.430759 0.379776 0.043453
0.513107 0.391439 0.043453
0.593488 0.398928 0.043453
0.671535 0.403100 0.043453
0.746041 0.404610 0.043453
0.816953 0.403668 0.043453
0.882426 0.400486 0.043453
0.940801 0.394493 0.043453
0.000000 0.444390 0.075296
0.002782 0.444390 0.068890
0.031291 0.444390 0.043453
0.102224 0.444390 0.043453
0.168841 0.444390 0.043453
0.234031 0.444390 0.043453
0.299210 0.444390 0.043453
0.364723 0.444390 0.043453
0.430759 0.444390 0.043453
0.513107 0.457885 0.043453
0.593488 0.466631 0.043453
0.671535 0.471523 0.043453
0.746041 0.473307 0.043453
0.816953 0.472224 0.043453
0.882426 0.468485 0.043453
0.940801 0.461494 0.043453
0.000000 0.524821 0.078501
0.002782 0.524821 0.071631
0.031291 0.524821 0.043453
0.105708 0.524821 0.043453
0.174563 0.524821 0.043453
0.241866 0.524821 0.043453
0.309061 0.524821 0.043453
0.376564 0.524821 0.043453
0.444566 0.524821 0.043453
0.513107 0.524821 0.043453
0.593488 0.534829 0.043453
0.671535 0.540392 0.043453
0.746041 0.542411 0.043453
0.816953 0.541153 0.043453
0.882426 0.536901 0.043453
0.940801 0.528904 0.043453
0.000000 0.603358 0.080631
0.002782 0.603358 0.073440
0.031291 0.603358 0.043453
0.107954 0.603358 0.043453
0.178296 0.603358 0.043453
0.246953 0.603358 0.043453
0.315472 0.603358 0.043453
0.384290 0.603358 0.043453
0.453533 0.603358 0.043453
0.523284 0.603358 0.043453
0.593488 0.603358 0.043453
0.671535 0.609681 0.043453
0.746041 0.611909 0.043453
0.816953 0.610556 0.043453
0.882426 0.605717 0.043453
0.940801 0.596743 0.043453
0.000000 0.679435 0.081865
0.002782 0.679435 0.074482
0.031291 0.679435 0.043453
0.109218 0.679435 0.043453
0.180395 0.679435 0.043453
0.249775 0.679435 0.043453
0.319025 0.679435 0.043453
0.388537 0.679435 0.043453
0.458541 0.679435 0.043453
0.529007 0.679435 0.043453
0.600001 0.679435 0.043453
0.671535 0.679435 0.043453
0.746041 0.682009 0.043453
0.816953 0.680322 0.043453
0.882426 0.675048 0.043453
0.940801 0.665054 0.043453
0.000000 0.752194 0.082353
0.002782 0.752194 0.074885
0.031291 0.752194 0.043453
0.109660 0.752194 0.043453
0.181156 0.752194 0.043453
0.250807 0.752194 0.043453
0.320322 0.752194 0.043453
0.390070 0.752194 0.043453
0.460350 0.752194 0.043453
0.531111 0.752194 0.043453
0.602241 0.752194 0.043453
0.674076 0.752194 0.043453
0.746041 0.752194 0.043453
0.816953 0.750671 0.043453
0.882426 0.744619 0.043453
0.940801 0.733876 0.043453
0.000000 0.821471 0.082180
0.002782 0.821471 0.074727
0.031291 0.821471 0.043453
0.109381 0.821471 0.043453
0.180659 0.821471 0.043453
0.250191 0.821471 0.043453
0.319536 0.821471 0.043453
0.389147 0.821471 0.043453
0.459245 0.821471 0.043453
0.529842 0.821471 0.043453
0.600864 0.821471 0.043453
0.672386 0.821471 0.043453
0.744349 0.821471 0.043453
0.816953 0.821471 0.043453
0.882426 0.814948 0.043453
0.940801 0.803032 0.043453
0.000000 0.885355 0.081407
0.002782 0.885355 0.074035
0.031291 0.885356 0.043453
0.108430 0.885356 0.043453
0.179067 0.885356 0.043453
0.248008 0.885356 0.043453
0.316764 0.885356 0.043453
0.385857 0.885356 0.043453
0.455427 0.885356 0.043453
0.525432 0.885356 0.043453
0.595905 0.885356 0.043453
0.666954 0.885356 0.043453
0.738233 0.885356 0.043453
0.810285 0.885356 0.043453
0.882426 0.885356 0.043453
0.940801 0.872310 0.043453
0.000000 0.942336 0.079895
0.002782 0.942336 0.072708
0.031291 0.942336 0.043453
0.106626 0.942336 0.043453
0.176083 0.942336 0.043453
0.243969 0.942336 0.043453
0.311687 0.942336 0.043453
0.379763 0.942336 0.043453
0.448288 0.942336 0.043453
0.517258 0.942336 0.043453
0.586765 0.942336 0.043453
0.656696 0.942336 0.043453
0.727057 0.942336 0.043453
0.798048 0.942336 0.043453
0.869031 0.942336 0.043453
0.940801 0.942336 0.043453
0.000000 0.000000 0.092547
0.008072 0.000000 0.092547
0.038471 0.000000 0.092547
0.078349 0.000000 0.092547
0.137725 0.000000 0.103099
0.203485 0.000000 0.111926
0.274687 0.000000 0.119601
0.350543 0.000000 0.126397
0.430759 0.000000 0.132546
0.513107 0.000000 0.137667
0.593488 0.000000 0.141013
0.671535 0.000000 0.142940
0.746041 0.000000 0.143685
0.816953 0.000000 0.143444
0.882426 0.000000 0.142232
0.940801 0.000000 0.139832
0.000000 0.021927 0.092547
0.002782 0.014652 0.092547
0.036536 0.014652 0.092547
0.078349 0.014652 0.092547
0.137725 0.014652 0.101792
0.203485 0.014652 0.109784
0.274687 0.014652 0.116871
0.350543 0.014652 0.123203
0.430759 0.014652 0.128980
0.513107 0.014652 0.133800
0.593488 0.014652 0.136961
0.671535 0.014652 0.138739
0.746041 0.014652 0.139447
0.816953 0.014652 0.139179
0.882426 0.014652 0.137995
0.940801 0.014652 0.135667
0.000000 0.056678 0.092547
0.002782 0.054573 0.092547
0.031291 0.048836 0.092547
0.078349 0.048836 0.092547
0.137725 0.048836 0.098000
0.203485 0.048836 0.103088
0.274687 0.048836 0.107823
0.350543 0.048836 0.112197
0.430759 0.048836 0.116287
0.513107 0.048836 0.119739
0.593488 0.048836 0.121975
0.671535 0.048836 0.123226
0.746041 0.048836 0.123659
0.816953 0.048836 0.123375
0.882426 0.048836 0.122445
0.940801 0.048836 0.120667
0.000000 0.098538 0.092547
0.002782 0.098538 0.092547
0.031291 0.098538 0.092547
0.078349 0.098538 0.092547
0.137725 0.098538 0.092547
0.203485 0.098538 0.092547
0.274687 0.098538 0.092547
0.350543 0.098538 0.092547
0.430759 0.098538 0.092547
0.513107 0.098538 0.092547
0.593488 0.098538 0.092547
0.671535 0.098538 0.092547
0.746041 0.098538 0.092547
0.816953 0.098538 0.092547
0.882426 0.098538 0.092547
0.940801 0.098538 0.092547
0.000000 0.157217 0.103099
0.002782 0.157217 0.101792
0.031291 0.157217 0.098000
0.078349 0.157217 0.092547
0.137725 0.157217 0.092547
0.203485 0.161982 0.092547
0.274687 0.166576 0.092547
0.350543 0.170929 0.092547
0.430759 0.175138 0.092547
0.513107 0.178707 0.092547
0.593488 0.180962 0.092547
0.671535 0.182179 0.092547
0.746041 0.182497 0.092547
0.816953 0.182048 0.092547
0.882426 0.180858 0.092547
0.940801 0.178811 0.092547
0.000000 0.221850 0.111926
0.002782 0.221850 0.109784
0.031291 0.221850 0.103088
0.078349 0.221850 0.092547
0.142556 0.221850 0.092547
0.203485 0.221850 0.092547
0.274687 0.229755 0.092547
0.350543 0.237221 0.092547
0.430759 0.244321 0.092547
0.513107 0.250270 0.092547
0.593488 0.254067 0.092547
0.671535 0.256075 0.092547
0.746041 0.256658 0.092547
0.816953 0.255884 0.092547
0.882426 0.253950 0.092547
0.940801 0.250462 0.092547
0.000000 0.291665 0.119601
0.002782 0.291665 0.116871
0.031291 0.291665 0.107823
0.078349 0.291665 0.092547
0.147224 0.291665 0.092547
0.211557 0.291665 0.092547
0.274687 0.291665 0.092547
0.350543 0.301820 0.092547
0.430759 0.311466 0.092547
0.513107 0.319487 0.092547
0.593488 0.324605 0.092547
0.671535 0.327282 0.092547
0.746041 0.328143 0.092547
0.816953 0.327141 0.092547
0.882426 0.324499 0.092547
0.940801 0.319711 0.092547
0.000000 0.365969 0.126397
0.002782 0.365969 0.123203
0.031291 0.365969 0.112197
0.078349 0.365969 0.092547
0.151666 0.365969 0.092547
0.219155 0.365969 0.092547
0.285056 0.365969 0.092547
0.350543 0.365969 0.092547
