luts/correction cannon MS.cube
TITLE "Generated by Resolve"
LUT_3D_SIZE 33
0 0 0
0 0 0
0 0 0
0.0148623 0 0
0.0642252 0 0
0.110323 0 0
0.156146 0 0
0.199023 0 0
0.238621 0 0
0.27451 0 0
0.306203 0 0
0.332113 0 0
0.353964 0 0
0.373083 0 0
0.390021 0 0
0.405417 0 0
0.419638 0 0
0.433082 0 0
0.446006 0 0
0.458549 0 0
0.470817 0 0
0.482872 0 0
0.494728 0 0.00401312
0.511543 0 0.00749218
0.534005 0 0.00917067
0.556222 0 0.0109407
0.578241 0 0.0127718
0.600092 0.00175479 0.0146639
0.621805 0.00471504 0.0166018
0.643427 0.00769055 0.0185702
0.664973 0.0106813 0.0205386
0.68687 0.0137026 0.0225376
0.708629 0.0166018 0.0244297
0 0 0
0 0 0
0 0 0
0 0 0
0.037171 0 0
0.0845045 0 0
0.130846 0 0
0.174899 0 0
0.216037 0 0
0.254032 0 0
0.288441 0 0
0.317784 0 0
0.342443 0 0
0.364294 0 0
0.383764 0 0
0.40119 0 0
0.417029 0 0
0.431861 0.000427253 0
0.445991 0.00512703 0
0.459586 0.00996414 0
0.47277 0.0149538 0
0.485618 0.0200351 0
0.498222 0.0252079 0.00418097
0.510597 0.0304723 0.0099794
0.528374 0.0343633 0.0135653
0.550607 0.0371252 0.0153201
0.572641 0.0399634 0.0171664
0.594507 0.0428473 0.0190738
0.616266 0.0457771 0.0210422
0.637903 0.0487221 0.0230411
0.659495 0.0516976 0.0250553
0.681422 0.0546883 0.0270848
0.703212 0.0575723 0.0289921
0 0.029221 0
0 0.0178988 0
0 0.0198062 0.0075227
0 0.0229191 0.00215152
0.020264 0.0245212 0
0.0649424 0.0247044 0
0.111101 0.0241398 0
0.156054 0.0233921 0
0.198505 0.0227359 0
0.238209 0.022385 0
0.274647 0.0224918 0
0.306462 0.0231785 0
0.333394 0.0244755 0
0.357595 0.0264134 0
0.379339 0.0289769 0
0.398856 0.0320745 0
0.416617 0.0356451 0
0.433021 0.0395819 0
0.448417 0.0437934 0
0.46305 0.0482185 0
0.476982 0.0528725 0
0.490578 0.0576486 0.00271611
0.503868 0.0625162 0.00900282
0.516884 0.0675212 0.0152895
0.529641 0.0726024 0.0215305
0.550134 0.0758068 0.0240635
0.572152 0.078645 0.0258488
0.594003 0.0815137 0.0277256
0.615747 0.0844587 0.029633
0.637385 0.0874037 0.0315709
0.658961 0.0903639 0.0335546
0.680873 0.0933547 0.035523
0.702632 0.0962387 0.0373846
0 0.0754559 0
0 0.0601511 0
0 0.057847 0.012665
0 0.0599832 0.0180362
0.0212558 0.0628367 0.0158694
0.0568093 0.0650645 0.00775158
0.0970626 0.0661936 0
0.139483 0.0663767 0
0.181399 0.0661021 0
0.221729 0.0657206 0
0.259464 0.0655985 0
0.293111 0.0658732 0
0.32195 0.0666514 0
0.348333 0.0679942 0
0.37232 0.0699016 0
0.394034 0.072343 0
0.413764 0.0753185 0
0.431968 0.0786755 0
0.44892 0.0823835 0
0.464912 0.0863661 0
0.480186 0.0905776 0.00344854
0.494881 0.0949722 0.0100099
0.508858 0.0995956 0.0162966
0.522698 0.104295 0.022858
0.536187 0.109133 0.0294194
0.551156 0.113649 0.0349889
0.573236 0.116472 0.0366522
0.595117 0.119341 0.0383917
0.616861 0.122255 0.0402075
0.638514 0.1252 0.0420539
0.66009 0.128145 0.0439307
0.681956 0.131121 0.0458076
0.703716 0.133974 0.0475776
0 0.118822 0
0 0.10222 0
0 0.0965133 0.0123293
0.000549325 0.0965133 0.0250553
0.0313115 0.0986801 0.0301671
0.0619669 0.101411 0.0296483
0.0953536 0.103899 0.023682
0.131655 0.105592 0.0144503
0.169528 0.106508 0.00445563
0.207874 0.10692 0
0.245136 0.107149 0
0.279347 0.107485 0
0.309285 0.10811 0
0.33724 0.109148 0
0.363058 0.110628 0
0.386755 0.112581 0
0.408423 0.115023 0
0.428443 0.117891 0
0.447028 0.121126 0.000793469
0.464515 0.124681 0.00698863
0.481132 0.128496 0.0133974
0.497002 0.13254 0.0199435
0.512139 0.136812 0.0264134
0.526802 0.141253 0.032929
0.541176 0.1458 0.0395666
0.555169 0.150484 0.0462043
0.574258 0.153979 0.0495155
0.596231 0.156832 0.0510414
0.618051 0.159716 0.0526436
0.639735 0.162615 0.0542763
0.661357 0.165515 0.0559548
0.683284 0.168444 0.0576638
0.705074 0.171237 0.059266
0 0.160739 0
0 0.143481 0
0 0.135607 0.0102083
0.00946059 0.133425 0.0282139
0.0421912 0.134371 0.0382391
0.0722972 0.136645 0.0428931
0.102525 0.139345 0.043183
0.133944 0.141909 0.0390631
0.166812 0.143969 0.032105
0.200961 0.145464 0.0239567
0.235416 0.146548 0.0161288
0.268284 0.147417 0.00978103
0.297887 0.148318 0.00556954
0.326253 0.149401 0.00321965
0.353063 0.150759 0.00273136
0.378103 0.152483 0.00401312
0.401419 0.154574 0.00677501
0.422965 0.157092 0.0108339
0.443122 0.159945 0.0157168
0.462089 0.163134 0.02121
0.480034 0.166583 0.0270848
0.497139 0.170291 0.0332341
0.513542 0.174212 0.0395514
0.529076 0.178347 0.0457618
0.54435 0.18262 0.0522469
0.559152 0.18703 0.0587778
0.574853 0.191272 0.0644694
0.596872 0.194095 0.0656596
0.618738 0.196933 0.0669413
0.640482 0.199786 0.0682841
0.66215 0.20267 0.0697032
0.684123 0.205554 0.0711376
0.705959 0.208301 0.0724956
0 0.202014 0
0 0.184558 0
0 0.175219 0.00694286
0.0158541 0.171145 0.0284733
0.0518807 0.170626 0.0428931
0.0832227 0.172061 0.0514687
0.113069 0.174395 0.0560464
0.142336 0.177035 0.0571145
0.171756 0.179599 0.0547341
0.201968 0.181903 0.0500038
0.232807 0.183841 0.0441596
0.262852 0.185473 0.0384833
0.290608 0.186923 0.0340124
0.318013 0.188388 0.0305791
0.344579 0.18996 0.0286564
0.370016 0.191745 0.028336
0.394049 0.193774 0.0295415
0.416693 0.196094 0.032105
0.438071 0.198718 0.0356603
0.458228 0.201617 0.0400397
0.477333 0.204791 0.0450599
0.495628 0.208194 0.0504005
0.513085 0.211826 0.0560922
0.529625 0.215686 0.0618143
0.54583 0.219654 0.0678721
0.561517 0.223789 0.0740215
0.576745 0.228031 0.0802625
0.596948 0.23122 0.0824445
0.61886 0.234012 0.083299
0.64065 0.23682 0.0842451
0.662333 0.239612 0.0852522
0.684337 0.242405 0.086305
0.706188 0.245075 0.0872969
0 0.241566 0
0 0.224399 0
0 0.214298 0.00367742
0.0201419 0.208804 0.0273136
0.0597238 0.206851 0.0451362
0.0932631 0.207218 0.0573587
0.123934 0.208957 0.0651255
0.152926 0.211292 0.0697337
0.180896 0.213855 0.0716106
0.208698 0.216449 0.0708324
0.236637 0.218906 0.0682383
0.263874 0.221134 0.0648661
0.289357 0.223117 0.0616312
0.31487 0.225055 0.0588083
0.340063 0.227024 0.0568856
0.364782 0.229023 0.0558328
0.388663 0.231159 0.0559854
0.411551 0.233478 0.0573129
0.433463 0.235996 0.0596017
0.454353 0.238743 0.0627756
0.474281 0.241718 0.0666209
0.49337 0.244892 0.0710002
0.511696 0.248249 0.0757763
0.529061 0.25182 0.080766
0.545998 0.255528 0.086183
0.562509 0.259373 0.0916762
0.578454 0.26334 0.0973983
0.596658 0.26685 0.100908
0.618555 0.269566 0.101198
0.640314 0.272267 0.10161
0.661997 0.274983 0.102144
0.684001 0.277684 0.102724
0.705837 0.280262 0.103258
0 0.279118 0
0 0.262501 0
0 0.252033 0.00120546
0.0230716 0.245548 0.0258488
0.0658427 0.242374 0.0460517
0.101915 0.241688 0.0612802
0.134081 0.242649 0.0721141
0.163607 0.244572 0.0793317
0.191363 0.246876 0.0840925
0.218189 0.249409 0.0868696
0.244434 0.252033 0.087602
0.269642 0.254551 0.0870527
0.293141 0.25687 0.0859236
0.316716 0.259205 0.0847181
0.340307 0.261494 0.0836805
0.363699 0.263798 0.0831159
0.386557 0.266178 0.08336
0.408942 0.26865 0.084184
0.430686 0.271229 0.0856947
0.451682 0.27396 0.087953
0.471916 0.276844 0.090837
0.491417 0.279911 0.094255
0.510231 0.283131 0.0981155
0.528328 0.286503 0.102312
0.545739 0.290013 0.106783
0.562753 0.293645 0.111604
0.579263 0.297398 0.11664
0.596277 0.301045 0.120958
0.61799 0.303746 0.120684
0.639704 0.306401 0.12047
0.661326 0.309041 0.120439
0.683253 0.311696 0.12047
0.705028 0.314199 0.120485
0 0.314702 0
0 0.298909 0
0 0.288457 0.000137331
0.0255741 0.281361 0.0250706
0.0709239 0.277272 0.0467536
0.109468 0.275608 0.0643015
0.14345 0.275776 0.0777752
0.173968 0.277104 0.0875257
0.202045 0.279103 0.0944686
0.228672 0.281407 0.0996414
0.2542 0.283909 0.103349
0.278218 0.286458 0.105501
0.300343 0.28893 0.106691
0.322408 0.291447 0.107454
0.344488 0.29398 0.108003
0.366476 0.296529 0.108583
0.388235 0.299107 0.109392
0.409705 0.301732 0.110521
0.43064 0.304463 0.112169
0.451194 0.307271 0.114076
0.471244 0.310201 0.116381
0.49073 0.313222 0.119097
0.509667 0.316381 0.122225
0.528038 0.319646 0.125673
0.545678 0.323049 0.129366
0.563027 0.326528 0.133425
0.579889 0.330114 0.137758
0.596384 0.333761 0.142245
0.617777 0.336461 0.141421
0.639231 0.339132 0.140658
0.66067 0.341756 0.140032
0.682506 0.344396 0.139544
0.704128 0.346929 0.139132
0 0.348135 0
0 0.333455 0
0 0.323262 0.00123598
0.0284428 0.315953 0.0256962
0.0757 0.311208 0.048127
0.116304 0.308751 0.067277
0.152102 0.308141 0.082887
0.183841 0.308858 0.0948653
0.212558 0.310399 0.103868
0.239353 0.312444 0.110872
0.264714 0.314748 0.116594
0.288212 0.317159 0.121141
0.309529 0.319585 0.124468
0.330587 0.322148 0.127184
0.351537 0.324758 0.129473
0.372366 0.327443 0.131487
0.393011 0.330159 0.133425
0.413443 0.332937 0.135302
0.4336 0.335775 0.13727
0.453468 0.338674 0.139391
0.472923 0.34165 0.141665
0.491936 0.344732 0.144259
0.510628 0.347875 0.146944
0.528893 0.35111 0.149874
0.546715 0.354421 0.153063
0.563943 0.357824 0.156405
0.580957 0.361303 0.160113
0.597665 0.364858 0.163989
0.61825 0.367727 0.163226
0.639429 0.370459 0.161959
0.660624 0.373144 0.16083
0.682216 0.37583 0.159808
0.703746 0.378363 0.158801
0 0.37818 0
0 0.364965 0
0 0.355398 0.00453193
0.0322423 0.348119 0.0281987
0.0806287 0.343038 0.0507515
0.122789 0.339986 0.0708476
0.160128 0.33872 0.0879835
0.193088 0.338857 0.101778
0.222568 0.339956 0.112596
0.249729 0.34165 0.121263
0.275151 0.34374 0.12842
0.298482 0.345968 0.134539
0.319448 0.348241 0.139666
0.33994 0.350698 0.144076
0.360159 0.353292 0.147936
0.380148 0.355962 0.151354
0.399908 0.358724 0.154467
0.419471 0.361532 0.157275
0.438804 0.364401 0.15993
0.457877 0.367346 0.162493
0.476692 0.370336 0.165011
0.495216 0.373388 0.167559
0.513405 0.376501 0.170153
0.531243 0.379705 0.173007
0.548867 0.382956 0.175845
0.566018 0.386282 0.178805
0.582956 0.38967 0.182025
0.59968 0.393118 0.185397
0.619745 0.395987 0.18436
0.640497 0.398718 0.18265
0.661357 0.401389 0.181048
0.682628 0.404044 0.179538
0.703899 0.406546 0.178042
0 0.405203 0
0 0.393149 0
0 0.384222 0.00999466
0.0371557 0.377157 0.0325933
0.0859998 0.371893 0.0548409
0.129168 0.368475 0.0753338
0.167666 0.366705 0.0934462
0.201633 0.366339 0.108568
0.231876 0.366995 0.120806
0.25951 0.368368 0.130907
0.285084 0.370184 0.139345
0.308385 0.372244 0.146517
0.329213 0.37438 0.152743
0.349447 0.376699 0.158541
0.369238 0.379187 0.163714
0.388708 0.381811 0.168353
0.407858 0.384543 0.172503
0.426764 0.387381 0.176272
0.445396 0.39028 0.179706
0.463844 0.393256 0.182895
0.482048 0.396323 0.185885
0.500008 0.399451 0.188785
0.517754 0.40264 0.191608
0.535286 0.405905 0.194461
0.552544 0.409216 0.197314
0.569467 0.412604 0.200397
0.586084 0.416037 0.203357
0.602686 0.419501 0.20647
0.622385 0.422477 0.205097
0.642664 0.425315 0.203143
0.663081 0.428107 0.201297
0.683955 0.430854 0.199466
0.704875 0.433433 0.19762
0 0.431144 0
0 0.420249 0
0 0.412055 0.0178531
0.0437171 0.405325 0.0392004
0.0925002 0.400107 0.0607919
0.136202 0.396445 0.0812848
0.17557 0.394308 0.0999924
0.210391 0.3935 0.11606
0.241337 0.393759 0.129534
0.269429 0.394781 0.140826
0.295247 0.396323 0.150423
0.318593 0.398169 0.158556
0.339376 0.400153 0.16556
0.359487 0.402335 0.172244
0.379065 0.404685 0.178561
0.398184 0.407202 0.184283
0.416922 0.409888 0.18941
0.43534 0.412695 0.194095
0.453498 0.415641 0.198367
0.471412 0.418662 0.202274
0.489082 0.421775 0.205875
0.506554 0.424979 0.209247
0.523827 0.428244 0.212467
0.540871 0.431556 0.215549
0.557733 0.434943 0.218585
0.574426 0.438361 0.221607
0.590738 0.441825 0.224582
0.606958 0.445335 0.227771
0.626383 0.448386 0.225925
0.646082 0.451347 0.223896
0.66598 0.454261 0.221912
0.686366 0.457099 0.219867
0.706828 0.459785 0.217792
0 0.456138 0
0 0.446403 0.00968948
0 0.438941 0.0278019
0.0518196 0.432639 0.0478523
0.100145 0.427558 0.0685588
0.144015 0.423835 0.0887617
0.183902 0.421424 0.107698
0.219348 0.420279 0.124422
0.250889 0.420172 0.138766
0.279423 0.420844 0.151064
0.305531 0.422126 0.161669
0.328969 0.423743 0.170672
0.349752 0.425559 0.178378
0.369818 0.427619 0.185687
0.389303 0.429877 0.192721
0.408286 0.432303 0.199359
0.426795 0.434928 0.205432
0.444923 0.437705 0.211002
0.462684 0.44062 0.216052
0.480186 0.443671 0.220676
0.497429 0.446799 0.224918
0.514443 0.45005 0.22884
0.531243 0.453346 0.232517
0.54786 0.456718 0.235981
0.564294 0.460136 0.239292
0.58056 0.4636 0.242496
0.596582 0.467094 0.245609
0.612863 0.470588 0.248127
0.631724 0.473747 0.246281
0.65069 0.476844 0.244495
0.669963 0.47985 0.242496
0.689799 0.482826 0.240391
0.709728 0.485603 0.238178
0 0.480552 0.00918593
0 0.471687 0.0227207
0.00991836 0.464881 0.0395056
0.0615396 0.459022 0.0584421
0.108995 0.454231 0.0780346
0.152667 0.450507 0.0977188
0.192782 0.447944 0.116609
0.228641 0.44654 0.133684
0.260624 0.446128 0.148653
0.289555 0.446525 0.161746
0.315969 0.447547 0.173175
0.339559 0.448997 0.182971
0.360449 0.450675 0.191348
0.380514 0.452644 0.199222
0.399985 0.454826 0.206683
0.418891 0.457176 0.213916
0.437293 0.459709 0.220783
0.455222 0.46244 0.227085
0.472724 0.465309 0.232868
0.489921 0.46833 0.238178
0.506798 0.471458 0.243046
0.52343 0.474693 0.247532
0.539818 0.478019 0.251682
0.556023 0.481407 0.255573
0.572045 0.484871 0.259266
0.587915 0.488365 0.26276
0.603632 0.49189 0.266133
0.619989 0.495354 0.26772
0.638193 0.498619 0.266133
0.656611 0.501808 0.264408
0.675227 0.504921 0.262547
0.694331 0.508003 0.2607
0.71368 0.510887 0.258488
0 0.504417 0.0241703
0 0.496284 0.03682
0.0222324 0.490089 0.0524758
0.0724193 0.484642 0.0703288
0.118959 0.48011 0.0890211
0.162219 0.476478 0.10808
0.202319 0.473869 0.126741
0.238407 0.472313 0.143954
0.270756 0.471702 0.159365
0.300053 0.471901 0.173053
0.326741 0.47274 0.185168
0.3505 0.474006 0.19559
0.371481 0.475578 0.204471
0.391592 0.47744 0.212818
0.411048 0.47953 0.220737
0.429923 0.481819 0.228321
0.448264 0.484276 0.23563
0.466087 0.486915 0.242588
0.483436 0.489723 0.248997
0.500389 0.492683 0.254887
0.517006 0.495781 0.260334
0.533318 0.499001 0.26537
0.549371 0.502312 0.270024
0.565209 0.505699 0.274372
0.580865 0.509148 0.278447
0.596338 0.512657 0.282322
0.611719 0.516197 0.285954
0.628214 0.519646 0.286473
0.645762 0.523003 0.285206
0.663539 0.526284 0.283757
0.681544 0.529473 0.282139
0.699794 0.532586 0.280354
0.718822 0.535607 0.278233
0 0.527794 0.0395209
0 0.520119 0.0514687
0.0354772 0.514595 0.066331
0.0843061 0.50959 0.0832227
0.129946 0.505364 0.101122
0.172686 0.5019 0.119615
0.21265 0.499321 0.137972
0.248814 0.497704 0.155184
0.281376 0.496956 0.170825
0.310918 0.496986 0.184909
0.337835 0.497642 0.197513
0.36173 0.498787 0.208408
0.382818 0.500206 0.217792
0.403006 0.501961 0.226551
0.422461 0.50396 0.234836
0.441321 0.506172 0.242725
0.459586 0.508568 0.250263
0.477348 0.511131 0.257572
0.494606 0.513848 0.264515
0.511421 0.516732 0.27097
0.52784 0.519783 0.276921
0.543908 0.522942 0.282429
0.559701 0.526223 0.287572
0.575219 0.529595 0.292348
0.590555 0.533028 0.296834
0.605692 0.536522 0.30106
0.620722 0.540063 0.305028
0.637385 0.543511 0.304311
0.654322 0.546914 0.30341
0.671489 0.550256 0.302296
0.688869 0.553521 0.300954
0.706493 0.55671 0.299413
0.724926 0.559792 0.297505
0 0.550835 0.0551003
0 0.543709 0.0666361
0.0498817 0.538506 0.0808118
0.0971237 0.534051 0.0969863
0.141863 0.530114 0.114199
0.184039 0.526833 0.132128
0.223743 0.52433 0.150149
0.259815 0.522683 0.167224
0.292485 0.521859 0.182956
0.322194 0.521767 0.197314
0.349279 0.522286 0.210254
0.373266 0.523278 0.2215
0.394476 0.52459 0.23125
0.41471 0.526223 0.24036
0.43418 0.52813 0.248951
0.453025 0.530251 0.257099
0.47126 0.53257 0.264881
0.48896 0.535058 0.272343
0.506157 0.537713 0.279576
0.522881 0.540505 0.286458
0.539147 0.543465 0.292882
0.555047 0.546578 0.298848
0.570611 0.549798 0.304402
0.585901 0.553124 0.309606
0.600946 0.556512 0.314504
0.615808 0.559976 0.319051
0.631128 0.5635 0.321538
0.647334 0.566979 0.321263
0.663722 0.570397 0.320668
0.680308 0.573785 0.319921
0.697124 0.577096 0.318929
0.714168 0.580331 0.317693
0.731975 0.583474 0.316045
0 0.573663 0.0708934
0.0152132 0.566995 0.0821241
0.0645762 0.562203 0.0957809
0.110964 0.557977 0.111315
0.15465 0.554406 0.127947
0.196094 0.551369 0.145357
0.235462 0.548943 0.163012
0.271382 0.547311 0.179889
0.304051 0.546426 0.195605
0.333837 0.546212 0.210086
0.361044 0.546624 0.22327
0.385061 0.547478 0.23476
0.406363 0.548669 0.244785
0.426657 0.550195 0.254185
0.446174 0.551995 0.263035
0.464988 0.554025 0.271427
0.483223 0.556268 0.279408
0.500862 0.558679 0.287053
0.517998 0.561257 0.294392
0.534646 0.563989 0.301503
0.550835 0.566857 0.308309
0.566598 0.569879 0.314672
0.581994 0.573022 0.320607
0.59707 0.576272 0.326177
0.611902 0.579629 0.331411
0.62649 0.583047 0.336309
0.642115 0.586557 0.336996
0.657893 0.590051 0.33724
0.673777 0.593469 0.33698
0.68986 0.596857 0.336629
0.706127 0.600198 0.336004
0.722622 0.603449 0.335088
0.739849 0.606638 0.333745
0 0.596307 0.0868391
0.0315709 0.590066 0.0978256
0.0797284 0.585626 0.11104
0.125078 0.581704 0.126055
0.168139 0.578271 0.142245
0.208972 0.575402 0.15906
0.247898 0.573083 0.176349
0.283406 0.571572 0.192996
0.315999 0.570642 0.208637
0.345815 0.570352 0.223163
0.373083 0.570642 0.236484
0.397116 0.571374 0.248142
0.418479 0.572457 0.258396
0.438819 0.573877 0.268009
0.458366 0.575586 0.277104
0.477195 0.577508 0.285679
0.495399 0.57966 0.293858
0.513008 0.581994 0.30164
0.530083 0.584497 0.309133
0.546654 0.587137 0.31632
0.562768 0.589929 0.323293
0.578439 0.592859 0.329976
0.593713 0.595926 0.336263
0.608637 0.5991 0.342184
0.623285 0.602365 0.347707
0.638239 0.605798 0.35053
0.653529 0.609277 0.351568
0.668894 0.612726 0.352239
0.684352 0.616129 0.352377
0.699977 0.619516 0.352422
0.71577 0.622843 0.352163
0.731792 0.626123 0.351614
0.748486 0.629343 0.350607
0 0.618769 0.102861
0.0481727 0.612879 0.113634
0.0952163 0.608759 0.126497
0.139574 0.605112 0.141039
0.181918 0.601877 0.156847
0.222095 0.599191 0.173144
0.260594 0.596963 0.190051
0.295964 0.595376 0.206394
0.328405 0.594415 0.221912
0.358129 0.594095 0.236439
0.385351 0.594324 0.249851
0.409354 0.594965 0.261601
0.430777 0.595926 0.272007
0.451164 0.597238 0.281804
0.470741 0.59884 0.291081
0.48957 0.600656 0.299855
0.507759 0.602716 0.308171
0.525322 0.604959 0.316106
0.542351 0.60737 0.323705
0.558877 0.609949 0.330999
0.574899 0.612665 0.338033
0.590494 0.615503 0.344854
0.605661 0.618463 0.351446
0.620478 0.621546 0.35761
0.635203 0.624796 0.36202
0.650187 0.628214 0.363851
0.665187 0.631647 0.365301
0.680217 0.63505 0.3664
0.695323 0.638437 0.366934
0.710552 0.641794 0.367361
0.725948 0.645121 0.367498
0.741512 0.648386 0.367285
0.757733 0.651591 0.366644
0.0110323 0.641047 0.118944
0.0649271 0.635493 0.129534
0.110948 0.631617 0.142061
0.154421 0.628229 0.156191
0.195987 0.625193 0.171557
0.235584 0.622644 0.187457
0.273671 0.620508 0.204013
0.308721 0.618952 0.220081
0.340993 0.61796 0.235431
0.370672 0.617548 0.249866
0.397925 0.617655 0.263264
0.421836 0.618189 0.275059
0.443259 0.619089 0.285603
0.463661 0.62031 0.295583
0.483253 0.62179 0.304997
0.502098 0.623514 0.313909
0.520256 0.625467 0.322377
0.537804 0.627619 0.330449
0.554772 0.629938 0.33814
0.571237 0.632425 0.34551
0.587198 0.635035 0.352621
0.602701 0.637797 0.359518
0.617792 0.640681 0.366171
0.632609 0.643732 0.371633
0.647471 0.647028 0.374243
0.662257 0.650355 0.37644
0.677028 0.653712 0.378302
0.691768 0.657069 0.379736
0.706569 0.660395 0.380713
0.721492 0.663722 0.381521
0.736507 0.667018 0.38201
0.751705 0.670268 0.382177
0.767498 0.673472 0.381888
0.0213321 0.666133 0.128069
0.0818036 0.657847 0.145449
0.126909 0.654215 0.157733
0.169497 0.651041 0.171435
0.210346 0.648188 0.186389
0.249378 0.645777 0.201923
0.287022 0.643717 0.218128
0.321706 0.642191 0.233906
0.35378 0.641184 0.249073
0.383352 0.640711 0.263416
0.410559 0.640726 0.276783
0.434363 0.641154 0.288563
0.455833 0.641901 0.299153
0.47628 0.643015 0.309209
0.495872 0.644373 0.31873
0.514702 0.646021 0.327794
0.532845 0.647883 0.336431
0.550362 0.649927 0.34461
0.567285 0.652155 0.352392
0.583688 0.654551 0.359854
0.599573 0.657069 0.367041
0.615015 0.659754 0.373953
0.63006 0.662654 0.379583
0.644984 0.665797 0.382849
0.659739 0.668986 0.385824
0.674372 0.672236 0.388418
0.68893 0.675502 0.390631
0.703471 0.678782 0.392309
0.718029 0.682063 0.393774
0.732647 0.685344 0.394965
0.747372 0.688594 0.395804
0.762234 0.691814 0.396323
0.777661 0.695003 0.396399
0.0290074 0.692012 0.134844
0.0915389 0.682857 0.154192
0.142504 0.676738 0.172885
0.184756 0.673579 0.18674
0.224933 0.670863 0.201328
0.263386 0.668574 0.21648
0.300557 0.66659 0.232334
0.33489 0.66508 0.247822
0.366751 0.664073 0.262776
0.396185 0.663539 0.276997
0.423301 0.663493 0.290318
0.446983 0.663798 0.302037
0.468467 0.664454 0.312688
0.488914 0.665431 0.322805
0.508522 0.666697 0.332418
0.527352 0.668208 0.341558
0.54548 0.669932 0.35024
0.562966 0.67187 0.358511
0.579858 0.674006 0.366445
0.596201 0.676341 0.374029
0.612039 0.678782 0.381262
0.627375 0.681559 0.386465
0.64242 0.68455 0.390204
0.657267 0.687602 0.393637
0.671931 0.690715 0.396857
0.686442 0.693843 0.399725
0.700862 0.697017 0.402182
0.715236 0.700221 0.404349
0.729595 0.703456 0.406195
0.743984 0.706661 0.407721
0.75845 0.709865 0.408911
0.773022 0.713039 0.409766
0.788144 0.716197 0.410193
0.0367437 0.717617 0.141649
0.0992294 0.7084 0.160906
0.15021 0.70222 0.179461
0.196857 0.697154 0.198245
0.239582 0.693263 0.216205
0.277562 0.691035 0.231067
0.314275 0.689128 0.246616
0.348211 0.687648 0.261769
0.379812 0.68661 0.276509
0.409079 0.68603 0.290562
0.436088 0.685893 0.303807
0.459617 0.686107 0.315435
0.481102 0.686656 0.326116
0.501549 0.687526 0.336278
0.521172 0.688685 0.345968
0.540017 0.690074 0.355215
0.558129 0.691691 0.363989
0.575586 0.693538 0.372335
0.592447 0.695567 0.380285
0.608682 0.697871 0.387228
0.624292 0.700542 0.391943
0.639582 0.703319 0.396262
0.654612 0.706188 0.400229
0.669398 0.709148 0.403876
0.684001 0.712154 0.407248
0.698436 0.715206 0.410407
0.712764 0.718303 0.413291
0.727001 0.721431 0.415839
0.741207 0.724575 0.418051
0.755398 0.727718 0.419867
0.76965 0.730861 0.421393
0.783978 0.733989 0.422568
0.79884 0.737102 0.423346
0.0444648 0.742977 0.14847
0.106889 0.733684 0.167605
0.15787 0.727413 0.186007
0.204593 0.72224 0.204654
0.248264 0.717876 0.223514
0.289357 0.714229 0.242344
0.327977 0.71133 0.260761
0.361563 0.709865 0.275685
0.392905 0.708812 0.290196
0.422004 0.708171 0.304097
0.448905 0.707958 0.317235
0.472251 0.70808 0.328771
0.493736 0.708537 0.339452
0.514183 0.7093 0.34963
0.533791 0.710353 0.35938
0.552621 0.71165 0.368658
0.570748 0.713161 0.377508
0.588006 0.715068 0.384955
0.604547 0.717296 0.390967
0.620615 0.719676 0.396429
0.636301 0.722225 0.401404
0.651606 0.72488 0.405951
0.666636 0.727626 0.410117
0.681407 0.73048 0.413993
0.695949 0.733394 0.417533
0.710323 0.736355 0.420844
0.724559 0.739361 0.423957
0.738705 0.742397 0.426795
0.752789 0.745464 0.429297
0.766842 0.748547 0.431495
0.780926 0.751629 0.433295
0.795056 0.754696 0.434806
0.809689 0.757778 0.435904
0.0520943 0.768032 0.155184
0.114458 0.758679 0.174212
0.165423 0.752316 0.192477
0.212192 0.747036 0.210986
0.255985 0.74255 0.229694
0.297353 0.73872 0.248508
0.336141 0.735653 0.266804
0.371557 0.733257 0.284199
0.404105 0.731533 0.300557
