luts/Corrected+LUT.cube
TITLE "Generated by Resolve"
LUT_3D_SIZE 9
0.0479591 0 0.054902
0.0479591 0 0.0525521
0.0974746 0 0.0405585
0.295918 0 0.0325475
0.464149 0 0.0309453
0.616587 0 0.0320745
0.746685 0 0.0345312
0.853834 0 0.0372625
0.914611 0 0.0393378
0.0425116 0.0489509 0.0670939
0.0426642 0.0473945 0.0640726
0.133486 0.0318761 0.0506294
0.309545 0.0176547 0.0428931
0.471946 0.0105745 0.0395819
0.623209 0.00581369 0.0393072
0.754192 0.00418097 0.0414435
0.864088 0.00758373 0.0450294
0.920333 0.0145418 0.0483253
0.0274205 0.182223 0.0795148
0.027863 0.178668 0.0768444
0.124529 0.162921 0.0634928
0.304143 0.149325 0.0569314
0.470848 0.140826 0.0553292
0.625986 0.136934 0.0564736
0.759823 0.139864 0.0594339
0.871351 0.149462 0.0632486
0.921508 0.160128 0.0657359
0.0080415 0.330129 0.0883345
0.00793469 0.330922 0.0869612
0.0912947 0.318196 0.0738231
0.278035 0.306401 0.0668803
0.448218 0.299809 0.0656138
0.605142 0.296864 0.0671092
0.739483 0.299901 0.0701457
0.850172 0.308644 0.0737774
0.915221 0.318242 0.0764172
0 0.492744 0.0953078
0 0.4963 0.0947433
0.0552682 0.483925 0.0814984
0.245869 0.470619 0.0737926
0.416617 0.462287 0.0723888
0.573297 0.457298 0.0737926
0.707271 0.458778 0.0766461
0.817487 0.466484 0.0799878
0.905486 0.476677 0.0833753
0 0.657237 0.0996262
0 0.659937 0.0996719
0.0134432 0.647211 0.087953
0.208789 0.630488 0.0783551
0.381048 0.62089 0.0766308
0.538354 0.615122 0.0778668
0.672282 0.615198 0.0805524
0.781918 0.621134 0.08365
0.879957 0.629862 0.0872511
0 0.810788 0.101869
0 0.812833 0.1019
0.00047303 0.800259 0.0911421
0.1841 0.781384 0.0806897
0.355947 0.769818 0.0788434
0.512398 0.761532 0.0799573
0.644892 0.75877 0.0824292
0.752651 0.761837 0.0853895
0.848615 0.766964 0.088716
0 0.953155 0.102632
0 0.953292 0.102647
0.00241093 0.937758 0.0912032
0.173053 0.916716 0.0813153
0.34229 0.901915 0.0796063
0.496239 0.890013 0.0806744
0.626123 0.883574 0.0830396
0.731701 0.882918 0.0859388
0.825162 0.884184 0.0888991
0 1 0.10309
0 1 0.102922
0.0018616 1 0.0910506
0.162951 1 0.0815595
0.328145 1 0.0795605
0.478874 0.996658 0.0804456
0.606775 0.987884 0.0828412
0.710323 0.984756 0.0854505
0.801846 0.984482 0.0883955
0.0479896 0 0.102663
0.0479896 0 0.102098
0.10103 0 0.0950027
0.296452 0 0.0914168
0.463066 0 0.0821698
0.614816 0 0.0741588
0.744793 0 0.0712902
0.852461 0 0.0749218
0.915038 0 0.0809796
0.0426032 0.0493019 0.14078
0.0428321 0.0469825 0.138506
0.131334 0.0309148 0.122499
0.307591 0.0172122 0.105089
0.470253 0.00976577 0.0915694
0.62182 0.0047303 0.0823529
0.753109 0.00317388 0.0811475
0.863416 0.00680552 0.0885786
0.920913 0.0141604 0.0992447
0.0276646 0.181262 0.146456
0.0280766 0.177813 0.143236
0.123156 0.162478 0.12845
0.303502 0.14902 0.114839
0.470405 0.140719 0.105928
0.625681 0.136889 0.101381
0.759564 0.139971 0.103914
0.87126 0.149584 0.11342
0.922179 0.160403 0.124132
0.00816358 0.329564 0.128481
0.00802625 0.330617 0.129809
0.0908827 0.318318 0.118257
0.277897 0.306615 0.106477
0.448173 0.299718 0.0992752
0.604913 0.296651 0.0955215
0.738979 0.299428 0.097673
0.84947 0.307927 0.105684
0.915801 0.317845 0.115236
0 0.492561 0.112551
0 0.496086 0.116228
0.0545663 0.483635 0.104631
0.245274 0.470146 0.0910506
0.415869 0.461326 0.0816205
0.572564 0.456504 0.0746166
0.706523 0.457954 0.0766003
0.816709 0.465431 0.0826123
0.90573 0.475593 0.0933852
0 0.656565 0.0996262
0 0.658991 0.0996567
0.0124514 0.646494 0.0880293
0.208026 0.629831 0.0783703
0.380362 0.620218 0.0766155
0.537728 0.614176 0.0778363
0.671565 0.614221 0.0805066
0.781018 0.619883 0.0835889
0.878782 0.628183 0.0871748
0 0.809964 0.101854
0 0.812009 0.101884
0 0.799451 0.0912795
0.183124 0.780331 0.080705
0.354833 0.76846 0.0788281
0.511238 0.760021 0.0799115
0.643549 0.757092 0.0823529
0.751186 0.759625 0.0853132
0.846769 0.764324 0.0886091
0 0.951659 0.102632
0 0.951659 0.102632
0.00148013 0.935973 0.0914321
0.170993 0.914458 0.0813611
0.340307 0.899474 0.0796063
0.494133 0.887236 0.0806287
0.623896 0.880522 0.0829786
0.729366 0.879454 0.0858625
0.82266 0.8804 0.0887922
0 1 0.108263
0 1 0.104448
0.00117494 1 0.0914321
0.159579 1 0.0816205
0.325078 1 0.0795148
0.475944 0.993622 0.0804303
0.603891 0.985016 0.0827955
0.707286 0.98201 0.085359
0.798917 0.981979 0.0883192
0.0481422 0 0.230426
0.0481422 0 0.231113
0.110597 0 0.229129
0.29752 0 0.219837
0.462928 0 0.210208
0.614435 0 0.202457
0.744411 0 0.200122
0.852186 0 0.203967
0.916808 0 0.21004
0.0427863 0.0506294 0.267491
0.043061 0.047715 0.264668
0.13048 0.0314031 0.248585
0.306844 0.0178225 0.231785
0.469856 0.00967422 0.219348
0.621637 0.0039826 0.211017
0.753262 0.00201419 0.210513
0.864149 0.00627146 0.218204
0.922499 0.0152895 0.22858
0.027924 0.181582 0.272877
0.0282902 0.178622 0.270253
0.123095 0.163577 0.255879
0.303838 0.150484 0.243
0.471122 0.142565 0.235019
0.626627 0.138872 0.231281
0.760754 0.142123 0.233967
0.872297 0.151949 0.243153
0.923842 0.162661 0.2533
0.0081178 0.331136 0.258427
0.00791943 0.332601 0.259693
0.0919356 0.320607 0.248157
0.279026 0.308919 0.237064
0.449134 0.301991 0.23035
0.605707 0.298665 0.22707
0.739605 0.301335 0.229129
0.849973 0.309606 0.236622
0.917372 0.319219 0.245396
0 0.494621 0.245502
0 0.498085 0.248554
0.0553597 0.485573 0.23682
0.245747 0.471794 0.223804
0.416205 0.462776 0.215366
0.572656 0.457542 0.210544
0.706584 0.458701 0.211322
0.816968 0.466545 0.218051
0.907576 0.476722 0.227054
0 0.65745 0.231327
0 0.66006 0.233433
0.0104372 0.647715 0.221942
0.207813 0.630396 0.206104
0.37998 0.620432 0.196765
0.537026 0.613931 0.190951
0.670634 0.613672 0.190356
0.780148 0.619333 0.195132
0.877699 0.627543 0.202182
0 0.810468 0.225483
0 0.81239 0.227131
0 0.800031 0.215854
0.18201 0.780133 0.197498
0.353613 0.767697 0.186297
0.50959 0.758587 0.178149
0.641611 0.754971 0.174823
0.74905 0.757122 0.176608
0.844465 0.76141 0.180285
0 0.951659 0.23299
0 0.951385 0.23267
0 0.935851 0.218753
0.16907 0.913283 0.198413
0.338018 0.8972 0.184344
0.491646 0.884428 0.172839
0.621134 0.876875 0.166155
0.726314 0.875395 0.164782
0.819547 0.876097 0.165301
0 1 0.241077
0 1 0.237781
0.000335698 1 0.220279
0.156207 1 0.196719
0.321508 1 0.179477
0.472435 0.989471 0.165103
0.59997 0.981613 0.15552
0.703471 0.979095 0.151171
0.794827 0.976898 0.148943
0.0483864 0 0.379095
0.0484016 0 0.381201
0.112261 0 0.37995
0.296284 0 0.368627
0.461158 0 0.358587
0.612665 0 0.350896
0.74255 0 0.348669
0.850736 0 0.352575
0.918547 0 0.35906
0.0432746 0.0501564 0.414816
0.043595 0.0468147 0.411704
0.127199 0.030396 0.395529
0.304189 0.0166934 0.379019
0.467826 0.00799573 0.366995
0.620203 0.00170901 0.359564
0.752194 0 0.359487
0.863325 0.00570687 0.367254
0.924285 0.0159304 0.377874
0.0284733 0.180682 0.420478
0.0287633 0.178149 0.418128
0.121294 0.163455 0.404257
0.302785 0.150713 0.391806
0.470481 0.142733 0.384329
0.626154 0.139681 0.380926
0.760494 0.142672 0.383673
0.871931 0.152789 0.392569
0.925719 0.16347 0.402502
0.00830091 0.33135 0.407858
0.0080415 0.333227 0.409522
0.0911116 0.321263 0.397955
0.278523 0.30927 0.387015
0.448631 0.302571 0.380606
0.605203 0.299016 0.377462
0.739162 0.301442 0.379294
0.849256 0.309499 0.386267
0.919356 0.319463 0.395132
0 0.495201 0.396414
0 0.49868 0.399329
0.0537118 0.486107 0.387396
0.244724 0.471672 0.374228
0.41529 0.462593 0.366003
0.571847 0.457481 0.361517
0.705776 0.458625 0.362478
0.816144 0.466148 0.368902
0.909499 0.476234 0.377523
0 0.657481 0.382406
0 0.660075 0.384543
0.0080415 0.647486 0.373129
0.206409 0.630335 0.357275
0.378637 0.620081 0.348318
0.53576 0.613397 0.34258
0.669352 0.612696 0.342061
0.778729 0.618204 0.346609
0.875975 0.625727 0.353063
0 0.810193 0.376989
0 0.811994 0.378424
0 0.799939 0.367514
0.180041 0.779217 0.34905
0.351659 0.766171 0.337819
0.507576 0.756802 0.329839
0.639429 0.753017 0.326726
0.746807 0.754452 0.328252
0.841871 0.758465 0.331487
0 0.950729 0.383688
0 0.950179 0.383246
0 0.934585 0.369482
0.166049 0.911238 0.348882
0.335164 0.894774 0.334997
0.48864 0.881468 0.324117
0.618128 0.873869 0.317723
0.723064 0.871504 0.316213
0.816098 0.8719 0.316548
0 1 0.390204
0 1 0.386801
0 1 0.369879
0.151965 1 0.346441
0.317464 0.997528 0.329763
0.468757 0.985901 0.315938
0.596246 0.979416 0.306874
0.699535 0.974304 0.302693
0.790936 0.97171 0.300832
0.0486305 0 0.528435
0.0487221 0 0.533547
0.112062 0 0.529809
0.294575 0 0.517113
0.459022 0 0.50692
0.610651 0 0.499428
0.74081 0 0.49749
0.849348 0 0.501534
0.920439 0 0.508309
0.0438087 0.0493782 0.562692
0.0441444 0.0457465 0.559243
0.123857 0.0295415 0.54313
0.301701 0.0148318 0.526802
0.465919 0.00569162 0.515175
0.61854 0 0.508202
0.750881 0.00109865 0.508644
0.862654 0.00602731 0.51693
0.925872 0.0164797 0.527459
0.0290379 0.179721 0.568505
0.0292668 0.177859 0.566766
0.119753 0.163302 0.553124
0.301823 0.150744 0.541054
0.469795 0.143221 0.533898
0.625681 0.140154 0.530816
0.760143 0.143343 0.533654
0.871748 0.153338 0.542535
0.927382 0.163958 0.552087
0.00852979 0.33167 0.557748
0.00816358 0.334051 0.55964
0.0905928 0.322026 0.54818
0.27805 0.309957 0.537179
0.448173 0.303212 0.5308
0.6047 0.299321 0.527535
0.738216 0.301305 0.529183
0.848753 0.309392 0.53611
0.921157 0.319402 0.544732
0 0.495857 0.546914
0 0.499245 0.549737
0.0525063 0.486564 0.537896
0.243885 0.471656 0.524437
0.414435 0.46276 0.516487
0.571099 0.45716 0.511894
0.70489 0.458396 0.512825
0.81529 0.465873 0.519097
0.911543 0.476051 0.527703
0 0.657359 0.532998
0 0.659831 0.535027
0.00614939 0.647715 0.523964
0.205402 0.630243 0.508186
0.377615 0.619669 0.499168
0.534691 0.612802 0.493431
0.66804 0.61178 0.492607
0.777249 0.616907 0.496941
0.874464 0.624231 0.503151
0 0.809873 0.527626
0 0.811536 0.528847
0 0.799573 0.518318
0.178195 0.778408 0.49955
0.349813 0.765118 0.488426
0.505653 0.75523 0.480323
0.637324 0.750576 0.476921
0.744457 0.752026 0.478126
0.839414 0.755474 0.481209
0 0.949645 0.533516
0 0.948684 0.532753
0 0.933471 0.519478
0.163287 0.909285 0.498604
0.332357 0.8925 0.484733
0.485695 0.878416 0.473701
0.61503 0.870268 0.467185
0.719951 0.867735 0.465507
0.812696 0.867765 0.465614
0 1 0.539162
0 1 0.535622
0 1 0.519097
0.147417 1 0.495216
0.313649 0.993866 0.478431
0.46508 0.983825 0.464805
0.592462 0.974868 0.455863
0.695659 0.969421 0.451774
0.787076 0.966506 0.449714
0.0488746 0 0.672679
0.0490425 0 0.68275
0.111742 0 0.673732
0.293095 0 0.660227
0.457511 0 0.649668
0.609277 0 0.642329
0.739467 0 0.640497
0.848325 0 0.644984
0.922286 0 0.65211
0.0443427 0.0487373 0.70457
0.0446632 0.0453346 0.701228
0.121294 0.0289769 0.685222
0.299962 0.0134432 0.669062
0.464546 0.00329595 0.658045
0.617426 0.000946059 0.651545
0.750347 0.00337224 0.652338
0.862364 0.00735485 0.660685
0.92755 0.0176547 0.671565
0.029572 0.179416 0.711223
0.0297551 0.177844 0.709773
0.118563 0.163745 0.696498
0.301472 0.151415 0.684855
0.469718 0.144228 0.67808
0.625895 0.14107 0.675074
0.76025 0.144564 0.678065
0.871839 0.154314 0.686534
0.929107 0.164813 0.69601
0.00875868 0.332448 0.701946
0.00834669 0.335103 0.704005
0.0902724 0.323095 0.692454
0.277989 0.311147 0.681544
0.448081 0.303929 0.675166
0.604578 0.300069 0.671794
0.737972 0.301854 0.673259
0.848402 0.309895 0.680049
0.923049 0.320043 0.688823
0 0.496925 0.69163
0 0.500404 0.694331
0.0514687 0.487266 0.682261
0.243107 0.472221 0.668666
0.41384 0.462974 0.660685
0.570703 0.457664 0.656229
0.704479 0.458686 0.657191
0.814649 0.465934 0.663249
0.913222 0.475776 0.671443
0 0.657832 0.677623
0 0.660426 0.679683
0.00679026 0.64831 0.668666
0.204639 0.630472 0.652598
0.376699 0.619715 0.643565
0.533822 0.612375 0.637598
0.667109 0.611368 0.636881
0.776089 0.616114 0.640909
0.873137 0.623056 0.646555
0 0.81001 0.672129
0 0.811383 0.673243
0 0.799558 0.66276
0.176547 0.777646 0.643503
0.348196 0.764218 0.632349
0.504051 0.753857 0.624079
0.635508 0.749035 0.6206
0.742351 0.74992 0.621561
0.837201 0.752987 0.624094
0 0.948959 0.677378
0 0.947723 0.676493
0 0.932372 0.66331
0.160616 0.907683 0.641917
0.329839 0.890089 0.627863
0.483085 0.875883 0.616632
0.612314 0.867216 0.610117
0.717128 0.864317 0.608133
0.809796 0.863783 0.608072
0 1 0.681926
0 1 0.678096
0 1 0.661875
0.143282 1 0.637736
0.310292 0.991577 0.621027
0.461738 0.982712 0.607202
0.58909 0.970672 0.598138
0.692119 0.964935 0.594003
0.783688 0.962127 0.592035
0.0491188 0 0.79855
0.0493019 0 0.809201
0.11249 0 0.798138
0.293095 0 0.784146
0.457298 0 0.773404
0.60911 0 0.76611
0.739742 0 0.764492
0.848859 0 0.769314
0.923674 0 0.776608
0.0447089 0.0494545 0.827939
0.0450446 0.0458686 0.824414
0.120897 0.0298772 0.808652
0.299977 0.0143435 0.793042
0.464973 0.0043946 0.782315
0.618158 0.00296025 0.776226
0.751278 0.00523384 0.77734
0.863828 0.00979629 0.78613
0.928908 0.0200961 0.796918
0.0298619 0.180591 0.835203
0.029984 0.179507 0.833982
0.119554 0.165728 0.821088
0.30277 0.153674 0.809812
0.471199 0.146853 0.803235
0.627329 0.143694 0.800366
0.761608 0.146975 0.803143
0.873228 0.156527 0.811658
0.930465 0.166857 0.820737
0.00862135 0.334783 0.827161
0.00823987 0.33753 0.829313
0.0919966 0.325338 0.8177
0.279591 0.313481 0.806897
0.4495 0.306401 0.800427
0.605661 0.302159 0.796963
0.738857 0.3037 0.798184
0.849271 0.311696 0.805051
0.924529 0.321874 0.813733
0 0.499306 0.817121
0 0.502495 0.819608
0.052491 0.489036 0.807263
0.244007 0.474083 0.793835
0.414832 0.464973 0.785962
0.571511 0.459403 0.781476
0.705211 0.460502 0.782238
0.815244 0.467491 0.78822
0.913817 0.477119 0.796277
0 0.6598 0.802777
0 0.662272 0.804822
0.0084535 0.649927 0.793637
0.205264 0.631983 0.777646
0.377356 0.621149 0.768582
0.534142 0.613718 0.762676
0.667247 0.61239 0.761685
0.776074 0.616587 0.765332
0.872953 0.623285 0.770901
0 0.811627 0.79736
0 0.812863 0.79826
0 0.800565 0.787655
0.176547 0.778744 0.768368
0.348043 0.764721 0.756848
0.503578 0.753964 0.748623
0.634882 0.748714 0.744686
0.74136 0.749187 0.745281
0.836042 0.751934 0.747662
0 0.949676 0.801862
0 0.94815 0.800641
0 0.932448 0.787442
0.159518 0.907042 0.765866
0.328664 0.889509 0.751583
0.481743 0.874693 0.740261
0.610742 0.865797 0.733471
0.715373 0.862501 0.731197
0.807813 0.861814 0.731029
0 1 0.80528
0 1 0.801266
0 1 0.78526
0.141009 0.999146 0.760815
0.30811 0.990982 0.743847
0.459464 0.980362 0.730083
0.586831 0.968246 0.720806
0.689799 0.96228 0.71667
0.781201 0.958999 0.714382
0.0493324 0 0.90399
0.0495308 0 0.912139
0.115175 0 0.899657
0.29482 0 0.885405
0.458976 0 0.874937
0.610468 0 0.867765
0.741588 0 0.866575
0.85098 0 0.87158
0.924941 0 0.879026
0.0448768 0.0517128 0.929397
0.0452125 0.0480964 0.925856
0.122866 0.0320287 0.910155
0.302129 0.0170901 0.894942
0.467308 0.00732433 0.88481
0.621012 0.00495918 0.879164
0.754513 0.00741588 0.880659
0.867018 0.0132143 0.889555
0.930266 0.0242008 0.900343
0.0298619 0.183612 0.937255
0.029984 0.182589 0.936202
0.122927 0.169207 0.923583
0.305821 0.157687 0.912673
0.474342 0.150713 0.906325
0.630457 0.14786 0.903609
0.764584 0.151217 0.906462
0.875822 0.160769 0.914778
0.931655 0.170703 0.923583
0.00830091 0.33901 0.93019
0.00791943 0.341741 0.932235
0.0958877 0.329412 0.920501
0.282704 0.317769 0.909911
0.452369 0.310353 0.90338
0.608164 0.30576 0.899702
0.74136 0.307362 0.900999
0.851545 0.315389 0.907835
0.925643 0.32549 0.916228
0 0.50341 0.920195
0 0.506188 0.922408
0.0558633 0.492668 0.909667
0.246662 0.47776 0.896437
0.41735 0.468559 0.888655
0.573754 0.463081 0.884337
0.707454 0.463615 0.884978
0.817212 0.470573 0.8907
0.915602 0.480247 0.89868
0 0.663371 0.905653
0 0.665843 0.907576
0.0103304 0.653208 0.896147
0.207614 0.635309 0.880323
0.3794 0.624231 0.871168
0.535866 0.616602 0.865202
0.668864 0.614847 0.863966
0.777325 0.618692 0.867338
0.873884 0.625162 0.872618
0 0.814755 0.899763
0 0.815854 0.900557
0 0.803281 0.889555
0.178225 0.781125 0.870405
0.349294 0.76672 0.858824
0.50454 0.755688 0.850187
0.635493 0.750072 0.846067
0.74168 0.749996 0.846403
0.83621 0.752529 0.848615
0 0.952041 0.903685
0 0.950118 0.902235
0 0.933883 0.88867
0.159899 0.908492 0.866911
0.328725 0.89015 0.852644
0.481666 0.875151 0.841016
0.610483 0.86569 0.834119
0.714809 0.862119 0.831662
0.807157 0.861204 0.831205
0 1 0.906218
0 1 0.901961
0 1 0.885771
0.140337 0.998703 0.861189
0.307485 0.991363 0.844068
0.458549 0.979629 0.830045
0.585809 0.967315 0.820859
0.688777 0.961196 0.816587
0.780011 0.957717 0.81413
0.0494545 0 0.95108
0.0496223 0 0.948928
0.117403 0 0.936385
0.296635 0 0.929839
0.460777 0 0.928389
0.612711 0 0.929595
0.744167 0 0.932113
0.853529 0 0.934905
0.925795 0 0.937392
0.0448157 0.0535744 0.962005
0.0451514 0.049958 0.959442
0.125521 0.0342565 0.946181
0.304677 0.019791 0.938293
0.47013 0.010544 0.935561
0.624399 0.00636301 0.935805
0.758114 0.00927749 0.938552
0.870542 0.0174563 0.942885
0.930953 0.0280919 0.946303
0.0296483 0.186481 0.975662
0.0297398 0.185733 0.973571
0.126635 0.172534 0.960571
0.309194 0.161212 0.954223
0.477638 0.154772 0.952941
0.633722 0.151995 0.954314
0.767712 0.155352 0.957397
0.878737 0.164599 0.961257
0.932082 0.174136 0.963745
0.00784314 0.343404 0.985367
0.00750744 0.345815 0.984802
0.100298 0.333379 0.971405
0.286244 0.321828 0.964889
0.455436 0.314305 0.963668
0.610819 0.309728 0.965087
0.744167 0.31136 0.968048
0.854292 0.319417 0.97171
0.926146 0.329015 0.974563
0 0.507897 0.985382
0 0.510307 0.985367
0.060029 0.496315 0.979644
0.249989 0.481773 0.972061
0.42031 0.47274 0.970611
0.576654 0.467323 0.972015
0.710063 0.467994 0.974838
0.819776 0.474662 0.978149
0.916838 0.483696 0.98175
0 0.667735 0.9841
0 0.670024 0.98407
0.0135042 0.656916 0.982147
0.210712 0.639216 0.972183
0.382055 0.628153 0.962966
0.538201 0.620264 0.956878
0.670832 0.618173 0.955566
0.77911 0.621942 0.958648
0.875364 0.627741 0.963409
0 0.818753 0.97908
0 0.819577 0.979309
0 0.806363 0.974701
0.180423 0.784329 0.960616
0.351156 0.76968 0.949844
0.505989 0.758129 0.941115
0.636667 0.752163 0.936797
0.742641 0.751965 0.936843
0.836789 0.753826 0.93872
0 0.954986 0.978424
0 0.952651 0.978027
0 0.936233 0.972366
0.161105 0.910323 0.95642
0.329458 0.891875 0.942824
0.482292 0.876326 0.93106
0.610819 0.866621 0.923919
0.714809 0.86276 0.921218
0.807141 0.861463 0.920668
0 1 0.977539
0 1 0.97673
0 1 0.969573
0.140429 0.998703 0.95082
0.307393 0.992187 0.933547
0.458305 0.980026 0.91957
0.585306 0.967254 0.91017
0.688396 0.960937 0.90573
0.779431 0.957443 0.90338
