luts/Correction Style(canon footage).cube
TITLE "Generated by Resolve"
LUT_3D_SIZE 33
0 0 0
0 0 0
0 0 0
0 0 0
0 0 0
0.0137942 0 0
0.0463111 0 0
0.0923018 0 0
0.146456 0 0
0.20415 0 0
0.267094 0 0
0.336614 0 0
0.39379 0 0
0.445853 0 0
0.495644 0 0
0.543877 0 0
0.590906 0 0
0.636515 0 0
0.680552 0 0
0.722744 0 0
0.763043 0 0
0.801175 0 0
0.837476 0 0
0.872129 0 0
0.905394 0 0
0.937499 0 0
0.968719 0 0
0.996811 0 0
1 0 0
1 0 0
1 0 0
1 0 0
1 0 0
0 0 0
0 0 0
0 0 0
0 0 0
0.011429 0 0
0.0457771 0 0
0.0922866 0 0
0.154314 0 0
0.212314 0 0
0.267292 0 0
0.320272 0 0
0.372396 0 0
0.422293 0 0
0.469612 0 0
0.515969 0 0
0.561654 0 0
0.606729 0 0
0.650782 0 0
0.693645 0 0
0.734905 0 0
0.774563 0 0
0.812314 0 0
0.848417 0 0
0.882872 0 0
0.915618 0 0
0.947524 0 0
0.977996 0 0
1 0 0
1 0 0
1 0.00462348 0
1 0.0109102 0
1 0.017258 0
1 0.0236515 0
0 0 0
0 0 0
0 0 0
0 0 0
0.0394446 0 0
0.096025 0 0
0.155673 0 0
0.213748 0 0
0.269963 0 0
0.323705 0 0
0.373892 0 0
0.421317 0 0
0.466529 0 0
0.510002 0 0
0.553002 0 0
0.595956 0 0
0.638621 0 0
0.680583 0 0
0.721538 0 0
0.761547 0 0
0.800076 0.00128176 0
0.837308 0.00543221 0
0.872892 0.0101778 0
0.906828 0.0153506 0
0.939223 0.0205844 0
0.970779 0.0264744 0
0.99852 0.032639 0
1 0.0390326 0
1 0.0452583 0
1 0.0518044 0
1 0.0582284 0
1 0.0647135 0
1 0.0708629 0
0 0 0
0 0.00668345 0
0 0.0121309 0
0.0137484 0.0154269 0
0.0561074 0.0173495 0
0.112306 0.0189364 0
0.172595 0.0192874 0
0.23389 0.0188144 0
0.293248 0.0187991 0
0.351385 0.0190738 0
0.407065 0.0193484 0
0.45948 0.019501 0
0.509377 0.0204013 0
0.555566 0.0220035 0
0.599741 0.0240635 0
0.642741 0.0264897 0
0.684703 0.0291905 0
0.725704 0.0321508 0
0.765225 0.0354009 0
0.803677 0.0390173 0
0.840925 0.043183 0
0.8766 0.0478218 0
0.910887 0.0529488 0
0.943725 0.0584878 0
0.974838 0.0640421 0
1 0.0702831 0
1 0.0768139 0
1 0.0831922 0
1 0.0897536 0
1 0.096376 0
1 0.10277 0
1 0.108965 0
1 0.115267 0
0 0.0745708 0
0 0.0760967 0
0 0.0771038 0
0.0179904 0.0769665 0
0.061738 0.0758831 0
0.118837 0.075288 0
0.178363 0.0741741 0
0.239521 0.0723735 0
0.302037 0.0699931 0
0.364691 0.0674907 0
0.423697 0.0659953 0
0.479789 0.0655833 0
0.533654 0.0657816 0
0.58439 0.0665599 0
0.633402 0.0677348 0
0.681117 0.0692302 0
0.727062 0.0711681 0
0.770657 0.0736248 0
0.812055 0.076524 0
0.851438 0.0800488 0
0.889021 0.084184 0
0.924605 0.0889296 0
0.958495 0.0940566 0
0.988556 0.0995193 0
1 0.105623 0
1 0.111971 0
1 0.118303 0
1 0.124743 0
1 0.131334 0
1 0.13785 0
1 0.143862 0
1 0.150149 0
1 0.156252 0
0 0.1346 0
0 0.133959 0
0 0.13373 0
0.0174563 0.132891 0
0.0619059 0.131121 0
0.120378 0.129473 0
0.180774 0.127535 0
0.242039 0.12491 0
0.30454 0.122362 0
0.36846 0.119295 0
0.431342 0.116167 0
0.491707 0.113832 0
0.548775 0.112902 0
0.602136 0.113146 0
0.654017 0.113802 0
0.704936 0.115099 0
0.754208 0.116701 0
0.801572 0.118654 0
0.846693 0.120806 0
0.889769 0.123781 0
0.930343 0.127321 0
0.968124 0.131426 0
0.999161 0.136019 0
1 0.141299 0
1 0.146914 0
1 0.152605 0
1 0.158709 0
1 0.164904 0
1 0.171069 0
1 0.176959 0
1 0.182879 0
1 0.188708 0
1 0.1944 0
0 0.190051 0
0 0.188647 0
0 0.188022 0
0.0146487 0.187289 0
0.0578012 0.185687 0
0.117144 0.183703 0
0.179156 0.181353 0
0.2421 0.178759 0
0.305089 0.175677 0
0.369375 0.17258 0
0.43238 0.169482 0
0.494713 0.166506 0
0.555428 0.164111 0
0.612329 0.162631 0
0.667231 0.162341 0
0.720317 0.162875 0
0.771664 0.16405 0
0.821302 0.165408 0
0.869017 0.167575 0
0.914397 0.170169 0
0.957092 0.173129 0
0.9935 0.176532 0
1 0.180591 0
1 0.185092 0
1 0.18967 0
1 0.194812 0
1 0.200137 0
1 0.205585 0
1 0.210758 0
1 0.216114 0
1 0.221317 0
1 0.22652 0
1 0.231388 0
0 0.244907 0
0 0.243351 0
0 0.242496 0
0.0107424 0.242115 0
0.0516518 0.24094 0
0.110704 0.2392 0
0.174044 0.236698 0
0.23859 0.233783 0
0.302998 0.230442 0
0.368215 0.227192 0
0.431739 0.224079 0
0.494224 0.221195 0
0.554986 0.218479 0
0.613962 0.216602 0
0.671916 0.214984 0
0.72813 0.214023 0
0.781903 0.213504 0
0.8336 0.213993 0
0.882734 0.21529 0
0.929259 0.217182 0
0.97351 0.21944 0
1 0.222492 0
1 0.226047 0
1 0.229725 0
1 0.233967 0
1 0.238483 0
1 0.243091 0
1 0.247486 0
1 0.25211 0
1 0.256565 0
1 0.260838 0
1 0.265126 0
1 0.269352 0
0 0.300008 0
0 0.298482 0
0 0.297963 0
0.00613413 0.297688 0
0.0443885 0.296941 0
0.102678 0.295628 0
0.166369 0.29337 0
0.23209 0.29015 0
0.298192 0.286717 0
0.364691 0.283177 0
0.429099 0.279805 0
0.491829 0.276448 0
0.552956 0.273838 0
0.611795 0.271778 0
0.669764 0.269902 0
0.72694 0.267826 0
0.783322 0.266194 0
0.837461 0.26511 0
0.888594 0.264652 0
0.937041 0.265248 0
0.981109 0.266499 0
1 0.26865 0
1 0.271275 0
1 0.274372 0
1 0.277928 0
1 0.281682 0
1 0.285649 0
1 0.289403 0
1 0.293462 0
1 0.29749 0
1 0.301396 0
1 0.30547 0
1 0.309361 0
0 0.3561 0
0 0.354696 0
0 0.354192 0
0.000656138 0.35433 0
0.0383307 0.353887 0
0.0935531 0.353063 0
0.156634 0.35108 0
0.22266 0.347738 0
0.290196 0.344121 0
0.357946 0.340139 0
0.423133 0.336019 0
0.486717 0.332464 0
0.54818 0.329427 0
0.607034 0.32697 0
0.66453 0.324453 0
0.721645 0.322301 0
0.777768 0.320226 0
0.832288 0.318151 0
0.885206 0.316594 0
0.935515 0.315663 0
0.981186 0.315526 0
1 0.316121 0
1 0.317403 0
1 0.319371 0
1 0.321904 0
1 0.324941 0
1 0.328283 0
1 0.331701 0
1 0.335348 0
1 0.339071 0
1 0.342626 0
1 0.346273 0
1 0.349889 0
0 0.41265 0
0 0.411414 0
0 0.410986 0
0 0.411276 0
0.0326238 0.411017 0
0.0843519 0.410071 0
0.146395 0.408286 0
0.212207 0.405249 0
0.280201 0.401373 0
0.348638 0.396597 0
0.415137 0.392126 0
0.479393 0.387945 0
0.541207 0.384283 0
0.6 0.380972 0
0.657755 0.37821 0
0.714626 0.375525 0
0.770291 0.372946 0
0.824323 0.370321 0
0.876829 0.368322 0
0.927092 0.366659 0
0.975052 0.365454 0
1 0.364889 0
1 0.365042 0
1 0.36611 0
1 0.367803 0
1 0.370016 0
1 0.372595 0
1 0.375479 0
1 0.378241 0
1 0.381323 0
1 0.384344 0
1 0.387533 0
1 0.3906 0
0 0.469459 0
0 0.467903 0
0 0.467658 0
0 0.467872 0
0.0267491 0.467308 0
0.0754559 0.466529 0
0.136461 0.464714 0
0.201175 0.461692 0
0.268513 0.457374 0
0.337667 0.452323 0
0.405081 0.447211 0
0.469871 0.442222 0
0.531945 0.437705 0
0.591165 0.433951 0
0.648936 0.430503 0
0.70576 0.427161 0
0.761135 0.423804 0
0.814878 0.420737 0
0.866957 0.41828 0
0.91696 0.416342 0
0.964752 0.414939 0
1 0.414221 0
1 0.414099 0
1 0.41445 0
1 0.415442 0
1 0.416907 0
1 0.418784 0
1 0.420874 0
1 0.423087 0
1 0.425299 0
1 0.427466 0
1 0.429892 0
1 0.432212 0
0 0.52517 0
0 0.52369 0
0 0.523201 0
0 0.522866 0
0.0213321 0.522393 0
0.0670176 0.521385 0
0.126955 0.519402 0
0.190234 0.515938 0
0.256977 0.51165 0
0.325841 0.506218 0
0.393774 0.500496 0
0.458854 0.494606 0
0.521523 0.489448 0
0.580972 0.484977 0
0.63888 0.480827 0
0.695811 0.476921 0
0.7514 0.473335 0
0.805234 0.469856 0
0.857389 0.467155 0
0.907301 0.464988 0
0.95494 0.463416 0
0.994095 0.462486 0
1 0.462226 0
1 0.462303 0
1 0.46302 0
1 0.464149 0
1 0.465507 0
1 0.467063 0
1 0.46865 0
1 0.470253 0
1 0.471778 0
1 0.473274 0
1 0.474739 0
0 0.579538 0
0 0.577768 0
0 0.576684 0
0 0.576211 0
0.0163424 0.575418 0
0.059144 0.574029 0
0.117906 0.571466 0
0.180346 0.568002 0
0.245975 0.563455 0
0.314122 0.557641 0
0.381979 0.551369 0
0.44741 0.544915 0
0.510536 0.539193 0
0.57055 0.534325 0
0.628946 0.529824 0
0.68629 0.525567 0
0.742184 0.52163 0
0.796201 0.517876 0
0.848447 0.514839 0
0.898375 0.512398 0
0.945998 0.510536 0
0.987137 0.509346 0
1 0.508812 0
1 0.508843 0
1 0.509163 0
1 0.509926 0
1 0.511025 0
1 0.512261 0
1 0.513558 0
1 0.514717 0
1 0.515709 0
1 0.516762 0
1 0.517617 0
0 0.632395 0
0 0.629923 0
0 0.628595 0
0 0.627741 0
0.0108186 0.62652 0
0.0505074 0.624659 0
0.108309 0.621683 0
0.169711 0.617868 0
0.234241 0.613108 0
0.301762 0.607248 0
0.369635 0.600885 0
0.435492 0.594324 0
0.499046 0.58822 0
0.559594 0.582986 0
0.618463 0.578088 0
0.676188 0.573465 0
0.732418 0.569162 0
0.786847 0.565225 0
0.838987 0.561639 0
0.888991 0.558831 0
0.936538 0.556634 0
0.980179 0.555108 0
1 0.554208 0
1 0.553948 0
1 0.554147 0
1 0.554681 0
1 0.555489 0
1 0.55639 0
1 0.557305 0
1 0.558038 0
1 0.558816 0
1 0.559411 0
1 0.559808 0
0 0.683513 0
0 0.680537 0
0 0.678706 0
0 0.677317 0
0.00440986 0.675715 0
0.0421302 0.673548 0
0.0979934 0.670405 0
0.15877 0.666575 0
0.222644 0.661845 0
0.289494 0.656016 0
0.356939 0.649638 0
0.423133 0.643076 0
0.486915 0.636683 0
0.547692 0.630915 0
0.606989 0.625635 0
0.665095 0.620569 0
0.72163 0.615869 0
0.776287 0.611582 0
0.828794 0.607813 0
0.878828 0.604639 0
0.926268 0.601923 0
0.970916 0.599924 0
1 0.598642 0
1 0.598016 0
1 0.597803 0
1 0.598016 0
1 0.598444 0
1 0.599023 0
1 0.599619 0
1 0.600122 0
1 0.600427 0
1 0.600732 0
1 0.600839 0
0 0.73254 0
0 0.729213 0
0 0.727047 0
0 0.72546 0
0 0.723766 0
0.0351415 0.721477 0
0.0881514 0.718395 0
0.14815 0.71429 0
0.211368 0.709514 0
0.277562 0.703639 0
0.344472 0.69723 0
0.410498 0.690532 0
0.474342 0.684016 0
0.535424 0.677989 0
0.594827 0.672145 0
0.653284 0.666697 0
0.710079 0.661555 0
0.764996 0.656809 0
0.817655 0.652598 0
0.867735 0.649012 0
0.915282 0.646021 0
0.959976 0.643717 0
0.994766 0.642039 0
1 0.641016 0
1 0.640421 0
1 0.640192 0
1 0.640238 0
1 0.640436 0
1 0.64065 0
1 0.640726 0
1 0.64065 0
1 0.640558 0
1 0.640223 0
0 0.78027 0
0 0.776654 0
0 0.774334 0
0 0.772595 0
0 0.770733 0
0.0282292 0.768292 0
0.078645 0.765103 0
0.138201 0.760861 0
0.200656 0.755886 0
0.266209 0.74995 0
0.332433 0.743496 0
0.39823 0.736645 0
0.461814 0.729946 0
0.522927 0.72369 0
0.58265 0.717601 0
0.641306 0.711727 0
0.698344 0.706127 0
0.753338 0.700847 0
0.806027 0.696056 0
0.856199 0.692027 0
0.903731 0.688579 0
0.948348 0.685863 0
0.98645 0.683726 0
1 0.682231 0
1 0.681331 0
1 0.68072 0
1 0.680385 0
1 0.680186 0
1 0.679942 0
1 0.679652 0
1 0.679088 0
1 0.678614 0
1 0.677928 0
0 0.826719 0
0 0.822965 0
0 0.820386 0
0 0.818418 0
0 0.816342 0
0.0216526 0.813718 0
0.0698558 0.81033 0
0.129061 0.806088 0
0.190967 0.800961 0
0.255833 0.794858 0
0.321233 0.788113 0
0.386679 0.781125 0
0.44976 0.774212 0
0.510689 0.767651 0
0.570397 0.761242 0
0.629114 0.754955 0
0.68632 0.748898 0
0.741558 0.743252 0
0.794446 0.73814 0
0.844694 0.733623 0
0.89218 0.729732 0
0.936751 0.726513 0
0.978119 0.723964 0
1 0.721981 0
1 0.7205 0
1 0.719417 0
1 0.7187 0
1 0.718166 0
1 0.717525 0
1 0.716747 0
1 0.715846 0
1 0.714977 0
1 0.713893 0
0 0.871748 0
0 0.867933 0
0 0.865187 0
0 0.862684 0
0 0.860365 0
0.016495 0.857588 0
0.0620279 0.85391 0
0.12076 0.849409 0
0.182086 0.844144 0
0.246418 0.837873 0
0.311345 0.831098 0
0.376257 0.823957 0
0.438834 0.816815 0
0.499397 0.810025 0
0.558877 0.803281 0
0.617594 0.796551 0
0.674815 0.790082 0
0.730129 0.783978 0
0.783047 0.778363 0
0.833295 0.773358 0
0.880781 0.768978 0
0.925231 0.765286 0
0.96643 0.762234 0
0.996872 0.759762 0
1 0.75787 0
1 0.756329 0
1 0.755337 0
1 0.754238 0
1 0.753216 0
1 0.752071 0
1 0.75079 0
1 0.749752 0
1 0.748348 0
0 0.91516 0
0 0.911116 0
0 0.908064 0
0 0.905547 0
0 0.902953 0
0.0120394 0.899718 0
0.0552834 0.895827 0
0.113436 0.890944 0
0.174166 0.88539 0
0.237888 0.87892 0
0.30222 0.871916 0
0.366415 0.864561 0
0.428595 0.857191 0
0.48864 0.850126 0
0.547829 0.843046 0
0.606363 0.835935 0
0.663539 0.828977 0
0.718868 0.822507 0
0.771908 0.816541 0
0.822141 0.811063 0
0.869566 0.806195 0
0.913939 0.80206 0
0.955245 0.79852 0
0.988678 0.795682 0
1 0.793347 0
1 0.791623 0
1 0.78996 0
1 0.788495 0
1 0.787045 0
1 0.785763 0
1 0.784176 0
1 0.782544 0
1 0.780774 0
0 0.956756 0
0 0.952422 0
0 0.94905 0
0 0.946242 0
0 0.943313 0
0.00843824 0.939986 0
0.0496986 0.935729 0
0.107485 0.930648 0
0.167742 0.924804 0
0.230793 0.918074 0
0.29453 0.910811 0
0.358099 0.903212 0
0.41976 0.895582 0
0.479271 0.888197 0
0.537987 0.880766 0
0.596185 0.873289 0
0.653193 0.865934 0
0.708507 0.859022 0
0.76144 0.852598 0
0.811612 0.846647 0
0.859007 0.841321 0
0.903349 0.836728 0
0.944823 0.832837 0
0.981079 0.829679 0
1 0.826993 0
1 0.824674 0
1 0.82269 0
1 0.820905 0
1 0.819303 0
1 0.817472 0
1 0.815442 0
1 0.813779 0
1 0.811643 0
0 0.996155 0
0 0.991547 0
0 0.987961 0
0 0.984894 0
0 0.981689 0
0.00553903 0.978149 0
0.0458991 0.973617 0
0.102541 0.968307 0
0.162249 0.962173 0
0.224689 0.955062 0
0.287816 0.947524 0
0.350835 0.939635 0
0.411887 0.931701 0
0.470802 0.924041 0
0.52903 0.916274 0
0.586862 0.908431 0
0.643854 0.900938 0
0.698955 0.893507 0
0.75169 0.886564 0
0.801831 0.880201 0
0.849165 0.874479 0
0.893584 0.869657 0
0.935042 0.865431 0
0.972412 0.861769 0
0.999283 0.858564 0
1 0.85594 0
1 0.853788 0
1 0.851606 0
1 0.8495 0
1 0.847562 0
1 0.845243 0
1 0.842969 0
1 0.840848 0
0 1 0
0 1 0
0 1 0
0 1 0
0 1 0
0.00303655 1 0
0.042649 1 0
0.0980392 1 0
0.157458 0.997345 0
0.219409 0.989929 0
0.281895 0.982055 0
0.344305 0.973892 0
0.404868 0.965698 0
0.463172 0.957732 0
0.520974 0.949691 0
0.578607 0.941787 0
0.635157 0.93373 0
0.690044 0.925933 0
0.742779 0.918593 0
0.792737 0.91191 0
0.840223 0.905989 0
0.884413 0.900633 0
0.925704 0.895994 0
0.963592 0.892164 0
0.992676 0.888655 0
1 0.885618 0
1 0.882918 0
1 0.880644 0
1 0.878248 0
1 0.875883 0
1 0.873411 0
1 0.870939 0
1 0.868452 0
0 1 0
0 1 0
0 1 0
0 1 0
0 1 0
0.000869764 1 0
0.0396124 1 0
0.093843 1 0
0.152758 1 0
0.214237 1 0
0.27628 1 0
0.338231 1 0
0.398352 0.997772 0
0.456153 0.989548 0
0.513695 0.981491 0
0.570718 0.973053 0
0.626917 0.964721 0
0.68162 0.956619 0
0.734401 0.949142 0
0.784298 0.942061 0
0.831495 0.935607 0
0.875822 0.930144 0
0.917037 0.925139 0
0.955108 0.920775 0
0.986252 0.916976 0
1 0.913771 0
1 0.910811 0
1 0.908263 0
1 0.905577 0
1 0.902892 0
1 0.900298 0
1 0.897566 0
1 0.894942 0
0 1 0
0 1 0
0 1 0
0 1 0
0 1 0
0 1 0
0.0367895 1 0
0.0901656 1 0
0.14844 1 0
0.209339 1 0
0.270924 1 0
0.332387 1 0
0.392416 1 0
0.449683 1 0
0.5066 1 0
0.563317 1 0
0.61941 0.994247 0
0.673869 0.985824 0
0.726253 0.977859 0
0.776364 0.970672 0
0.823407 0.963897 0
0.867399 0.957855 0
0.908782 0.952804 0
0.94728 0.948119 0
0.98027 0.944015 0
1 0.940627 0
1 0.937377 0
1 0.934371 0
1 0.931746 0
1 0.928832 0
1 0.926055 0
1 0.92314 0
1 0.920241 0
0 1 0
0 1 0
0 1 0
0 1 0
0 1 0
0 1 0
0.0340124 1 0
0.086183 1 0
0.144015 1 0
0.204501 1 0
0.265873 1 0
0.326863 1 0
0.386328 1 0
0.443198 1 0
0.499794 1 0
0.556069 1 0
0.611704 1 0
0.666148 1 0
0.718456 1 0
0.768215 0.997665 0
0.815457 0.990906 0
0.859434 0.984604 0
0.900649 0.979095 0
0.939193 0.974365 0
0.973342 0.970016 0
0.998413 0.9664 0
1 0.962982 0
1 0.959899 0
1 0.956954 0
1 0.953857 0
1 0.950927 0
1 0.947875 0
1 0.944961 0
0 1 0
0 1 0
0 1 0
0 1 0
0 1 0
0 1 0
0.030808 1 0
0.0818494 1 0
0.139528 1 0
