luts/Correction.cube
LUT_3D_SIZE 6
0.000000 0.000000 0.000000
0.112114 0.000000 0.000000
0.493970 0.013510 0.062765
0.725528 0.240557 0.242072
0.834385 0.374885 0.385084
0.853918 0.415777 0.439040
0.000000 0.131394 0.000000
0.120445 0.120706 0.000000
0.477892 0.147535 0.000000
0.719178 0.234615 0.232616
0.831304 0.371022 0.380576
0.853918 0.415797 0.438759
0.171192 0.543879 0.140453
0.171432 0.536960 0.132665
0.448764 0.514519 0.134844
0.698951 0.447391 0.251398
0.826205 0.389879 0.386752
0.853918 0.415790 0.438418
0.360988 0.788535 0.392942
0.358713 0.785837 0.389825
0.384179 0.779679 0.396737
0.662119 0.765571 0.411432
0.803123 0.684673 0.459775
0.853918 0.516518 0.464929
0.465217 0.905091 0.531551
0.464063 0.903902 0.530045
0.462090 0.901646 0.527300
0.588559 0.895137 0.551608
0.769201 0.888744 0.569357
0.847568 0.840330 0.583708
0.508925 0.948920 0.624425
0.508888 0.948920 0.622724
0.508865 0.948920 0.618918
0.591697 0.948920 0.658223
0.731784 0.948461 0.646743
0.827740 0.947402 0.646420
0.000000 0.002059 0.000000
0.104701 0.000000 0.009710
0.495820 0.007467 0.189336
0.725311 0.240264 0.282506
0.834077 0.374342 0.388844
0.853918 0.415777 0.438951
0.000000 0.111558 0.049761
0.104960 0.091845 0.049535
0.483139 0.096013 0.150659
0.720016 0.234710 0.267953
0.830973 0.370649 0.383937
0.853918 0.415808 0.438757
0.167379 0.538817 0.206127
0.165673 0.532205 0.193870
0.445713 0.509140 0.189710
0.698101 0.442664 0.278760
0.823643 0.390339 0.389018
0.853918 0.415781 0.438408
0.359662 0.786993 0.391330
0.357760 0.784734 0.388705
0.379601 0.778396 0.393683
0.660883 0.764316 0.409777
0.800708 0.685816 0.458147
0.853918 0.512648 0.464658
0.464261 0.904183 0.530693
0.463562 0.903322 0.529583
0.461224 0.900758 0.526434
0.585900 0.894409 0.550484
0.768649 0.887920 0.568323
0.847557 0.839173 0.583068
0.508536 0.948920 0.640113
0.508533 0.948920 0.636216
0.508490 0.948920 0.631573
0.592985 0.948920 0.673507
0.732211 0.948176 0.659089
0.827549 0.947240 0.646879
0.097407 0.082534 0.475355
0.156154 0.083805 0.488336
0.491425 0.032680 0.548726
0.723830 0.244646 0.533002
0.832991 0.373993 0.514452
0.853918 0.415649 0.450471
0.097283 0.082429 0.474742
0.121394 0.082465 0.476410
0.482102 0.027787 0.540858
0.719254 0.239063 0.521004
0.830008 0.370242 0.504217
0.853918 0.415725 0.448416
0.287132 0.496085 0.538078
0.284354 0.488319 0.531623
0.446132 0.468762 0.520715
0.702544 0.419758 0.519789
0.825171 0.372018 0.483641
0.853918 0.415643 0.447011
0.352010 0.778384 0.553018
0.350049 0.776200 0.544754
0.362057 0.770572 0.528745
0.661144 0.755946 0.566665
0.797946 0.690429 0.542650
0.853918 0.523265 0.477241
0.459677 0.899625 0.610536
0.459001 0.898808 0.604233
0.457199 0.896917 0.588225
0.597573 0.890779 0.635520
0.768174 0.884390 0.618364
0.845886 0.840170 0.585478
0.507581 0.948920 0.706157
0.507570 0.948920 0.702517
0.507310 0.948920 0.693072
0.579956 0.948920 0.718697
0.739994 0.946762 0.743332
0.827161 0.946029 0.684486
0.166095 0.142402 0.807233
0.166211 0.142335 0.806996
0.419337 0.155626 0.833384
0.708890 0.266856 0.863817
0.830530 0.382842 0.804774
0.853918 0.421452 0.759954
0.165589 0.141873 0.805325
0.165295 0.141581 0.804186
0.405003 0.151689 0.826641
0.703782 0.260952 0.857233
0.827473 0.378763 0.796174
0.853918 0.420875 0.749772
0.215597 0.317869 0.805074
0.207328 0.299982 0.802817
0.342205 0.273141 0.807669
0.689358 0.283131 0.847929
0.823130 0.372851 0.784296
0.853918 0.420179 0.734540
0.474376 0.727198 0.813804
0.472465 0.724667 0.811253
0.473043 0.717591 0.806469
0.675782 0.726973 0.807377
0.798680 0.696247 0.812776
0.853918 0.493635 0.733148
0.457015 0.889669 0.811270
0.455126 0.888993 0.808036
0.451035 0.886892 0.800106
0.592685 0.881013 0.814685
0.771560 0.873596 0.837436
0.843657 0.848322 0.804790
0.506247 0.948920 0.828359
0.505985 0.948920 0.825385
0.505424 0.948952 0.818066
0.563686 0.947997 0.825575
0.754241 0.943208 0.871633
0.828348 0.941243 0.855347
0.235881 0.221184 0.956542
0.235670 0.220945 0.956543
0.340528 0.232421 0.960774
0.636554 0.307649 0.989147
0.812306 0.399117 0.991160
0.853918 0.437530 0.991160
0.234805 0.219925 0.956542
0.234362 0.219397 0.956542
0.319739 0.227740 0.959663
0.628375 0.302237 0.988469
0.808632 0.395228 0.991160
0.853918 0.436874 0.991160
0.237413 0.226231 0.956494
0.236111 0.224077 0.956300
0.261064 0.221271 0.956098
0.607690 0.291452 0.986500
0.802353 0.388953 0.991160
0.853918 0.435831 0.988848
0.425843 0.621702 0.938364
0.421813 0.616388 0.937197
0.412017 0.602226 0.935830
0.643831 0.676613 0.949388
0.781527 0.614727 0.986522
0.853918 0.449751 0.982533
0.572743 0.835213 0.947775
0.571890 0.834273 0.946828
0.569855 0.831163 0.944567
0.637714 0.834068 0.942401
0.787584 0.852972 0.949453
0.843452 0.839420 0.959469
0.589328 0.934060 0.967034
0.588119 0.933914 0.965864
0.585528 0.933492 0.962908
0.616814 0.931466 0.961452
0.785283 0.927214 0.964935
0.848655 0.926293 0.964456
0.277647 0.270151 0.956577
0.277561 0.270038 0.956577
0.305257 0.272341 0.957630
0.618713 0.332258 0.986641
0.803723 0.413362 0.991160
0.853918 0.450282 0.991160
0.276918 0.269296 0.956577
0.276724 0.269091 0.956576
0.293746 0.270339 0.957243
0.606667 0.328044 0.985528
0.797243 0.409760 0.991160
0.853918 0.450008 0.991160
0.275885 0.268188 0.956570
0.275489 0.267731 0.956571
0.278190 0.267447 0.956663
0.576063 0.317858 0.981960
0.783127 0.401651 0.991160
0.853918 0.449407 0.991160
0.405523 0.576019 0.944710
0.400337 0.567925 0.945164
0.387615 0.547710 0.946240
0.609672 0.628190 0.960831
0.758679 0.537380 0.991160
0.853918 0.450270 0.991160
0.561536 0.798680 0.945690
0.559956 0.796182 0.945346
0.556084 0.790193 0.944574
0.609065 0.795427 0.946920
0.779084 0.839078 0.962823
0.837904 0.820532 0.980713
0.599996 0.912918 0.970245
0.599954 0.912494 0.970153
0.599866 0.910925 0.969752
0.620486 0.908586 0.969058
0.783271 0.912989 0.969211
0.845111 0.915973 0.970472
