luts/correction cannon MS.cube
TITLE "Generated by Resolve"
LUT_3D_SIZE 5
0 0 0
0.238621 0 0
0.419638 0 0
0.534005 0 0.00917067
0.708629 0.0166018 0.0244297
0 0.279118 0
0.191363 0.246876 0.0840925
0.386557 0.266178 0.08336
0.545739 0.290013 0.106783
0.705028 0.314199 0.120485
0 0.504417 0.0241703
0.270756 0.471702 0.159365
0.448264 0.484276 0.23563
0.580865 0.509148 0.278447
0.718822 0.535607 0.278233
0.0290074 0.692012 0.134844
0.366751 0.664073 0.262776
0.54548 0.669932 0.35024
0.671931 0.690715 0.396857
0.788144 0.716197 0.410193
0.087068 0.889906 0.185901
0.443503 0.848219 0.327855
0.633463 0.843778 0.42118
0.764172 0.857832 0.472282
0.876005 0.879347 0.50135
0 0 0.451987
0.279744 0 0.37702
0.51223 0 0.319554
0.621195 0 0.282795
0.764508 0.00366217 0.286213
0 0.306447 0.346166
0.196475 0.254215 0.296773
0.493034 0.245212 0.276036
0.705287 0.25507 0.277012
0.813367 0.291997 0.309331
0 0.566735 0.278462
0.162997 0.522316 0.265324
0.459434 0.496132 0.373419
0.648081 0.510536 0.350729
0.817502 0.526329 0.358358
0 0.751308 0.316777
0.195148 0.739849 0.29192
0.51632 0.699809 0.410407
0.685969 0.70544 0.472999
0.818235 0.723949 0.502846
0 0.938689 0.363546
0.309987 0.906905 0.392447
0.580697 0.879301 0.476738
0.760174 0.875288 0.560876
0.886229 0.889784 0.616342
0 0 0.641474
0.247059 0 0.634485
0.483314 0 0.56492
0.627405 0 0.509514
0.788449 0 0.503105
0 0.284611 0.650477
0.18349 0.246754 0.661768
0.522423 0.228855 0.600504
0.767269 0.232227 0.563363
0.900084 0.267613 0.532357
0 0.54963 0.583169
0.0706493 0.542107 0.579843
0.461738 0.502373 0.540429
0.72137 0.494652 0.522927
0.932586 0.498634 0.517876
0 0.758404 0.56141
0.0396124 0.786343 0.510384
0.427558 0.738033 0.509346
0.691508 0.711833 0.604059
0.866178 0.722927 0.576715
0 0.957122 0.573388
0.147112 0.961959 0.526284
0.436179 0.938552 0.514275
0.735119 0.896254 0.624811
0.895552 0.900389 0.680827
0 0 0.752514
0.201617 0 0.746197
0.435126 0 0.713588
0.621332 0 0.691264
0.804257 0.000244144 0.697017
0 0.270634 0.794079
0.183276 0.247974 0.894667
0.513115 0.228443 0.871199
0.755566 0.233829 0.814923
0.909682 0.264973 0.76022
0 0.527321 0.784421
0.0906386 0.52903 0.877653
0.449302 0.496284 0.860182
0.746181 0.480613 0.80676
0.979904 0.479835 0.776928
0 0.75256 0.780285
0.0495155 0.774731 0.805982
0.350515 0.753277 0.788663
0.691066 0.717067 0.751125
0.926406 0.708583 0.734127
0 0.961547 0.786648
0.105013 0.969787 0.763287
0.30367 0.976303 0.718944
0.652705 0.930282 0.717159
0.899794 0.905394 0.805173
0 0 0.94374
0.198871 0 0.906142
0.434272 0 0.882979
0.63653 0 0.873259
0.820661 0.00262455 0.874861
0 0.272709 0.962371
0.196765 0.260182 0.981903
0.478737 0.2495 1
0.711345 0.254704 0.9738
0.881498 0.27985 0.928145
0 0.526055 0.971466
0.153384 0.517494 1
0.447135 0.495521 1
0.742916 0.477424 1
0.976913 0.477623 1
0 0.753735 0.978271
0.126177 0.752224 1
0.360098 0.742748 1
0.678233 0.711345 1
0.947707 0.695613 0.992508
0 0.961852 0.98407
0.153445 0.953063 0.977829
0.302739 0.967605 0.996735
0.586404 0.942824 0.97586
0.898619 0.911467 0.941909
