luts/Correction Style(canon footage).cube
TITLE "Generated by Resolve"
LUT_3D_SIZE 9
0 0 0
0 0 0
0.146456 0 0
0.39379 0 0
0.590906 0 0
0.763043 0 0
0.905394 0 0
1 0 0
1 0 0
0 0.0745708 0
0.061738 0.0758831 0
0.302037 0.0699931 0
0.533654 0.0657816 0
0.727062 0.0711681 0
0.889021 0.084184 0
1 0.105623 0
1 0.131334 0
1 0.156252 0
0 0.300008 0
0.0443885 0.296941 0
0.298192 0.286717 0
0.552956 0.273838 0
0.783322 0.266194 0
0.981109 0.266499 0
1 0.277928 0
1 0.293462 0
1 0.309361 0
0 0.52517 0
0.0213321 0.522393 0
0.256977 0.51165 0
0.521523 0.489448 0
0.7514 0.473335 0
0.95494 0.463416 0
1 0.46302 0
1 0.46865 0
1 0.474739 0
0 0.73254 0
0 0.723766 0
0.211368 0.709514 0
0.474342 0.684016 0
0.710079 0.661555 0
0.915282 0.646021 0
1 0.640421 0
1 0.64065 0
1 0.640223 0
0 0.91516 0
0 0.902953 0
0.174166 0.88539 0
0.428595 0.857191 0
0.663539 0.828977 0
0.869566 0.806195 0
1 0.793347 0
1 0.787045 0
1 0.780774 0
0 1 0
0 1 0
0.152758 1 0
0.398352 0.997772 0
0.626917 0.964721 0
0.831495 0.935607 0
0.986252 0.916976 0
1 0.905577 0
1 0.894942 0
0 1 0
0 1 0
0.134203 1 0
0.373724 1 0
0.596139 1 0
0.798978 1 0
0.958251 1 0
1 1 0
1 0.992706 0
0 1 0
0 1 0
0.105715 1 0
0.341299 1 0
0.559899 1 0
0.761166 1 0
0.922362 1 0
1 1 0
1 1 0
0 0 0.0287785
0.0087892 0 0.0314641
0.233753 0 0.0456855
0.518303 0 0.0787823
0.750561 0 0.0841382
0.956527 0 0.087892
1 0 0.0998245
1 0 0.118059
1 0 0.137789
0 0.0769513 0.0893873
0.047425 0.0800641 0.093431
0.237476 0.0875868 0.100587
0.439048 0.0909133 0.104234
0.623713 0.0979629 0.111574
0.793683 0.109712 0.123583
0.937102 0.128695 0.142824
1 0.151934 0.166155
1 0.174441 0.188769
0 0.298283 0.0863355
0.0382086 0.297185 0.0860609
0.280003 0.290776 0.0881971
0.533211 0.277867 0.100679
0.74519 0.277668 0.0898299
0.920333 0.284611 0.0898146
1 0.299001 0.108705
1 0.31751 0.132448
1 0.335866 0.155581
0 0.523507 0.0615854
0.0170443 0.520821 0.0597543
0.23743 0.512917 0.0521859
0.501396 0.490867 0.0496223
0.729809 0.474418 0.058381
0.932326 0.464439 0.0681315
1 0.464698 0.0804913
1 0.472938 0.0878767
1 0.482979 0.0879072
0 0.728573 0.0364538
0 0.719799 0.0284428
0.19559 0.707576 0.0162356
0.451133 0.684199 0.00360113
0.688167 0.66125 0.00410468
0.892241 0.64509 0.00906386
1 0.639094 0.0180972
1 0.639033 0.0307317
1 0.638056 0.0419165
0 0.90985 0.0133364
0 0.897383 0.0049897
0.159548 0.880964 0
0.405585 0.854963 0
0.638483 0.826978 0
0.845106 0.803265 0
0.996796 0.789807 0
1 0.783154 0
1 0.776532 0
0 1 0.00782788
0 1 0
0.137331 1 0
0.375708 0.992615 0
0.599634 0.960693 0
0.804623 0.93106 0
0.964416 0.912001 0
1 0.900053 0
1 0.88925 0
0 1 0.00376898
0 1 0
0.118029 1 0
0.350988 1 0
0.56817 1 0
0.770382 1 0
0.931502 1 0
1 0.99881 0
1 0.98645 0
0 1 0
0 1 0
0.0890059 1 0
0.319036 1 0
0.532586 1 0
0.731884 1 0
0.893782 1 0
1 1 0
1 1 0
0 0 0.25362
0.00856031 0 0.259251
0.253742 0 0.293706
0.519295 0 0.308019
0.748226 0 0.30988
0.953567 0 0.312993
1 0 0.32462
1 0 0.34316
1 0 0.363333
0 0.0772564 0.316884
0.0445411 0.0781872 0.318715
0.27245 0.0752117 0.316564
0.516274 0.0669566 0.309071
0.741222 0.0638132 0.306737
0.946685 0.0661479 0.309911
1 0.0776074 0.322271
1 0.0942397 0.339773
1 0.110277 0.356756
0 0.296422 0.31162
0.0360571 0.295415 0.311421
0.263294 0.292973 0.309895
0.482124 0.292103 0.307179
0.655695 0.300511 0.31458
0.819654 0.308843 0.323018
0.95613 0.321584 0.335927
1 0.337865 0.352422
1 0.354116 0.368963
0 0.521202 0.286305
0.0141604 0.517922 0.283818
0.227649 0.510536 0.277195
0.479927 0.491539 0.266178
0.706676 0.47541 0.273655
0.899107 0.469703 0.269718
1 0.476448 0.262165
1 0.488487 0.272053
1 0.501015 0.287465
0 0.723827 0.258595
0 0.715038 0.250507
0.186419 0.7028 0.239017
0.429252 0.68333 0.219883
0.665354 0.660227 0.214755
0.868437 0.644068 0.221042
1 0.637736 0.230289
1 0.636881 0.241825
1 0.636744 0.248814
0 0.904128 0.23331
0 0.891203 0.221057
0.149767 0.874647 0.20528
0.38677 0.850614 0.181079
0.612436 0.824491 0.161563
0.820035 0.799939 0.158175
0.978958 0.785946 0.162554
1 0.778988 0.169299
1 0.772076 0.174685
0 1 0.223484
0 1 0.205585
0.125826 1 0.183734
0.357229 0.985473 0.153964
0.572824 0.955779 0.126589
0.776913 0.926238 0.11165
0.938399 0.906493 0.110094
1 0.894209 0.112917
1 0.883314 0.115862
0 1 0.216098
0 1 0.192706
0.105074 1 0.166018
0.332403 1 0.131975
0.542168 1 0.0998856
0.741085 1 0.0778363
0.903044 1 0.0708019
1 0.993027 0.0709392
1 0.97995 0.0725719
0 1 0.195804
0 1 0.168811
0.0752117 1 0.139269
0.300633 1 0.102937
0.508064 1 0.0691844
0.70277 1 0.0436103
0.864393 1 0.0326085
0.98999 1 0.0311894
1 1 0.031754
0 0 0.50692
0.00810254 0 0.516945
0.259709 0 0.558465
0.516426 0 0.563897
0.743618 0 0.563851
0.948211 0 0.566186
1 0 0.578424
1 0 0.59762
1 0 0.618235
0 0.0745403 0.571984
0.0406958 0.0745251 0.572808
0.266957 0.0710918 0.570092
0.511421 0.0632639 0.562814
0.736171 0.0599222 0.56022
0.941649 0.0622568 0.563439
1 0.073518 0.575799
1 0.0897841 0.593362
1 0.105058 0.609796
0 0.292378 0.565255
0.0323339 0.291585 0.565301
0.258076 0.289082 0.563577
0.502129 0.280659 0.555703
0.72459 0.274968 0.550637
0.925338 0.27245 0.548775
1 0.276997 0.554131
1 0.287144 0.565209
1 0.29723 0.576211
0 0.516609 0.538827
0.00950637 0.512734 0.535637
0.220157 0.504433 0.527901
0.459174 0.489281 0.513039
0.676005 0.477806 0.501945
0.827985 0.482704 0.502876
0.950439 0.494163 0.513191
1 0.50724 0.526253
1 0.519539 0.538674
0 0.717403 0.508522
0 0.708034 0.499626
0.177829 0.695674 0.487663
0.415167 0.67686 0.469062
0.638254 0.658152 0.45536
0.839582 0.641794 0.460319
0.988602 0.637751 0.460334
1 0.642527 0.452491
1 0.647456 0.453635
0 0.896193 0.481102
0 0.882628 0.467842
0.139178 0.865538 0.450965
0.373098 0.84152 0.427008
0.584436 0.819425 0.40441
0.790494 0.794873 0.39408
0.950088 0.780743 0.397955
1 0.773541 0.403693
1 0.766262 0.408469
0 1 0.469093
0 1 0.449836
0.113481 1 0.426963
0.342489 0.974472 0.397147
0.547662 0.947265 0.369223
0.744411 0.919966 0.347204
0.90724 0.899626 0.343252
1 0.887098 0.345693
1 0.876097 0.347967
0 1 0.45951
0 1 0.434897
0.0912947 1 0.407324
0.316686 1 0.373022
0.518853 1 0.341848
0.708507 1 0.314809
0.870222 0.999802 0.303655
0.992996 0.985382 0.302922
1 0.972366 0.304417
0 1 0.437247
0 1 0.409247
0.0603647 1 0.378836
0.284443 1 0.342824
0.485924 1 0.310399
0.672114 1 0.282094
0.831098 1 0.267124
0.964141 1 0.263416
1 1 0.262913
0 0 0.744457
0.0113527 0 0.761807
0.262318 0 0.80032
0.51429 0 0.800809
0.740093 0 0.799344
0.944793 0 0.801755
1 0 0.813931
1 0 0.833143
1 0 0.853742
0 0.0731212 0.808499
0.0378882 0.0720378 0.80824
0.263462 0.0688029 0.805722
0.50782 0.0607767 0.798245
0.732799 0.0576181 0.795865
0.938201 0.0599985 0.799023
1 0.0707256 0.81091
1 0.0863813 0.827756
1 0.100893 0.843427
0 0.290044 0.800824
0.0297398 0.289433 0.801083
0.254353 0.28658 0.798978
0.498039 0.277684 0.790631
0.71989 0.271305 0.784894
0.919829 0.267979 0.782162
1 0.272206 0.787182
1 0.281895 0.797772
1 0.291539 0.808301
0 0.51342 0.773556
0.00572213 0.508751 0.769604
0.214298 0.49984 0.761196
0.453239 0.484382 0.746029
0.669627 0.472374 0.734432
0.865568 0.46482 0.727413
1 0.465156 0.728344
1 0.470985 0.734859
1 0.476219 0.74078
0 0.712139 0.741222
0 0.702693 0.73225
0.17052 0.689677 0.719646
0.407935 0.670665 0.700786
0.620233 0.654337 0.684688
0.81149 0.641978 0.672602
0.963088 0.638071 0.668589
1 0.645853 0.673548
1 0.654658 0.680079
0 0.889693 0.712489
0 0.875685 0.698833
0.130327 0.85803 0.681376
0.363836 0.833417 0.656764
0.57113 0.811597 0.634958
0.763409 0.79115 0.616999
0.92195 0.776715 0.619486
1 0.770489 0.620188
1 0.768673 0.606699
0 1 0.698558
0 1 0.678599
0.102586 0.994293 0.655268
0.331273 0.964446 0.624918
0.534157 0.93724 0.597543
0.717617 0.913817 0.573434
0.87866 0.893797 0.563241
0.997131 0.881102 0.565301
1 0.870161 0.566751
0 1 0.687037
0 1 0.661952
0.0788128 1 0.634028
0.304143 1 0.599207
0.504921 1 0.568399
0.684901 1 0.541497
0.839765 0.994308 0.524178
0.970993 0.97879 0.521263
1 0.965728 0.52256
0 1 0.663447
0 1 0.635248
0.0476692 1 0.604822
0.271275 1 0.567987
0.471885 1 0.53579
0.650843 1 0.508263
0.802029 1 0.489632
0.934829 1 0.48127
1 1 0.48014
0 0 0.959503
0.0252384 0 0.992508
0.264759 0 1
0.513619 0 1
0.738643 0 1
0.943084 0 1
1 0 1
1 0 1
1 0 1
0 0.0727245 1
0.0364538 0.0714275 1
0.261631 0.068101 1
0.506462 0.0604257 1
0.731685 0.0575723 0.999771
0.936553 0.0593118 1
1 0.0696117 1
1 0.0846113 1
1 0.0982376 1
0 0.28986 1
0.0285801 0.289204 1
0.252689 0.286046 1
0.495918 0.276555 0.995453
0.716945 0.269398 0.990509
0.916182 0.265339 0.987854
1 0.269001 0.991012
1 0.278355 0.998444
1 0.287861 1
0 0.512139 0.983536
0.00332647 0.506722 0.979767
0.210178 0.496834 0.970352
0.448981 0.481071 0.954864
0.665263 0.46894 0.943191
0.860578 0.460761 0.935454
1 0.460899 0.936141
1 0.465965 0.941924
1 0.470573 0.947219
0 0.708965 0.950179
0 0.698878 0.940551
0.165255 0.685527 0.927611
0.40235 0.665965 0.908186
0.614343 0.649287 0.891783
0.805051 0.636378 0.879072
0.959319 0.630884 0.87396
1 0.630335 0.873915
1 0.628962 0.872969
0 0.885008 0.919936
0 0.870375 0.905592
0.123308 0.852277 0.887648
0.356359 0.827024 0.862348
0.563134 0.80444 0.839796
0.74815 0.785611 0.820996
0.897475 0.774563 0.810147
1 0.768521 0.80441
1 0.763104 0.798947
0 1 0.903853
0 1 0.883314
0.0935378 0.986435 0.859495
0.321904 0.956176 0.828611
0.524605 0.928557 0.800778
0.705348 0.905196 0.777371
0.852964 0.889311 0.761761
0.978912 0.876585 0.762005
1 0.868315 0.755199
0 1 0.890532
0 1 0.864942
0.0683299 1 0.836698
0.293584 1 0.801617
0.494392 1 0.770626
0.672923 1 0.744533
0.817136 0.987686 0.726925
0.947616 0.973632 0.718212
1 0.96054 0.719127
0 1 0.865843
0 1 0.837293
0.0380713 1 0.806775
0.260365 1 0.770108
0.461265 1 0.737896
0.639094 1 0.71104
0.783352 1 0.693721
0.908553 1 0.681254
1 1 0.676875
0 0 1
0.0336309 0 1
0.268727 0 1
0.515435 0 1
0.73994 0 1
0.944457 0 1
1 0 1
1 0 1
1 0 1
0 0.0755779 1
0.0374151 0.0738384 1
0.263539 0.0709239 1
0.508247 0.0632486 1
0.733349 0.0602579 1
0.938216 0.0620279 1
1 0.0717632 1
1 0.0859541 1
1 0.0987259 1
0 0.292622 1
0.0296788 0.291875 1
0.254063 0.288365 1
0.496605 0.278264 1
0.716945 0.27039 1
0.915328 0.265446 1
1 0.268864 1
1 0.27805 1
1 0.2869 1
0 0.513497 1
0.00297551 0.507256 1
0.209186 0.49688 1
0.447974 0.481041 1
0.663752 0.46836 1
0.858915 0.460014 1
1 0.459388 1
1 0.464134 1
1 0.468177 1
0 0.708614 1
0 0.698283 1
0.163302 0.684565 1
0.400061 0.664515 1
0.611566 0.647379 1
0.801709 0.63386 1
0.955444 0.627695 1
1 0.626581 1
1 0.624628 1
0 0.883146 1
0 0.868055 1
0.119356 0.849287 1
0.352163 0.823636 1
0.558358 0.800412 0.996201
0.743023 0.781155 0.982116
0.891875 0.769619 0.972244
1 0.763119 0.965972
1 0.756863 0.95996
0 1 1
0 1 1
0.0878614 0.981811 1
0.315984 0.951019 0.987396
0.51838 0.922957 0.962219
0.698772 0.899306 0.938445
0.843778 0.883803 0.922957
0.962997 0.874205 0.913512
1 0.865293 0.904738
0 1 1
0 1 1
0.0613107 1 0.992828
0.286732 1 0.962524
0.487327 1 0.93109
0.665721 0.998383 0.904875
0.809293 0.981353 0.887861
0.929168 0.970626 0.877104
1 0.957961 0.874922
0 1 1
0 1 0.992966
0.0312963 1 0.967117
0.252811 1 0.930373
0.454032 1 0.898177
0.632059 1 0.87158
0.775738 1 0.854414
0.894743 1 0.842847
1 1 0.833341
0 0 1
0.0403906 0 1
0.274174 0 1
0.519646 0 1
0.743816 0 1
0.948745 0 1
1 0 1
1 0 1
1 0 1
0 0.0803235 1
0.0402533 0.0788586 1
0.26775 0.0758373 1
0.512444 0.0683452 1
0.737484 0.0653086 1
0.941909 0.0665904 1
1 0.0757305 1
1 0.0891585 1
1 0.101183 1
0 0.297749 1
0.0324102 0.296712 1
0.25774 0.29276 1
0.499458 0.281971 1
0.718959 0.273243 1
0.91696 0.267918 1
1 0.271138 1
1 0.279759 1
1 0.288457 1
0 0.516899 1
0.00418097 0.509865 1
0.210986 0.499413 1
0.449165 0.48304 1
0.664744 0.470176 1
0.85922 0.461173 1
1 0.460243 1
1 0.464424 1
1 0.467918 1
0 0.710506 1
0 0.699779 1
0.163592 0.68571 1
0.399695 0.665003 1
0.610666 0.647257 1
0.800198 0.633112 1
0.953628 0.626566 1
1 0.624613 1
1 0.622385 1
0 0.883619 1
0 0.867979 1
0.117769 0.848554 1
0.349874 0.82211 1
0.555718 0.798489 1
0.739879 0.778714 1
0.888258 0.76669 1
0.999542 0.759731 1
1 0.753124 1
0 1 1
0 1 1
0.0843214 0.979263 1
0.312016 0.947936 1
0.514412 0.919676 1
0.694286 0.895476 1
0.839307 0.879988 1
0.958587 0.869978 1
1 0.860899 1
0 1 1
0 1 1
0.0564431 1 1
0.281758 1 1
0.482551 1 1
0.6607 0.993973 1
0.804273 0.976944 1
0.923934 0.966232 1
1 0.956741 0.993133
0 1 1
0 1 1
0.0265354 1 1
0.247517 1 1
0.449012 1 1
0.627176 1 0.996155
0.770275 1 0.983108
0.889738 1 0.974212
0.993927 1 0.964202
0 0 1
0.0466316 0 1
0.279759 0 1
0.52401 0 1
0.748272 0 1
0.953048 0 1
1 0 1
1 0 1
1 0 1
0 0.0856794 1
0.0431983 0.0840314 1
0.27248 0.0812085 1
0.517205 0.073991 1
0.741878 0.0705425 1
0.9458 0.0713817 1
1 0.0798199 1
1 0.0924239 1
1 0.104189 1
0 0.303471 1
0.0353246 0.301823 1
0.26157 0.297292 1
0.502388 0.285786 1
0.72134 0.276463 1
0.918929 0.270695 1
1 0.273503 1
1 0.281956 1
1 0.289937 1
0 0.520684 1
0.00569162 0.512901 1
0.212757 0.501961 1
0.450752 0.485466 1
0.665736 0.471977 1
0.859968 0.462745 1
1 0.461067 1
1 0.464668 1
1 0.467597 1
0 0.712749 1
0 0.701442 1
0.164034 0.686931 1
0.399756 0.665843 1
0.610178 0.647517 1
0.799084 0.632761 1
0.95198 0.625589 1
1 0.623041 1
1 0.620264 1
0 0.884062 1
0 0.867964 1
0.11635 0.847959 1
0.347829 0.820844 1
0.553262 0.79675 1
0.736904 0.77644 1
0.884855 0.763943 1
0.997055 0.756802 1
1 0.749599 1
0 1 1
0 1 1
0.0810101 0.976898 1
0.308293 0.945022 1
0.510445 0.916396 1
0.690028 0.891859 1
0.834821 0.876127 1
0.95462 0.866194 1
1 0.856748 1
0 1 1
0 1 1
0.0518349 1 1
0.277028 1 1
0.477974 1 1
0.655848 0.989776 1
0.79942 0.972717 1
0.919081 0.962005 1
1 0.952544 1
0 1 1
0 1 1
0.0223087 1 1
0.242557 1 1
0.44419 1 1
0.622461 1 1
0.765438 1 1
0.884901 1 1
0.990539 1 1
