luts/Correction Style(canon footage).cube
TITLE "Generated by Resolve"
LUT_3D_SIZE 5
0 0 0
0.146456 0 0
0.590906 0 0
0.905394 0 0
1 0 0
0 0.300008 0
0.298192 0.286717 0
0.783322 0.266194 0
1 0.277928 0
1 0.309361 0
0 0.73254 0
0.211368 0.709514 0
0.710079 0.661555 0
1 0.640421 0
1 0.640223 0
0 1 0
0.152758 1 0
0.626917 0.964721 0
0.986252 0.916976 0
1 0.894942 0
0 1 0
0.105715 1 0
0.559899 1 0
0.922362 1 0
1 1 0
0 0 0.25362
0.253742 0 0.293706
0.748226 0 0.30988
1 0 0.32462
1 0 0.363333
0 0.296422 0.31162
0.263294 0.292973 0.309895
0.655695 0.300511 0.31458
0.95613 0.321584 0.335927
1 0.354116 0.368963
0 0.723827 0.258595
0.186419 0.7028 0.239017
0.665354 0.660227 0.214755
1 0.637736 0.230289
1 0.636744 0.248814
0 1 0.223484
0.125826 1 0.183734
0.572824 0.955779 0.126589
0.938399 0.906493 0.110094
1 0.883314 0.115862
0 1 0.195804
0.0752117 1 0.139269
0.508064 1 0.0691844
0.864393 1 0.0326085
1 1 0.031754
0 0 0.744457
0.262318 0 0.80032
0.740093 0 0.799344
1 0 0.813931
1 0 0.853742
0 0.290044 0.800824
0.254353 0.28658 0.798978
0.71989 0.271305 0.784894
1 0.272206 0.787182
1 0.291539 0.808301
0 0.712139 0.741222
0.17052 0.689677 0.719646
0.620233 0.654337 0.684688
0.963088 0.638071 0.668589
1 0.654658 0.680079
0 1 0.698558
0.102586 0.994293 0.655268
0.534157 0.93724 0.597543
0.87866 0.893797 0.563241
1 0.870161 0.566751
0 1 0.663447
0.0476692 1 0.604822
0.471885 1 0.53579
0.802029 1 0.489632
1 1 0.48014
0 0 1
0.268727 0 1
0.73994 0 1
1 0 1
1 0 1
0 0.292622 1
0.254063 0.288365 1
0.716945 0.27039 1
1 0.268864 1
1 0.2869 1
0 0.708614 1
0.163302 0.684565 1
0.611566 0.647379 1
0.955444 0.627695 1
1 0.624628 1
0 1 1
0.0878614 0.981811 1
0.51838 0.922957 0.962219
0.843778 0.883803 0.922957
1 0.865293 0.904738
0 1 1
0.0312963 1 0.967117
0.454032 1 0.898177
0.775738 1 0.854414
1 1 0.833341
0 0 1
0.279759 0 1
0.748272 0 1
1 0 1
1 0 1
0 0.303471 1
0.26157 0.297292 1
0.72134 0.276463 1
1 0.273503 1
1 0.289937 1
0 0.712749 1
0.164034 0.686931 1
0.610178 0.647517 1
0.95198 0.625589 1
1 0.620264 1
0 1 1
0.0810101 0.976898 1
0.510445 0.916396 1
0.834821 0.876127 1
1 0.856748 1
0 1 1
0.0223087 1 1
0.44419 1 1
0.765438 1 1
0.990539 1 1
