luts/Corrected+LUT.cube
TITLE "Generated by Resolve"
LUT_3D_SIZE 33
0.0479591 0 0.054902
0.0479591 0 0.054902
0.0479591 0 0.054902
0.0479591 0 0.0540475
0.0479591 0 0.0525521
0.0479591 0 0.0511177
0.0479591 0 0.049073
0.0559243 0 0.0449989
0.0974746 0 0.0405585
0.147646 0 0.0375219
0.200122 0 0.0353399
0.249805 0 0.0336919
0.295918 0 0.0325475
0.340322 0 0.0316777
0.38262 0 0.0311589
0.423758 0 0.0310979
0.464149 0 0.0309453
0.503868 0 0.0309453
0.542596 0 0.0311437
0.580285 0 0.0316777
0.616587 0 0.0320745
0.65156 0 0.0325322
0.684855 0 0.033051
0.716396 0 0.0336461
0.746685 0 0.0345312
0.775219 0 0.0351873
0.802502 0 0.0358587
0.828626 0 0.0365606
0.853834 0 0.0372625
0.878645 0 0.0379492
0.903075 0 0.0388495
0.914611 0 0.0393378
0.914611 0 0.0393378
0.0479591 0 0.054902
0.0479591 0 0.054902
0.0479591 0 0.054902
0.0479591 0 0.0539712
0.0479591 0 0.0524605
0.0479591 0 0.0509499
0.0479591 0 0.0486458
0.0614633 0 0.0434272
0.113924 0 0.0394751
0.16202 0 0.03682
0.208713 0 0.0350652
0.254444 0 0.0335699
0.29865 0 0.0324865
0.341726 0 0.0316625
0.383124 0 0.0311589
0.423758 0 0.0310979
0.463661 0 0.0309453
0.502907 0 0.0309453
0.541405 0 0.0311284
0.578882 0 0.0316625
0.615076 0 0.0320592
0.649943 0 0.0325017
0.683146 0 0.0330205
0.714687 0 0.0336004
0.745007 0 0.0345006
0.773663 0 0.0351568
0.801053 0 0.0358282
0.827176 0 0.0365148
0.852628 0 0.037232
0.877546 0 0.0379187
0.902083 0 0.038819
0.914611 0 0.0393378
0.914611 0 0.0393378
0.0479591 0 0.054902
0.0479591 0 0.054902
0.0479591 0 0.054902
0.0479591 0 0.0534524
0.0478218 0.000640879 0.0523842
0.047715 0.000976577 0.0512093
0.0500954 0.00062562 0.0484932
0.0738384 0 0.0437781
0.121904 0 0.0402228
0.167712 0 0.0375677
0.212985 0 0.0355688
0.257053 0 0.033753
0.300343 0 0.0324559
0.343008 0 0.031632
0.383993 0 0.0311589
0.424247 0 0.0310979
0.463905 0 0.0309453
0.503029 0 0.0309453
0.541405 0 0.0311284
0.578882 0 0.0316625
0.615076 0 0.0320592
0.649943 0 0.0325017
0.683146 0 0.0330205
0.714794 0 0.0336004
0.745235 0 0.0345006
0.773999 0 0.0351568
0.801495 0 0.0358434
0.827955 0 0.0365301
0.853513 0 0.0372473
0.878538 0 0.0379492
0.903288 0 0.0388647
0.914611 0 0.0393378
0.914611 0 0.0393378
0.046128 0.0102846 0.0610208
0.0458534 0.0130617 0.0615854
0.0456855 0.0148928 0.0616465
0.0456397 0.0152895 0.0606851
0.0456397 0.0151064 0.0594644
0.0457313 0.0137789 0.0574807
0.0522316 0.0107118 0.0540017
0.08336 0.00723278 0.0491035
0.129976 0.00556954 0.0456703
0.175158 0.00389105 0.0430457
0.219699 0.00215152 0.0407874
0.263401 0.000320439 0.038941
0.306508 0 0.0373999
0.348486 0 0.0363317
0.389181 0 0.0354009
0.428794 0 0.0347448
0.467948 0 0.0341802
0.50663 0 0.0337835
0.544717 0 0.0336614
0.58175 0 0.0337072
0.617731 0 0.0337682
0.65243 0 0.0339513
0.685527 0 0.0342565
0.717296 0 0.0347448
0.747753 0 0.0355688
0.776745 0 0.0362402
0.804425 0 0.0370184
0.831113 0 0.0378882
0.857038 0 0.0388342
0.88249 0 0.0398566
0.907637 0 0.0411078
0.916411 0 0.0417334
0.916655 0 0.0420691
0.0425116 0.0489509 0.0670939
0.0424659 0.0493172 0.0671397
0.0424659 0.0493782 0.0667735
0.0425422 0.0486305 0.0655985
0.0426642 0.0473945 0.0640726
0.0428626 0.0453803 0.0619974
0.05243 0.0415045 0.0584115
0.0873426 0.0361028 0.0538033
0.133486 0.0318761 0.0506294
0.178149 0.0277867 0.0481117
0.222583 0.0236973 0.0460059
0.266392 0.0201267 0.0442817
0.309545 0.0176547 0.0428931
0.351858 0.0155489 0.0418097
0.392645 0.0136873 0.0408637
0.432425 0.0120546 0.0401312
0.471946 0.0105745 0.0395819
0.511055 0.00929274 0.0393225
0.549462 0.00799573 0.0392309
0.586877 0.00683604 0.0392004
0.623209 0.00581369 0.0393072
0.658137 0.00503548 0.0396124
0.69163 0.00444038 0.0400397
0.72369 0.0041352 0.0407568
0.754192 0.00418097 0.0414435
0.783368 0.00451667 0.0421912
0.811215 0.00515755 0.0430304
0.838117 0.00628672 0.0440223
0.864088 0.00758373 0.0450294
0.889647 0.00926223 0.0463264
0.914626 0.0110323 0.0474556
0.920211 0.0128176 0.0479744
0.920333 0.0145418 0.0483253
0.0389715 0.0828412 0.0710765
0.0390021 0.0824598 0.0710307
0.0390784 0.0818189 0.0705272
0.0392004 0.0806592 0.069276
0.039353 0.0791943 0.0677501
0.0395972 0.0769055 0.0656748
0.0509346 0.0727703 0.0621042
0.088365 0.0672313 0.0575418
0.134234 0.0628214 0.0543679
0.178882 0.058732 0.0519265
0.223224 0.0546731 0.049958
0.267292 0.0509651 0.0484932
0.310643 0.0474098 0.0472419
0.353017 0.0441749 0.0462043
0.394049 0.0413214 0.0454414
0.43418 0.0388342 0.0449226
0.474052 0.0365454 0.0446174
0.513558 0.0344701 0.0445106
0.552163 0.0326848 0.0444648
0.589761 0.0311284 0.0445411
0.626322 0.0299535 0.0447852
0.661646 0.0294804 0.045304
0.695491 0.0293736 0.0458686
0.727504 0.0297551 0.046479
0.75819 0.0305486 0.0471656
0.787472 0.0318761 0.0479744
0.815442 0.0335241 0.0488899
0.842634 0.0358892 0.0499733
0.868681 0.0383307 0.0510109
0.894255 0.0409857 0.0520485
0.919249 0.0438087 0.0531472
0.921904 0.0459297 0.0535134
0.92195 0.0479591 0.0537881
0.0353094 0.115618 0.0742351
0.0354009 0.114855 0.0741588
0.0354925 0.114122 0.0736858
0.0356298 0.11284 0.0724651
0.0358129 0.111177 0.070985
0.0360571 0.10898 0.0690166
0.047425 0.104829 0.0654765
0.0868696 0.0990921 0.0607614
0.132647 0.0947127 0.0576791
0.1776 0.0906081 0.0552834
0.222309 0.0867475 0.0534676
0.266423 0.0832837 0.0521096
0.310018 0.0797284 0.0508583
0.352621 0.0766155 0.0499275
0.393896 0.073991 0.0492561
0.434455 0.0717174 0.0489052
0.474571 0.0697337 0.0487373
0.514122 0.0677958 0.0486305
0.552895 0.0661326 0.048661
0.590906 0.0647593 0.0488746
0.627695 0.0640574 0.0493019
0.663249 0.0636454 0.0498207
0.697154 0.0636149 0.05037
0.729412 0.064271 0.0510262
0.760357 0.0653697 0.0517891
0.789807 0.0669261 0.0526894
0.81799 0.0690471 0.0536965
0.845075 0.0713664 0.0546883
0.871244 0.074052 0.0556954
0.896834 0.0768749 0.0567178
0.922087 0.0798962 0.0578317
0.922438 0.0820935 0.0581064
0.922454 0.0842908 0.0583658
0.0314794 0.148531 0.0768749
0.0315862 0.147753 0.0768139
0.0316625 0.147021 0.076463
0.0317998 0.145815 0.0753185
0.0319982 0.144213 0.0738994
0.0322576 0.142016 0.0719463
0.041474 0.138064 0.0684977
0.0830701 0.132219 0.0636454
0.129427 0.127916 0.0605783
0.174655 0.124224 0.0583963
0.219638 0.120562 0.056611
0.264057 0.117052 0.0552071
0.307881 0.113756 0.054078
0.350729 0.110796 0.0532845
0.392523 0.108431 0.0528115
0.433051 0.10634 0.052491
0.473396 0.104402 0.0523079
0.513222 0.102693 0.0522469
0.552331 0.101213 0.0523842
0.59057 0.100313 0.0527657
0.627573 0.0997177 0.0532082
0.663249 0.0993668 0.0536965
0.69723 0.0997482 0.0543069
0.729763 0.100603 0.0550546
0.760952 0.101946 0.0559396
0.790509 0.103655 0.0568399
0.818845 0.105806 0.0577554
0.845884 0.108248 0.0586862
0.872129 0.111101 0.0597238
0.897765 0.114168 0.0608225
0.922271 0.117296 0.0619821
0.92224 0.119631 0.0622263
0.92221 0.121843 0.0624704
0.0274205 0.182223 0.0795148
0.027512 0.181582 0.079469
0.0275578 0.181155 0.0793011
0.0276951 0.180072 0.0782788
0.027863 0.178668 0.0768444
0.0281071 0.176593 0.0748913
0.0331121 0.17293 0.0716564
0.0777142 0.167041 0.0665141
0.124529 0.162921 0.0634928
0.170031 0.159396 0.0612802
0.215305 0.155795 0.0594339
0.260197 0.152331 0.0579843
0.304143 0.149325 0.0569314
0.347524 0.146715 0.05626
0.389441 0.144427 0.055787
0.430304 0.142535 0.0554818
0.470848 0.140826 0.0553292
0.510994 0.139284 0.0553597
0.550469 0.138186 0.0556802
0.5888 0.137346 0.0560616
0.625986 0.136934 0.0564736
0.661799 0.136873 0.0570077
0.696025 0.137392 0.0577859
0.728649 0.138415 0.0585794
0.759823 0.139864 0.0594339
0.78941 0.141649 0.0602731
0.817731 0.143969 0.0611887
0.844938 0.146471 0.0621653
0.871351 0.149462 0.0632486
0.89691 0.152529 0.0643015
0.921599 0.155718 0.0653849
0.921553 0.157916 0.065568
0.921508 0.160128 0.0657359
0.0230564 0.21735 0.082063
0.0231327 0.216693 0.0820172
0.0231327 0.216693 0.0820172
0.02327 0.215671 0.0809339
0.0234073 0.214435 0.0795605
0.023621 0.212726 0.0777142
0.0240177 0.209567 0.0747692
0.0705577 0.203525 0.0693828
0.117922 0.199634 0.0663615
0.163836 0.196048 0.0640269
0.209522 0.192645 0.06215
0.254826 0.189456 0.0607309
0.299413 0.186755 0.0599069
0.342855 0.184253 0.059144
0.38497 0.182116 0.0586252
0.426093 0.180331 0.0583047
0.467018 0.178851 0.0582742
0.507332 0.177691 0.0584573
0.546792 0.17673 0.0587015
0.585336 0.175967 0.0590219
0.622675 0.17557 0.0594797
0.65864 0.175799 0.0601816
0.693172 0.176425 0.0609293
0.725826 0.177386 0.0616617
0.756939 0.178897 0.0624704
0.786618 0.180713 0.0633249
0.814939 0.183108 0.0643015
0.8421 0.185779 0.0654002
0.86836 0.188693 0.0664073
0.89398 0.191714 0.0673991
0.919112 0.194751 0.0684367
0.920455 0.197024 0.0686503
0.920363 0.199115 0.0688029
0.0183871 0.253666 0.0843061
0.0184329 0.253269 0.0842908
0.0184176 0.253407 0.0842908
0.0184787 0.252888 0.0834669
0.018616 0.251835 0.0821241
0.0187839 0.250523 0.0804608
0.0192416 0.247593 0.0776074
0.0610513 0.242084 0.0725414
0.109819 0.23772 0.0689708
0.156222 0.234333 0.0666056
0.202411 0.231067 0.0647593
0.248157 0.22826 0.0635233
0.293004 0.225559 0.0624704
0.336767 0.223194 0.061738
0.379156 0.221317 0.061265
0.420645 0.219654 0.0609751
0.461723 0.218463 0.0611582
0.502113 0.217304 0.0612345
0.541833 0.216281 0.0614328
0.580423 0.215656 0.0617838
0.617884 0.215396 0.0623789
0.653971 0.215747 0.0630961
0.68838 0.216281 0.0637675
0.72105 0.217258 0.0644999
0.752224 0.218799 0.0653239
0.782223 0.220829 0.0663767
0.810422 0.223056 0.067277
0.837537 0.225696 0.0682231
0.86363 0.228473 0.0691691
0.889143 0.231418 0.070161
0.914076 0.234516 0.0711986
0.918914 0.23682 0.0715343
0.918837 0.238819 0.0716716
0.0133974 0.291218 0.086305
0.0134279 0.291081 0.086305
0.0133669 0.291478 0.0863203
0.0133822 0.291432 0.0858015
0.0134737 0.290761 0.0846113
0.013611 0.289647 0.0829938
0.0154879 0.286915 0.0801251
0.0501717 0.281758 0.0753338
0.100633 0.277424 0.0714733
0.148165 0.274098 0.0690318
0.194614 0.271077 0.0672465
0.24062 0.268269 0.0659037
0.285832 0.265614 0.0648203
0.329763 0.263386 0.0641184
0.37258 0.261631 0.0637827
0.414115 0.260212 0.0636301
0.455314 0.258869 0.0635691
0.495827 0.257694 0.0636454
0.535729 0.256825 0.0639048
0.574594 0.256291 0.0644846
0.612009 0.256062 0.0650034
0.648035 0.256138 0.0655833
0.682475 0.256672 0.0662699
0.715145 0.257679 0.0670176
0.74638 0.259312 0.0680095
0.776013 0.261173 0.0688945
0.804242 0.263386 0.0697795
0.831357 0.265873 0.0706645
0.857527 0.268559 0.0716106
0.882872 0.271412 0.0726177
0.907835 0.274495 0.0737316
0.917266 0.276783 0.0742199
0.917174 0.27863 0.0743267
0.0080415 0.330129 0.0883345
0.0080415 0.330129 0.0883345
0.00794995 0.3308 0.088365
0.00788891 0.331243 0.0880903
0.00793469 0.330922 0.0869612
0.00807202 0.329931 0.085359
0.0110933 0.327413 0.0825513
0.0394751 0.322576 0.0778515
0.0912947 0.318196 0.0738231
0.139345 0.314916 0.0713054
0.186435 0.311849 0.0693675
0.232593 0.308949 0.0679484
0.278035 0.306401 0.0668803
0.322499 0.304387 0.0662852
0.36524 0.302602 0.065919
0.406851 0.301183 0.0656748
0.448218 0.299809 0.0656138
0.48896 0.298726 0.0658122
0.528862 0.29781 0.0661479
0.567651 0.297261 0.0665904
0.605142 0.296864 0.0671092
0.641123 0.296834 0.0677195
0.675532 0.297429 0.068452
0.708354 0.298436 0.0693065
0.739483 0.299901 0.0701457
0.769009 0.301595 0.0709697
0.797131 0.303563 0.0718395
0.823987 0.306004 0.0727703
0.850172 0.308644 0.0737774
0.875532 0.311376 0.0747539
0.900267 0.314076 0.0757
0.915312 0.316518 0.0763409
0.915221 0.318242 0.0764172
0.00210575 0.369955 0.090425
0.00205997 0.37023 0.0904402
0.00192264 0.37116 0.090486
0.00180056 0.371954 0.0904097
0.00187686 0.37171 0.08925
0.00201419 0.371054 0.0877089
0.0047303 0.368902 0.0851453
0.0293278 0.364126 0.0803693
0.082063 0.359548 0.0761578
0.130678 0.356115 0.0734112
0.178012 0.352972 0.0713817
0.224643 0.350164 0.0699321
0.270222 0.347784 0.0690013
0.314672 0.345525 0.0683146
0.357534 0.34374 0.0678416
0.399405 0.342168 0.0675669
0.440803 0.340887 0.0675517
0.481483 0.339742 0.0678111
0.52137 0.33875 0.068101
0.560174 0.337987 0.0684672
0.597635 0.337575 0.0689555
0.633738 0.337636 0.0696422
0.668025 0.338048 0.0704204
0.70071 0.338918 0.0711681
0.731777 0.340047 0.071931
0.761166 0.341466 0.0727245
0.789258 0.343526 0.0736553
0.816098 0.345769 0.0746471
0.842084 0.348226 0.0755932
0.867262 0.350774 0.076524
0.892103 0.353582 0.0774701
0.913085 0.35613 0.078294
0.912963 0.357992 0.0783856
0 0.410346 0.0922713
0 0.41088 0.0922866
0 0.41181 0.0923171
0 0.413016 0.0923781
0 0.413016 0.0913252
0 0.412497 0.0899214
0.000503548 0.410925 0.0877699
0.0200504 0.405631 0.0825208
0.0732738 0.400946 0.0780804
0.122255 0.397314 0.0752728
0.169863 0.394293 0.0732586
0.216831 0.391363 0.0718242
0.262516 0.388907 0.0708629
0.307027 0.386557 0.0700847
0.350072 0.384726 0.0695811
0.391943 0.383124 0.0694133
0.433219 0.381796 0.0695048
0.473991 0.380484 0.0696117
0.513802 0.379324 0.0698558
0.552483 0.378439 0.0702525
0.590097 0.37792 0.0708476
0.626001 0.377783 0.0714885
0.660258 0.377966 0.0721752
0.692729 0.378546 0.0728771
0.723629 0.379568 0.0736553
0.753109 0.380941 0.0745251
0.781308 0.383017 0.0754711
0.808194 0.385031 0.0763561
0.834165 0.387564 0.0772564
0.859327 0.390234 0.0781567
0.884047 0.392935 0.0791028
0.908614 0.395758 0.0801556
0.910567 0.397711 0.0803235
0 0.451301 0.0938735
0 0.451835 0.0938888
0 0.452903 0.0939345
0 0.454231 0.0939803
0 0.45452 0.0931563
0 0.454139 0.0918746
0 0.452644 0.0898146
0.0106661 0.447196 0.0844434
0.0645914 0.442206 0.0798352
0.113939 0.438697 0.0770275
0.161975 0.435584 0.0750744
0.208911 0.432563 0.0735637
0.254658 0.429816 0.0724498
0.299168 0.427451 0.0716869
0.342321 0.425422 0.0712291
0.384146 0.423926 0.0711681
0.425467 0.422278 0.0710918
0.466102 0.420645 0.0711528
0.505913 0.419318 0.071397
0.544625 0.418418 0.0718853
0.582055 0.417731 0.0724651
0.617884 0.417258 0.0730297
0.652079 0.417395 0.0736706
0.684581 0.41796 0.0743877
0.715633 0.419074 0.075227
0.745174 0.420661 0.076173
0.773175 0.422522 0.0770275
0.800122 0.424628 0.0778668
0.826139 0.426978 0.078706
0.851347 0.429526 0.0796063
0.876234 0.432486 0.0807507
0.900771 0.435264 0.0817273
0.908171 0.437308 0.082063
0 0.492744 0.0953078
0 0.493416 0.0953231
0 0.494484 0.0953536
0 0.495827 0.0953994
0 0.4963 0.0947433
0 0.495842 0.0933852
0 0.494255 0.0913558
0.00679026 0.489128 0.0862745
0.0552682 0.483925 0.0814984
0.104799 0.480171 0.078584
0.152956 0.476799 0.0765087
0.200046 0.473518 0.0749218
0.245869 0.470619 0.0737926
0.290532 0.468193 0.073106
0.333608 0.466056 0.0727092
0.375418 0.464225 0.0724651
0.416617 0.462287 0.0723888
0.457237 0.460563 0.0725109
0.497215 0.459312 0.0729229
0.535912 0.458122 0.0733043
0.573297 0.457298 0.0737926
0.609308 0.456947 0.0743572
0.643565 0.457069 0.0749981
0.676326 0.457755 0.0758984
0.707271 0.458778 0.0766461
0.736736 0.460212 0.0774548
0.764736 0.462043 0.0782635
0.791577 0.464027 0.0790875
0.817487 0.466484 0.0799878
0.842878 0.4692 0.0810101
0.867628 0.471794 0.0819257
0.892088 0.47451 0.0828412
0.905486 0.476677 0.0833753
0 0.534386 0.0965744
0 0.535058 0.0965896
0 0.536126 0.0966201
0 0.537331 0.0966506
0 0.537926 0.0961318
0 0.537224 0.0947738
0 0.535851 0.0928206
0.00369268 0.531212 0.0883497
0.0445869 0.525536 0.0832685
0.0952773 0.521294 0.0799725
0.143297 0.517662 0.077821
0.190387 0.514229 0.0761883
0.236561 0.511284 0.0751202
0.28127 0.508537 0.0743877
0.324224 0.506142 0.0738689
0.366064 0.504097 0.0735485
0.407401 0.502144 0.0734417
0.448127 0.500557 0.0736858
0.488014 0.499184 0.0740063
0.526802 0.497963 0.0743572
0.564279 0.497139 0.074815
0.600229 0.496696 0.0754101
0.634623 0.496941 0.076173
0.667308 0.497459 0.0769513
0.69836 0.498436 0.0776837
0.727916 0.499702 0.0784314
0.755917 0.501442 0.0792706
0.782803 0.503563 0.0801251
0.808728 0.505974 0.0810864
0.833906 0.508446 0.0820325
0.858595 0.511009 0.0829175
0.883085 0.513588 0.0838178
0.902632 0.515846 0.0845655
0 0.575723 0.0976883
0 0.576394 0.0977035
0 0.577325 0.097734
0 0.578531 0.0977646
0 0.579217 0.0974289
0 0.578561 0.0961318
0 0.577142 0.0943465
0.00129702 0.572885 0.0903639
0.0330205 0.566567 0.0849622
0.0846113 0.561913 0.0814221
0.133318 0.557839 0.0790875
0.180636 0.554559 0.0775921
0.226902 0.551308 0.0764019
0.27155 0.548424 0.0755627
0.314717 0.545998 0.0749981
0.35671 0.54403 0.0747539
0.398306 0.542107 0.0746929
0.439094 0.540459 0.074876
0.47892 0.538949 0.0750744
0.5178 0.537575 0.0754101
0.555444 0.536812 0.0759442
0.591546 0.536492 0.0766613
0.625788 0.536477 0.0772869
0.658442 0.536889 0.0779736
0.689342 0.537743 0.078706
0.718791 0.539071 0.0795148
0.746944 0.540764 0.080415
0.773846 0.542809 0.0813001
0.799741 0.544915 0.0821241
0.824933 0.547311 0.0829633
0.849546 0.549599 0.0838331
0.873823 0.552193 0.0847334
0.898192 0.554818 0.0858015
0 0.616739 0.0986648
0 0.617151 0.0986801
0 0.618097 0.0987106
0 0.619181 0.0987411
0 0.619959 0.0986191
0 0.619272 0.0974899
0 0.617746 0.0957504
1.5259e-05 0.613657 0.0922103
0.0218051 0.607034 0.0865187
0.0740673 0.601968 0.0827344
0.123568 0.598032 0.0803998
0.171206 0.594385 0.0787213
0.217456 0.591058 0.0774548
0.262394 0.588129 0.0765698
0.30576 0.585687 0.0760052
0.34786 0.583673 0.0758526
0.389425 0.581735 0.0757763
0.430335 0.579904 0.0758068
0.470237 0.578241 0.0760052
0.509117 0.577096 0.0764324
0.546746 0.576242 0.076997
0.582849 0.575631 0.0775616
0.617121 0.575586 0.0781872
0.649744 0.575891 0.0788891
0.680735 0.576806 0.0796674
0.71014 0.578027 0.0804913
0.738125 0.579522 0.0813458
0.764858 0.581369 0.0821546
0.790646 0.583474 0.0829633
0.815808 0.585595 0.0838026
0.840497 0.587961 0.0847181
0.86482 0.590326 0.0856641
0.88896 0.592752 0.0866407
0 0.657237 0.0996262
0 0.657511 0.0996414
0 0.658183 0.0996414
0 0.659129 0.0996719
0 0.659937 0.0996719
0 0.659205 0.0985428
0 0.657603 0.096849
0 0.654002 0.0937819
0.0134432 0.647211 0.087953
0.0646983 0.641886 0.0839094
0.114351 0.637659 0.0814374
0.162188 0.633997 0.0796368
0.208789 0.630488 0.0783551
0.253849 0.627634 0.0775464
0.297429 0.625254 0.0770886
0.339391 0.623056 0.0767834
0.381048 0.62089 0.0766308
0.421942 0.618906 0.0766155
0.461997 0.61738 0.0769513
0.500847 0.616114 0.0773938
0.538354 0.615122 0.0778668
0.57438 0.614328 0.0783856
0.608621 0.614145 0.0789807
0.64126 0.614511 0.0797436
0.672282 0.615198 0.0805524
0.701747 0.616205 0.0813153
0.72958 0.617609 0.0820783
0.756222 0.619303 0.0828412
0.781918 0.621134 0.08365
0.807004 0.623362 0.0845502
0.831571 0.625483 0.085481
0.855787 0.627665 0.0863661
0.879957 0.629862 0.0872511
0 0.69659 0.100267
0 0.696727 0.100267
0 0.697398 0.100267
0 0.698207 0.100282
0 0.699016 0.100298
0 0.698405 0.0992599
0 0.696727 0.097612
0 0.693812 0.0949722
0.00747692 0.686824 0.0890822
0.0562142 0.681239 0.0847944
0.106126 0.676844 0.0821698
0.15433 0.672953 0.0802777
0.201007 0.669505 0.0790417
0.246204 0.666514 0.0782177
0.289631 0.664057 0.0776532
0.331777 0.661631 0.0772869
0.373373 0.659449 0.0771191
0.414282 0.657328 0.0772412
0.454353 0.655802 0.0775769
0.493156 0.654261 0.0779278
0.530556 0.653101 0.0783703
0.566613 0.652308 0.0788891
0.6009 0.65214 0.0796521
0.633448 0.652171 0.080354
0.664317 0.65275 0.0810864
0.693553 0.653605 0.0817884
0.721523 0.654826 0.0825208
0.748165 0.656291 0.0833143
0.773754 0.658106 0.0842145
0.798718 0.660151 0.085069
0.823117 0.662043 0.085893
0.847166 0.664073 0.0867323
0.871153 0.665965 0.0875715
0 0.735134 0.100801
0 0.735256 0.100801
0 0.735943 0.100816
0 0.736873 0.100816
0 0.737682 0.100832
0 0.737057 0.0998856
0 0.735668 0.0983749
0 0.73257 0.0958267
0.00341802 0.725643 0.0900282
0.0489967 0.719676 0.0855268
0.0991226 0.715236 0.0828565
0.147555 0.711238 0.0809796
0.194263 0.707866 0.0798047
0.239445 0.704707 0.0788739
0.282841 0.7019 0.078233
0.325002 0.699458 0.0778515
0.36669 0.697292 0.0778363
0.407568 0.695308 0.0779889
0.447517 0.693324 0.0781415
0.486275 0.691615 0.0784619
0.523751 0.690196 0.0788891
0.559701 0.689387 0.07953
0.593896 0.689006 0.0802014
0.626307 0.688853 0.0808576
0.657053 0.689265 0.081529
0.686198 0.689815 0.0822461
0.713939 0.690974 0.0830091
0.740551 0.692393 0.0838788
0.766232 0.69398 0.0846876
0.791028 0.695689 0.085481
0.815213 0.697398 0.0862898
0.839063 0.699123 0.0871138
0.862943 0.700771 0.0879683
0 0.77319 0.101289
0 0.773312 0.101305
0 0.773999 0.101305
0 0.774807 0.10132
0 0.775479 0.10132
0 0.775158 0.100557
0 0.773617 0.0990158
0 0.770306 0.096376
0.00129702 0.76347 0.0907149
0.0432593 0.757397 0.0860914
0.0934768 0.752865 0.0834669
0.141985 0.748806 0.0816663
0.188769 0.745083 0.080293
0.233738 0.741802 0.0793774
0.277134 0.738888 0.0787823
0.319356 0.736339 0.0784314
0.36083 0.734096 0.0784466
0.401633 0.731792 0.0784619
0.441611 0.729656 0.0786297
0.480339 0.72781 0.0789197
0.517662 0.726467 0.0794385
0.553567 0.725383 0.0800641
0.58761 0.724773 0.0806744
0.619944 0.724468 0.0813001
0.650614 0.72459 0.0819715
0.679789 0.725185 0.0827955
0.707332 0.72607 0.0835737
0.733776 0.72723 0.0843366
0.75906 0.728511 0.0850996
0.78381 0.7299 0.0858473
0.808011 0.731441 0.0866102
0.831815 0.732921 0.0874647
0.855619 0.734615 0.0884565
0 0.810788 0.101869
0 0.810788 0.101869
0 0.81146 0.101884
0 0.812146 0.101884
0 0.812833 0.1019
0 0.812299 0.101045
0 0.81062 0.0994125
0 0.807095 0.0967117
0.00047303 0.800259 0.0911421
0.038941 0.794202 0.086656
0.089189 0.789593 0.0839704
0.137316 0.785321 0.0820935
0.1841 0.781384 0.0806897
0.229084 0.778012 0.0798199
0.272511 0.775082 0.0793164
0.314565 0.772442 0.0790112
0.355947 0.769818 0.0788434
0.396674 0.767376 0.0788434
0.436454 0.765118 0.0790112
0.475303 0.763272 0.0795605
0.512398 0.761532 0.0799573
0.548119 0.760311 0.0804761
0.581994 0.759396 0.0810254
0.614298 0.75877 0.0816358
0.644892 0.75877 0.0824292
0.673823 0.759289 0.0832074
0.701259 0.759884 0.0839246
0.727489 0.760723 0.0846571
0.752651 0.761837 0.0853895
0.777157 0.762951 0.0861372
0.801144 0.764248 0.0869154
0.824964 0.765713 0.0878462
0.848615 0.766964 0.088716
0 0.847532 0.102251
0 0.847532 0.102251
0 0.848066 0.102251
0 0.848753 0.102251
0 0.849287 0.102266
0 0.848524 0.10132
0 0.846677 0.0996567
0 0.843015 0.096849
0.000518807 0.836316 0.0915236
0.0356756 0.830076 0.0870069
0.0856947 0.825162 0.0842908
0.133822 0.820813 0.0823529
0.180285 0.8168 0.0809949
0.22536 0.81326 0.0802167
0.268544 0.810117 0.0796826
0.310399 0.807263 0.0793164
0.35172 0.804501 0.0791333
0.392355 0.801831 0.0791638
0.432074 0.799496 0.0795148
0.470527 0.797436 0.079881
0.507637 0.795407 0.080293
0.543145 0.793896 0.0807813
0.57702 0.792844 0.0813306
0.609079 0.792203 0.0820478
0.639597 0.791897 0.0827955
0.668482 0.792035 0.0834821
0.695766 0.792309 0.0841535
0.721798 0.793011 0.0848707
0.746929 0.793896 0.0856336
0.771328 0.794858 0.0864881
0.795071 0.795865 0.0872358
0.818662 0.796963 0.0880903
0.842069 0.798001 0.0888685
0 0.883406 0.102464
0 0.883268 0.102464
0 0.883665 0.10248
0 0.884352 0.10248
0 0.884749 0.10248
0 0.883787 0.101488
0 0.88188 0.0998856
0 0.878004 0.0969863
0.00117494 0.871168 0.0916762
0.0332036 0.864775 0.0871443
0.0830091 0.859739 0.0844434
0.131151 0.855207 0.0825971
0.177432 0.851133 0.0813153
0.2224 0.84741 0.0804913
0.265248 0.844038 0.0798962
0.307057 0.840909 0.0794995
0.348272 0.838087 0.0793927
0.388724 0.835325 0.0796216
0.428199 0.83267 0.0798047
0.466545 0.830243 0.0800793
0.503563 0.828077 0.0804913
0.538918 0.826337 0.0810254
0.572686 0.825132 0.0816968
0.604593 0.82417 0.0823529
0.634836 0.823636 0.0830243
0.663462 0.823453 0.0836805
0.690669 0.823575 0.0843366
0.716594 0.824018 0.085069
0.741634 0.824689 0.0858778
0.765805 0.825498 0.0867018
0.789471 0.82623 0.0874342
0.812787 0.8271 0.0882124
0.836057 0.827726 0.0889754
0 0.918502 0.102434
0 0.918364 0.102434
0 0.918639 0.102434
0 0.919036 0.102434
0 0.91931 0.102434
0 0.918227 0.101442
0 0.915999 0.099794
0 0.911803 0.0966201
0.00190738 0.904936 0.0914168
