luts/Correction3.cube
LUT_3D_SIZE 6
0.000000 0.000000 0.000000
0.078349 0.000000 0.000000
0.274687 0.000000 0.000000
0.513107 0.000000 0.000000
0.746041 0.000000 0.000000
0.940801 0.000000 0.000000
0.000000 0.098538 0.000000
0.078349 0.098538 0.000000
0.274687 0.125514 0.000000
0.513107 0.143494 0.000000
0.746041 0.149481 0.000000
0.940801 0.145658 0.000000
0.000000 0.291665 0.000000
0.105570 0.291665 0.000000
0.274687 0.291665 0.000000
0.513107 0.329925 0.000000
0.746041 0.342669 0.000000
0.940801 0.334536 0.000000
0.000000 0.524821 0.000000
0.123792 0.524821 0.000000
0.313745 0.524821 0.000000
0.513107 0.524821 0.000000
0.746041 0.544673 0.000000
0.940801 0.531950 0.000000
0.000000 0.752194 0.000000
0.129895 0.752194 0.000000
0.326809 0.752194 0.000000
0.533413 0.752194 0.000000
0.746041 0.752194 0.000000
0.940801 0.734959 0.000000
0.000000 0.942336 0.000000
0.125990 0.942336 0.000000
0.318463 0.942336 0.000000
0.520426 0.942336 0.000000
0.728299 0.942336 0.000000
0.940801 0.942336 0.000000
0.000000 0.000000 0.092547
0.078349 0.000000 0.092547
0.274687 0.000000 0.119601
0.513107 0.000000 0.137667
0.746041 0.000000 0.143685
0.940801 0.000000 0.139832
0.000000 0.098538 0.092547
0.078349 0.098538 0.092547
0.274687 0.098538 0.092547
0.513107 0.098538 0.092547
0.746041 0.098538 0.092547
0.940801 0.098538 0.092547
0.000000 0.291665 0.119601
0.078349 0.291665 0.092547
0.274687 0.291665 0.092547
0.513107 0.319487 0.092547
0.746041 0.328143 0.092547
0.940801 0.319711 0.092547
0.000000 0.524821 0.137667
0.078349 0.524821 0.092547
0.303097 0.524821 0.092547
0.513107 0.524821 0.092547
0.746041 0.539526 0.092547
0.940801 0.525252 0.092547
0.000000 0.752194 0.143685
0.078349 0.752194 0.092547
0.311863 0.752194 0.092547
0.528144 0.752194 0.092547
0.746041 0.752194 0.092547
0.940801 0.732253 0.092547
0.000000 0.942336 0.139832
0.078349 0.942336 0.092547
0.303324 0.942336 0.092547
0.513534 0.942336 0.092547
0.725622 0.942336 0.092547
0.940801 0.942336 0.092547
0.000000 0.000000 0.286655
0.105570 0.000000 0.286655
0.274687 0.000000 0.286655
0.513107 0.000000 0.325130
0.746041 0.000000 0.337986
0.940801 0.000000 0.329764
0.000000 0.125514 0.286655
0.078349 0.098538 0.286655
0.274687 0.098538 0.286655
0.513107 0.098538 0.314643
0.746041 0.098538 0.323316
0.940801 0.098538 0.314912
0.000000 0.291665 0.286655
0.078349 0.291665 0.286655
0.274687 0.291665 0.286655
0.513107 0.291665 0.286655
0.746041 0.291665 0.286655
0.940801 0.291665 0.286655
0.000000 0.524821 0.325130
0.078349 0.524821 0.314643
0.274687 0.524821 0.286655
0.513107 0.524821 0.286655
0.746041 0.527482 0.286655
0.940801 0.513000 0.286655
0.000000 0.752194 0.337986
0.078349 0.752194 0.323316
0.274687 0.752194 0.286655
0.515850 0.752194 0.286655
0.746041 0.752194 0.286655
0.940801 0.727398 0.286655
0.000000 0.942336 0.329764
0.078349 0.942336 0.314912
0.274687 0.942336 0.286655
0.500992 0.942336 0.286655
0.720691 0.942336 0.286655
0.940801 0.942336 0.286655
0.000000 0.000000 0.521357
0.123792 0.000000 0.521357
0.313745 0.000000 0.521357
0.513107 0.000000 0.521357
0.746041 0.000000 0.541329
0.940801 0.000000 0.528545
0.000000 0.143494 0.521357
0.078349 0.098538 0.521357
0.303097 0.098538 0.521357
0.513107 0.098538 0.521357
0.746041 0.098538 0.536119
0.940801 0.098538 0.521763
0.000000 0.329925 0.521357
0.078349 0.319487 0.521357
0.274687 0.291665 0.521357
0.513107 0.291665 0.521357
0.746041 0.291665 0.524061
0.940801 0.291665 0.509488
0.000000 0.524821 0.521357
0.078349 0.524821 0.521357
0.274687 0.524821 0.521357
0.513107 0.524821 0.521357
0.746041 0.524821 0.521357
0.940801 0.524821 0.521357
0.000000 0.752194 0.541329
0.078349 0.752194 0.536119
0.274687 0.752194 0.524061
0.513107 0.752194 0.521357
0.746041 0.752194 0.521357
0.940801 0.732042 0.521357
0.000000 0.942336 0.528545
0.078349 0.942336 0.521763
0.274687 0.942336 0.509488
0.513107 0.942336 0.521357
0.725448 0.942336 0.521357
0.940801 0.942336 0.521357
0.000000 0.000000 0.750421
0.129895 0.000000 0.750421
0.326809 0.000000 0.750421
0.533413 0.000000 0.750421
0.746041 0.000000 0.750421
0.940801 0.000000 0.733037
0.000000 0.149481 0.750421
0.078349 0.098538 0.750421
0.311863 0.098538 0.750421
0.528144 0.098538 0.750421
0.746041 0.098538 0.750421
0.940801 0.098538 0.730280
0.000000 0.342669 0.750421
0.078349 0.328143 0.750421
0.274687 0.291665 0.750421
0.515850 0.291665 0.750421
0.746041 0.291665 0.750421
0.940801 0.291665 0.725472
0.000000 0.544673 0.750421
0.078349 0.539526 0.750421
0.274687 0.527482 0.750421
0.513107 0.524821 0.750421
0.746041 0.524821 0.750421
0.940801 0.524821 0.730067
0.000000 0.752194 0.750421
0.078349 0.752194 0.750421
0.274687 0.752194 0.750421
0.513107 0.752194 0.750421
0.746041 0.752194 0.750421
0.940801 0.752194 0.750421
0.000000 0.942336 0.733037
0.078349 0.942336 0.730280
0.274687 0.942336 0.725472
0.513107 0.942336 0.730067
0.746041 0.942336 0.750421
0.940801 0.942336 0.750421
0.000000 0.000000 0.941900
0.125990 0.000000 0.941900
0.318463 0.000000 0.941900
0.520426 0.000000 0.941900
0.728299 0.000000 0.941900
0.940801 0.000000 0.941900
0.000000 0.145658 0.941900
0.078349 0.098538 0.941899
0.303324 0.098538 0.941899
0.513534 0.098538 0.941899
0.725622 0.098538 0.941899
0.940801 0.098538 0.941899
0.000000 0.334536 0.941900
0.078349 0.319711 0.941899
0.274687 0.291665 0.941899
0.500992 0.291665 0.941899
0.720691 0.291665 0.941899
0.940801 0.291665 0.941899
0.000000 0.531950 0.941900
0.078349 0.525252 0.941899
0.274687 0.513000 0.941899
0.513107 0.524821 0.941900
0.725448 0.524821 0.941900
0.940801 0.524821 0.941900
0.000000 0.734959 0.941900
0.078349 0.732253 0.941899
0.274687 0.727398 0.941899
0.513107 0.732042 0.941900
0.746041 0.752194 0.941899
0.940801 0.752194 0.941899
0.000000 0.942336 0.941900
0.078349 0.942336 0.941899
0.274687 0.942336 0.941899
0.513107 0.942336 0.941900
0.746041 0.942336 0.941899
0.940801 0.942336 0.941899
