luts/Correction.cube
LUT_3D_SIZE 16
0.000000 0.000000 0.000000
0.000000 0.000000 0.000000
0.000000 0.000000 0.000000
0.112114 0.000000 0.000000
0.247822 0.000000 0.000000
0.376631 0.000000 0.007951
0.493970 0.013510 0.062765
0.592387 0.100663 0.116342
0.669112 0.177702 0.181583
0.725528 0.240557 0.242072
0.769471 0.293092 0.295305
0.805335 0.338199 0.342962
0.834385 0.374885 0.385084
0.853967 0.404446 0.421171
0.853918 0.414966 0.435914
0.853918 0.415777 0.439040
0.000000 0.000000 0.000000
0.000000 0.000000 0.000000
0.000000 0.000000 0.000000
0.112883 0.011339 0.000000
0.246983 0.000000 0.000000
0.375038 0.000000 0.000000
0.492339 0.019502 0.057652
0.591175 0.100675 0.114564
0.668334 0.176925 0.180450
0.725004 0.239870 0.241171
0.768949 0.292444 0.294662
0.804788 0.337721 0.342399
0.834063 0.374429 0.384588
0.853956 0.404188 0.420765
0.853918 0.414887 0.435784
0.853918 0.415777 0.438961
0.000000 0.000000 0.000000
0.000000 0.000000 0.000000
0.000000 0.000000 0.000000
0.115700 0.051256 0.000000
0.244025 0.065870 0.000000
0.368918 0.011658 0.000000
0.486294 0.040901 0.034681
0.586716 0.103696 0.107092
0.665388 0.174768 0.176064
0.722758 0.237349 0.237951
0.767100 0.290269 0.292185
0.803803 0.336272 0.340755
0.832963 0.373064 0.382950
0.853949 0.403044 0.419263
0.853918 0.414737 0.435515
0.853918 0.415778 0.438877
0.000000 0.131394 0.000000
0.000000 0.130032 0.000000
0.057931 0.124828 0.000000
0.120445 0.120706 0.000000
0.242691 0.154621 0.000000
0.362867 0.160703 0.000000
0.477892 0.147535 0.000000
0.579239 0.145055 0.087460
0.660487 0.182449 0.169630
0.719178 0.234615 0.232616
0.764312 0.286894 0.288271
0.802120 0.334175 0.338486
0.831304 0.371022 0.380576
0.853446 0.401417 0.417349
0.853918 0.414678 0.435313
0.853918 0.415797 0.438759
0.000000 0.278028 0.000000
0.000000 0.276871 0.000000
0.009824 0.272425 0.000000
0.142356 0.265098 0.000000
0.239073 0.258563 0.000000
0.356938 0.271683 0.000000
0.470576 0.268493 0.012445
0.571022 0.252618 0.088235
0.653589 0.243016 0.167063
0.714382 0.257011 0.233698
0.762069 0.284711 0.284449
0.800313 0.331792 0.335987
0.829734 0.369062 0.378452
0.852278 0.400003 0.415612
0.853918 0.414471 0.434990
0.853918 0.415798 0.438647
0.079977 0.416460 0.049802
0.080164 0.415541 0.048524
0.083352 0.412324 0.041538
0.124210 0.406437 0.016239
0.230589 0.398518 0.014417
0.346884 0.390762 0.027854
0.464039 0.388147 0.062182
0.564820 0.370868 0.112813
0.645885 0.348367 0.171668
0.706793 0.329038 0.231711
0.759317 0.323590 0.298826
0.798584 0.335303 0.335799
0.828454 0.367885 0.376752
0.851488 0.398885 0.414224
0.853918 0.414446 0.434821
0.853918 0.415805 0.438528
0.171192 0.543879 0.140453
0.170659 0.543195 0.139747
0.169333 0.540728 0.137204
0.171432 0.536960 0.132665
0.210988 0.530804 0.125115
0.318182 0.522480 0.123243
0.448764 0.514519 0.134844
0.557253 0.499080 0.167606
0.636381 0.474860 0.206841
0.698951 0.447391 0.251398
0.751448 0.414389 0.299867
0.793185 0.392085 0.348844
0.826205 0.389879 0.386752
0.850850 0.398247 0.412914
0.853918 0.414491 0.434819
0.853918 0.415790 0.438418
0.248132 0.648675 0.240777
0.247703 0.648055 0.240227
0.246330 0.646280 0.238242
0.244316 0.643348 0.235205
0.247944 0.639690 0.232421
0.291173 0.634516 0.230475
0.407589 0.627136 0.230601
0.535765 0.620289 0.243412
0.628104 0.600401 0.269026
0.693124 0.568863 0.298701
0.742674 0.537872 0.329715
0.784533 0.500140 0.361027
0.819787 0.460298 0.394812
0.848054 0.443105 0.436261
0.853918 0.415775 0.434689
0.853918 0.415764 0.438291
0.309996 0.727522 0.324488
0.309701 0.727334 0.324134
0.308786 0.726092 0.322841
0.307182 0.724131 0.320709
0.305143 0.721630 0.317859
0.311235 0.718778 0.317630
0.379571 0.713925 0.321854
0.497103 0.707752 0.324200
0.606809 0.702115 0.335506
0.683322 0.681674 0.356117
0.734518 0.650549 0.378648
0.776039 0.618078 0.400469
0.811266 0.578220 0.419913
0.841437 0.529163 0.438571
0.853946 0.470007 0.457374
0.853918 0.426528 0.443170
0.360988 0.788535 0.392942
0.360789 0.788258 0.392654
0.359814 0.787275 0.391361
0.358713 0.785837 0.389825
0.357169 0.784126 0.387756
0.356313 0.782292 0.385958
0.384179 0.779679 0.396737
0.463136 0.774802 0.396411
0.571791 0.769840 0.401393
0.662119 0.765571 0.411432
0.726483 0.747010 0.428112
0.768500 0.716492 0.445042
0.803123 0.684673 0.459775
0.832689 0.648615 0.471649
0.853717 0.601249 0.476011
0.853918 0.516518 0.464929
0.403105 0.836355 0.449063
0.402939 0.836215 0.448801
0.402297 0.835470 0.447883
0.401211 0.834393 0.446506
0.400041 0.833017 0.444952
0.398932 0.831724 0.443487
0.403021 0.830195 0.444444
0.452359 0.827336 0.460089
0.541253 0.822991 0.459951
0.630294 0.819376 0.465358
0.704680 0.816019 0.474748
0.760936 0.800145 0.487895
0.795731 0.771732 0.500298
0.825115 0.743375 0.510674
0.848137 0.713161 0.515824
0.853668 0.665034 0.499632
0.437142 0.874170 0.494299
0.437023 0.874154 0.494092
0.436551 0.873611 0.493457
0.435777 0.872709 0.492404
0.434910 0.871653 0.491291
0.434005 0.870710 0.490163
0.433325 0.869666 0.488935
0.460799 0.868004 0.503574
0.524003 0.864745 0.509896
0.605522 0.861405 0.512098
0.676832 0.858812 0.518427
0.739791 0.856037 0.526696
0.788375 0.843608 0.537085
0.818088 0.817914 0.546583
0.840991 0.794419 0.552467
0.850654 0.767860 0.546421
0.465217 0.905091 0.531551
0.465064 0.905025 0.531354
0.464663 0.904571 0.530827
0.464063 0.903902 0.530045
0.463359 0.903159 0.529196
0.462738 0.902286 0.528288
0.462090 0.901646 0.527300
0.471768 0.900564 0.532365
0.518846 0.898286 0.551719
0.588559 0.895137 0.551608
0.657065 0.892784 0.555338
0.716134 0.890760 0.561788
0.769201 0.888744 0.569357
0.811516 0.879016 0.577787
0.834813 0.858600 0.584161
0.847568 0.840330 0.583708
0.488179 0.930864 0.562276
0.488110 0.930738 0.562157
0.487863 0.930536 0.561798
0.487498 0.930042 0.561230
0.486897 0.929423 0.560488
0.486436 0.928944 0.559885
0.486019 0.928383 0.559322
0.487272 0.927786 0.559631
0.517375 0.926405 0.577843
0.578403 0.923782 0.585687
0.643293 0.921518 0.587670
0.698598 0.919808 0.592609
0.748514 0.918315 0.598712
0.793739 0.916450 0.605463
0.828585 0.912022 0.611377
0.843994 0.896692 0.614010
0.504248 0.947007 0.589680
0.504268 0.947008 0.589622
0.504272 0.946710 0.589375
0.503984 0.946616 0.588598
0.503718 0.946530 0.587883
0.503466 0.946410 0.587156
0.503095 0.946247 0.586264
0.502867 0.945931 0.585493
0.525013 0.945634 0.598413
0.579666 0.944121 0.614869
0.637000 0.942089 0.614409
0.688747 0.940496 0.616690
0.736054 0.939452 0.620892
0.778852 0.938361 0.626526
0.812936 0.937479 0.632230
0.838056 0.935923 0.636036
0.508925 0.948920 0.624425
0.508917 0.948920 0.624323
0.508882 0.948920 0.623609
0.508888 0.948920 0.622724
0.508852 0.948920 0.621425
0.508834 0.948920 0.620093
0.508865 0.948920 0.618918
0.508915 0.948920 0.617450
0.522833 0.948920 0.623281
0.591697 0.948920 0.658223
0.641993 0.948920 0.653434
0.688329 0.948920 0.649670
0.731784 0.948461 0.646743
0.771649 0.947961 0.644606
0.803744 0.947775 0.643878
0.827740 0.947402 0.646420
0.000000 0.000000 0.000000
0.000000 0.000000 0.000000
0.000000 0.000000 0.000000
0.111421 0.000000 0.000000
0.247652 0.000000 0.000000
0.376872 0.000000 0.023582
0.494299 0.012989 0.073928
0.592641 0.100852 0.123462
0.669122 0.177730 0.185138
0.725470 0.240438 0.243789
0.769231 0.293003 0.296184
0.805340 0.338141 0.343226
0.834353 0.374817 0.385127
0.853957 0.404468 0.421170
0.853918 0.414947 0.435890
0.853918 0.415777 0.439031
0.000000 0.000000 0.000000
0.000000 0.000000 0.000000
0.000000 0.000000 0.000000
0.112159 0.000000 0.000000
0.246976 0.000000 0.000000
0.375354 0.000000 0.017243
0.492794 0.018377 0.068842
0.591623 0.100795 0.121187
0.668467 0.177051 0.183655
0.724984 0.239829 0.242752
0.768904 0.292434 0.295437
0.804798 0.337773 0.342698
0.834092 0.374471 0.384636
0.853955 0.404188 0.420831
0.853918 0.414899 0.435769
0.853918 0.415777 0.438965
0.000000 0.000000 0.000000
0.000000 0.000000 0.000000
0.000000 0.000000 0.000000
0.114945 0.047244 0.000000
0.244172 0.054521 0.000000
0.369417 0.001857 0.000000
0.486903 0.038703 0.049203
0.587302 0.103270 0.113935
0.665551 0.174761 0.179193
0.722449 0.237141 0.239279
0.767125 0.290113 0.292852
0.803788 0.336268 0.341079
0.832963 0.373060 0.383062
0.853943 0.403021 0.419297
0.853918 0.414727 0.435523
0.853918 0.415777 0.438878
0.000000 0.129463 0.000000
0.000000 0.128170 0.000000
0.050690 0.122936 0.000000
0.119044 0.118799 0.000000
0.242584 0.151342 0.000000
0.363127 0.155921 0.000000
0.478344 0.142218 0.000000
0.579942 0.143377 0.094888
0.660555 0.181687 0.172298
0.718761 0.234082 0.233544
0.764102 0.286579 0.288764
0.802099 0.334104 0.338806
0.831252 0.370976 0.380712
0.853428 0.401437 0.417390
0.853918 0.414685 0.435316
0.853918 0.415792 0.438756
0.000000 0.276923 0.014027
0.000000 0.275891 0.007949
0.007937 0.271357 0.000000
0.138620 0.264182 0.000000
0.238288 0.257434 0.000000
0.356754 0.270055 0.000000
0.470704 0.266712 0.020333
0.571346 0.251075 0.092768
0.653153 0.242741 0.169230
0.713603 0.256691 0.234136
0.761680 0.284332 0.284771
0.800176 0.331589 0.336482
0.829634 0.368938 0.378468
0.852312 0.399985 0.415632
0.853918 0.414456 0.434972
0.853918 0.415793 0.438637
0.079470 0.415795 0.058855
0.079639 0.415048 0.057119
0.082586 0.411851 0.050799
0.120325 0.405826 0.023175
0.229265 0.397890 0.020999
0.346458 0.390208 0.033166
0.463907 0.387344 0.065752
0.564428 0.370260 0.114883
0.644645 0.348921 0.172300
0.705828 0.329680 0.231860
0.758937 0.323797 0.299857
0.798270 0.334969 0.336009
0.828437 0.367747 0.376688
0.851477 0.398843 0.414276
0.853918 0.414429 0.434852
0.853918 0.415805 0.438521
0.170886 0.543497 0.141670
0.170415 0.542887 0.140888
0.169036 0.540364 0.138311
0.171078 0.536723 0.133872
0.210338 0.530555 0.126056
0.317691 0.522248 0.124055
0.448438 0.514211 0.135436
0.556527 0.499056 0.167873
0.635937 0.474829 0.207829
0.698622 0.447059 0.252524
0.750902 0.415029 0.300168
0.792919 0.392372 0.349044
0.825946 0.389973 0.386796
0.850865 0.398164 0.412909
0.853918 0.414541 0.434850
0.853918 0.415786 0.438406
0.247971 0.648410 0.240705
0.247679 0.647978 0.240202
0.246206 0.646053 0.238188
0.244158 0.643095 0.235225
0.247657 0.639472 0.232521
0.290795 0.634304 0.230904
0.407135 0.626905 0.231099
0.535632 0.620108 0.243792
0.628012 0.600184 0.269276
0.692495 0.569119 0.298613
0.742099 0.538347 0.329357
0.784397 0.500325 0.360828
0.819765 0.460057 0.394727
0.848068 0.442830 0.436255
0.853918 0.415734 0.434681
0.853918 0.415786 0.438283
0.309853 0.727437 0.324339
0.309660 0.727241 0.324016
0.308597 0.725931 0.322667
0.307073 0.724005 0.320502
0.305078 0.721438 0.317808
0.311033 0.718689 0.317524
0.379154 0.713819 0.321627
0.496831 0.707732 0.323951
0.606735 0.702065 0.335391
0.682947 0.681871 0.355932
0.734033 0.650704 0.378365
0.775738 0.618112 0.400292
0.811243 0.577840 0.419653
0.841404 0.529020 0.438568
0.853945 0.469858 0.457436
0.853918 0.426504 0.443159
0.360919 0.788448 0.392785
0.360733 0.788146 0.392503
0.359762 0.787154 0.391279
0.358606 0.785753 0.389746
0.357068 0.783852 0.387641
0.356150 0.782098 0.385815
0.383722 0.779522 0.396429
0.462780 0.774782 0.396294
0.571467 0.769822 0.401292
0.661976 0.765540 0.411331
0.726239 0.746997 0.428073
0.768129 0.716653 0.444894
0.802953 0.684672 0.459713
0.832668 0.648251 0.471521
0.853732 0.600937 0.475943
0.853918 0.516219 0.464863
0.403033 0.836237 0.448911
0.402854 0.836184 0.448706
0.402206 0.835398 0.447767
0.401139 0.834341 0.446396
0.400001 0.832996 0.444875
0.398869 0.831710 0.443331
0.402873 0.830148 0.444300
0.452004 0.827242 0.460072
0.540956 0.822957 0.459832
0.630134 0.819282 0.465265
0.704608 0.815944 0.474607
0.760795 0.800137 0.487825
0.795709 0.771487 0.500165
0.825140 0.743263 0.510541
0.848204 0.712822 0.515738
0.853681 0.664871 0.499586
0.437025 0.874145 0.494130
0.436985 0.874032 0.494040
0.436530 0.873503 0.493391
0.435724 0.872736 0.492382
0.434899 0.871635 0.491186
0.433962 0.870720 0.490014
0.433212 0.869546 0.488823
0.460497 0.867943 0.503376
0.523820 0.864694 0.509807
0.605364 0.861281 0.511978
0.676853 0.858770 0.518348
0.739829 0.856025 0.526555
0.788373 0.843562 0.536926
0.818067 0.817818 0.546461
0.840988 0.794274 0.552445
0.850655 0.767780 0.546314
0.465155 0.905057 0.531422
0.465075 0.905062 0.531313
0.464611 0.904570 0.530769
0.463997 0.903847 0.529996
0.463351 0.903069 0.529116
0.462723 0.902264 0.528179
0.462021 0.901522 0.527268
0.471516 0.900458 0.532226
0.518675 0.898273 0.551614
0.588309 0.895152 0.551499
0.656972 0.892793 0.555258
0.715978 0.890749 0.561669
0.769178 0.888539 0.569290
0.811564 0.879033 0.577669
0.834800 0.858503 0.584043
0.847564 0.840133 0.583644
0.488110 0.930756 0.562149
0.488071 0.930617 0.562148
0.487791 0.930545 0.561681
0.487491 0.930112 0.561247
0.486947 0.929386 0.560524
0.486400 0.928886 0.559794
0.486011 0.928286 0.559321
0.487223 0.927570 0.559514
0.517027 0.926390 0.577641
0.578146 0.923708 0.585561
0.643072 0.921467 0.587533
0.698423 0.919705 0.592508
0.748504 0.918268 0.598601
0.793630 0.916546 0.605499
0.828548 0.912025 0.611341
0.843961 0.896694 0.613921
0.504201 0.947012 0.590157
0.504250 0.946940 0.590072
0.504211 0.946726 0.589697
0.503999 0.946571 0.588990
0.503687 0.946554 0.588230
0.503452 0.946322 0.587487
0.503043 0.946265 0.586544
0.502776 0.946066 0.585615
0.524624 0.945632 0.598356
0.579541 0.944089 0.615141
0.636872 0.942137 0.614545
0.688797 0.940476 0.616839
0.736007 0.939321 0.620856
0.778778 0.938386 0.626484
0.812938 0.937426 0.632203
0.838104 0.935923 0.636090
0.508836 0.948920 0.625374
0.508849 0.948920 0.625136
0.508840 0.948920 0.624560
0.508838 0.948920 0.623480
0.508833 0.948920 0.622285
0.508865 0.948920 0.621001
0.508820 0.948920 0.619687
0.508880 0.948920 0.618125
0.522653 0.948920 0.623942
0.591810 0.948920 0.659165
0.642004 0.948920 0.654419
0.688442 0.948920 0.650694
0.731898 0.948361 0.647706
0.771659 0.948011 0.645187
0.803765 0.947738 0.644076
0.827732 0.947579 0.646439
0.000000 0.000000 0.000000
0.000000 0.000000 0.000000
0.000000 0.000000 0.000000
0.108477 0.000000 0.000000
0.247378 0.000000 0.011155
0.377758 0.000000 0.071223
0.495380 0.011133 0.113140
0.593775 0.101508 0.151916
0.669190 0.177808 0.202400
0.725248 0.240212 0.254234
0.769200 0.292942 0.302460
0.805009 0.337901 0.346451
0.834143 0.374669 0.385564
0.853953 0.404419 0.421063
0.853918 0.414902 0.435802
0.853918 0.415777 0.439000
0.000000 0.000000 0.000000
0.000000 0.000000 0.000000
0.000000 0.000000 0.000000
0.109155 0.000000 0.000000
0.246831 0.000000 0.010745
0.376441 0.000000 0.067770
0.494098 0.015810 0.109380
0.592855 0.101391 0.149793
0.668527 0.177178 0.200851
0.724739 0.239617 0.253111
0.768699 0.292387 0.301667
0.804826 0.337518 0.345901
0.834039 0.374246 0.385125
0.853946 0.404085 0.420682
0.853918 0.414910 0.435776
0.853918 0.415777 0.438935
0.000000 0.000000 0.000000
0.000000 0.000000 0.000000
0.000000 0.000000 0.000000
0.112079 0.000000 0.000000
0.244451 0.000000 0.000000
0.371407 0.000000 0.046590
0.489531 0.032636 0.093815
0.589458 0.101460 0.141068
0.665994 0.174863 0.194513
0.722444 0.237150 0.248412
0.767155 0.290311 0.298344
0.803731 0.336200 0.344004
0.832950 0.373058 0.383660
0.853921 0.403098 0.419402
0.853918 0.414738 0.435608
0.853918 0.415776 0.438862
0.000000 0.122379 0.000000
0.000000 0.120969 0.000000
0.000000 0.115430 0.000000
0.113740 0.111356 0.000000
0.242228 0.134588 0.000000
0.364282 0.133349 0.000000
0.480367 0.116996 0.042098
0.582259 0.136761 0.125236
0.661173 0.179052 0.187639
0.718599 0.233682 0.242413
0.764126 0.286749 0.294162
0.801795 0.333741 0.341337
0.831115 0.370800 0.381120
0.853462 0.401437 0.417346
0.853918 0.414658 0.435285
0.853918 0.415779 0.438749
0.000000 0.272511 0.059009
0.000000 0.271462 0.055910
0.002296 0.267591 0.040904
0.121280 0.260221 0.000000
0.235275 0.253175 0.000000
0.356237 0.262830 0.008395
0.471524 0.258132 0.054892
0.572638 0.243848 0.117572
0.653179 0.241000 0.186743
0.713542 0.254093 0.241869
0.761336 0.284064 0.289464
0.799549 0.330947 0.338505
0.829207 0.368407 0.378514
0.852262 0.399911 0.415518
0.853918 0.414463 0.434990
0.853918 0.415785 0.438610
0.077319 0.413162 0.097067
0.077488 0.412420 0.095537
0.079347 0.409578 0.088790
0.110882 0.403383 0.066422
0.223096 0.395236 0.053564
0.344754 0.387422 0.063117
0.463474 0.383432 0.090507
0.564242 0.366493 0.134498
0.644258 0.346224 0.187322
0.706395 0.328300 0.244121
0.757323 0.322688 0.301804
0.797379 0.333714 0.337170
0.827847 0.366992 0.376546
0.851421 0.398734 0.414097
0.853918 0.414426 0.434798
0.853918 0.415800 0.438497
0.169641 0.541882 0.158225
0.169195 0.541215 0.157185
0.167901 0.539021 0.153278
0.169293 0.535289 0.149458
0.206442 0.529090 0.140818
0.315053 0.520612 0.138930
0.447299 0.512468 0.149558
0.556040 0.496580 0.179348
0.636028 0.472339 0.216084
0.698057 0.445672 0.257362
0.748406 0.417374 0.301316
0.791610 0.393414 0.350079
0.825220 0.390477 0.387098
0.850649 0.397958 0.412737
0.853918 0.414484 0.434841
0.853918 0.415786 0.438391
0.247179 0.647304 0.243587
0.246841 0.646862 0.243031
0.245597 0.645271 0.240999
0.243537 0.642307 0.237942
0.246558 0.638558 0.234957
0.289252 0.633397 0.233702
0.405572 0.625895 0.233398
0.535292 0.619055 0.245649
0.627557 0.598653 0.269777
0.690217 0.570436 0.298005
0.739827 0.540487 0.328244
0.783038 0.500838 0.359849
0.819025 0.459878 0.394283
0.847677 0.442487 0.436082
0.853918 0.415654 0.434690
0.853918 0.415802 0.438346
0.309485 0.726924 0.323950
0.309241 0.726739 0.323653
0.308303 0.725664 0.322391
0.306528 0.723417 0.319887
0.304590 0.720959 0.317282
0.310315 0.718258 0.316926
0.377404 0.713177 0.320889
0.495727 0.706998 0.323365
0.605966 0.701616 0.334748
0.681494 0.682285 0.355141
0.732808 0.651221 0.377566
0.774470 0.619101 0.399435
0.810179 0.578655 0.418988
0.841006 0.528706 0.438244
0.853943 0.469054 0.457573
0.853918 0.426292 0.443060
0.360437 0.787874 0.392200
0.360316 0.787701 0.391894
0.359508 0.786918 0.390921
0.358325 0.785347 0.389317
0.356602 0.783446 0.387060
0.355597 0.781705 0.385247
0.382235 0.779168 0.395477
0.461255 0.774237 0.395745
0.570787 0.769312 0.400729
0.661585 0.765053 0.410822
0.725283 0.747019 0.427403
0.766989 0.717484 0.444263
0.802223 0.684797 0.459076
0.832564 0.647222 0.470952
0.853706 0.599797 0.475510
0.853918 0.514842 0.464741
0.402604 0.835861 0.448350
0.402481 0.835645 0.448168
0.401978 0.835090 0.447489
0.400924 0.833953 0.446054
0.399741 0.832690 0.444565
0.398634 0.831287 0.443009
0.402387 0.829845 0.443762
0.450736 0.826954 0.459697
0.539909 0.822613 0.459379
0.629510 0.818962 0.464827
0.704157 0.815645 0.474241
0.760310 0.800152 0.487449
0.795541 0.770946 0.499629
0.825092 0.742426 0.510180
0.848290 0.712177 0.515437
0.853686 0.663616 0.499133
0.436835 0.873729 0.493772
0.436676 0.873643 0.493641
0.436296 0.873373 0.493174
0.435518 0.872453 0.492123
0.434632 0.871448 0.490918
0.433724 0.870368 0.489696
0.433029 0.869409 0.488556
0.459147 0.867718 0.502392
0.522710 0.864430 0.509489
0.604631 0.861103 0.511627
0.676279 0.858552 0.518038
0.739502 0.855709 0.526192
0.788100 0.843285 0.536638
0.817900 0.817412 0.546130
0.841053 0.793797 0.552114
0.850668 0.767191 0.546008
0.464846 0.904783 0.531013
0.464774 0.904664 0.530979
0.464476 0.904393 0.530564
0.463882 0.903717 0.529831
0.463209 0.902983 0.528910
0.462462 0.902048 0.527872
0.461819 0.901342 0.526958
0.470863 0.900280 0.531674
0.517802 0.898027 0.551452
0.587466 0.894900 0.551205
0.656394 0.892558 0.554987
0.715622 0.890557 0.561453
0.768988 0.888251 0.568939
0.811482 0.878685 0.577441
0.834638 0.858088 0.583775
0.847621 0.839813 0.583529
0.487942 0.930541 0.562411
0.487781 0.930569 0.562161
0.487677 0.930291 0.561942
0.487245 0.929845 0.561257
0.486722 0.929227 0.560549
0.486284 0.928758 0.559893
0.485800 0.928056 0.559191
0.486895 0.927537 0.559415
0.515462 0.926295 0.576617
0.577199 0.923535 0.585451
0.642456 0.921254 0.587269
0.698032 0.919604 0.592306
0.748220 0.918059 0.598410
0.793681 0.916317 0.605198
0.828539 0.911803 0.611161
0.843863 0.896380 0.613716
0.504090 0.946787 0.592176
0.504050 0.946824 0.591903
0.503998 0.946736 0.591261
0.503805 0.946580 0.590463
0.503609 0.946407 0.589622
0.503315 0.946205 0.588746
0.502896 0.946014 0.587672
0.502676 0.945869 0.586680
0.523509 0.945439 0.598511
0.579145 0.943968 0.616414
0.636492 0.941885 0.615358
0.688409 0.940341 0.617057
0.735797 0.939170 0.620897
0.778622 0.938128 0.626379
0.812915 0.937246 0.631937
0.838236 0.935669 0.635887
0.508716 0.948920 0.630130
0.508718 0.948920 0.629719
0.508727 0.948920 0.628428
0.508713 0.948920 0.627272
0.508699 0.948920 0.625848
0.508699 0.948920 0.624557
0.508733 0.948920 0.623247
0.508768 0.948920 0.621687
0.521868 0.948920 0.626908
0.592988 0.948920 0.664905
0.642815 0.948936 0.660023
0.688846 0.948920 0.655677
0.731927 0.948380 0.651569
0.771659 0.948002 0.647545
0.803659 0.947758 0.645051
0.827592 0.947372 0.646559
0.000000 0.002059 0.000000
0.006817 0.000000 0.000000
0.030788 0.000000 0.000000
0.104701 0.000000 0.009710
0.248516 0.000000 0.101339
0.378258 0.000000 0.155117
0.495820 0.007467 0.189336
0.594038 0.101666 0.213693
0.669192 0.178181 0.245703
0.725311 0.240264 0.282506
0.769154 0.292971 0.319872
0.804801 0.337561 0.355632
0.834077 0.374342 0.388844
0.853935 0.404207 0.421220
0.853918 0.414881 0.435789
0.853918 0.415777 0.438951
0.000000 0.005886 0.000000
0.003799 0.000000 0.000000
0.033263 0.000000 0.000000
0.104691 0.000000 0.011775
0.247330 0.000000 0.100764
0.376895 0.000000 0.153174
0.494869 0.010704 0.187168
0.593256 0.101329 0.212094
0.668635 0.177485 0.244146
0.724816 0.239781 0.281359
0.768687 0.292473 0.319015
0.804495 0.337091 0.355022
0.833721 0.373997 0.388371
0.853903 0.404007 0.420893
0.853918 0.414888 0.435780
0.853918 0.415776 0.438965
0.000000 0.028652 0.000000
0.000000 0.027771 0.000000
0.035568 0.000000 0.000000
0.104732 0.000000 0.019062
0.243112 0.000000 0.097063
0.372144 0.000000 0.144060
0.491193 0.021915 0.178765
0.590473 0.100918 0.205680
0.666352 0.175243 0.238214
0.723061 0.237792 0.276751
0.767308 0.290605 0.315490
0.803406 0.335769 0.352727
0.832778 0.372784 0.386795
0.853918 0.402996 0.419620
0.853918 0.414729 0.435489
0.853918 0.415776 0.438858
0.000000 0.111558 0.049761
0.000000 0.110495 0.048977
0.000000 0.105606 0.045901
0.104960 0.091845 0.049535
0.238933 0.089059 0.076730
0.365362 0.089464 0.112588
0.483139 0.096013 0.150659
0.584837 0.123685 0.189495
0.662910 0.175770 0.227899
0.720016 0.234710 0.267953
0.764904 0.287640 0.309224
0.801509 0.333405 0.348645
0.830973 0.370649 0.383937
0.853470 0.401439 0.417765
0.853918 0.414680 0.435303
0.853918 0.415808 0.438757
0.000000 0.263308 0.135267
0.000000 0.262060 0.133650
0.000000 0.257525 0.126994
0.096155 0.250372 0.103536
0.229369 0.243142 0.092861
0.355799 0.244765 0.106414
0.473197 0.238008 0.134313
0.574964 0.231107 0.179471
0.655434 0.232176 0.224778
0.715095 0.249032 0.264129
0.761615 0.284120 0.303314
0.798917 0.330192 0.345144
0.828709 0.367784 0.380903
0.852011 0.399588 0.415609
0.853918 0.414470 0.434981
0.853918 0.415800 0.438671
0.073101 0.407471 0.174239
0.073117 0.406746 0.173176
0.074605 0.403763 0.168450
0.103756 0.398110 0.154304
0.208690 0.389633 0.131371
0.341100 0.381209 0.135852
0.462980 0.374752 0.153145
0.565178 0.358566 0.185678
0.645582 0.340609 0.227260
0.707652 0.328020 0.275025
0.756766 0.318119 0.311097
0.796408 0.330575 0.342233
0.826800 0.365677 0.378510
0.850979 0.398162 0.413999
0.853918 0.414467 0.434687
0.853918 0.415807 0.438543
0.167379 0.538817 0.206127
0.166924 0.538186 0.205022
0.165464 0.535775 0.200889
0.165673 0.532205 0.193870
0.199845 0.525888 0.185844
0.310065 0.517429 0.182065
0.445713 0.509140 0.189710
0.555448 0.491985 0.213072
0.636301 0.467995 0.243563
0.698101 0.442664 0.278760
0.747818 0.416766 0.316568
0.790072 0.396445 0.359099
0.823643 0.390339 0.389018
0.850021 0.397092 0.412228
0.853918 0.414496 0.434822
0.853918 0.415781 0.438408
0.245403 0.645094 0.260499
0.245063 0.644660 0.259803
0.243977 0.643151 0.257118
0.242211 0.640821 0.252529
0.244399 0.636907 0.249498
0.287492 0.631537 0.250689
0.402807 0.623897 0.249768
0.534318 0.617127 0.260834
