luts/Correction4.cube
LUT_3D_SIZE 16
0.000000 0.000000 0.000000
0.000000 0.000000 0.000000
0.000000 0.000000 0.000000
0.000000 0.000000 0.000000
0.055143 0.000000 0.000000
0.222903 0.000000 0.001591
0.406432 0.000000 0.015328
0.565292 0.015374 0.038842
0.698285 0.057597 0.080640
0.813236 0.103369 0.127142
0.905999 0.142464 0.168349
0.922307 0.162822 0.192332
0.922307 0.163506 0.197365
0.922307 0.163499 0.200293
0.922307 0.163497 0.201930
0.922307 0.163497 0.202759
0.000000 0.000000 0.000000
0.000000 0.000000 0.000000
0.000000 0.000000 0.000000
0.000000 0.000000 0.000000
0.041050 0.000000 0.000000
0.201693 0.000000 0.000784
0.380801 0.000000 0.012691
0.539470 0.009137 0.033163
0.673084 0.048564 0.071276
0.787800 0.093006 0.116564
0.883887 0.132369 0.157565
0.922307 0.159493 0.187650
0.922307 0.163497 0.195974
0.922307 0.163499 0.199359
0.922307 0.163497 0.201401
0.922307 0.163497 0.202445
0.000000 0.000000 0.000000
0.000000 0.000000 0.000000
0.000000 0.000000 0.000000
0.000000 0.000000 0.000000
0.025161 0.001235 0.000000
0.185943 0.008445 0.000000
0.364814 0.000000 0.009579
0.523825 0.005883 0.030038
0.656162 0.042763 0.065365
0.770716 0.085945 0.109462
0.867249 0.125593 0.150328
0.922307 0.156853 0.184060
0.922307 0.163442 0.194952
0.922307 0.163496 0.198600
0.922307 0.163494 0.200881
0.922307 0.163497 0.202203
0.000000 0.000000 0.000000
0.000000 0.000000 0.000000
0.000000 0.000000 0.000000
0.000000 0.000000 0.000000
0.021963 0.015796 0.000000
0.174887 0.038769 0.000000
0.352483 0.034918 0.000000
0.512792 0.005397 0.023783
0.646375 0.039440 0.061632
0.760001 0.081539 0.105064
0.856675 0.121306 0.145817
0.922307 0.153961 0.180698
0.922307 0.163230 0.194042
0.922307 0.163496 0.198057
0.922307 0.163499 0.200601
0.922307 0.163497 0.201980
0.000000 0.093469 0.000000
0.000000 0.082397 0.000000
0.000000 0.071317 0.000000
0.000131 0.061858 0.000000
0.025439 0.053630 0.000000
0.163210 0.103219 0.000000
0.338159 0.118814 0.000000
0.499338 0.093244 0.006766
0.637268 0.049262 0.046655
0.753598 0.079023 0.101553
0.850202 0.118620 0.142954
0.922307 0.151358 0.177873
0.922307 0.163143 0.193508
0.922307 0.163496 0.197725
0.922307 0.163496 0.200326
0.922307 0.163497 0.201780
0.000000 0.256384 0.012607
0.000000 0.239495 0.009926
0.000000 0.227127 0.008145
0.000000 0.218186 0.000000
0.042397 0.207147 0.000000
0.151199 0.195164 0.000000
0.319579 0.221895 0.000733
0.480828 0.221010 0.017435
0.618919 0.193304 0.046293
0.741873 0.136030 0.085496
0.846021 0.118207 0.138462
0.922307 0.150108 0.176657
0.922307 0.163052 0.193187
0.922307 0.163496 0.197566
0.922307 0.163496 0.200124
0.922307 0.163497 0.201700
0.023575 0.417553 0.061081
0.017320 0.400669 0.053891
0.013240 0.388423 0.049081
0.010299 0.379251 0.045475
0.012105 0.371478 0.037548
0.120757 0.360419 0.026432
0.292495 0.347313 0.030493
0.456229 0.355249 0.049339
0.595176 0.347364 0.073282
0.716670 0.317722 0.100039
0.824979 0.250520 0.127528
0.917841 0.169465 0.167575
0.922307 0.163056 0.193069
0.922307 0.163507 0.197418
0.922307 0.163496 0.200062
0.922307 0.163497 0.201627
0.086081 0.554090 0.126307
0.077910 0.538235 0.118413
0.072195 0.526899 0.112767
0.068160 0.518827 0.108789
0.065120 0.512490 0.105665
0.082438 0.505622 0.095299
0.254115 0.494532 0.090777
0.423622 0.482903 0.097487
0.568288 0.483165 0.116570
0.690625 0.471771 0.136416
0.796072 0.441021 0.154101
0.890712 0.370147 0.168966
0.922307 0.236941 0.181178
0.922307 0.164250 0.197012
0.922307 0.163496 0.200006
0.922307 0.163497 0.201591
0.147675 0.669245 0.184652
0.139999 0.654687 0.177319
0.134226 0.643983 0.171762
0.130310 0.636618 0.168044
0.127277 0.631114 0.165192
0.126011 0.626420 0.162608
0.198797 0.619255 0.154251
0.388814 0.608026 0.154543
0.536011 0.598701 0.161932
0.664404 0.595910 0.177862
0.770309 0.581748 0.192466
0.862007 0.551493 0.203643
0.922307 0.487176 0.203253
0.922307 0.325347 0.184216
0.922307 0.186471 0.195526
0.922307 0.163497 0.201558
0.198669 0.766005 0.234393
0.191895 0.753002 0.227714
0.187036 0.743810 0.222893
0.183647 0.737281 0.219629
0.181132 0.732491 0.217203
0.179271 0.728907 0.215363
0.192761 0.724926 0.212396
0.337180 0.715982 0.208180
0.505448 0.707397 0.211398
0.633593 0.699449 0.218795
0.745070 0.694763 0.231355
0.836995 0.678928 0.241711
0.903431 0.651453 0.245591
0.921915 0.596998 0.232315
0.922362 0.443333 0.198589
0.922307 0.210166 0.196921
0.240200 0.846271 0.275822
0.234046 0.834181 0.269554
0.229810 0.825978 0.265350
0.226787 0.819956 0.262299
0.224457 0.815635 0.260019
0.222705 0.812211 0.258300
0.222822 0.809690 0.256925
0.297941 0.803880 0.254194
0.468364 0.795004 0.253862
0.606983 0.788668 0.258848
0.717201 0.782238 0.266053
0.814556 0.775966 0.275981
0.884891 0.761298 0.281948
0.915370 0.737108 0.278556
0.918329 0.686089 0.261251
0.922307 0.545363 0.225451
0.271102 0.907084 0.306957
0.266989 0.899213 0.302902
0.263799 0.892769 0.299649
0.261384 0.887998 0.297185
0.259553 0.884332 0.295211
0.258191 0.881773 0.293880
0.257103 0.879581 0.292738
0.284262 0.876564 0.291892
0.429448 0.869006 0.290865
0.578993 0.862740 0.293681
0.693237 0.858066 0.299589
0.789723 0.852782 0.306565
0.864688 0.846908 0.313161
0.908508 0.833694 0.314751
0.914914 0.810844 0.306846
0.916070 0.763100 0.288978
0.281657 0.911130 0.320629
0.281352 0.911130 0.317946
0.281120 0.911130 0.317391
0.280698 0.911130 0.316838
0.280429 0.911130 0.316570
0.280233 0.911130 0.316309
0.279974 0.911130 0.315965
0.292106 0.911130 0.315665
0.407488 0.911130 0.316102
0.558278 0.911130 0.317713
0.675218 0.909008 0.322690
0.771968 0.906043 0.329395
0.845426 0.903152 0.335666
0.895541 0.899118 0.339722
0.913527 0.889440 0.338065
0.914933 0.870895 0.330956
0.280264 0.911130 0.403689
0.280633 0.911130 0.380826
0.280833 0.911130 0.363371
0.281057 0.911130 0.351247
0.281130 0.911130 0.343172
0.281282 0.911130 0.339744
0.281410 0.911130 0.336709
0.286607 0.911130 0.333148
0.399371 0.911130 0.330699
0.546700 0.911130 0.326922
0.661401 0.911130 0.327644
0.757505 0.911169 0.333302
0.830374 0.911149 0.339741
0.880566 0.911130 0.345277
0.907045 0.911130 0.348351
0.912900 0.911130 0.348285
0.279342 0.911130 0.520594
0.279450 0.911130 0.499266
0.279540 0.911130 0.483326
0.279564 0.911130 0.471773
0.279704 0.911130 0.463418
0.279939 0.911130 0.457357
0.279962 0.911130 0.452169
0.304534 0.911130 0.446757
0.422173 0.911130 0.443340
0.554806 0.911130 0.438548
0.659387 0.911130 0.429697
0.749913 0.911122 0.411627
0.820611 0.911130 0.384955
0.870733 0.911130 0.363286
0.902023 0.911130 0.348645
0.910988 0.911130 0.349354
0.281118 0.911130 0.621200
0.279264 0.911130 0.601387
0.279447 0.911130 0.586572
0.279872 0.911130 0.576011
0.280709 0.911130 0.568512
0.282454 0.911130 0.562675
0.294271 0.911130 0.558254
0.351477 0.911130 0.553706
0.464517 0.911130 0.550884
0.573877 0.911068 0.550351
0.667383 0.911130 0.544783
0.748967 0.911130 0.535428
0.814322 0.911130 0.518077
0.862131 0.911130 0.484084
0.893891 0.911130 0.425163
0.909488 0.911130 0.363408
0.000000 0.000000 0.000000
0.000000 0.000000 0.000000
0.000000 0.000000 0.000000
0.000000 0.000000 0.000000
0.053496 0.000000 0.000000
0.220695 0.000000 0.004860
0.404159 0.000000 0.019453
0.563260 0.014862 0.041116
0.696568 0.057111 0.080512
0.810735 0.102376 0.126046
0.904337 0.141624 0.167486
0.922307 0.162782 0.192145
0.922307 0.163506 0.197242
0.922307 0.163499 0.200185
0.922307 0.163497 0.201882
0.922307 0.163497 0.202733
0.000000 0.000000 0.000000
0.000000 0.000000 0.000000
0.000000 0.000000 0.000000
0.000000 0.000000 0.000000
0.060864 0.000000 0.000000
0.222570 0.000000 0.001664
0.402758 0.000000 0.015192
0.558830 0.013677 0.037295
0.690291 0.054637 0.077538
0.804257 0.099698 0.123324
0.897628 0.138540 0.164181
0.922307 0.161493 0.190420
0.922307 0.163504 0.196749
0.922307 0.163497 0.199822
0.922307 0.163497 0.201702
0.922307 0.163497 0.202606
0.000000 0.000000 0.000000
0.000000 0.000000 0.000000
0.000000 0.000000 0.000000
0.000000 0.000000 0.000000
0.031355 0.000845 0.000000
0.195499 0.006826 0.000000
0.372635 0.000000 0.011041
0.529266 0.007007 0.031103
0.660731 0.044282 0.066956
0.774193 0.087274 0.110834
0.870141 0.126761 0.151599
0.922307 0.157196 0.184573
0.922307 0.163456 0.195075
0.922307 0.163496 0.198709
0.922307 0.163502 0.200954
0.922307 0.163497 0.202213
0.000000 0.000000 0.000000
0.000000 0.000000 0.000000
0.000000 0.000000 0.000000
0.000000 0.000000 0.000000
0.023224 0.015297 0.000000
0.178112 0.036322 0.000000
0.356094 0.030436 0.000000
0.515523 0.005441 0.025419
0.647844 0.039922 0.062200
0.761213 0.081992 0.105474
0.857509 0.121672 0.146155
0.922307 0.153838 0.180592
0.922307 0.163235 0.194050
0.922307 0.163496 0.198055
0.922307 0.163498 0.200623
0.922307 0.163497 0.201979
0.000000 0.088875 0.000000
0.000000 0.088763 0.000000
0.000000 0.072159 0.000000
0.000000 0.061580 0.000000
0.024356 0.052458 0.000000
0.162466 0.100877 0.000000
0.338793 0.115257 0.000000
0.499895 0.087373 0.006588
0.637664 0.047666 0.048316
0.753614 0.079023 0.101618
0.850033 0.118489 0.142867
0.922307 0.151169 0.177683
0.922307 0.163087 0.193501
0.922307 0.163497 0.197695
0.922307 0.163496 0.200289
0.922307 0.163497 0.201756
0.000000 0.249517 0.011537
0.000000 0.247231 0.011187
0.000000 0.227589 0.008205
0.000000 0.217041 0.001820
0.039422 0.205949 0.000000
0.148862 0.193059 0.000000
0.317851 0.218658 0.000378
0.480049 0.216936 0.016538
0.618099 0.187641 0.045402
0.741677 0.130943 0.085422
0.844933 0.118136 0.138116
0.921909 0.149891 0.176476
0.922307 0.163053 0.193156
0.922307 0.163504 0.197472
0.922307 0.163496 0.200077
0.922307 0.163497 0.201690
0.021272 0.411573 0.058467
0.020009 0.407983 0.056999
0.013102 0.388004 0.048920
0.009901 0.377950 0.044992
0.010674 0.369363 0.037605
0.116484 0.358046 0.025403
0.289629 0.344737 0.029503
0.453973 0.351465 0.047699
0.594090 0.343106 0.071737
0.715816 0.311877 0.098466
0.824361 0.244308 0.126837
0.915835 0.168614 0.167175
0.922307 0.162992 0.192936
0.922307 0.163508 0.197307
0.922307 0.163496 0.200006
0.922307 0.163497 0.201588
0.082867 0.548087 0.123202
0.081004 0.544290 0.121415
0.071813 0.526105 0.112367
0.067295 0.517079 0.107912
0.064012 0.510319 0.104590
0.079156 0.503483 0.094939
0.248766 0.492080 0.089237
0.420648 0.479991 0.095972
0.566051 0.479760 0.114788
0.689130 0.467726 0.134626
0.794719 0.435678 0.152340
0.889894 0.363588 0.167656
0.922307 0.231464 0.181378
0.922307 0.164892 0.196631
0.922307 0.163496 0.199926
0.922307 0.163500 0.201546
0.144863 0.664005 0.181981
0.142665 0.659930 0.179876
0.133857 0.643416 0.171392
0.129362 0.634958 0.167138
0.126195 0.628970 0.164135
0.124655 0.624259 0.161519
0.192927 0.616892 0.152988
0.384740 0.605738 0.153134
0.532932 0.595708 0.160155
0.662091 0.592987 0.176359
0.768245 0.577818 0.190583
0.860741 0.546951 0.201796
0.922307 0.482051 0.202062
0.922307 0.317717 0.183843
0.922307 0.184512 0.195884
0.922307 0.163497 0.201534
0.196008 0.760771 0.231741
0.193900 0.756786 0.229618
0.186542 0.742618 0.222450
0.182680 0.735366 0.218714
0.180116 0.730363 0.216148
0.178127 0.726677 0.214194
0.189872 0.722536 0.211185
0.330878 0.713740 0.206973
0.501468 0.704514 0.209734
0.630704 0.696936 0.217119
0.742794 0.691716 0.229751
0.835435 0.675808 0.240298
0.903037 0.647705 0.244195
0.921980 0.591432 0.230599
0.922383 0.438142 0.197614
0.922307 0.198363 0.197366
0.237659 0.841324 0.273203
0.235718 0.837385 0.271223
0.229258 0.824908 0.264770
0.225882 0.818355 0.261391
0.223348 0.813517 0.258888
0.221762 0.810215 0.257248
0.221525 0.807236 0.255641
0.292453 0.801703 0.253054
0.463120 0.792956 0.252522
0.603257 0.785962 0.257312
0.714685 0.779523 0.264590
0.812391 0.773077 0.274410
0.883944 0.758162 0.280827
0.914975 0.732861 0.277063
0.918665 0.680805 0.259467
0.922307 0.540169 0.224268
0.269459 0.903890 0.305381
0.267935 0.900852 0.303806
0.263238 0.891535 0.298961
0.260562 0.886227 0.296340
0.258545 0.882365 0.294306
0.257183 0.879789 0.292906
0.256181 0.877574 0.291896
0.280247 0.874680 0.290747
0.422715 0.867240 0.289874
0.574447 0.860740 0.292384
0.689937 0.855818 0.298228
0.787034 0.850527 0.305265
0.863250 0.844636 0.311904
0.907276 0.830858 0.313439
0.915048 0.807678 0.305646
0.916170 0.759624 0.287642
0.281509 0.911130 0.319584
0.281414 0.911130 0.318425
0.280977 0.911130 0.317299
0.280603 0.911128 0.316763
0.280353 0.911130 0.316407
0.280234 0.911130 0.316167
0.279931 0.911130 0.315835
0.290556 0.911130 0.315639
0.400083 0.911130 0.315913
0.552552 0.911130 0.317214
0.670739 0.908340 0.322183
0.768784 0.905303 0.328833
0.843591 0.902488 0.335149
0.894197 0.897989 0.339044
0.913528 0.888220 0.337719
0.914966 0.869247 0.330229
0.280226 0.911130 0.411068
0.280417 0.911130 0.391038
0.280758 0.911130 0.365027
0.281078 0.911130 0.350445
0.281081 0.911130 0.343852
0.281231 0.911130 0.340014
0.281351 0.911130 0.337032
0.285601 0.911130 0.333521
0.389943 0.911130 0.331335
0.540598 0.911130 0.327501
0.656494 0.911130 0.327811
0.753565 0.911083 0.332997
0.827971 0.911130 0.339389
0.878936 0.911130 0.344986
0.906696 0.911130 0.348129
0.913609 0.911130 0.347987
0.279322 0.911130 0.521104
0.279415 0.911130 0.505137
0.279553 0.911130 0.483073
0.279529 0.911130 0.469755
0.279794 0.911130 0.460815
0.279916 0.911130 0.454081
0.279969 0.911130 0.448729
0.299711 0.911130 0.443355
0.411849 0.911130 0.439577
0.547900 0.911130 0.435057
0.653800 0.911130 0.425891
0.745858 0.911122 0.409134
0.817778 0.911130 0.381477
0.868734 0.911130 0.361933
0.901104 0.911130 0.348643
0.910896 0.911130 0.349352
0.279642 0.911130 0.619029
0.279263 0.911130 0.604692
0.279390 0.911130 0.585157
0.279709 0.911130 0.573299
0.280265 0.911130 0.565220
0.281357 0.911130 0.559478
0.290542 0.911130 0.554747
0.342192 0.911130 0.550138
0.453666 0.911130 0.547009
0.566259 0.911117 0.546564
0.661131 0.911130 0.541036
0.744467 0.911130 0.531677
0.811307 0.911130 0.514589
0.859983 0.911130 0.481088
0.892577 0.911130 0.421837
0.909380 0.911130 0.358889
0.000000 0.000000 0.000000
0.000000 0.000000 0.000000
0.000000 0.000000 0.000000
0.000000 0.000000 0.000000
0.053374 0.000000 0.003368
0.220828 0.000000 0.022046
0.404194 0.000000 0.042551
0.562715 0.014728 0.060837
0.695949 0.056811 0.091166
0.810203 0.102212 0.127300
0.903712 0.141429 0.167223
0.922307 0.162652 0.191966
0.922307 0.163506 0.197180
0.922307 0.163499 0.200139
0.922307 0.163497 0.201861
0.922307 0.163497 0.202724
0.000000 0.000000 0.000000
0.000000 0.000000 0.000000
0.000000 0.000000 0.000000
0.000000 0.000000 0.000000
0.058792 0.000000 0.002618
0.220390 0.000000 0.018452
0.400192 0.000000 0.037330
0.556451 0.013104 0.055375
0.688182 0.053943 0.085897
0.802132 0.098704 0.122799
0.895882 0.137744 0.163292
0.922307 0.161181 0.189974
0.922307 0.163504 0.196624
0.922307 0.163498 0.199758
0.922307 0.163497 0.201644
0.922307 0.163497 0.202571
0.000000 0.000000 0.000000
0.000000 0.000000 0.000000
0.000000 0.000000 0.000000
0.000000 0.000000 0.000000
0.048877 0.000000 0.000000
0.229752 0.000000 0.009681
0.409119 0.000000 0.024026
0.562204 0.014515 0.042804
0.690569 0.054784 0.078634
0.801883 0.098808 0.122468
0.895772 0.137286 0.162861
0.922307 0.160626 0.189333
0.922307 0.163493 0.196481
0.922307 0.163498 0.199687
0.922307 0.163497 0.201548
0.922307 0.163497 0.202540
0.000000 0.000000 0.000000
0.000000 0.000000 0.000000
0.000000 0.000000 0.000000
0.000000 0.000000 0.000000
0.027864 0.012369 0.000000
0.196877 0.025071 0.000000
0.378675 0.000000 0.005910
0.534313 0.008167 0.034119
0.664060 0.045372 0.068474
0.774918 0.087610 0.111229
0.869493 0.126488 0.151307
0.922307 0.156334 0.183635
0.922307 0.163346 0.194727
0.922307 0.163496 0.198458
0.922307 0.163495 0.200853
0.922307 0.163497 0.202136
0.000000 0.081801 0.005277
0.000000 0.079602 0.003686
0.000000 0.077212 0.000000
0.000000 0.061365 0.000000
0.021188 0.048883 0.000000
0.167990 0.095516 0.000000
0.350228 0.102573 0.000000
0.512519 0.065082 0.008447
0.648621 0.045498 0.057448
0.762713 0.082662 0.105693
0.857617 0.121637 0.146139
0.922307 0.152999 0.179877
0.922307 0.163211 0.193939
0.922307 0.163493 0.197988
0.922307 0.163496 0.200439
0.922307 0.163497 0.201893
0.000000 0.244309 0.013766
0.000000 0.239498 0.012280
0.000000 0.237048 0.009674
0.000000 0.219991 0.006527
0.030942 0.205575 0.000000
0.144922 0.190182 0.000000
0.320726 0.212978 0.000060
0.486103 0.206142 0.015781
0.625496 0.170589 0.045910
0.748984 0.114297 0.088298
0.850159 0.119873 0.141146
0.921675 0.151066 0.177875
0.922307 0.163112 0.193504
0.922307 0.163503 0.197663
0.922307 0.163498 0.200207
0.922307 0.163497 0.201734
0.019636 0.406833 0.056524
0.017417 0.400742 0.053958
0.016675 0.398745 0.053145
0.010813 0.380853 0.046125
0.008572 0.370413 0.041003
0.103591 0.357253 0.024910
0.285892 0.342266 0.028438
0.455150 0.345982 0.045956
0.597341 0.334180 0.070066
0.720354 0.297648 0.097331
0.829897 0.226182 0.127989
0.916717 0.164179 0.169900
0.922307 0.163086 0.193188
0.922307 0.163494 0.197441
0.922307 0.163499 0.200055
0.922307 0.163497 0.201690
0.080834 0.543979 0.121256
0.077647 0.537782 0.118197
0.076902 0.536388 0.117444
0.068649 0.519737 0.109215
0.064297 0.510967 0.104863
0.068995 0.503621 0.098456
0.236885 0.490884 0.088222
0.417820 0.478028 0.094801
0.566342 0.475695 0.113184
0.691094 0.461450 0.133026
0.797649 0.424875 0.150479
0.893254 0.346860 0.166884
0.922307 0.216486 0.182603
0.922307 0.164860 0.196691
0.922307 0.163494 0.200000
0.922307 0.163502 0.201616
0.142497 0.659573 0.179708
0.139218 0.653297 0.176537
0.139016 0.652896 0.176358
0.130604 0.637360 0.168319
0.126445 0.629571 0.164380
0.123757 0.624066 0.161529
0.176076 0.616696 0.152601
0.376500 0.604649 0.152038
0.530794 0.594236 0.159186
0.661979 0.589722 0.174968
0.769322 0.573033 0.189178
0.862580 0.539699 0.200198
0.922307 0.468460 0.199932
0.922307 0.300641 0.184226
0.922307 0.179323 0.196852
0.922307 0.163497 0.201548
0.194058 0.757131 0.229871
0.190887 0.751004 0.226733
0.191049 0.751211 0.226843
0.183815 0.737477 0.219749
0.180332 0.730914 0.216358
0.178027 0.726435 0.214072
0.183734 0.722314 0.211400
0.317326 0.713236 0.206302
0.496116 0.703644 0.208872
0.628687 0.695139 0.216198
0.742264 0.689209 0.228658
0.835890 0.672020 0.238926
0.904263 0.642156 0.242630
0.922123 0.580204 0.227755
0.922307 0.418904 0.196365
0.922307 0.187518 0.198553
0.236017 0.837941 0.271550
0.232864 0.832069 0.268404
0.233338 0.832656 0.268886
0.226784 0.820229 0.262365
0.223560 0.813688 0.259052
0.221591 0.810124 0.257149
0.220708 0.806817 0.255466
0.279782 0.801461 0.252800
0.454587 0.792262 0.251835
0.599243 0.785073 0.256500
0.713005 0.778421 0.263891
0.811886 0.771126 0.273637
0.884412 0.755624 0.279883
0.915050 0.728903 0.275733
0.918819 0.673488 0.257170
0.922307 0.525764 0.221281
0.268125 0.901095 0.304143
0.266111 0.897093 0.301868
0.266477 0.897798 0.302258
0.261383 0.887779 0.297096
0.258764 0.882593 0.294488
0.257253 0.879802 0.292916
0.256131 0.877506 0.291745
0.272343 0.874440 0.290451
0.410891 0.867013 0.289390
0.568711 0.860339 0.291832
0.686693 0.855201 0.297528
0.785681 0.849511 0.304611
0.863265 0.843338 0.311322
0.907386 0.828772 0.312588
0.915151 0.804825 0.304535
0.916422 0.755211 0.286041
0.281304 0.911130 0.325547
0.281054 0.911130 0.322288
0.281162 0.911130 0.318508
0.280795 0.911141 0.317143
0.280447 0.911130 0.316637
0.280237 0.911130 0.316306
0.279926 0.911130 0.315873
0.286883 0.911130 0.315628
0.387747 0.911130 0.316126
0.545221 0.911130 0.317038
0.666344 0.908366 0.321964
0.766331 0.905283 0.328599
0.842907 0.902331 0.335162
0.893758 0.897582 0.338823
0.913579 0.887302 0.337253
0.914914 0.867633 0.329519
0.280219 0.911130 0.422075
0.280269 0.911130 0.407430
0.280517 0.911130 0.391800
0.280817 0.911130 0.360526
0.281073 0.911130 0.350496
0.281073 0.911130 0.345467
0.281170 0.911130 0.341424
0.283832 0.911130 0.337601
0.375342 0.911130 0.335102
0.532980 0.911130 0.329933
0.651425 0.911130 0.328782
0.750776 0.911133 0.332974
0.826640 0.911130 0.339253
0.878269 0.911130 0.344885
0.906819 0.911130 0.348103
0.913728 0.911130 0.347825
0.279324 0.911130 0.524944
0.279399 0.911130 0.510172
0.279415 0.911130 0.502837
0.279506 0.911130 0.477086
0.279673 0.911130 0.465332
0.279923 0.911130 0.457802
0.279924 0.911130 0.452159
0.293254 0.911130 0.446603
0.398094 0.911130 0.441752
0.540318 0.911130 0.437736
0.648434 0.911130 0.427952
0.742540 0.911073 0.412631
0.816261 0.911130 0.383234
0.867928 0.911130 0.362949
0.900858 0.911130 0.348819
0.910900 0.911130 0.349352
0.279339 0.911130 0.619274
0.279257 0.911130 0.604898
0.279242 0.911130 0.601205
0.279545 0.911130 0.578706
0.280005 0.911130 0.568229
0.280992 0.911130 0.561671
0.286922 0.911130 0.556511
0.331493 0.911130 0.551733
0.441622 0.911130 0.548032
0.558455 0.911150 0.547392
0.656127 0.911130 0.542381
0.741016 0.911130 0.533040
0.809315 0.911130 0.516224
0.858756 0.911130 0.483524
0.892086 0.911130 0.423607
0.909381 0.911130 0.358130
0.000000 0.000000 0.000000
0.000000 0.000000 0.000000
0.000000 0.000000 0.000000
0.000000 0.000000 0.000000
0.054229 0.000000 0.023578
0.222595 0.000000 0.063190
0.404647 0.000000 0.095244
0.562862 0.014857 0.114256
0.696234 0.056908 0.131798
0.810364 0.102189 0.150315
0.903627 0.141381 0.171268
0.922307 0.162763 0.192133
0.922307 0.163506 0.197181
0.922307 0.163499 0.200128
0.922307 0.163497 0.201860
0.922307 0.163497 0.202724
0.000000 0.000000 0.000000
0.000000 0.000000 0.000000
0.000000 0.000000 0.000000
0.000000 0.000000 0.000000
0.058497 0.000000 0.024274
0.220327 0.000000 0.058709
0.399966 0.000000 0.087658
0.556396 0.013220 0.104727
0.688132 0.053887 0.122378
0.801493 0.098537 0.142665
0.895629 0.137599 0.166191
0.922307 0.161189 0.189957
0.922307 0.163504 0.196570
0.922307 0.163497 0.199743
0.922307 0.163497 0.201616
0.922307 0.163497 0.202560
0.000000 0.000000 0.000000
0.000000 0.000000 0.000000
0.000000 0.000000 0.000000
0.000000 0.000000 0.000000
0.052368 0.000000 0.019316
0.226810 0.000000 0.050941
0.406408 0.000000 0.073918
0.559525 0.013884 0.087005
0.688281 0.053967 0.105703
0.799928 0.097866 0.131830
0.894053 0.136533 0.163118
0.922307 0.160446 0.189049
0.922307 0.163503 0.196410
0.922307 0.163499 0.199542
0.922307 0.163497 0.201495
0.922307 0.163497 0.202531
0.000000 0.000000 0.000000
0.000000 0.000000 0.000000
0.000000 0.000000 0.000000
0.000000 0.000000 0.000000
0.023238 0.000000 0.006152
0.202364 0.000000 0.028025
0.394055 0.000000 0.049146
0.556821 0.013206 0.064124
0.689412 0.054367 0.089233
0.801190 0.098418 0.123152
0.895004 0.136936 0.162392
0.922307 0.161202 0.189771
0.922307 0.163494 0.196344
0.922307 0.163496 0.199479
0.922307 0.163497 0.201404
0.922307 0.163497 0.202495
0.000000 0.072856 0.024684
0.000000 0.069980 0.022226
0.000000 0.065063 0.016682
0.000000 0.054226 0.009030
0.013021 0.039450 0.000000
0.163378 0.080530 0.000000
0.350676 0.075988 0.000000
0.525274 0.019275 0.026662
0.666343 0.046235 0.076984
0.780479 0.089903 0.114329
0.874068 0.128391 0.153362
0.922307 0.157025 0.184514
0.922307 0.163419 0.195021
0.922307 0.163496 0.198603
0.922307 0.163497 0.200873
0.922307 0.163497 0.202115
0.000000 0.238087 0.050729
0.000000 0.232978 0.045934
0.000000 0.228258 0.032120
0.000000 0.221616 0.017663
0.015245 0.204799 0.000000
0.136532 0.185459 0.000000
0.315668 0.205099 0.000000
0.497442 0.186601 0.016523
0.640616 0.138074 0.049800
0.763799 0.096128 0.100429
0.861765 0.123617 0.147314
0.922307 0.154138 0.181364
0.922307 0.163329 0.194295
0.922307 0.163504 0.198134
0.922307 0.163494 0.200523
0.922307 0.163497 0.201939
0.017929 0.402294 0.063668
0.015817 0.396201 0.060462
0.014276 0.391575 0.053421
0.012774 0.387116 0.048663
0.008656 0.372648 0.042588
0.083719 0.357484 0.024718
0.279873 0.338461 0.026826
0.458770 0.337887 0.043740
0.604939 0.318513 0.067739
0.731194 0.272202 0.096670
0.841801 0.195165 0.131379
0.919489 0.157989 0.175593
0.922307 0.163225 0.193756
0.922307 0.163502 0.197807
0.922307 0.163490 0.200302
0.922307 0.163497 0.201805
0.078799 0.540111 0.119417
0.075518 0.533626 0.116184
0.073687 0.529933 0.114339
0.072018 0.526494 0.112554
0.065779 0.513915 0.106326
0.065822 0.504307 0.099840
0.216644 0.490384 0.087399
0.413025 0.475097 0.092935
