luts/Correction2.cube
LUT_3D_SIZE 16
0.000000 0.000000 0.000000
0.000000 0.000000 0.000000
0.000000 0.000000 0.000000
0.000000 0.000000 0.000000
0.031145 0.000000 0.000000
0.171564 0.000000 0.000000
0.362035 0.000111 0.000000
0.554423 0.016981 0.002089
0.732920 0.045437 0.015017
0.890791 0.077570 0.039897
1.000020 0.106342 0.071418
1.000020 0.113224 0.083480
1.000020 0.113187 0.087550
1.000020 0.113188 0.089939
1.000020 0.113188 0.091196
1.000020 0.113188 0.091744
0.000000 0.000000 0.000000
0.000000 0.000000 0.000000
0.000000 0.000000 0.000000
0.000000 0.000000 0.000000
0.021958 0.000000 0.000000
0.153294 0.000000 0.000000
0.334743 0.000000 0.000000
0.523020 0.012946 0.001115
0.698730 0.039343 0.011430
0.856077 0.070064 0.033182
0.989520 0.099540 0.063347
1.000020 0.112836 0.081364
1.000020 0.113219 0.086257
1.000020 0.113188 0.089218
1.000020 0.113188 0.090697
1.000020 0.113188 0.091491
0.000000 0.000000 0.000000
0.000000 0.000000 0.000000
0.000000 0.000000 0.000000
0.000000 0.000000 0.000000
0.012369 0.000000 0.000000
0.139676 0.000868 0.000000
0.318268 0.000000 0.000000
0.504279 0.010760 0.000692
0.677029 0.035557 0.009455
0.833711 0.065304 0.029234
0.966890 0.094381 0.057341
1.000020 0.112374 0.079816
1.000020 0.113219 0.085320
1.000020 0.113187 0.088480
1.000020 0.113188 0.090344
1.000020 0.113188 0.091260
0.000000 0.000102 0.000000
0.000000 0.000000 0.000000
0.000000 0.000000 0.000000
0.000000 0.000000 0.000000
0.010815 0.005520 0.000000
0.130502 0.015282 0.000000
0.305617 0.013818 0.000000
0.491702 0.010198 0.000329
0.664331 0.033468 0.008312
0.819726 0.062362 0.026856
0.953153 0.091271 0.053821
1.000020 0.111061 0.077852
1.000020 0.113219 0.084643
1.000020 0.113185 0.088049
1.000020 0.113190 0.090078
1.000020 0.113188 0.091081
0.000000 0.056756 0.000000
0.000000 0.050162 0.000000
0.000000 0.043555 0.000000
0.000000 0.038052 0.000000
0.012231 0.033309 0.000000
0.120511 0.059720 0.000000
0.290599 0.075047 0.000000
0.475266 0.066349 0.000015
0.653039 0.039829 0.004877
0.811739 0.061054 0.025044
0.944011 0.089372 0.051716
1.000020 0.110196 0.076612
1.000020 0.113219 0.084259
1.000020 0.113187 0.087765
1.000020 0.113189 0.089864
1.000020 0.113188 0.090945
0.000000 0.190984 0.000000
0.000000 0.176649 0.000000
0.000000 0.166160 0.000000
0.000000 0.158744 0.000000
0.014881 0.149875 0.000000
0.108116 0.140177 0.000000
0.271361 0.168242 0.000000
0.452990 0.184204 0.000557
0.627902 0.171983 0.004788
0.795134 0.116246 0.015468
0.937996 0.092226 0.046467
1.000020 0.109751 0.075993
1.000020 0.113219 0.084040
1.000020 0.113187 0.087549
1.000020 0.113189 0.089720
1.000020 0.113188 0.090900
0.023490 0.359168 0.006665
0.018654 0.341352 0.005010
0.015362 0.328510 0.003978
0.013015 0.319259 0.003300
0.014070 0.311502 0.002408
0.088600 0.300742 0.001331
0.247410 0.287666 0.001733
0.423433 0.312647 0.005418
0.596319 0.329076 0.012097
0.757978 0.314510 0.021542
0.906137 0.244693 0.033640
1.000020 0.132134 0.057958
1.000020 0.113224 0.083933
1.000020 0.113187 0.087479
1.000020 0.113189 0.089626
1.000020 0.113188 0.090805
0.075172 0.527061 0.034633
0.068844 0.507834 0.030303
0.064486 0.494440 0.027441
0.061406 0.484759 0.025459
0.059045 0.477515 0.024035
0.071350 0.469858 0.019520
0.226129 0.456878 0.016988
0.396043 0.443790 0.019157
0.561991 0.464040 0.028763
0.722522 0.477126 0.040125
0.864365 0.459149 0.050856
0.985189 0.383231 0.058387
1.000020 0.205690 0.058257
1.000020 0.117741 0.084110
1.000020 0.113189 0.089584
1.000020 0.113188 0.090805
0.128560 0.685475 0.080713
0.122122 0.666093 0.074526
0.117411 0.652076 0.070001
0.114279 0.642734 0.067058
0.111770 0.635634 0.064741
0.110061 0.630062 0.062996
0.179559 0.620741 0.050242
0.379475 0.606813 0.050296
0.535017 0.595223 0.054997
0.687382 0.607958 0.068503
0.828243 0.614645 0.080231
0.949055 0.594628 0.088004
1.000020 0.523650 0.081278
1.000020 0.327030 0.061911
1.000020 0.134861 0.077920
1.000020 0.113188 0.090777
0.173538 0.821603 0.126077
0.167561 0.803453 0.119857
0.163340 0.790673 0.115538
0.160611 0.782289 0.112721
0.158458 0.775848 0.110571
0.157107 0.771336 0.109088
0.166122 0.766512 0.104256
0.335231 0.754201 0.091477
0.522603 0.742844 0.094180
0.663176 0.732757 0.100133
0.794792 0.736500 0.111550
0.915084 0.737690 0.120387
0.987246 0.716047 0.121300
0.995743 0.648315 0.105831
1.000020 0.463313 0.077289
1.000020 0.162197 0.068807
0.210278 0.934482 0.165354
0.205580 0.919789 0.160248
0.202036 0.909250 0.156495
0.199515 0.901222 0.153662
0.197390 0.895192 0.151424
0.196198 0.890892 0.150157
0.195187 0.887521 0.148814
0.277579 0.879301 0.130889
0.492852 0.867029 0.130772
0.649556 0.858565 0.135274
0.773556 0.850723 0.141873
0.883687 0.847304 0.150777
0.965850 0.842163 0.154795
0.988698 0.814925 0.148641
0.991541 0.751254 0.131557
0.998117 0.585655 0.098737
0.232580 0.981437 0.190141
0.231246 0.981437 0.188246
0.228954 0.981437 0.185715
0.227101 0.981618 0.183692
0.225874 0.981045 0.182559
0.225133 0.978569 0.181730
0.224464 0.976471 0.180873
0.257048 0.972174 0.169857
0.458094 0.962314 0.160924
0.629595 0.954954 0.164273
0.761012 0.948943 0.170233
0.867445 0.943293 0.176907
0.943433 0.937264 0.182594
0.983339 0.926599 0.182323
0.988204 0.899860 0.174200
0.989103 0.841514 0.156761
0.232218 0.981437 0.243557
0.232425 0.981437 0.227013
0.232567 0.981437 0.215225
0.232689 0.981437 0.207004
0.232723 0.981437 0.201802
0.232825 0.981437 0.198971
0.232896 0.981437 0.196948
0.244437 0.981437 0.191739
0.437606 0.981437 0.173737
0.612247 0.981437 0.175358
0.746524 0.981437 0.180862
0.853966 0.981437 0.188123
0.930061 0.981437 0.194582
0.977425 0.981437 0.199035
0.988947 0.978760 0.199402
0.988107 0.960288 0.193652
0.230894 0.981437 0.403407
0.231135 0.981437 0.374431
0.231245 0.981437 0.353982
0.231253 0.981437 0.338554
0.231421 0.981437 0.327654
0.231555 0.981437 0.319104
0.231659 0.981437 0.312129
0.263777 0.981437 0.297937
0.427276 0.981437 0.260799
0.597877 0.981437 0.251989
0.731219 0.981642 0.242591
0.839501 0.981633 0.220859
0.916342 0.981437 0.204660
0.966059 0.981437 0.200248
0.986447 0.981437 0.201138
0.988863 0.981540 0.201215
0.231193 0.981437 0.540578
0.230672 0.981437 0.513343
0.230679 0.981437 0.494008
0.230850 0.981437 0.479699
0.231022 0.981437 0.469720
0.231537 0.981437 0.462720
0.240821 0.981437 0.455423
0.309533 0.981437 0.439553
0.447936 0.981437 0.412757
0.589548 0.981500 0.393662
0.717940 0.981437 0.383088
0.822557 0.981437 0.365119
0.900413 0.981437 0.329252
0.953061 0.981437 0.263926
0.982883 0.981644 0.218958
0.988937 0.981437 0.201334
0.246951 0.981437 0.652290
0.243791 0.981437 0.627436
0.241835 0.981437 0.608828
0.241031 0.981437 0.596166
0.243572 0.981437 0.586595
0.254291 0.981437 0.578695
0.289941 0.981437 0.569382
0.381775 0.981437 0.554589
0.490462 0.981437 0.538630
0.598865 0.981437 0.524185
0.710788 0.980734 0.512624
0.808219 0.980096 0.501971
0.882808 0.979926 0.482788
0.937160 0.980928 0.446318
0.972311 0.981437 0.373233
0.987321 0.981437 0.245542
0.000000 0.000000 0.000000
0.000000 0.000000 0.000000
0.000000 0.000000 0.000000
0.000000 0.000000 0.000000
0.030088 0.000000 0.000000
0.169569 0.000000 0.000000
0.359487 0.000070 0.000000
0.552063 0.016644 0.002466
0.730084 0.044947 0.014977
0.887699 0.076901 0.039255
0.999860 0.105990 0.070959
1.000020 0.113165 0.083267
1.000020 0.113187 0.087430
1.000020 0.113188 0.089866
1.000020 0.113188 0.091152
1.000020 0.113188 0.091702
0.000000 0.000000 0.000000
0.000000 0.000000 0.000000
0.000000 0.000000 0.000000
0.000000 0.000000 0.000000
0.035305 0.000000 0.000000
0.171187 0.000000 0.000000
0.357758 0.000048 0.000000
0.546304 0.015848 0.001790
0.722355 0.043488 0.013827
0.879077 0.074973 0.037520
1.000020 0.104117 0.068783
1.000020 0.113048 0.082628
1.000020 0.113187 0.086961
1.000020 0.113188 0.089607
1.000020 0.113188 0.090963
1.000020 0.113188 0.091606
0.000000 0.000000 0.000000
0.000000 0.000000 0.000000
0.000000 0.000000 0.000000
0.000000 0.000000 0.000000
0.016069 0.000000 0.000000
0.147143 0.000412 0.000000
0.325404 0.000000 0.000000
0.509586 0.011356 0.000802
0.682011 0.036382 0.009906
0.837181 0.066062 0.029813
0.970508 0.095170 0.058241
1.000020 0.112416 0.079979
1.000020 0.113218 0.085424
1.000020 0.113184 0.088565
1.000020 0.113189 0.090389
1.000020 0.113188 0.091291
0.000000 0.000000 0.000000
0.000000 0.000018 0.000000
0.000000 0.000000 0.000000
0.000000 0.000000 0.000000
0.011489 0.005023 0.000000
0.132853 0.013668 0.000000
0.308539 0.011249 0.000000
0.493792 0.010281 0.000380
0.665636 0.033650 0.008424
0.820948 0.062642 0.027070
0.953021 0.091293 0.053864
1.000020 0.111017 0.077820
1.000020 0.113218 0.084642
1.000020 0.113183 0.088049
1.000020 0.113189 0.090074
1.000020 0.113188 0.091076
0.000000 0.053729 0.000000
0.000000 0.054074 0.000000
0.000000 0.044140 0.000000
0.000000 0.038008 0.000000
0.011590 0.032752 0.000000
0.119924 0.057819 0.000000
0.290953 0.071702 0.000000
0.475400 0.061571 0.000012
0.653274 0.037692 0.005408
0.811156 0.060792 0.025092
0.943239 0.089226 0.051548
1.000020 0.110042 0.076416
1.000020 0.113223 0.084215
1.000020 0.113187 0.087722
1.000020 0.113188 0.089834
1.000020 0.113188 0.090949
0.000000 0.184828 0.000000
0.000000 0.183486 0.000000
0.000000 0.166617 0.000000
0.000000 0.157905 0.000000
0.013230 0.148951 0.000000
0.106296 0.138615 0.000000
0.269694 0.165237 0.000000
0.451921 0.179898 0.000487
0.627170 0.165696 0.004558
0.794656 0.108903 0.015296
0.936319 0.091384 0.046555
1.000020 0.109549 0.075738
1.000020 0.113223 0.083983
1.000020 0.113187 0.087523
1.000020 0.113188 0.089678
1.000020 0.113188 0.090868
0.021616 0.352380 0.005999
0.020817 0.349344 0.005725
0.015327 0.328436 0.003968
0.012723 0.318016 0.003213
0.013026 0.309539 0.002352
0.084547 0.298491 0.001229
0.244530 0.285178 0.001610
0.421321 0.308820 0.005102
0.594556 0.324358 0.011587
0.756560 0.307871 0.020861
0.905461 0.235882 0.033052
1.000020 0.129973 0.058991
1.000020 0.113224 0.083829
1.000020 0.113187 0.087385
1.000020 0.113205 0.089580
1.000020 0.113188 0.090796
0.072541 0.519285 0.032818
0.071389 0.515701 0.032003
0.064222 0.493695 0.027271
0.060812 0.483004 0.025124
0.058235 0.474968 0.023523
0.069104 0.467387 0.019398
0.220829 0.454270 0.016513
0.392650 0.440665 0.018606
0.559376 0.460496 0.027982
0.720548 0.472345 0.039111
0.862330 0.453087 0.049599
0.984643 0.375221 0.057352
1.000020 0.195852 0.058131
1.000020 0.117910 0.083913
1.000020 0.113188 0.089575
1.000020 0.113188 0.090775
0.126046 0.677826 0.078277
0.124372 0.673322 0.076651
0.117119 0.651366 0.069690
0.113543 0.640683 0.066350
0.110857 0.632941 0.063872
0.109048 0.627108 0.062085
0.173732 0.617883 0.049433
0.374582 0.603857 0.049418
0.531688 0.591506 0.053886
0.684464 0.604055 0.067207
0.825984 0.609855 0.078789
0.947395 0.589245 0.086591
1.000020 0.517919 0.080230
1.000020 0.317775 0.061381
1.000020 0.130718 0.079953
1.000020 0.113188 0.090757
0.170946 0.813863 0.123402
0.169431 0.809165 0.121841
0.163048 0.789856 0.115222
0.159821 0.779916 0.111949
0.157659 0.773362 0.109714
0.156031 0.768340 0.108016
0.164531 0.763191 0.103411
0.327887 0.751101 0.090511
0.517942 0.739259 0.092995
0.659540 0.729259 0.098881
0.791616 0.732716 0.110179
0.912419 0.732870 0.118862
0.987219 0.711063 0.119991
0.996046 0.641738 0.104455
1.000020 0.453647 0.076321
1.000020 0.156415 0.070684
0.208346 0.928515 0.163266
0.206800 0.923481 0.161558
0.201610 0.907626 0.155939
0.198546 0.898359 0.152652
0.196682 0.892085 0.150620
0.195137 0.887619 0.148970
0.194110 0.884171 0.147602
0.270247 0.876281 0.129757
0.486462 0.864008 0.129533
0.645557 0.855271 0.134003
0.770193 0.847038 0.140542
0.881265 0.843669 0.149431
0.965460 0.838635 0.153738
0.988623 0.810257 0.147280
0.991818 0.745844 0.130070
0.998416 0.579769 0.097486
0.232221 0.981437 0.189895
0.231933 0.981437 0.189042
0.228510 0.981437 0.185159
0.226500 0.981437 0.183234
0.225358 0.979121 0.181989
0.224547 0.976439 0.180966
0.223776 0.974269 0.180240
0.251496 0.970350 0.170842
0.449775 0.960330 0.160074
0.624336 0.952730 0.163272
0.756166 0.946930 0.169099
0.864414 0.940774 0.175972
0.941875 0.934362 0.181532
0.982856 0.923764 0.181395
0.988477 0.896518 0.173210
0.989096 0.838335 0.155764
0.232009 0.981437 0.261002
0.232297 0.981437 0.238491
0.232677 0.981437 0.216400
0.232720 0.981437 0.205900
0.232720 0.981437 0.200681
0.232819 0.981437 0.197803
0.232787 0.981437 0.196578
0.241972 0.981437 0.192564
0.427106 0.981437 0.173710
0.606018 0.981437 0.175122
0.741037 0.981591 0.180319
0.851178 0.981437 0.187616
0.928404 0.981437 0.194127
0.975770 0.979965 0.198361
0.988564 0.975799 0.198409
0.988524 0.957495 0.192659
0.230910 0.981437 0.406165
0.231041 0.981437 0.385046
0.231246 0.981437 0.353875
0.231346 0.981437 0.336355
0.231503 0.981437 0.323788
0.231486 0.981437 0.315021
0.231627 0.981437 0.307365
0.256913 0.981437 0.294718
0.415687 0.981437 0.256620
0.590651 0.981437 0.247919
0.725766 0.981665 0.239013
0.835653 0.981437 0.220014
0.913865 0.981437 0.203542
0.964458 0.981437 0.200412
0.986411 0.981437 0.201102
0.988723 0.981437 0.201150
0.230852 0.981437 0.538214
0.230690 0.981437 0.519693
0.230711 0.981437 0.492312
0.230834 0.981437 0.476749
0.230911 0.981437 0.465816
0.231296 0.981437 0.458384
0.238260 0.981437 0.451311
0.299890 0.981437 0.436259
0.436916 0.981437 0.409160
0.581272 0.981559 0.389270
0.711154 0.981437 0.378456
0.818127 0.981437 0.360990
0.897674 0.981437 0.326112
0.951232 0.981437 0.259989
0.982698 0.981664 0.216574
0.988971 0.981437 0.201335
0.244319 0.981437 0.647993
0.242655 0.981437 0.631818
0.240059 0.981437 0.607090
0.238261 0.981437 0.592711
0.239405 0.981437 0.582746
0.248228 0.981437 0.574685
0.282165 0.981437 0.565268
0.369301 0.981437 0.550557
0.480583 0.981437 0.534049
0.590261 0.981437 0.518952
0.703888 0.980644 0.507276
0.802856 0.979779 0.496496
0.880099 0.979974 0.477880
0.935011 0.980950 0.440781
0.971156 0.981437 0.368902
0.987291 0.981437 0.247141
0.000000 0.000000 0.000000
0.000000 0.000000 0.000000
0.000000 0.000000 0.000000
0.000000 0.000000 0.000000
0.030165 0.000000 0.000000
0.169691 0.000000 0.000000
0.359636 0.000073 0.001018
0.551387 0.016567 0.006981
0.729358 0.044791 0.020297
0.887221 0.076803 0.040679
0.999730 0.105893 0.070817
1.000020 0.113176 0.083201
1.000020 0.113187 0.087344
1.000020 0.113188 0.089826
1.000020 0.113188 0.091115
1.000020 0.113188 0.091689
0.000000 0.000000 0.000000
0.000000 0.000000 0.000000
0.000000 0.000000 0.000000
0.000000 0.000000 0.000000
0.033720 0.000000 0.000000
0.169380 0.000000 0.000000
0.355345 0.000018 0.000492
0.543761 0.015523 0.005089
0.719603 0.042996 0.017206
0.876405 0.074372 0.037485
1.000020 0.103514 0.068041
1.000020 0.113031 0.082399
1.000020 0.113187 0.086864
1.000020 0.113188 0.089578
1.000020 0.113188 0.090945
1.000020 0.113188 0.091589
0.000000 0.000000 0.000000
0.000000 0.000000 0.000000
0.000000 0.000000 0.000000
0.000000 0.000000 0.000000
0.037861 0.000000 0.000000
0.186241 0.000000 0.000000
0.369813 0.000289 0.000000
0.553146 0.016739 0.002545
0.724496 0.043910 0.014247
0.877759 0.074758 0.037297
0.997163 0.102921 0.067414
1.000020 0.112979 0.082292
1.000020 0.113187 0.086799
1.000020 0.113200 0.089491
1.000020 0.113188 0.090936
1.000020 0.113188 0.091550
0.000000 0.000000 0.000000
0.000000 0.000000 0.000000
0.000000 0.000000 0.000000
0.000000 0.000000 0.000000
0.016317 0.002943 0.000000
0.152689 0.006980 0.000000
0.335430 0.000060 0.000000
0.518123 0.012418 0.001051
0.687555 0.037343 0.010391
0.839889 0.066597 0.030213
0.967107 0.094915 0.057914
1.000020 0.111665 0.079150
1.000020 0.113209 0.085227
1.000020 0.113181 0.088380
1.000020 0.113188 0.090294
1.000020 0.113188 0.091233
0.000000 0.049128 0.000000
0.000000 0.048096 0.000000
0.000000 0.048535 0.000000
0.000000 0.038994 0.000000
0.009619 0.031267 0.000000
0.125390 0.053061 0.000000
0.303738 0.060305 0.000000
0.490618 0.044567 0.000042
0.667651 0.036670 0.007468
0.823041 0.063123 0.027279
0.952902 0.091361 0.053909
1.000020 0.110582 0.077349
1.000020 0.113223 0.084583
1.000020 0.113187 0.087926
1.000020 0.113188 0.089946
1.000020 0.113188 0.091004
0.000000 0.180155 0.000000
0.000000 0.176452 0.000000
0.000000 0.176173 0.000000
0.000000 0.161528 0.000000
0.007153 0.149519 0.000000
0.102786 0.136868 0.000000
0.272815 0.159367 0.000000
0.458878 0.168611 0.000423
0.636601 0.147395 0.004570
0.806136 0.078857 0.016105
0.943544 0.090061 0.050296
1.000020 0.109965 0.076334
1.000020 0.113216 0.084203
1.000020 0.113187 0.087645
1.000020 0.113188 0.089812
1.000020 0.113188 0.090946
0.020271 0.347194 0.005543
0.018703 0.341413 0.005024
0.018548 0.340924 0.004980
0.013727 0.322057 0.003501
0.011593 0.311188 0.002691
0.071950 0.298367 0.001194
0.240820 0.283301 0.001507
0.422143 0.303172 0.004728
0.598927 0.314866 0.010957
0.763002 0.291819 0.020052
0.913252 0.210505 0.032994
1.000020 0.121541 0.065336
1.000020 0.113224 0.084011
1.000020 0.113187 0.087488
1.000020 0.113187 0.089690
1.000020 0.113188 0.090870
0.070895 0.514184 0.031682
0.068609 0.507066 0.030133
0.068558 0.507054 0.030102
0.062013 0.486747 0.025855
0.058609 0.476308 0.023783
0.062240 0.467753 0.020879
0.207917 0.453798 0.016247
0.389614 0.438575 0.018211
0.559801 0.456055 0.027158
0.723032 0.464941 0.037951
0.866671 0.441381 0.048154
0.986843 0.351703 0.056008
1.000020 0.172158 0.058913
1.000020 0.116646 0.084923
1.000020 0.113201 0.089598
1.000020 0.113188 0.090801
0.124060 0.672026 0.076314
0.121436 0.664207 0.073822
0.121629 0.664983 0.074033
0.114625 0.643792 0.067360
0.111241 0.633898 0.064187
0.108934 0.626994 0.062033
0.156294 0.618041 0.049413
0.365162 0.602708 0.048905
0.529040 0.589577 0.053268
0.684481 0.600422 0.066146
0.827357 0.604327 0.077503
0.949640 0.580198 0.084918
1.000020 0.500925 0.077812
1.000020 0.292312 0.061377
1.000020 0.123275 0.084160
1.000020 0.113188 0.090766
0.169294 0.808647 0.121608
0.166602 0.800669 0.118918
0.167112 0.802011 0.119426
0.160911 0.783098 0.112989
0.157928 0.774328 0.109993
0.155997 0.768278 0.107997
0.161676 0.762877 0.103979
0.312156 0.750641 0.090170
0.511235 0.738363 0.092333
0.657301 0.727635 0.098251
0.791073 0.729776 0.109304
0.913376 0.728669 0.117730
0.987877 0.703990 0.118296
0.996793 0.628059 0.101731
1.000020 0.428938 0.074020
1.000020 0.144865 0.076256
0.206688 0.923394 0.161575
0.204496 0.916364 0.159121
0.205008 0.918242 0.159706
0.199570 0.901468 0.153787
0.196847 0.892799 0.150796
0.195105 0.887654 0.148965
0.193877 0.883626 0.147448
0.255521 0.876122 0.129667
0.475105 0.863543 0.129104
0.640735 0.854194 0.133476
0.768174 0.845372 0.139938
0.881003 0.841478 0.148730
0.965840 0.835273 0.152783
0.988824 0.805038 0.145853
0.991775 0.737462 0.127928
0.998866 0.560896 0.094624
0.231661 0.981437 0.192498
0.230020 0.981437 0.188865
0.230494 0.981437 0.187555
0.227042 0.981437 0.183795
0.225379 0.978902 0.182052
0.224446 0.976098 0.180870
0.223637 0.973504 0.179935
0.245147 0.970087 0.172580
0.434660 0.960071 0.159912
0.617052 0.952286 0.162751
0.752553 0.946270 0.168634
0.863403 0.940118 0.175690
0.941279 0.932994 0.181102
0.982678 0.921561 0.180656
0.988447 0.893086 0.172243
0.989217 0.832897 0.154137
0.231800 0.981437 0.278277
0.231985 0.981437 0.260023
0.232150 0.981437 0.242983
0.232627 0.981437 0.212858
0.232683 0.981437 0.203984
0.232726 0.981437 0.200412
0.232673 0.981437 0.198781
0.238612 0.981437 0.195459
0.409474 0.981437 0.174857
0.597452 0.981437 0.175491
0.736064 0.981597 0.180100
0.849196 0.981437 0.187385
0.927802 0.981437 0.193994
0.975229 0.979659 0.198136
0.988478 0.974619 0.198061
0.988600 0.955520 0.192022
0.230802 0.981437 0.414744
0.230927 0.981437 0.396037
0.231057 0.981437 0.383931
0.231244 0.981437 0.347137
0.231403 0.981437 0.330922
0.231542 0.981437 0.320704
0.231564 0.981437 0.312439
0.251187 0.981437 0.300356
0.396165 0.981437 0.260181
0.580383 0.981437 0.250443
0.719455 0.981437 0.240770
0.832232 0.981437 0.223145
0.912653 0.981437 0.203758
0.963742 0.981437 0.200543
0.986431 0.981437 0.201103
0.988864 0.981437 0.201137
0.230745 0.981437 0.540385
0.230671 0.981437 0.522004
0.230671 0.981437 0.516406
0.230742 0.981437 0.484573
0.230913 0.981437 0.470214
0.231194 0.981437 0.461509
0.236246 0.981437 0.454121
0.288465 0.981437 0.440229
0.422894 0.981437 0.413497
0.570113 0.981579 0.391196
0.704345 0.981437 0.380455
0.813955 0.981437 0.363099
0.895654 0.981437 0.328991
0.950225 0.981437 0.262204
0.982467 0.981642 0.216570
0.988875 0.981437 0.201336
0.242548 0.981437 0.647075
0.240171 0.981437 0.630618
0.241327 0.981437 0.626838
0.238243 0.981437 0.599379
0.237910 0.981437 0.586376
0.244757 0.981437 0.577218
0.274032 0.981437 0.567947
0.355272 0.981437 0.553303
0.469764 0.981437 0.536479
0.581554 0.981437 0.520594
0.696844 0.980781 0.508571
0.798759 0.979832 0.497677
0.877584 0.979942 0.479217
0.933717 0.980991 0.442339
0.970715 0.981437 0.371030
0.987094 0.981437 0.249523
0.000000 0.000000 0.000000
0.000000 0.000000 0.000000
0.000000 0.000000 0.000000
0.000000 0.000000 0.000000
0.031356 0.000000 0.000031
0.171647 0.000000 0.004274
0.360411 0.000139 0.016184
0.551986 0.016761 0.034145
0.729894 0.044942 0.053587
0.887473 0.076840 0.066208
0.999796 0.105894 0.075201
1.000020 0.113176 0.083250
1.000020 0.113187 0.087351
1.000020 0.113188 0.089863
1.000020 0.113188 0.091115
1.000020 0.113188 0.091694
0.000000 0.000000 0.000000
0.000000 0.000000 0.000000
0.000000 0.000000 0.000000
0.000000 0.000000 0.000000
0.033901 0.000000 0.000035
0.169773 0.000000 0.003415
0.355167 0.000047 0.012801
0.543872 0.015663 0.027577
0.719580 0.043071 0.044906
0.876003 0.074271 0.058707
1.000020 0.103477 0.071913
1.000020 0.113029 0.082400
1.000020 0.113187 0.086847
1.000020 0.113188 0.089541
1.000020 0.113188 0.090936
1.000020 0.113188 0.091570
0.000000 0.000000 0.000000
0.000000 0.000000 0.000000
0.000000 0.000000 0.000000
0.000000 0.000000 0.000000
0.038609 0.000000 0.000021
0.182428 0.000000 0.002199
0.366361 0.000239 0.007812
0.549978 0.016358 0.016634
0.721803 0.043439 0.029312
0.875303 0.074151 0.044670
0.995828 0.102460 0.067430
1.000020 0.112927 0.082169
1.000020 0.113189 0.086681
1.000020 0.113200 0.089397
1.000020 0.113188 0.090868
1.000020 0.113188 0.091587
0.000000 0.000000 0.000000
0.000000 0.000000 0.000000
0.000000 0.000000 0.000000
0.000000 0.000000 0.000000
0.015766 0.000000 0.000000
0.172995 0.000000 0.000075
0.371984 0.000415 0.001644
0.561643 0.017933 0.006957
0.732136 0.045319 0.018211
0.882212 0.075689 0.038319
0.992361 0.103236 0.067720
1.000020 0.113021 0.082336
1.000020 0.113194 0.086685
1.000020 0.113198 0.089389
1.000020 0.113188 0.090815
1.000020 0.113188 0.091593
0.000000 0.043164 0.000105
0.000000 0.041729 0.000043
0.000000 0.040252 0.000000
0.000000 0.036115 0.000000
0.003553 0.025991 0.000000
0.127403 0.041172 0.000000
0.314121 0.036933 0.000000
0.522481 0.017702 0.001546
0.699141 0.039418 0.013123
0.851641 0.069014 0.032366
0.978869 0.097109 0.060487
1.000020 0.111972 0.079880
1.000020 0.113194 0.085505
1.000020 0.113210 0.088602
1.000020 0.113188 0.090311
1.000020 0.113188 0.091282
0.000000 0.174366 0.002527
0.000000 0.170454 0.001829
0.000000 0.168133 0.000461
0.000000 0.165751 0.000000
0.000000 0.151758 0.000000
0.094732 0.134016 0.000000
0.273461 0.150391 0.000000
0.476807 0.146795 0.000429
0.661058 0.110614 0.005343
0.827744 0.071403 0.023939
0.960860 0.093095 0.055558
1.000020 0.111117 0.078234
1.000020 0.113224 0.084873
1.000020 0.113187 0.088094
1.000020 0.113188 0.090045
1.000020 0.113188 0.091096
0.018801 0.342094 0.008473
0.017301 0.336270 0.006809
0.016493 0.333026 0.005271
0.015908 0.330786 0.004170
0.012343 0.316224 0.003088
0.052287 0.300254 0.001239
0.234188 0.280518 0.001357
0.427420 0.294260 0.004245
0.610703 0.296598 0.010150
0.779688 0.260062 0.019180
0.933200 0.159290 0.034488
1.000020 0.110491 0.075347
1.000020 0.113224 0.084469
1.000020 0.113187 0.087807
1.000020 0.113204 0.089851
1.000020 0.113188 0.090996
0.069179 0.509011 0.031755
0.066809 0.501800 0.029497
0.065873 0.498716 0.028375
0.065266 0.496897 0.027946
0.060458 0.481894 0.024861
0.058148 0.470288 0.022342
0.181544 0.454277 0.015993
0.384266 0.436166 0.017666
