luts/Corrected+LUT.cube
TITLE "Generated by Resolve"
LUT_3D_SIZE 5
0.0479591 0 0.054902
0.0974746 0 0.0405585
0.464149 0 0.0309453
0.746685 0 0.0345312
0.914611 0 0.0393378
0.0274205 0.182223 0.0795148
0.124529 0.162921 0.0634928
0.470848 0.140826 0.0553292
0.759823 0.139864 0.0594339
0.921508 0.160128 0.0657359
0 0.492744 0.0953078
0.0552682 0.483925 0.0814984
0.416617 0.462287 0.0723888
0.707271 0.458778 0.0766461
0.905486 0.476677 0.0833753
0 0.810788 0.101869
0.00047303 0.800259 0.0911421
0.355947 0.769818 0.0788434
0.644892 0.75877 0.0824292
0.848615 0.766964 0.088716
0 1 0.10309
0.0018616 1 0.0910506
0.328145 1 0.0795605
0.606775 0.987884 0.0828412
0.801846 0.984482 0.0883955
0.0481422 0 0.230426
0.110597 0 0.229129
0.462928 0 0.210208
0.744411 0 0.200122
0.916808 0 0.21004
0.027924 0.181582 0.272877
0.123095 0.163577 0.255879
0.471122 0.142565 0.235019
0.760754 0.142123 0.233967
0.923842 0.162661 0.2533
0 0.494621 0.245502
0.0553597 0.485573 0.23682
0.416205 0.462776 0.215366
0.706584 0.458701 0.211322
0.907576 0.476722 0.227054
0 0.810468 0.225483
0 0.800031 0.215854
0.353613 0.767697 0.186297
0.641611 0.754971 0.174823
0.844465 0.76141 0.180285
0 1 0.241077
0.000335698 1 0.220279
0.321508 1 0.179477
0.59997 0.981613 0.15552
0.794827 0.976898 0.148943
0.0486305 0 0.528435
0.112062 0 0.529809
0.459022 0 0.50692
0.74081 0 0.49749
0.920439 0 0.508309
0.0290379 0.179721 0.568505
0.119753 0.163302 0.553124
0.469795 0.143221 0.533898
0.760143 0.143343 0.533654
0.927382 0.163958 0.552087
0 0.495857 0.546914
0.0525063 0.486564 0.537896
0.414435 0.46276 0.516487
0.70489 0.458396 0.512825
0.911543 0.476051 0.527703
0 0.809873 0.527626
0 0.799573 0.518318
0.349813 0.765118 0.488426
0.637324 0.750576 0.476921
0.839414 0.755474 0.481209
0 1 0.539162
0 1 0.519097
0.313649 0.993866 0.478431
0.592462 0.974868 0.455863
0.787076 0.966506 0.449714
0.0491188 0 0.79855
0.11249 0 0.798138
0.457298 0 0.773404
0.739742 0 0.764492
0.923674 0 0.776608
0.0298619 0.180591 0.835203
0.119554 0.165728 0.821088
0.471199 0.146853 0.803235
0.761608 0.146975 0.803143
0.930465 0.166857 0.820737
0 0.499306 0.817121
0.052491 0.489036 0.807263
0.414832 0.464973 0.785962
0.705211 0.460502 0.782238
0.913817 0.477119 0.796277
0 0.811627 0.79736
0 0.800565 0.787655
0.348043 0.764721 0.756848
0.634882 0.748714 0.744686
0.836042 0.751934 0.747662
0 1 0.80528
0 1 0.78526
0.30811 0.990982 0.743847
0.586831 0.968246 0.720806
0.781201 0.958999 0.714382
0.0494545 0 0.95108
0.117403 0 0.936385
0.460777 0 0.928389
0.744167 0 0.932113
0.925795 0 0.937392
0.0296483 0.186481 0.975662
0.126635 0.172534 0.960571
0.477638 0.154772 0.952941
0.767712 0.155352 0.957397
0.932082 0.174136 0.963745
0 0.507897 0.985382
0.060029 0.496315 0.979644
0.42031 0.47274 0.970611
0.710063 0.467994 0.974838
0.916838 0.483696 0.98175
0 0.818753 0.97908
0 0.806363 0.974701
0.351156 0.76968 0.949844
0.636667 0.752163 0.936797
0.836789 0.753826 0.93872
0 1 0.977539
0 1 0.969573
0.307393 0.992187 0.933547
0.585306 0.967254 0.91017
0.779431 0.957443 0.90338
