luts/Correction4.cube
LUT_3D_SIZE 6
0.000000 0.000000 0.000000
0.000000 0.000000 0.000000
0.406432 0.000000 0.015328
0.813236 0.103369 0.127142
0.922307 0.163506 0.197365
0.922307 0.163497 0.202759
0.000000 0.000000 0.000000
0.000000 0.000000 0.000000
0.352483 0.034918 0.000000
0.760001 0.081539 0.105064
0.922307 0.163230 0.194042
0.922307 0.163497 0.201980
0.023575 0.417553 0.061081
0.010299 0.379251 0.045475
0.292495 0.347313 0.030493
0.716670 0.317722 0.100039
0.922307 0.163056 0.193069
0.922307 0.163497 0.201627
0.198669 0.766005 0.234393
0.183647 0.737281 0.219629
0.192761 0.724926 0.212396
0.633593 0.699449 0.218795
0.903431 0.651453 0.245591
0.922307 0.210166 0.196921
0.281657 0.911130 0.320629
0.280698 0.911130 0.316838
0.279974 0.911130 0.315965
0.558278 0.911130 0.317713
0.845426 0.903152 0.335666
0.914933 0.870895 0.330956
0.281118 0.911130 0.621200
0.279872 0.911130 0.576011
0.294271 0.911130 0.558254
0.573877 0.911068 0.550351
0.814322 0.911130 0.518077
0.909488 0.911130 0.363408
0.000000 0.000000 0.000000
0.000000 0.000000 0.000000
0.404647 0.000000 0.095244
0.810364 0.102189 0.150315
0.922307 0.163506 0.197181
0.922307 0.163497 0.202724
0.000000 0.000000 0.000000
0.000000 0.000000 0.000000
0.394055 0.000000 0.049146
0.801190 0.098418 0.123152
0.922307 0.163494 0.196344
0.922307 0.163497 0.202495
0.017929 0.402294 0.063668
0.012774 0.387116 0.048663
0.279873 0.338461 0.026826
0.731194 0.272202 0.096670
0.922307 0.163225 0.193756
0.922307 0.163497 0.201805
0.192478 0.754108 0.228359
0.187520 0.744528 0.223345
0.177267 0.722690 0.212039
0.625807 0.693491 0.215031
0.906363 0.632387 0.239910
0.922307 0.168634 0.200929
0.280709 0.911130 0.344882
0.281081 0.911130 0.319571
0.280268 0.911130 0.316226
0.531345 0.911130 0.316496
0.841503 0.901618 0.334633
0.914889 0.864341 0.328177
0.279392 0.911130 0.623653
0.279247 0.911130 0.596752
0.282767 0.911130 0.560703
0.543414 0.911130 0.549666
0.804985 0.911130 0.520041
0.909483 0.911130 0.358604
0.000000 0.000000 0.349389
0.014042 0.000000 0.364009
0.410128 0.000000 0.422220
0.808627 0.108102 0.498477
0.922307 0.164577 0.430791
0.922307 0.163497 0.202733
0.000000 0.000000 0.345475
0.000000 0.000000 0.381106
0.389655 0.000000 0.408912
0.793104 0.099932 0.440716
0.922307 0.163346 0.324483
0.922307 0.163497 0.202450
0.008133 0.366413 0.386282
0.002145 0.343402 0.367298
0.230003 0.282780 0.337560
0.752744 0.143882 0.329264
0.922307 0.163437 0.211044
0.922307 0.163497 0.202338
0.181814 0.734574 0.443128
0.175866 0.723626 0.393867
0.173190 0.718258 0.285128
0.612491 0.682646 0.236359
0.912865 0.592396 0.228961
0.922307 0.163497 0.202008
0.277193 0.911130 0.521711
0.276099 0.911130 0.475202
0.278404 0.911130 0.365530
0.446166 0.910445 0.334222
0.836318 0.897348 0.332020
0.914816 0.848086 0.321540
0.279777 0.911130 0.679187
0.279538 0.911130 0.646973
0.279449 0.911130 0.599340
0.450032 0.911130 0.574557
0.783680 0.911130 0.548833
0.908835 0.911130 0.370105
0.005441 0.000000 0.769096
0.005544 0.000000 0.774775
0.428837 0.028782 0.803586
0.799022 0.128473 0.833985
0.922307 0.182433 0.853933
0.922307 0.178049 0.785951
0.005254 0.000000 0.755643
0.005930 0.000941 0.801106
0.367759 0.019802 0.804204
0.774854 0.118580 0.813117
0.922307 0.179531 0.810862
0.922307 0.173953 0.711330
0.004797 0.263067 0.757186
0.000000 0.182586 0.761607
0.125065 0.017318 0.770545
0.736216 0.102913 0.783152
0.922307 0.176488 0.761782
0.922307 0.168572 0.586908
0.168063 0.689756 0.752518
0.160232 0.675190 0.736913
0.152198 0.659750 0.725449
0.581325 0.622086 0.702863
0.912617 0.505560 0.678766
0.922307 0.166621 0.510818
0.270366 0.901412 0.772078
0.267858 0.897284 0.744958
0.267130 0.897032 0.698823
0.350660 0.890607 0.661606
0.821396 0.869962 0.629161
0.913067 0.835767 0.413741
0.281837 0.911130 0.817039
0.281278 0.911130 0.790374
0.280358 0.911130 0.743462
0.348294 0.911130 0.702104
0.758944 0.910889 0.679753
0.904713 0.911130 0.579331
0.024666 0.033901 0.877329
0.024814 0.034047 0.877328
0.397988 0.058641 0.877328
0.803739 0.150725 0.877329
0.922307 0.195619 0.877329
0.922307 0.195457 0.877329
0.023072 0.031844 0.877329
0.026157 0.035769 0.877329
0.260109 0.044603 0.877328
0.762766 0.138793 0.877329
0.922307 0.195141 0.877329
0.922307 0.194635 0.877329
0.019209 0.133005 0.877328
0.017785 0.072164 0.877328
0.037576 0.034611 0.877328
0.698157 0.120603 0.877329
0.922307 0.194755 0.877329
0.922307 0.193450 0.877329
0.166301 0.652848 0.877329
0.154849 0.627185 0.877329
0.140784 0.593198 0.877328
0.535889 0.549988 0.877329
0.909039 0.390578 0.877329
0.922307 0.192351 0.877329
0.262115 0.868606 0.877329
0.258542 0.861070 0.877328
0.255500 0.854976 0.877329
0.293779 0.845208 0.877328
0.801339 0.822697 0.877329
0.905761 0.773828 0.877329
0.285001 0.911130 0.877329
0.284778 0.911130 0.877329
0.284546 0.911130 0.877329
0.300891 0.911130 0.877328
0.747741 0.905822 0.877329
0.891872 0.905498 0.877329
0.032544 0.192612 0.877328
0.031185 0.181859 0.877328
0.256751 0.189208 0.877329
0.760817 0.200669 0.877328
0.922307 0.195750 0.877329
0.922307 0.195698 0.877329
0.028752 0.164300 0.877329
0.037284 0.231454 0.877328
0.075615 0.217644 0.877329
0.705932 0.191056 0.877329
0.922307 0.195411 0.877329
0.922307 0.195698 0.877329
0.076281 0.417522 0.877329
0.070168 0.398546 0.877328
0.053371 0.330916 0.877329
0.613299 0.247026 0.877329
0.922307 0.191525 0.877329
0.922307 0.195698 0.877329
0.179309 0.676248 0.877329
0.168798 0.652074 0.877329
0.155661 0.621510 0.877329
0.515887 0.598315 0.877329
0.861991 0.530940 0.877329
0.922307 0.196037 0.877329
0.259912 0.859836 0.877328
0.255414 0.849815 0.877329
0.251375 0.840347 0.877329
0.325721 0.827189 0.877329
0.794215 0.815303 0.877329
0.905027 0.773190 0.877329
0.285322 0.911130 0.877329
0.284635 0.911130 0.877329
0.284361 0.911136 0.877329
0.298687 0.911092 0.877329
0.738770 0.895951 0.877329
0.885394 0.892314 0.877329
