luts/CR Magenta shadow+Lut.cube
LUT_3D_SIZE 16
0.000000 0.000000 0.000000
0.000000 0.000000 0.000000
0.006808 0.000000 0.000000
0.165172 0.000000 0.000000
0.307890 0.018911 0.020449
0.471701 0.088841 0.096040
0.628198 0.147150 0.160977
0.764999 0.194648 0.215380
0.886199 0.235206 0.263630
0.983642 0.268642 0.304988
1.000000 0.283703 0.326232
1.000000 0.284052 0.330604
1.000000 0.284034 0.333098
1.000000 0.284031 0.334408
1.000000 0.284031 0.334952
1.000000 0.284031 0.335224
0.000000 0.000000 0.000000
0.000000 0.000000 0.000000
0.006365 0.000000 0.000000
0.151277 0.000000 0.000000
0.290952 0.012548 0.012808
0.447611 0.079309 0.085501
0.601954 0.137668 0.150294
0.738047 0.185522 0.204742
0.858563 0.226151 0.252652
0.962310 0.260090 0.294306
1.000000 0.281644 0.322541
1.000000 0.284062 0.329415
1.000000 0.284036 0.332384
1.000000 0.284031 0.334007
1.000000 0.284031 0.334776
1.000000 0.284031 0.335096
0.000000 0.043783 0.000000
0.000000 0.031372 0.000000
0.021169 0.020602 0.000000
0.142867 0.029712 0.000000
0.278140 0.043778 0.011623
0.433325 0.079541 0.079417
0.586936 0.132364 0.144039
0.721051 0.179687 0.198011
0.840871 0.220274 0.245597
0.944725 0.254377 0.287208
1.000000 0.279931 0.319725
1.000000 0.284018 0.328524
1.000000 0.284047 0.331753
1.000000 0.284032 0.333685
1.000000 0.284031 0.334641
1.000000 0.284031 0.335013
0.022122 0.174157 0.014707
0.015273 0.162799 0.008689
0.033806 0.151193 0.007134
0.137923 0.142832 0.007928
0.270028 0.139412 0.033607
0.421443 0.136678 0.082340
0.575498 0.144245 0.139934
0.711610 0.176777 0.193809
0.830357 0.216673 0.241255
0.934201 0.250957 0.282965
1.000000 0.277744 0.316764
1.000000 0.283948 0.327864
1.000000 0.284047 0.331356
1.000000 0.284032 0.333436
1.000000 0.284031 0.334506
1.000000 0.284031 0.334952
0.093938 0.309474 0.095762
0.086997 0.295306 0.087786
0.082781 0.284616 0.081743
0.122939 0.274901 0.077529
0.252600 0.264289 0.083111
0.406520 0.256336 0.108599
0.559323 0.242129 0.147176
0.698338 0.219454 0.190473
0.823421 0.216649 0.237062
0.927866 0.248878 0.280277
0.999731 0.276165 0.314704
1.000000 0.283910 0.327475
1.000000 0.284047 0.331105
1.000000 0.284032 0.333261
1.000000 0.284031 0.334417
1.000000 0.284031 0.334918
0.163394 0.460955 0.176314
0.155439 0.443066 0.167036
0.150246 0.431312 0.160977
0.149155 0.422335 0.156302
0.214801 0.411383 0.152545
0.379644 0.398168 0.159108
0.537907 0.386320 0.180066
0.675891 0.363908 0.206164
0.803145 0.319985 0.236144
0.919608 0.269089 0.273825
0.998135 0.275386 0.313218
1.000000 0.283892 0.327285
1.000000 0.284047 0.330941
1.000000 0.284032 0.333164
1.000000 0.284031 0.334367
1.000000 0.284031 0.334893
0.222663 0.600045 0.245891
0.215374 0.582631 0.237308
0.210453 0.570819 0.231509
0.207032 0.562782 0.227491
0.212629 0.555254 0.223778
0.333828 0.543529 0.221492
0.505936 0.530396 0.229044
0.648808 0.518168 0.244852
0.774334 0.494604 0.262791
0.889093 0.442174 0.280822
0.987143 0.345459 0.304593
1.000000 0.284102 0.326009
1.000000 0.284050 0.330858
1.000000 0.284032 0.333096
1.000000 0.284031 0.334343
1.000000 0.284031 0.334872
0.271910 0.720298 0.304075
0.265358 0.703991 0.296313
0.260675 0.692516 0.290781
0.257533 0.684810 0.287058
0.255292 0.679151 0.284361
0.291437 0.671715 0.280918
0.464956 0.659285 0.280995
0.617691 0.648063 0.289038
0.746665 0.636368 0.301671
0.858786 0.613247 0.314169
0.959096 0.562582 0.323532
0.999953 0.431674 0.320516
1.000000 0.301886 0.327340
1.000000 0.284081 0.333056
1.000000 0.284031 0.334328
1.000000 0.284031 0.334858
0.313973 0.825016 0.353933
0.307892 0.809686 0.346709
0.303720 0.799283 0.341770
0.300904 0.792169 0.338417
0.298847 0.787191 0.335992
0.299240 0.782799 0.333947
0.410447 0.773181 0.330645
0.583204 0.762604 0.333688
0.717020 0.753192 0.341709
0.831144 0.741574 0.351934
0.930455 0.719135 0.360473
0.991991 0.673366 0.358713
0.999717 0.543738 0.333589
1.000000 0.335064 0.329635
1.000000 0.284031 0.334313
1.000000 0.284031 0.334857
0.348836 0.912560 0.395322
0.343245 0.898575 0.388679
0.339460 0.889090 0.384190
0.337021 0.882837 0.381289
0.335096 0.878162 0.379023
0.333862 0.874823 0.377529
0.373006 0.869331 0.374899
0.542318 0.858970 0.373903
0.687723 0.851121 0.379185
0.804428 0.843140 0.386982
0.904636 0.832204 0.395304
0.975956 0.812956 0.399077
0.992681 0.771420 0.388231
0.997962 0.655767 0.357977
1.000000 0.351354 0.335283
1.000000 0.284079 0.334856
0.376508 0.982660 0.428220
0.372602 0.972826 0.423575
0.369643 0.965277 0.420052
0.367469 0.959703 0.417460
0.365893 0.955769 0.415588
0.364798 0.953006 0.414290
0.370013 0.950281 0.413008
0.496581 0.941908 0.410277
0.657081 0.934253 0.412969
0.779080 0.928520 0.419217
0.880624 0.921336 0.426316
0.955474 0.911421 0.431456
0.987543 0.893423 0.429133
0.990338 0.855794 0.416296
0.994123 0.756255 0.386261
0.999980 0.425684 0.342213
0.389040 1.000000 0.445341
0.388468 1.000000 0.442963
0.387579 1.000000 0.441737
0.386907 0.999917 0.440831
0.386411 0.999070 0.440171
0.386114 0.998457 0.439767
0.386037 0.997797 0.439252
0.470284 0.995582 0.436990
0.632917 0.992685 0.437939
0.758705 0.988852 0.443086
0.861624 0.985205 0.450016
0.936780 0.981180 0.456075
0.980806 0.974180 0.458447
0.989042 0.960936 0.454392
0.989308 0.932214 0.443721
0.990910 0.845757 0.413514
0.388151 1.000000 0.521032
0.388399 1.000000 0.498040
0.388586 1.000000 0.481277
0.388718 1.000000 0.470075
0.388834 1.000000 0.464219
0.388913 1.000000 0.461117
0.389047 1.000000 0.457875
0.457374 1.000000 0.452459
0.620675 1.000000 0.448422
0.745575 1.000000 0.449628
0.848358 0.999987 0.455801
0.923445 0.999880 0.462435
0.971688 0.999714 0.467670
0.988404 0.999256 0.469261
0.989276 0.997452 0.468422
0.989252 0.982041 0.462522
0.387253 1.000000 0.650387
0.387285 1.000000 0.627116
0.387337 1.000000 0.610213
0.387435 1.000000 0.598707
0.387591 1.000000 0.590452
0.387682 1.000000 0.584595
0.393131 1.000000 0.578509
0.484498 1.000000 0.569915
0.626348 1.000000 0.560680
0.741873 1.000000 0.551066
0.839860 0.999957 0.529786
0.913474 1.000000 0.501231
0.962160 1.000000 0.474959
0.986868 1.000000 0.469764
0.989349 1.000000 0.470067
0.989337 1.000000 0.469965
0.389568 1.000000 0.764786
0.387357 1.000000 0.743413
0.387553 1.000000 0.727779
0.388277 1.000000 0.717558
0.389974 1.000000 0.710088
0.395728 1.000000 0.704587
0.437202 1.000000 0.698624
0.540503 1.000000 0.691693
0.648806 0.999958 0.685239
0.750751 0.998626 0.678797
0.838022 0.998024 0.668363
0.905938 0.998333 0.648766
0.952790 0.999027 0.607006
0.981848 0.999987 0.521081
0.989333 1.000000 0.470897
0.989349 1.000000 0.470070
0.496262 1.000000 0.858666
0.463834 1.000000 0.839817
0.441931 1.000000 0.826960
0.432860 1.000000 0.817915
0.446344 1.000000 0.810614
0.483689 1.000000 0.804597
0.543752 1.000000 0.799057
0.611936 1.000000 0.794882
0.687920 0.998652 0.790622
0.768619 0.997401 0.786566
0.843151 0.996853 0.780642
0.902351 0.996975 0.770745
0.945820 0.997337 0.750791
0.974226 0.998025 0.708659
0.986472 0.999254 0.612098
0.989038 1.000000 0.486248
0.000000 0.000000 0.000000
0.000000 0.000000 0.000000
0.006840 0.000000 0.000000
0.163966 0.000000 0.000288
0.306216 0.018167 0.029669
0.469501 0.088002 0.100281
0.626209 0.146446 0.162844
0.763281 0.194174 0.215428
0.883680 0.234366 0.262602
0.982023 0.268007 0.304188
1.000000 0.283654 0.326063
1.000000 0.284052 0.330498
1.000000 0.284034 0.333038
1.000000 0.284031 0.334377
1.000000 0.284031 0.334937
1.000000 0.284031 0.335209
0.000000 0.000000 0.000000
0.000000 0.000000 0.000000
0.005513 0.000000 0.000000
0.148760 0.000000 0.000009
0.288622 0.011556 0.017393
0.444978 0.078219 0.087912
0.599841 0.136889 0.151118
0.735508 0.184621 0.203868
0.856321 0.225385 0.251744
0.960513 0.259478 0.293559
1.000000 0.281479 0.322261
1.000000 0.284052 0.329356
1.000000 0.284047 0.332327
1.000000 0.284031 0.333982
1.000000 0.284031 0.334769
1.000000 0.284031 0.335086
0.000000 0.034449 0.000000
0.000000 0.022548 0.000000
0.014735 0.011715 0.000000
0.138129 0.021045 0.000000
0.274472 0.037196 0.012182
0.429582 0.076791 0.080178
0.582225 0.130568 0.143458
0.717110 0.178325 0.196734
0.836968 0.218934 0.244003
0.941135 0.253197 0.285740
1.000000 0.279393 0.318968
1.000000 0.283998 0.328330
1.000000 0.284047 0.331658
1.000000 0.284031 0.333625
1.000000 0.284031 0.334614
1.000000 0.284031 0.334992
0.018886 0.168955 0.014437
0.012208 0.158341 0.008273
0.028935 0.145847 0.006578
0.133344 0.137219 0.007020
0.265723 0.133579 0.031544
0.416103 0.130944 0.080493
0.570487 0.141230 0.138641
0.706505 0.174989 0.192063
0.825930 0.215279 0.239564
0.929961 0.249559 0.281234
0.999989 0.276758 0.315480
1.000000 0.283927 0.327656
1.000000 0.284048 0.331243
1.000000 0.284032 0.333361
1.000000 0.284031 0.334471
1.000000 0.284031 0.334943
0.091207 0.303976 0.092714
0.084673 0.290624 0.085182
0.079989 0.279588 0.078903
0.118722 0.269515 0.074414
0.247628 0.258870 0.080052
0.401035 0.250800 0.105672
0.553421 0.236576 0.144377
0.693189 0.216290 0.188456
0.818429 0.214994 0.235133
0.923261 0.247338 0.278353
0.997742 0.275186 0.313413
1.000000 0.283886 0.327244
1.000000 0.284050 0.330947
1.000000 0.284032 0.333166
1.000000 0.284031 0.334372
1.000000 0.284031 0.334895
0.160594 0.454766 0.173060
0.153401 0.438329 0.164646
0.147556 0.425265 0.157842
0.146544 0.416389 0.153229
0.210570 0.404954 0.149131
0.373513 0.391821 0.155738
0.532215 0.379801 0.176818
0.670433 0.357922 0.203399
0.798290 0.315214 0.233986
0.914501 0.268337 0.272150
0.995793 0.274334 0.311792
1.000000 0.283866 0.327036
1.000000 0.284047 0.330776
1.000000 0.284032 0.333059
1.000000 0.284031 0.334332
1.000000 0.284031 0.334862
0.220086 0.593966 0.242856
0.213182 0.577430 0.234731
0.208003 0.565062 0.228632
0.204378 0.556489 0.224361
0.210113 0.549262 0.220852
0.327184 0.537116 0.218167
0.500143 0.524302 0.225919
0.643543 0.511836 0.241780
0.769683 0.488157 0.259914
0.884562 0.434864 0.278335
0.984928 0.341989 0.303303
1.000000 0.284083 0.325792
1.000000 0.284050 0.330683
1.000000 0.284032 0.333002
1.000000 0.284031 0.334300
1.000000 0.284031 0.334845
0.269669 0.714637 0.301407
0.263282 0.698897 0.293850
0.258478 0.687061 0.288176
0.255228 0.679056 0.284325
0.252743 0.673033 0.281347
0.287072 0.665899 0.278152
0.457921 0.653170 0.277835
0.612117 0.642079 0.285883
0.741673 0.630490 0.298756
0.854357 0.607136 0.311433
0.955625 0.556028 0.321004
0.999965 0.422285 0.319334
1.000000 0.301991 0.327218
1.000000 0.284067 0.332962
1.000000 0.284031 0.334281
1.000000 0.284031 0.334842
0.311747 0.819326 0.351278
0.306024 0.805134 0.344495
0.301563 0.793945 0.339217
0.298703 0.786830 0.335818
0.296702 0.781709 0.333431
0.296958 0.777401 0.331329
0.401792 0.767819 0.327991
0.577180 0.757346 0.330872
0.711751 0.747566 0.338848
0.826854 0.735934 0.349263
0.926809 0.713570 0.357979
0.992013 0.668969 0.357337
0.999818 0.537055 0.332137
1.000000 0.326856 0.329796
1.000000 0.284031 0.334266
1.000000 0.284031 0.334826
0.346583 0.907082 0.392657
0.341648 0.894482 0.386782
0.337682 0.884495 0.382075
0.334975 0.877778 0.378863
0.333221 0.873267 0.376774
0.331782 0.869755 0.375064
0.368209 0.864412 0.372596
0.535044 0.854127 0.371457
0.682041 0.846266 0.376684
0.799285 0.837914 0.384360
0.900723 0.827018 0.392890
0.975074 0.807496 0.397150
0.992877 0.764580 0.386222
0.998139 0.648015 0.357086
1.000000 0.350862 0.335103
1.000000 0.284122 0.334825
0.375081 0.978930 0.426518
0.371396 0.969594 0.422123
0.368076 0.961182 0.418182
0.365726 0.955382 0.415397
0.364238 0.951563 0.413629
0.363070 0.948639 0.412235
0.367966 0.945886 0.410891
0.487186 0.937922 0.408280
0.650730 0.930046 0.410712
0.773567 0.923982 0.416817
0.876483 0.916914 0.424046
0.953841 0.907152 0.429644
0.987012 0.888648 0.427323
0.990366 0.850711 0.414462
0.994061 0.754329 0.384550
0.999981 0.429479 0.341806
0.388909 1.000000 0.444763
0.387950 1.000000 0.442712
0.387022 0.999968 0.441237
0.386346 0.998980 0.440224
0.385899 0.998015 0.439559
0.385486 0.997255 0.438988
0.385349 0.996633 0.438460
0.460343 0.994472 0.436279
0.625179 0.991537 0.436913
0.752218 0.987223 0.441977
0.856836 0.983412 0.448838
0.934219 0.979364 0.455077
0.979358 0.971968 0.457386
0.989076 0.958287 0.453405
0.989246 0.929288 0.442549
0.990980 0.841486 0.411984
0.388060 1.000000 0.529802
0.388300 1.000000 0.505099
0.388515 1.000000 0.486484
0.388635 1.000000 0.475548
0.388692 1.000000 0.470012
0.388763 1.000000 0.466067
0.388888 1.000000 0.462448
0.444456 1.000000 0.456703
0.612518 1.000000 0.451555
0.738586 1.000000 0.450905
0.843180 0.999819 0.455503
0.920510 0.999606 0.461941
0.969682 0.999335 0.467200
0.988269 0.998589 0.468854
0.989310 0.996070 0.467918
0.989164 0.978009 0.460934
0.387248 1.000000 0.650800
0.387282 1.000000 0.627745
0.387340 1.000000 0.610036
0.387460 1.000000 0.597659
0.387618 1.000000 0.589464
0.387685 1.000000 0.583064
0.391439 1.000000 0.577479
0.471939 1.000000 0.568382
0.617560 1.000000 0.559125
0.734326 1.000000 0.548604
0.834464 0.999970 0.530179
0.910162 1.000000 0.497574
0.959909 1.000000 0.476233
0.986537 1.000000 0.469756
0.989349 1.000000 0.470069
0.989337 1.000000 0.469949
0.387722 1.000000 0.762301
0.387299 1.000000 0.741158
0.387486 1.000000 0.724672
0.387947 1.000000 0.714074
0.388781 1.000000 0.706590
0.392259 1.000000 0.701218
0.427540 1.000000 0.695394
0.526127 1.000000 0.688028
0.639324 0.999980 0.681864
0.742844 0.998944 0.674960
0.832643 0.998250 0.665130
0.902336 0.998340 0.645857
0.950543 0.999081 0.605018
0.981056 0.999984 0.518856
0.989331 1.000000 0.470183
0.989349 1.000000 0.470069
0.481946 1.000000 0.854575
0.451471 1.000000 0.837223
0.427634 1.000000 0.823572
0.422776 1.000000 0.813774
0.438431 1.000000 0.806358
0.472001 1.000000 0.800279
0.530754 1.000000 0.794599
0.601547 1.000000 0.790122
0.679655 0.998791 0.786168
0.761414 0.997473 0.781571
0.838001 0.996894 0.776043
0.898907 0.996992 0.765909
0.943488 0.997346 0.746243
0.973054 0.998041 0.704507
0.986486 0.999322 0.606833
0.988947 1.000000 0.491160
0.000000 0.000000 0.000000
0.000000 0.000000 0.000000
0.007451 0.000000 0.000448
0.165108 0.000000 0.038262
0.306435 0.019138 0.079722
0.469769 0.088208 0.130173
0.625878 0.146322 0.180917
0.762636 0.193903 0.225395
0.883260 0.234220 0.264705
0.981725 0.267866 0.304006
1.000000 0.283606 0.325947
1.000000 0.284052 0.330453
1.000000 0.284034 0.333011
1.000000 0.284031 0.334360
1.000000 0.284031 0.334932
1.000000 0.284031 0.335208
0.000000 0.000000 0.000000
0.000000 0.000000 0.000000
0.005235 0.000000 0.000233
0.147138 0.000000 0.022257
0.287742 0.011569 0.066285
0.443774 0.077941 0.116313
0.597945 0.136236 0.167850
0.733922 0.184073 0.213117
0.855010 0.224937 0.253356
0.958737 0.258885 0.292863
1.000000 0.281349 0.322040
1.000000 0.284062 0.329286
1.000000 0.284047 0.332272
1.000000 0.284031 0.333952
1.000000 0.284031 0.334753
1.000000 0.284031 0.335083
0.000000 0.014959 0.006633
0.000000 0.007620 0.004518
0.005834 0.005635 0.003108
0.130919 0.006072 0.013156
0.270552 0.024961 0.051135
0.424226 0.072452 0.102108
0.578509 0.129181 0.157020
0.715190 0.177641 0.204719
0.835176 0.218315 0.245513
0.939960 0.252840 0.285293
1.000000 0.279174 0.318661
1.000000 0.283992 0.328274
1.000000 0.284047 0.331613
1.000000 0.284031 0.333607
1.000000 0.284031 0.334594
1.000000 0.284031 0.334992
0.014049 0.160863 0.054385
0.008388 0.149579 0.044353
0.019701 0.136873 0.035102
0.125567 0.128066 0.036033
0.255119 0.124896 0.054236
0.401449 0.124195 0.092390
0.558550 0.137156 0.145946
0.701791 0.173244 0.198143
0.823168 0.214357 0.240970
0.927257 0.248678 0.280182
0.999518 0.276231 0.314801
1.000000 0.283915 0.327527
1.000000 0.284047 0.331161
1.000000 0.284031 0.333306
1.000000 0.284031 0.334448
1.000000 0.284031 0.334929
0.088519 0.298572 0.102464
0.082045 0.285360 0.093687
0.076874 0.274137 0.085276
0.112861 0.263953 0.080477
0.240634 0.253562 0.084752
0.386306 0.247310 0.107146
0.545078 0.231863 0.146151
0.688140 0.211583 0.190903
0.814724 0.213560 0.236046
0.920176 0.246389 0.277240
0.996208 0.274506 0.312525
1.000000 0.283869 0.327102
1.000000 0.284050 0.330839
1.000000 0.284032 0.333112
1.000000 0.284031 0.334349
1.000000 0.284031 0.334880
0.158723 0.450343 0.171553
0.150990 0.433064 0.162613
0.145605 0.420802 0.156041
0.143886 0.411381 0.151048
0.205516 0.400058 0.146915
0.366970 0.387167 0.153271
0.526688 0.374332 0.174245
0.666012 0.352647 0.201492
0.794645 0.310063 0.232809
0.911438 0.266932 0.271200
0.994111 0.273553 0.310765
1.000000 0.283849 0.326871
1.000000 0.284050 0.330654
1.000000 0.284032 0.333004
1.000000 0.284031 0.334301
1.000000 0.284031 0.334847
0.218250 0.589474 0.240689
0.211221 0.572719 0.232416
0.206127 0.560558 0.226431
0.202511 0.551943 0.222165
0.207219 0.544214 0.218288
0.321592 0.532348 0.215725
0.495288 0.519299 0.223296
0.639466 0.506495 0.239138
0.766090 0.482531 0.257639
0.881829 0.428958 0.276650
0.983622 0.338175 0.302567
1.000000 0.284077 0.325579
1.000000 0.284050 0.330556
1.000000 0.284032 0.332924
1.000000 0.284031 0.334268
1.000000 0.284031 0.334830
0.267788 0.710046 0.299181
0.261414 0.694340 0.291654
0.256697 0.682800 0.286075
0.253268 0.674359 0.282010
0.250963 0.668532 0.279242
0.282230 0.661063 0.275730
0.452660 0.648839 0.275639
0.607913 0.637403 0.283520
0.738334 0.625909 0.296659
0.851349 0.602220 0.309399
0.953506 0.551736 0.319443
0.999981 0.416022 0.318433
1.000000 0.300102 0.327323
1.000000 0.284040 0.332900
1.000000 0.284031 0.334235
1.000000 0.284031 0.334812
0.310072 0.815255 0.349304
0.304311 0.800702 0.342456
0.300112 0.790247 0.337482
0.297125 0.782746 0.333944
0.294945 0.777459 0.331362
0.295121 0.773075 0.329334
0.394720 0.763723 0.325913
0.572285 0.752834 0.328623
0.708005 0.743454 0.336751
0.823343 0.731521 0.347156
0.924244 0.709211 0.356083
0.991502 0.664259 0.355856
0.999868 0.531968 0.330974
1.000000 0.316850 0.330534
1.000000 0.284031 0.334219
1.000000 0.284031 0.334810
0.345195 0.903492 0.390998
0.339962 0.890315 0.384784
0.336227 0.880902 0.380353
0.333544 0.874051 0.377159
0.331519 0.869130 0.374768
0.330193 0.865698 0.373181
0.363330 0.860425 0.370693
0.528775 0.850199 0.369373
0.677406 0.842196 0.374565
0.795766 0.834094 0.382514
0.897979 0.823148 0.391106
0.973269 0.803334 0.395432
0.993072 0.759664 0.384798
0.998235 0.642373 0.355930
1.000000 0.358478 0.334371
1.000000 0.284137 0.334807
0.373751 0.975689 0.425068
0.369900 0.965962 0.420358
0.366744 0.957918 0.416605
0.364404 0.951993 0.413823
0.362763 0.947901 0.411880
0.361676 0.945116 0.410584
0.365983 0.942294 0.409230
0.478950 0.934500 0.406451
0.645395 0.926528 0.408901
0.769500 0.920625 0.415142
0.873514 0.913758 0.422535
0.951920 0.903838 0.428123
0.986750 0.885112 0.426043
0.990583 0.847471 0.413431
0.994376 0.747615 0.382575
0.999982 0.428523 0.341356
0.388622 1.000000 0.449862
0.387413 1.000000 0.445241
0.386429 0.999508 0.442120
0.385761 0.998021 0.440367
0.385231 0.996970 0.439153
0.384812 0.996229 0.438298
0.384431 0.995610 0.437440
0.451541 0.993633 0.435312
0.618467 0.989242 0.435411
0.747132 0.984524 0.440429
0.853325 0.980755 0.447456
0.931974 0.976741 0.453759
0.978589 0.969496 0.456396
0.989012 0.955439 0.452286
0.989201 0.925489 0.441092
0.991003 0.837117 0.410416
0.387963 1.000000 0.541483
0.388147 1.000000 0.519099
0.388343 1.000000 0.502212
0.388457 1.000000 0.490994
0.388514 1.000000 0.483872
0.388536 1.000000 0.478931
0.388602 1.000000 0.473879
0.433858 1.000000 0.467440
0.605051 1.000000 0.459985
0.732855 0.999969 0.456113
0.838884 0.999638 0.456450
0.917777 0.999386 0.461615
0.968127 0.999056 0.466842
0.988207 0.998152 0.468596
0.989344 0.994860 0.467481
0.989179 0.975594 0.460035
0.387234 1.000000 0.654865
0.387264 1.000000 0.632778
0.387327 1.000000 0.616169
0.387375 1.000000 0.604517
0.387489 1.000000 0.596154
0.387604 1.000000 0.590200
0.390129 1.000000 0.584504
0.461577 1.000000 0.576033
0.609590 1.000000 0.565933
0.728241 1.000000 0.555317
0.829829 0.999983 0.538996
0.907204 1.000000 0.503491
0.957967 1.000000 0.477697
0.986293 1.000000 0.469831
0.989336 1.000000 0.470069
0.989337 1.000000 0.469943
0.387376 1.000000 0.762193
0.387272 1.000000 0.741350
0.387378 1.000000 0.726264
0.387709 1.000000 0.715397
0.388018 1.000000 0.707906
0.389820 1.000000 0.702615
0.420157 1.000000 0.696946
0.515618 1.000000 0.689946
0.631567 0.999995 0.683173
0.737069 0.999007 0.676574
0.828170 0.998268 0.666581
0.899465 0.998282 0.648797
0.948483 0.999017 0.608494
0.980245 0.999969 0.528153
0.989236 1.000000 0.470310
0.989349 1.000000 0.470069
0.472871 1.000000 0.853525
0.439923 1.000000 0.835889
0.417791 1.000000 0.823090
0.418656 1.000000 0.812742
0.432538 1.000000 0.805457
0.463027 1.000000 0.799417
0.520252 1.000000 0.793880
0.593495 1.000000 0.789189
0.672476 0.998908 0.784810
0.755716 0.997521 0.780808
0.833721 0.996957 0.774949
0.896054 0.996968 0.765327
0.941501 0.997321 0.745653
0.972061 0.998012 0.705997
0.986221 0.999285 0.610248
0.988869 1.000000 0.495548
0.000000 0.000000 0.039761
0.000000 0.000000 0.043999
0.014641 0.000000 0.079157
0.169008 0.000000 0.141349
0.308346 0.023411 0.170277
0.470674 0.089749 0.204764
0.626276 0.146847 0.239481
0.762964 0.194111 0.268435
0.883449 0.234292 0.290593
0.981737 0.267875 0.309817
1.000000 0.283634 0.326108
1.000000 0.284052 0.330453
1.000000 0.284034 0.332996
1.000000 0.284031 0.334360
1.000000 0.284031 0.334921
1.000000 0.284031 0.335208
0.000000 0.000000 0.041754
0.000000 0.000000 0.037667
0.008154 0.000000 0.058862
0.150540 0.000000 0.124663
0.287616 0.013373 0.153349
0.443345 0.078843 0.185331
0.597626 0.136463 0.219242
0.733501 0.184051 0.249001
0.854112 0.224660 0.275500
0.958371 0.258757 0.299261
1.000000 0.281317 0.322212
1.000000 0.284052 0.329249
1.000000 0.284047 0.332247
1.000000 0.284031 0.333935
1.000000 0.284031 0.334753
1.000000 0.284031 0.335071
0.000000 0.009076 0.097469
0.000000 0.006280 0.085091
0.004704 0.002667 0.084291
0.129358 0.002563 0.111712
0.271705 0.014280 0.140161
0.425793 0.072358 0.171514
0.578674 0.129589 0.206116
0.713775 0.177241 0.237279
0.833970 0.217920 0.264311
0.938782 0.252445 0.289919
1.000000 0.278976 0.318528
1.000000 0.283986 0.328208
1.000000 0.284047 0.331568
1.000000 0.284031 0.333590
1.000000 0.284031 0.334579
1.000000 0.284031 0.334988
0.008827 0.146224 0.144419
0.007257 0.134640 0.134301
0.009954 0.120713 0.125008
0.118149 0.110560 0.122562
0.255990 0.105876 0.132891
0.408194 0.108759 0.156702
0.563434 0.132057 0.191393
0.699339 0.172363 0.225517
0.819823 0.213218 0.256057
0.925555 0.248109 0.284050
0.999417 0.275972 0.314598
1.000000 0.283909 0.327475
1.000000 0.284047 0.331129
1.000000 0.284032 0.333283
1.000000 0.284031 0.334435
1.000000 0.284031 0.334927
0.085041 0.290841 0.170866
0.078141 0.276880 0.159678
0.072670 0.265416 0.150389
0.104445 0.255311 0.143025
0.236000 0.244343 0.141979
0.386470 0.236758 0.153499
0.538713 0.224233 0.177909
0.679477 0.208169 0.210968
0.805825 0.212490 0.247162
0.915141 0.244719 0.280126
0.995234 0.274071 0.312137
1.000000 0.283859 0.327005
1.000000 0.284049 0.330780
1.000000 0.284032 0.333069
1.000000 0.284031 0.334336
1.000000 0.284031 0.334873
0.156153 0.444850 0.198239
0.148736 0.428023 0.188537
0.142978 0.415187 0.179795
0.140750 0.406037 0.172891
0.199336 0.394332 0.167536
0.361760 0.381557 0.171020
0.515791 0.371392 0.186523
0.651866 0.353269 0.208492
0.779714 0.315519 0.236073
0.903001 0.268750 0.272089
0.992722 0.272965 0.310213
1.000000 0.283824 0.326745
1.000000 0.284050 0.330579
1.000000 0.284032 0.332959
1.000000 0.284031 0.334277
1.000000 0.284031 0.334840
0.216453 0.585346 0.242936
0.209467 0.568576 0.234268
0.204331 0.556422 0.227931
0.200701 0.547801 0.222965
0.204580 0.540294 0.219093
0.315829 0.528064 0.215926
0.489177 0.515740 0.223031
0.627459 0.505908 0.237918
0.755503 0.482938 0.255757
0.876391 0.427517 0.275213
0.982046 0.335396 0.301891
1.000000 0.284071 0.325426
1.000000 0.284050 0.330471
1.000000 0.284034 0.332890
1.000000 0.284031 0.334236
1.000000 0.284031 0.334815
0.266411 0.706581 0.298221
0.259841 0.690502 0.289933
0.255167 0.678899 0.284370
0.251940 0.671106 0.280517
0.249304 0.664620 0.277347
0.277826 0.657687 0.274130
0.447198 0.644819 0.273488
0.603686 0.634110 0.281631
