luts/CR Magenta shadow+Lut.cube
LUT_3D_SIZE 6
0.000000 0.000000 0.000000
0.165172 0.000000 0.000000
0.628198 0.147150 0.160977
0.983642 0.268642 0.304988
1.000000 0.284034 0.333098
1.000000 0.284031 0.335224
0.022122 0.174157 0.014707
0.137923 0.142832 0.007928
0.575498 0.144245 0.139934
0.934201 0.250957 0.282965
1.000000 0.284047 0.331356
1.000000 0.284031 0.334952
0.222663 0.600045 0.245891
0.207032 0.562782 0.227491
0.505936 0.530396 0.229044
0.889093 0.442174 0.280822
1.000000 0.284050 0.330858
1.000000 0.284031 0.334872
0.348836 0.912560 0.395322
0.337021 0.882837 0.381289
0.373006 0.869331 0.374899
0.804428 0.843140 0.386982
0.992681 0.771420 0.388231
1.000000 0.284079 0.334856
0.388151 1.000000 0.521032
0.388718 1.000000 0.470075
0.389047 1.000000 0.457875
0.745575 1.000000 0.449628
0.971688 0.999714 0.467670
0.989252 0.982041 0.462522
0.496262 1.000000 0.858666
0.432860 1.000000 0.817915
0.543752 1.000000 0.799057
0.768619 0.997401 0.786566
0.945820 0.997337 0.750791
0.989038 1.000000 0.486248
0.000000 0.000000 0.039761
0.169008 0.000000 0.141349
0.626276 0.146847 0.239481
0.981737 0.267875 0.309817
1.000000 0.284034 0.332996
1.000000 0.284031 0.335208
0.008827 0.146224 0.144419
0.118149 0.110560 0.122562
0.563434 0.132057 0.191393
0.925555 0.248109 0.284050
1.000000 0.284047 0.331129
1.000000 0.284031 0.334927
0.216453 0.585346 0.242936
0.200701 0.547801 0.222965
0.489177 0.515740 0.223031
0.876391 0.427517 0.275213
1.000000 0.284050 0.330471
1.000000 0.284031 0.334815
0.343818 0.900010 0.389517
0.332275 0.870964 0.375658
0.359252 0.857426 0.369264
0.793115 0.830982 0.380999
0.993128 0.756036 0.383653
1.000000 0.284140 0.334794
0.387824 1.000000 0.559621
0.388275 1.000000 0.505633
0.388381 1.000000 0.488355
0.728078 0.999915 0.466054
0.967077 0.998857 0.466605
0.989293 0.973886 0.459466
0.465740 1.000000 0.855296
0.415633 1.000000 0.814466
0.512444 1.000000 0.795565
0.751200 0.997564 0.782034
0.940008 0.997283 0.748371
0.988801 1.000000 0.499517
0.040978 0.031718 0.556181
0.114381 0.041454 0.572453
0.625042 0.162514 0.630009
0.979543 0.271464 0.665068
1.000000 0.284117 0.455682
1.000000 0.284031 0.335209
0.039680 0.031247 0.551390
0.056442 0.024931 0.527095
0.557406 0.137360 0.560660
0.919678 0.249697 0.576160
1.000000 0.283828 0.400058
1.000000 0.284031 0.334915
0.204036 0.546595 0.580364
0.187871 0.508311 0.542155
0.470582 0.472857 0.525513
0.874689 0.369042 0.524281
1.000000 0.283915 0.387143
1.000000 0.284031 0.334800
0.335349 0.879606 0.611260
0.324143 0.851687 0.565134
0.339514 0.839554 0.542899
0.780616 0.813721 0.516146
0.991771 0.759824 0.397840
1.000000 0.284141 0.334779
0.387258 1.000000 0.704176
0.387051 1.000000 0.657063
0.386815 1.000000 0.637602
0.713965 0.997967 0.613742
0.961740 0.995806 0.523923
0.989251 0.971828 0.458651
0.451447 1.000000 0.891073
0.406651 1.000000 0.851120
0.495971 1.000000 0.832915
0.742601 0.997374 0.819863
0.935956 0.996887 0.794216
0.987748 0.999990 0.562386
0.138559 0.132625 0.941357
0.140155 0.134188 0.948032
0.618305 0.197064 0.977834
0.974722 0.286409 0.998545
1.000000 0.301555 0.995990
1.000000 0.292052 0.813595
0.135116 0.129063 0.926524
0.130457 0.124241 0.906331
0.531537 0.171160 0.918440
0.908508 0.263291 0.935830
1.000000 0.296766 0.925077
1.000000 0.288280 0.698784
0.189845 0.441053 0.923858
0.170352 0.375848 0.894174
0.416603 0.310646 0.885617
0.874318 0.268003 0.909019
1.000000 0.295505 0.899657
1.000000 0.287480 0.665557
0.324912 0.838986 0.916856
0.313245 0.810306 0.883020
0.316067 0.797509 0.872554
0.762409 0.767452 0.858704
0.988791 0.685316 0.840795
1.000000 0.288495 0.695652
0.387657 0.999711 0.934294
0.385527 0.998157 0.897934
0.384072 0.996695 0.884597
0.694624 0.982467 0.869627
0.947026 0.974781 0.850206
0.985119 0.951432 0.692026
0.440245 1.000000 0.989224
0.392659 1.000000 0.961577
0.469965 1.000000 0.946820
0.737343 0.996943 0.938664
0.929307 0.995969 0.927474
0.983807 0.996871 0.851439
0.180211 0.175714 1.000000
0.180316 0.175834 1.000000
0.596251 0.214457 1.000000
0.974891 0.296384 1.000000
1.000000 0.310792 1.000000
1.000000 0.310796 1.000000
0.179156 0.174634 1.000000
0.177976 0.173410 1.000000
0.472328 0.194592 1.000000
0.897510 0.276576 1.000000
1.000000 0.310348 1.000000
1.000000 0.309545 1.000000
0.196956 0.366458 1.000000
0.182519 0.266432 1.000000
0.318240 0.219547 1.000000
0.853525 0.265316 1.000000
1.000000 0.309678 1.000000
1.000000 0.308677 1.000000
0.320688 0.808778 1.000000
0.307187 0.771074 1.000000
0.302680 0.753667 1.000000
0.741289 0.720873 1.000000
0.990257 0.620513 1.000000
1.000000 0.308632 1.000000
0.383476 0.984447 1.000000
0.379528 0.974547 1.000000
0.377601 0.969543 1.000000
0.672120 0.953073 1.000000
0.934463 0.941183 1.000000
0.982158 0.906376 1.000000
0.437318 1.000000 1.000000
0.395411 1.000000 1.000000
0.458043 1.000000 1.000000
0.725484 0.996707 1.000000
0.923418 0.994832 1.000000
0.978498 0.995269 1.000000
0.224773 0.490099 1.000000
0.222831 0.481481 1.000000
0.491385 0.491922 1.000000
0.918675 0.430798 1.000000
1.000000 0.310796 1.000000
1.000000 0.310796 1.000000
0.217218 0.460299 1.000000
0.202625 0.380021 1.000000
0.343418 0.353120 1.000000
0.855744 0.291352 1.000000
1.000000 0.310796 1.000000
1.000000 0.310796 1.000000
0.259076 0.616217 1.000000
0.240931 0.553209 1.000000
0.270465 0.520343 1.000000
0.794360 0.450251 1.000000
1.000000 0.311769 1.000000
1.000000 0.310796 1.000000
0.330940 0.834890 1.000000
0.317450 0.795982 1.000000
0.312083 0.779893 1.000000
0.727150 0.754226 1.000000
0.979060 0.687926 1.000000
1.000000 0.311125 1.000000
0.382220 0.978335 1.000000
0.377722 0.966083 1.000000
0.375517 0.960110 1.000000
0.670706 0.944406 1.000000
0.930162 0.935898 1.000000
0.982065 0.902742 1.000000
0.446468 1.000000 1.000000
0.402936 1.000000 1.000000
0.467513 1.000000 1.000000
0.725094 0.993441 1.000000
0.920701 0.988880 1.000000
0.974712 0.987201 1.000000
