luts/Crizo Mzeyah 2021.cube
TITLE "Generated by Resolve"
LUT_3D_SIZE 33
0 0 0
0 0 0
0.0247044 0 0
0.0983902 0 0
0.169055 0 0
0.220737 0 0
0.265858 0 0
0.305089 0 0
0.339422 0 0
0.369757 0 0
0.396841 0 0
0.421256 0 0
0.443458 0 0
0.463813 0 0
0.482582 0 0
0.500008 0 0
0.516243 0 0
0.531197 0 0
0.546761 0 0
0.568231 0 0
0.596368 0 0
0.631006 0 0
0.67129 0 0
0.715984 0 0
0.763867 0 0
0.813886 0 0
0.865293 0 0
0.917586 0 0
0.970413 0 0
1 0 0
1 0 0
1 0 0
1 0 0
0 0 0
0 0 0
0 0 0
0.0751354 0 0
0.149706 0 0
0.207034 0 0
0.254292 0 0
0.295293 0 0
0.331014 0 0
0.362417 0 0
0.390356 0 0
0.415473 0 0
0.438254 0 0
0.459052 0 0
0.477928 0 0
0.49572 0 0
0.512276 0 0
0.527749 0 0
0.542687 0 0
0.562722 0 0
0.589349 0 0
0.622583 0 0
0.661723 0 0
0.705562 0 0
0.752865 0 0
0.802518 0 0
0.853727 0 0
0.905776 0 0
0.958526 0 0
1 0 0
1 0 0
1 0 0
1 0 0
0 0.00527962 0
0 0 0
0 0 0
0.0474556 0 0
0.125597 0 0
0.191455 0 0
0.241398 0 0
0.284566 0 0
0.321904 0 0
0.354559 0 0
0.383032 0 0
0.408972 0 0
0.432425 0 0
0.453803 0 0
0.473442 0 0
0.491585 0 0
0.508446 0 0
0.524193 0 0
0.538888 0 0
0.557488 0 0
0.582574 0 0
0.614374 0 0
0.652293 0 0
0.695171 0 0
0.741833 0 0
0.791074 0 0
0.842023 0 0
0.894057 0 0
0.946761 0 0
0.999771 0 0
1 0 0
1 0 0
1 0 0
0 0.0664683 0
0 0.0605325 0
0 0.0532082 0
0.0194247 0.0449989 0
0.099733 0.0371405 0
0.17406 0.0300908 0
0.227085 0.0237278 0
0.272114 0.0167544 0
0.311482 0.0112306 0
0.345678 0.00596628 0
0.375769 0.000885023 0
0.402579 0 0
0.426719 0 0
0.448661 0 0
0.468757 0 0
0.487282 0 0
0.504494 0 0
0.520531 0 0
0.535546 0 0
0.55256 0 0
0.576104 0 0
0.606394 0 0
0.643 0 0
0.684932 0 0
0.730892 0 0
0.779706 0 0
0.830304 0 0
0.88217 0 0
0.934783 0 0
0.987869 0 0
1 0 0
1 0 0
1 0 0
0 0.127214 0
0 0.12166 0
0 0.115251 0
0 0.106935 0
0.0733654 0.0994583 0
0.151766 0.0922713 0
0.210895 0.0855573 0
0.259388 0.0793317 0
0.300893 0.0734874 0
0.336706 0.0679332 0
0.368048 0.0625925 0
0.395819 0.057435 0
0.420722 0.05243 0
0.44329 0.0475166 0
0.46389 0.0426947 0
0.482841 0.0379492 0
0.500404 0.0332799 0
0.516747 0.0286412 0
0.532021 0.0240635 0
0.547906 0.0195315 0
0.56994 0.0150149 0
0.598688 0.010544 0
0.633936 0.00608835 0
0.6748 0.00167849 0
0.720012 0 0
0.768246 0 0
0.818616 0 0
0.870253 0 0
0.922774 0 0
0.975799 0 0
1 0 0
1 0 0
1 0 0
0 0.181491 0
0 0.177447 0
0 0.172808 0
0 0.167452 0
0.0500954 0.16144 0
0.128359 0.154986 0
0.194858 0.148348 0
0.245853 0.141909 0
0.289586 0.135805 0
0.327169 0.129992 0
0.359869 0.124437 0
0.388693 0.119081 0
0.414435 0.113878 0
0.437659 0.108827 0
0.458824 0.103868 0
0.478233 0.0990158 0
0.496178 0.0942245 0
0.51284 0.0895094 0
0.528405 0.0848554 0
0.543557 0.0802319 0
0.564065 0.0756542 0
0.591257 0.0711376 0
0.625116 0.0666209 0
0.66479 0.06215 0
0.709133 0.0577096 0
0.756863 0.0532845 0
0.806836 0.0488899 0
0.85832 0.0445106 0
0.910689 0.0401465 0
0.963668 0.0357977 0
1 0.0314488 0
1 0.0271458 0
1 0.0228122 0
0 0.223728 0
0 0.220264 0
0 0.216464 0
0 0.212345 0
0.0286564 0.207919 0
0.106188 0.203281 0
0.178851 0.198596 0
0.2318 0.193988 0
0.277714 0.189502 0
0.317113 0.185168 0
0.351247 0.18117 0
0.381216 0.176959 0
0.407843 0.172732 0
0.4318 0.168444 0
0.453544 0.16408 0
0.473442 0.15964 0
0.491798 0.155093 0
0.508812 0.150408 0
0.524681 0.145678 0
0.539513 0.140978 0
0.558526 0.136339 0
0.584131 0.131731 0
0.61648 0.127184 0
0.654948 0.122652 0
0.69836 0.118166 0
0.745495 0.11368 0
0.795056 0.109255 0
0.846281 0.104845 0
0.898589 0.100435 0
0.951461 0.0960555 0
1 0.0916762 0
1 0.0873274 0
1 0.0829938 0
0 0.261936 0
0 0.2589 0
0 0.25565 0
0 0.252171 0
0.00875868 0.248417 0
0.085359 0.24448 0
0.161273 0.240421 0
0.217563 0.236332 0
0.265476 0.232258 0
0.306661 0.228275 0
0.342275 0.224384 0
0.373419 0.220569 0
0.401007 0.216846 0
0.425711 0.213199 0
0.448081 0.209598 0
0.468498 0.206058 0
0.487282 0.202564 0
0.504662 0.1991 0
0.520836 0.195651 0
0.535973 0.192233 0
0.553338 0.18883 0
0.57731 0.185458 0
0.608133 0.1823 0
0.645289 0.178866 0
0.687724 0.175357 0
0.734112 0.17174 0
0.783322 0.168017 0
0.834287 0.164202 0
0.886397 0.160266 0
0.939269 0.156161 0
0.992493 0.151949 0
1 0.147585 0
1 0.143221 0
0 0.295979 0
0 0.293339 0
0 0.290532 0
0 0.287541 0
0 0.284367 0
0.0656748 0.281025 0
0.141588 0.277562 0
0.203296 0.274006 0
0.25301 0.270436 0
0.295933 0.266896 0
0.332998 0.263386 0
0.365347 0.259937 0
0.393896 0.25655 0
0.419409 0.253208 0
0.442435 0.249928 0
0.463401 0.246677 0
0.482628 0.243473 0
0.500404 0.240284 0
0.516915 0.237125 0
0.532326 0.233982 0
0.54844 0.230854 0
0.570855 0.227726 0
0.600107 0.224613 0
0.635859 0.221515 0
0.677211 0.218402 0
0.72285 0.215305 0
0.771511 0.212192 0
0.822248 0.209064 0
0.874205 0.205966 0
0.92694 0.202838 0
0.980224 0.199695 0
1 0.196567 0
1 0.193439 0
0 0.32639 0
0 0.324041 0
0 0.321584 0
0 0.319005 0
0 0.316274 0
0.0468605 0.31342 0
0.122164 0.310445 0
0.189136 0.307378 0
0.240406 0.304265 0
0.284977 0.301137 0
0.323491 0.298024 0
0.357031 0.294926 0
0.386587 0.291875 0
0.412909 0.288869 0
0.436606 0.285893 0
0.458137 0.282948 0
0.477836 0.280049 0
0.49601 0.277165 0
0.512871 0.274296 0
0.528572 0.271443 0
0.543908 0.26862 0
0.564767 0.265782 0
0.592355 0.262974 0
0.626688 0.260166 0
0.666865 0.257359 0
0.711666 0.254536 0
0.759793 0.251728 0
0.810147 0.248905 0
0.861997 0.246067 0
0.914641 0.243229 0
0.967803 0.240391 0
1 0.237537 0
1 0.234668 0
0 0.353704 0
0 0.351629 0
0 0.349447 0
0 0.347173 0
0 0.344793 0
0.0287633 0.342321 0
0.103487 0.339742 0
0.175082 0.337072 0
0.227726 0.334356 0
0.273884 0.331594 0
0.313802 0.328832 0
0.348547 0.32607 0
0.379095 0.323339 0
0.406256 0.320623 0
0.43064 0.317922 0
0.452735 0.315267 0
0.472938 0.312642 0
0.491508 0.310018 0
0.508721 0.307439 0
0.524742 0.30486 0
0.539727 0.302296 0
0.559014 0.299748 0
0.585 0.2972 0
0.617777 0.294667 0
0.656733 0.292119 0
0.700603 0.289586 0
0.748119 0.287053 0
0.798093 0.28452 0
0.849653 0.281971 0
0.90222 0.279423 0
0.955367 0.27686 0
1 0.274281 0
1 0.271717 0
0 0.378424 0
0 0.376562 0
0 0.374609 0
0 0.372595 0
0 0.370489 0
0.0112154 0.368307 0
0.08542 0.366049 0
0.159365 0.363714 0
0.215 0.361318 0
0.262638 0.358877 0
0.303975 0.35642 0
0.33991 0.353948 0
0.37145 0.351492 0
0.399435 0.349035 0
0.424521 0.346609 0
0.447211 0.344198 0
0.467903 0.341802 0
0.486915 0.339422 0
0.504494 0.337072 0
0.520821 0.334737 0
0.535866 0.332403 0
0.553643 0.330098 0
0.577966 0.327794 0
0.609171 0.32549 0
0.646784 0.323201 0
0.689662 0.320897 0
0.736492 0.318608 0
0.786053 0.31632 0
0.837369 0.314015 0
0.889799 0.311727 0
0.942901 0.309422 0
0.996399 0.307103 0
1 0.304784 0
0 0.400961 0
0 0.399268 0
0 0.397513 0
0 0.395712 0
0 0.39382 0
0 0.391882 0
0.0678264 0.389868 0
0.141802 0.387793 0
0.202243 0.385672 0
0.251301 0.38349 0
0.294011 0.381308 0
0.331136 0.379095 0
0.363668 0.376867 0
0.392493 0.374655 0
0.41828 0.372442 0
0.441566 0.370245 0
0.46276 0.368063 0
0.4822 0.365911 0
0.50016 0.36376 0
0.516823 0.361624 0
0.532357 0.359487 0
0.548653 0.357382 0
0.571344 0.355276 0
0.600916 0.353185 0
0.63711 0.351095 0
0.67892 0.349004 0
0.724956 0.346914 0
0.774029 0.344839 0
0.825086 0.342748 0
0.877379 0.340658 0
0.930358 0.338582 0
0.983841 0.336492 0
1 0.334386 0
0 0.421637 0
0 0.420096 0
0 0.418494 0
0 0.416861 0
0 0.415167 0
0 0.413413 0
0.05066 0.411612 0
0.124254 0.409751 0
0.189471 0.407858 0
0.239841 0.405905 0
0.283909 0.403937 0
0.32224 0.401938 0
0.355795 0.399924 0
0.385458 0.39791 0
0.411948 0.395895 0
0.435828 0.393896 0
0.457542 0.391897 0
0.477424 0.389914 0
0.49575 0.387945 0
0.512749 0.385992 0
0.528588 0.384039 0
0.544045 0.382101 0
0.565103 0.380163 0
0.593027 0.378241 0
0.62771 0.376333 0
0.668345 0.374411 0
0.713542 0.372503 0
0.762066 0.370596 0
0.812741 0.368704 0
0.864851 0.366796 0
0.917815 0.364889 0
0.971267 0.362982 0
1 0.361074 0
0 0.440726 0
0 0.439307 0
0 0.437858 0
0 0.436347 0
0 0.434806 0
0 0.433219 0
0.0338598 0.431586 0
0.107073 0.429908 0
0.17673 0.428199 0
0.228244 0.426444 0
0.273686 0.424643 0
0.313222 0.422843 0
0.347799 0.421012 0
0.378302 0.419181 0
0.405524 0.417334 0
0.430014 0.415503 0
0.452232 0.413672 0
0.472557 0.411841 0
0.491264 0.410025 0
0.508598 0.408225 0
0.524727 0.406424 0
0.539803 0.404639 0
0.559289 0.402853 0
0.585534 0.401083 0
0.618677 0.399313 0
0.658 0.397543 0
0.702266 0.395789 0
0.750195 0.394034 0
0.800473 0.392294 0
0.852369 0.390539 0
0.905241 0.388785 0
0.958618 0.38703 0
1 0.385275 0
0 0.458442 0
0 0.45713 0
0 0.455787 0
0 0.454414 0
0 0.452995 0
0 0.451545 0
0.0173037 0.45005 0
0.0902113 0.448524 0
0.162509 0.446952 0
0.216526 0.445365 0
0.26331 0.443748 0
0.304082 0.442084 0
0.339681 0.440421 0
0.371054 0.438743 0
0.398993 0.437064 0
0.424094 0.43537 0
0.446845 0.433677 0
0.467613 0.431998 0
0.486717 0.43032 0
0.504387 0.428641 0
0.520821 0.426978 0
0.535943 0.425315 0
0.553872 0.423667 0
0.578424 0.422019 0
0.609949 0.420386 0
0.647913 0.418753 0
0.691173 0.417121 0
0.738354 0.415503 0
0.788251 0.413886 0
0.839933 0.412253 0
0.892607 0.410651 0
0.945968 0.409033 0
0.999725 0.407401 0
0 0.474968 0
0 0.473747 0
0 0.472496 0
0 0.471229 0
0 0.469917 0
0 0.468589 0
0.0010071 0.467216 0
0.07364 0.465812 0
0.146426 0.464393 0
0.2047 0.462928 0
0.252781 0.461433 0
0.294804 0.459922 0
0.331472 0.458396 0
0.363729 0.456855 0
0.392386 0.455299 0
0.418112 0.453742 0
0.441398 0.452171 0
0.462623 0.450614 0
0.482109 0.449058 0
0.50013 0.447501 0
0.516854 0.44596 0
0.532464 0.444419 0
0.548867 0.442878 0
0.571756 0.441352 0
0.601617 0.439826 0
0.638132 0.4383 0
0.680293 0.43679 0
0.726696 0.435279 0
0.776104 0.433768 0
0.82742 0.432258 0
0.880003 0.430762 0
0.933272 0.429252 0
0.986999 0.427756 0
0 0.49044 0
0 0.489311 0
0 0.488151 0
0 0.486961 0
0 0.48574 0
0 0.484504 0
0 0.483238 0
0.0572824 0.481956 0
0.129824 0.480629 0
0.192752 0.479286 0
0.2421 0.477913 0
0.285374 0.476524 0
0.323125 0.47512 0
0.356298 0.473686 0
0.385718 0.472251 0
0.412055 0.470817 0
0.435859 0.469368 0
0.457542 0.467918 0
0.47744 0.466468 0
0.495796 0.465019 0
0.512825 0.463569 0
0.52871 0.462135 0
0.544259 0.4607 0
0.565499 0.459266 0
0.593683 0.457847 0
0.628702 0.456413 0
0.669642 0.455009 0
0.715175 0.45359 0
0.764004 0.452186 0
0.815015 0.450782 0
0.867384 0.449378 0
0.920592 0.447974 0
0.974319 0.446571 0
0 0.504997 0
0 0.503929 0
0 0.502846 0
0 0.501732 0
0 0.500603 0
0 0.499443 0
0 0.498268 0
0.0411688 0.497078 0
0.113466 0.495857 0
0.180911 0.494606 0
0.231235 0.493339 0
0.275792 0.492058 0
0.314656 0.490745 0
0.34876 0.489433 0
0.378943 0.48809 0
0.405921 0.486748 0
0.430274 0.485405 0
0.45243 0.484062 0
0.472724 0.482704 0
0.491432 0.481346 0
0.508766 0.480003 0
0.524926 0.478645 0
0.540047 0.477317 0
0.559686 0.475975 0
0.586175 0.474632 0
0.619593 0.473304 0
0.659251 0.471977 0
0.703868 0.470649 0
0.752056 0.469322 0
0.802655 0.468009 0
0.85481 0.466682 0
0.907897 0.46537 0
0.961563 0.464057 0
0 0.518715 0
0 0.517708 0
0 0.516686 0
0 0.515648 0
0 0.514595 0
0 0.513512 0
0 0.512428 0
0.0251621 0.511299 0
0.0972915 0.51017 0
0.167895 0.50901 0
0.220203 0.50782 0
0.266011 0.50663 0
0.30605 0.505409 0
0.3411 0.504189 0
0.372076 0.502953 0
0.399725 0.501701 0
0.424628 0.500435 0
0.447242 0.499184 0
0.467948 0.497917 0
0.487007 0.496651 0
0.504646 0.495384 0
0.52108 0.494118 0
0.536202 0.492851 0
0.554299 0.4916 0
0.579095 0.490333 0
0.610895 0.489082 0
0.64918 0.487831 0
0.692744 0.48658 0
0.740215 0.485344 0
0.790387 0.484092 0
0.842252 0.482856 0
0.895216 0.481621 0
0.948791 0.480385 0
0 0.531701 0
0 0.530755 0
0 0.529793 0
0 0.528817 0
0 0.527825 0
0 0.526802 0
0 0.52578 0
0.00936904 0.524727 0
0.0812543 0.523674 0
0.153262 0.522591 0
0.208972 0.521477 0
0.256077 0.520363 0
0.297276 0.519234 0
0.333318 0.51809 0
0.365118 0.51693 0
0.393439 0.515755 0
0.418906 0.51458 0
0.442008 0.513405 0
0.463127 0.512215 0
0.482536 0.511025 0
0.500496 0.509834 0
0.517205 0.508644 0
0.532799 0.507454 0
0.54934 0.506264 0
0.572442 0.505089 0
0.602594 0.503899 0
0.639399 0.502724 0
0.681834 0.501549 0
0.728573 0.500359 0
0.77821 0.499199 0
0.82977 0.498024 0
0.882551 0.496864 0
0.936065 0.495689 0
0 0.544823 0
0 0.543694 0
0 0.542596 0
0 0.541497 0
0 0.540429 0
0 0.539361 0
0 0.538293 0
0 0.537255 0
0.0654002 0.536233 0
0.137285 0.535424 0
0.197559 0.534401 0
0.24593 0.533349 0
0.288319 0.532296 0
0.325383 0.531212 0
0.358038 0.530129 0
0.38706 0.52903 0
0.413123 0.527932 0
0.436713 0.526818 0
0.458244 0.525704 0
0.478019 0.52459 0
0.4963 0.523461 0
0.513283 0.522347 0
0.529137 0.521218 0
0.544778 0.520104 0
0.566247 0.518975 0
0.594675 0.517861 0
0.629984 0.516747 0
0.671214 0.515633 0
0.717037 0.514519 0
0.76611 0.513405 0
0.817334 0.512306 0
0.869932 0.511193 0
0.923339 0.510094 0
0 0.562295 0
0 0.56083 0
0 0.55938 0
0 0.557946 0
0 0.556527 0
0 0.555108 0
0 0.553719 0
0 0.552331 0
0.0496834 0.550958 0
0.12137 0.549615 0
0.186038 0.548272 0
0.235569 0.546944 0
0.279194 0.545647 0
0.317327 0.544366 0
0.350851 0.543114 0
0.380591 0.541878 0
0.407263 0.540673 0
0.431357 0.539498 0
0.453315 0.538354 0
0.473457 0.537224 0
0.492058 0.536141 0
0.509331 0.535302 0
0.525429 0.534249 0
0.540597 0.533181 0
0.560464 0.532113 0
0.587228 0.53106 0
0.620935 0.530007 0
0.660883 0.528939 0
0.70576 0.527886 0
0.754192 0.526833 0
0.80499 0.525795 0
0.857359 0.524742 0
0.910674 0.52369 0
0 0.584634 0
0 0.582803 0
0 0.581003 0
0 0.579187 0
0 0.577401 0
0 0.575616 0
0 0.573846 0
0 0.572091 0
0.0340887 0.570336 0
0.105638 0.568612 0
0.174243 0.566888 0
0.224994 0.565194 0
0.269902 0.5635 0
0.309102 0.561852 0
0.343542 0.560204 0
0.374044 0.558602 0
0.401312 0.557015 0
0.425925 0.555459 0
0.448325 0.553933 0
0.468864 0.552438 0
0.487785 0.550988 0
0.505348 0.549569 0
0.521691 0.54818 0
0.536782 0.546838 0
0.555123 0.545525 0
0.580194 0.544259 0
0.612284 0.543023 0
0.650843 0.541817 0
0.694682 0.540658 0
0.742397 0.539528 0
0.792752 0.53843 0
0.844831 0.537377 0
0.897963 0.536339 0
0 0.611917 0
0 0.609735 0
0 0.607569 0
0 0.605402 0
0 0.60325 0
0 0.601099 0
0 0.598962 0
0 0.596826 0
0.0186007 0.594705 0
0.090013 0.592584 0
0.160922 0.590478 0
0.214252 0.588388 0
0.260365 0.586313 0
0.30074 0.584253 0
0.33611 0.582208 0
0.367376 0.580194 0
0.395285 0.578195 0
0.420447 0.576242 0
0.44329 0.574304 0
0.46421 0.572412 0
0.483467 0.57055 0
0.501305 0.568719 0
0.517922 0.566918 0
0.533455 0.565179 0
0.550195 0.56347 0
0.573587 0.561807 0
0.604028 0.560174 0
0.641169 0.558587 0
0.683848 0.557046 0
0.73077 0.555535 0
0.780652 0.55407 0
0.832395 0.552651 0
0.885344 0.551247 0
0 0.643778 0
0 0.641291 0
0 0.638804 0
0 0.636316 0
0 0.633829 0
0 0.631357 0
0 0.62887 0
0 0.626413 0
0.00317388 0.623926 0
0.0744793 0.621454 0
0.145876 0.618982 0
0.203281 0.616526 0
0.250645 0.614084 0
0.292149 0.611658 0
0.328527 0.609216 0
0.360601 0.606821 0
0.389181 0.604425 0
0.414878 0.60206 0
0.438193 0.599725 0
0.45951 0.597421 0
0.479103 0.595148 0
0.497246 0.592905 0
0.514122 0.590692 0
0.529885 0.588525 0
0.545663 0.586404 0
0.567422 0.584314 0
0.596201 0.582269 0
0.6318 0.58027 0
0.67332 0.578317 0
0.719371 0.576394 0
0.768643 0.574517 0
0.82005 0.572686 0
0.87277 0.570901 0
0 0.679561 0
0 0.676814 0
0 0.674052 0
0 0.671305 0
0 0.668574 0
0 0.665812 0
0 0.66305 0
0 0.660273 0
0 0.657526 0
0.0590524 0.654749 0
0.130327 0.651972 0
0.192126 0.64921 0
0.240696 0.646433 0
0.283406 0.643671 0
0.32079 0.640909 0
0.353689 0.638163 0
0.382971 0.635416 0
0.409247 0.6327 0
0.433036 0.629999 0
0.454749 0.627329 0
0.474708 0.624674 0
0.493141 0.622049 0
0.510292 0.619455 0
0.526284 0.616892 0
0.541497 0.614374 0
0.5617 0.611887 0
0.588785 0.60943 0
0.622843 0.607019 0
0.663066 0.604654 0
0.708186 0.602335 0
0.756802 0.600046 0
0.807782 0.597803 0
0.860273 0.595605 0
0 0.718425 0
0 0.715496 0
0 0.712551 0
0 0.709575 0
0 0.706615 0
0 0.70367 0
0 0.700679 0
0 0.697688 0
0 0.694697 0
