luts/Crizo Mzeyah Kenya.cube
TITLE "Generated by Resolve"
LUT_3D_SIZE 9
0.0428473 0.0455024 0.0645151
0.239567 0.0845655 0.0610361
0.540337 0.0672007 0.0728008
0.618387 0 0.0793011
0.625589 0 0.0803082
0.625589 0 0.0803082
0.625589 0 0.0803082
0.625589 0 0.0803082
0.625589 0 0.0803082
0.0380407 0.0855726 0.0700236
0.0466926 0.0472419 0.0559243
0.394965 0.0912642 0.0637675
0.589364 0.0372778 0.0763256
0.625589 0 0.0803082
0.625589 0 0.0803082
0.625589 0 0.0803082
0.625589 0 0.0803082
0.625589 0 0.0803082
0 0.257496 0.115892
0 0.206836 0.10547
0.264729 0.224506 0.0931106
0.648173 0.201816 0.0862135
0.678416 0.135546 0.0856184
0.625589 0 0.0803082
0.625589 0 0.0803082
0.625589 0 0.0803082
0.625589 0 0.0803082
0 0.404028 0.143374
0 0.38294 0.139773
0 0.357458 0.135561
0.673671 0.533654 0.0666056
0.85095 0.49897 0.0634318
0.845655 0.450568 0.079057
0.815396 0.38529 0.0883192
0.785855 0.327184 0.0918898
0.754604 0.264134 0.0928359
0 0.45185 0.154391
0 0.446693 0.152285
0 0.440131 0.150469
0.409735 0.603937 0.102434
0.908812 0.734127 0
0.963211 0.720684 0
0.950988 0.687266 0
0.933455 0.646372 0
0.913069 0.600763 0.00289921
0 0.487846 0.176928
0 0.480232 0.171588
0 0.472007 0.165881
0 0.463294 0.160418
0.782849 0.754116 0
0.986191 0.801724 0
0.999207 0.797589 0
0.994736 0.785962 0
0.988052 0.770703 0
0 0.490166 0.178561
0 0.490166 0.178561
0 0.490166 0.178561
0 0.490166 0.178561
0.531975 0.687526 0.136995
0.939681 0.804776 1.5259e-05
1 0.817197 0
1 0.814908 0
1 0.811749 0
0 0.490166 0.178561
0 0.490166 0.178561
0 0.490166 0.178561
0 0.490166 0.178561
0.0425269 0.553017 0.168597
0.816678 0.774472 0.0768444
0.990982 0.818982 0
1 0.818509 0
1 0.81825 0
0 0.490166 0.178561
0 0.490166 0.178561
0 0.490166 0.178561
0 0.490166 0.178561
0 0.490166 0.178561
0.577951 0.703426 0.13106
0.940078 0.806332 0
1 0.819837 0
1 0.818509 0
0 0 0.296239
0.249836 0.0344701 0.290074
0.568414 0.000350958 0.247532
0.644739 0 0.178759
0.643809 0 0.113924
0.625589 0 0.0803082
0.625589 0 0.0803082
0.625589 0 0.0803082
0.625589 0 0.0803082
0.000167849 0.0896773 0.145449
0.0437629 0.0460212 0.0694285
0.385199 0.0915389 0.0633707
0.587015 0.0395666 0.0761273
0.625589 0 0.0803082
0.625589 0 0.0803082
0.625589 0 0.0803082
0.625589 0 0.0803082
0.625589 0 0.0803082
0 0.248707 0.114199
0 0.198962 0.103639
0.24799 0.212116 0.0920882
0.638621 0.191714 0.0854047
0.671565 0.123857 0.0849317
0.625589 0 0.0803082
0.625589 0 0.0803082
0.625589 0 0.0803082
0.625589 0 0.0803082
0 0.401205 0.142885
0 0.37966 0.139239
0 0.353811 0.13492
0.663798 0.52578 0.0701457
0.845914 0.489387 0.0667582
0.841443 0.441047 0.0807813
0.810758 0.375631 0.0893568
0.780941 0.317479 0.0920729
0.749126 0.252705 0.0929427
0 0.451209 0.154101
0 0.445869 0.15201
0 0.439109 0.150256
0.39411 0.596933 0.10576
0.904585 0.730495 0
0.960586 0.715084 0
0.948165 0.680613 0
0.930007 0.638529 0
0.908965 0.591913 0.00489815
0 0.486854 0.176242
0 0.479133 0.170825
0 0.470863 0.165148
0 0.462257 0.159808
0.772625 0.750256 0
0.984512 0.800259 0
0.999023 0.796155 0
0.993667 0.783475 0
0.986511 0.767224 0
0 0.490166 0.178561
0 0.490166 0.178561
0 0.490166 0.178561
0 0.490166 0.178561
0.513787 0.680644 0.137728
0.935729 0.803571 1.5259e-05
1 0.816953 0
1 0.814359 0
1 0.810971 0
0 0.490166 0.178561
0 0.490166 0.178561
0 0.490166 0.178561
0 0.490166 0.178561
0.00148013 0.543053 0.170733
0.806638 0.771771 0.0806439
0.989471 0.818616 0
1 0.818509 0
1 0.818067 0
0 0.490166 0.178561
0 0.490166 0.178561
0 0.490166 0.178561
0 0.490166 0.178561
0 0.490166 0.178561
0.560357 0.697383 0.133455
0.935515 0.805158 0
1 0.819959 0
1 0.818509 0
0 0 0.484062
0.244907 0 0.52433
0.599283 0 0.546258
0.682841 0 0.520546
0.684764 0 0.475395
0.677455 0 0.420157
0.670451 0 0.362463
0.664225 0 0.30634
0.658625 0 0.24799
0 0 0.442618
0 0 0.358541
0.410819 0 0.378027
0.62768 0 0.333822
0.661311 0 0.276524
0.654185 0 0.199329
0.647944 0 0.143297
0.64033 0 0.0994583
0.625589 0 0.0803082
0 0.310063 0.395499
0 0.239475 0.30309
0.227008 0.224353 0.22623
0.648493 0.193011 0.144015
0.667414 0.109712 0.0892653
0.625589 0 0.0803082
0.625589 0 0.0803082
0.625589 0 0.0803082
0.625589 0 0.0803082
0 0.42031 0.176822
0 0.375265 0.138537
0 0.349142 0.134112
0.650782 0.515404 0.0745098
0.839399 0.477638 0.0694438
0.836454 0.429786 0.082826
0.805249 0.364889 0.0899825
0.775036 0.305821 0.0923018
0.742947 0.241062 0.0926223
0 0.450416 0.153735
0 0.444892 0.151705
0 0.437934 0.149996
0.375051 0.588876 0.108598
0.89865 0.725399 0
0.957504 0.708751 0
0.945129 0.673503 0
0.926345 0.630198 0
0.904372 0.582025 0.00714122
0 0.485695 0.175418
0 0.477867 0.169924
0 0.469642 0.16437
0 0.461097 0.159136
0.761746 0.746136 0
0.982559 0.798535 0
0.998032 0.793805 0
0.99234 0.780438 0
0.98468 0.76318 0
0 0.490166 0.178561
0 0.490166 0.178561
0 0.490166 0.178561
0 0.490166 0.178561
0.494026 0.673075 0.138613
0.93135 0.802243 1.5259e-05
1 0.816709 0
1 0.813764 0
1 0.810162 0
0 0.490166 0.178561
0 0.490166 0.178561
0 0.490166 0.178561
0 0.490166 0.178561
0 0.529213 0.173449
0.796246 0.768948 0.0844129
0.98735 0.818082 0
1 0.818509 0
1 0.817899 0
0 0.490166 0.178561
0 0.490166 0.178561
0 0.490166 0.178561
0 0.490166 0.178561
0 0.490166 0.178561
0.541894 0.691035 0.135988
0.930632 0.803891 0.000442512
1 0.820111 0
1 0.818509 0
0 0 0.56968
0.234668 0 0.622873
0.628351 0 0.670405
0.71577 0 0.670375
0.719646 0 0.660533
0.714611 0 0.646799
0.709621 0 0.631235
0.706477 0 0.615381
0.703044 0 0.597238
0 0 0.560128
0 0 0.515816
0.415564 0 0.594186
0.663249 0 0.612909
0.705013 0 0.606577
0.699977 0 0.58114
0.696162 0 0.55671
0.692409 0 0.532036
0.688624 0 0.505013
0 0.294865 0.672312
0 0.211109 0.61825
0.102937 0.207843 0.610788
0.648188 0.12195 0.600671
0.697261 0 0.525582
0.685161 0 0.478279
0.680095 0 0.441352
0.67541 0 0.403754
0.67039 0 0.361883
0 0.522133 0.676356
0 0.491615 0.633127
0 0.454185 0.581476
0.631601 0.586831 0.586511
0.860945 0.526741 0.506172
0.860487 0.466499 0.426093
0.826703 0.385122 0.331579
0.792035 0.308354 0.244617
0.753033 0.232502 0.170062
0 0.55584 0.561181
0 0.538994 0.49572
0 0.516899 0.420432
0.28397 0.628473 0.337896
0.903655 0.749599 0.204746
0.959136 0.705974 7.62951e-05
0.938445 0.657771 0
0.918532 0.612512 0.000228885
0.895186 0.56202 0.0175937
0 0.543038 0.40116
0 0.510918 0.287556
0 0.46688 0.162585
0 0.458701 0.157748
0.739239 0.737438 0
0.977707 0.794278 0
0.996231 0.789532 0
0.989975 0.775082 0
0.981552 0.756191 0
0 0.490166 0.178561
0 0.490166 0.178561
0 0.490166 0.178561
0 0.490166 0.178561
0.45771 0.659129 0.140444
0.922438 0.799481 0
1 0.816281 0
1 0.812863 0
1 0.808942 0
0 0.490166 0.178561
0 0.490166 0.178561
0 0.490166 0.178561
0 0.490166 0.178561
0 0.490166 0.178561
0.779263 0.763989 0.0894179
0.984253 0.817288 0
1 0.818509 0
1 0.817655 0
0 0.490166 0.178561
0 0.490166 0.178561
0 0.490166 0.178561
0 0.490166 0.178561
0 0.490166 0.178561
0.516503 0.682185 0.139406
0.922957 0.801816 0.00364691
1 0.820356 0
1 0.818509 0
0 0 0.56968
0.194934 0 0.623606
0.627604 0 0.694194
0.735271 0 0.712398
0.745449 0 0.719356
0.745449 0 0.719356
0.745449 0 0.719356
0.745449 0 0.719356
0.740932 0 0.710231
0 0 0.56968
0 0 0.56968
0.417258 0 0.664271
0.700954 0 0.7037
0.743358 0 0.71519
0.736751 0 0.70135
0.731258 0 0.689021
0.72668 0 0.678264
0.723003 0 0.669078
0 0.320165 0.719738
0 0.239857 0.684596
0.00494392 0.23061 0.693202
0.650156 0.146792 0.725383
0.712886 0 0.666773
0.720043 0 0.66157
0.71664 0 0.65243
0.713115 0 0.64271
0.709728 0 0.631662
0 0.524636 0.792386
0 0.494041 0.77908
0 0.456199 0.760418
0.573281 0.576349 0.837507
0.848829 0.517098 0.826566
0.857664 0.463859 0.794186
0.827893 0.378286 0.746166
0.797803 0.289448 0.696254
0.763104 0.196292 0.63743
0 0.592645 0.801892
0 0.582696 0.785687
0 0.576242 0.769985
0 0.683192 0.795453
0.872221 0.819577 0.819715
0.96022 0.78854 0.772427
0.952926 0.746136 0.721019
0.937011 0.693049 0.663432
0.916365 0.62858 0.594949
0 0.610178 0.77499
0 0.601511 0.747906
0 0.591211 0.70985
0 0.577813 0.658961
0.682216 0.821408 0.671244
0.976593 0.86807 0.592966
0.999985 0.850706 0.505226
0.999512 0.824903 0.405432
0.994446 0.790814 0.292073
0 0.606027 0.699046
0 0.599557 0.657908
0 0.590005 0.606561
0 0.577585 0.542748
0.333318 0.699763 0.46952
0.915312 0.828733 0.316838
1 0.816846 0.00608835
1 0.811124 0
1 0.806455 0
0 0.580179 0.55523
0 0.566171 0.485328
0 0.546242 0.395621
0 0.513283 0.25803
0 0.490166 0.178561
0.75288 0.756283 0.0971695
0.979309 0.816037 0
1 0.818326 0
1 0.817349 0
0 0.52163 0.290318
0 0.490166 0.178561
0 0.490166 0.178561
0 0.490166 0.178561
0 0.490166 0.178561
0.472679 0.666514 0.145205
0.91014 0.798321 0.00900282
1 0.820752 0
1 0.818509 0
0 0 0.56968
0.1411 0 0.61445
0.61117 0 0.692164
0.732952 0 0.711421
0.745449 0 0.719356
0.745449 0 0.719356
0.745449 0 0.719356
0.745449 0 0.719356
0.745449 0 0.719356
0 0 0.56968
0 0 0.56968
0.383856 0 0.659175
0.69456 0 0.702754
0.744411 0 0.718532
0.745449 0 0.719356
0.745449 0 0.719356
0.745449 0 0.719356
0.745449 0 0.719356
0 0.293965 0.708461
0 0.214572 0.675242
0 0.214878 0.6869
0.645182 0.197192 0.739864
0.734249 0 0.711971
0.745449 0 0.719356
0.745449 0 0.719356
0.745449 0 0.719356
0.745449 0 0.719356
0 0.521782 0.796551
0 0.492744 0.786694
0 0.460273 0.774273
0.531273 0.577066 0.856779
0.848875 0.540719 0.87158
0.870893 0.504555 0.861463
0.843732 0.420829 0.832074
0.814954 0.331502 0.799664
0.780346 0.216876 0.758251
0 0.594842 0.822583
0 0.588373 0.822126
0 0.579614 0.817655
0 0.671672 0.863767
0.841505 0.810391 0.933242
0.949599 0.778759 0.928923
0.94406 0.737484 0.914
0.92755 0.684672 0.89366
0.906996 0.618509 0.866712
0 0.61944 0.834409
0 0.611276 0.828428
0 0.603845 0.821225
0 0.598138 0.813535
0.608698 0.836454 0.907668
0.957565 0.90045 0.924681
0.991516 0.89395 0.904753
0.987671 0.876341 0.87808
0.981201 0.850843 0.843397
0 0.627253 0.832853
0 0.626154 0.827802
0 0.624292 0.819287
0 0.619699 0.805066
0.0177157 0.737514 0.828519
0.874464 0.896895 0.856931
0.994079 0.913298 0.816175
1 0.904509 0.763821
1 0.89247 0.700893
0 0.622278 0.80914
0 0.620829 0.79443
0 0.618189 0.774853
0 0.612833 0.743328
0 0.606699 0.705104
0.690166 0.840467 0.733501
0.967559 0.895598 0.685847
1 0.888472 0.608118
1 0.872221 0.504128
0 0.613504 0.749828
0 0.607965 0.715908
0 0.602686 0.676387
0 0.592523 0.618372
0 0.57937 0.551308
0.3561 0.713466 0.50106
0.897704 0.838895 0.403449
0.999969 0.837369 0.23946
1 0.818509 0
0 0 0.56968
0.0820172 0 0.604791
0.59321 0 0.689998
0.730449 0 0.710521
0.745449 0 0.719356
0.745449 0 0.719356
0.745449 0 0.719356
0.745449 0 0.719356
0.745449 0 0.719356
0 0 0.56968
0 0 0.56968
0.352346 0 0.654154
0.688121 0 0.702007
0.743526 0 0.71783
0.745449 0 0.719356
0.745449 0 0.719356
0.745449 0 0.719356
0.745449 0 0.719356
0 0.267903 0.697276
0 0.183291 0.662577
0 0.164096 0.66508
0.608576 0.111574 0.710475
0.732631 0 0.711284
0.745449 0 0.719356
0.745449 0 0.719356
0.745449 0 0.719356
0.745449 0 0.719356
0 0.512337 0.793133
0 0.481682 0.782605
0 0.443519 0.767254
0.492912 0.550378 0.84625
0.836942 0.516915 0.863783
0.862501 0.479225 0.853178
0.840452 0.409751 0.830289
0.817884 0.342473 0.805661
0.791485 0.259266 0.775723
0 0.59266 0.822263
0 0.585473 0.820935
0 0.576211 0.8168
0 0.653513 0.859174
0.822003 0.799008 0.934081
0.944198 0.768978 0.935302
0.941802 0.73315 0.926482
0.92668 0.684001 0.913436
0.909499 0.627283 0.898131
0 0.620172 0.836561
0 0.611811 0.831693
0 0.605356 0.828077
0 0.601114 0.825772
0.555795 0.824628 0.922835
0.945312 0.896895 0.962997
0.98735 0.891508 0.962448
0.983673 0.873793 0.956954
0.975525 0.846021 0.948058
0 0.630747 0.841657
0 0.630747 0.841657
0 0.630747 0.841657
0 0.625376 0.837919
6.10361e-05 0.729152 0.881285
0.84538 0.901106 0.953429
0.986847 0.926177 0.960723
0.99852 0.924453 0.954009
0.997253 0.917632 0.942763
0 0.629862 0.840589
0 0.628412 0.838911
0 0.62681 0.836683
0 0.626841 0.834699
0 0.626932 0.83154
0.629877 0.852491 0.916381
0.950774 0.923354 0.936324
0.99942 0.930175 0.921599
1 0.926238 0.896452
0 0.626627 0.834974
0 0.627298 0.833036
0 0.626062 0.827359
0 0.623697 0.816739
0 0.621469 0.802258
0.0453346 0.748547 0.828901
0.858351 0.896361 0.862776
0.988998 0.919493 0.836683
1 0.9149 0.798352
0 0 0.56968
0.00247196 0 0.596521
0.57644 0 0.687953
0.728069 0 0.709712
0.745449 0 0.719356
0.745449 0 0.719356
0.745449 0 0.719356
0.745449 0 0.719356
0.745449 0 0.719356
0 0 0.56968
0 0 0.56968
0.324987 0 0.649363
0.682399 0 0.70135
0.742718 0 0.717189
0.745449 0 0.719356
0.745449 0 0.719356
0.745449 0 0.719356
0.745449 0 0.719356
0 0.240696 0.686244
0 0.148394 0.650584
0 0.0914778 0.644739
0.583154 0 0.688777
0.730892 0 0.710674
0.745449 0 0.719356
0.745449 0 0.719356
0.745449 0 0.719356
0.745449 0 0.719356
0 0.502647 0.78996
0 0.47158 0.778714
0 0.427817 0.760693
0.45713 0.526253 0.836194
0.825666 0.494957 0.856519
0.854109 0.454704 0.84509
0.83238 0.385428 0.821668
0.808377 0.313222 0.795056
0.776333 0.211643 0.757885
0 0.590509 0.822202
0 0.582803 0.819654
0 0.572869 0.815427
0 0.634897 0.852064
0.803174 0.783444 0.929488
0.937743 0.751812 0.93109
0.936553 0.716213 0.922026
0.920516 0.663783 0.908019
0.902663 0.604776 0.89189
0 0.617655 0.835111
0 0.609735 0.830518
0 0.604105 0.82739
0 0.59997 0.825193
0.513039 0.81323 0.917464
0.938079 0.891386 0.961425
0.984695 0.884703 0.962386
0.980941 0.865538 0.958083
0.972274 0.836011 0.951217
0 0.630747 0.841657
0 0.630747 0.841657
0 0.630747 0.841657
0 0.62414 0.837949
0 0.715114 0.879194
0.822812 0.895888 0.956558
0.982696 0.924895 0.971633
0.996307 0.92256 0.970413
0.99443 0.915312 0.968704
0 0.630747 0.841657
0 0.630747 0.841657
0 0.630747 0.841657
0 0.630747 0.841657
0 0.630747 0.841657
0.58175 0.843702 0.930571
0.93727 0.92369 0.968887
0.996582 0.934051 0.97203
0.99971 0.933227 0.969451
0 0.630747 0.841657
0 0.630747 0.841657
0 0.630747 0.841657
0 0.630167 0.84097
0 0.628519 0.839033
0 0.743465 0.883848
0.828672 0.900496 0.951522
0.981949 0.932097 0.962188
1 0.934447 0.956954
0 0 0.56968
0 0 0.591974
0.558221 0 0.685389
0.725475 0 0.708904
0.745449 0 0.719356
0.745449 0 0.719356
0.745449 0 0.719356
0.745449 0 0.719356
0.745449 0 0.719356
0 0 0.56968
0 0 0.56968
0.298711 0 0.644495
0.675593 0 0.700481
0.742 0 0.716579
0.745449 0 0.719356
0.745449 0 0.719356
0.745449 0 0.719356
0.745449 0 0.719356
0 0.214893 0.67538
0 0.109606 0.638941
0 0.00373846 0.626551
0.570459 0 0.687114
0.729122 0 0.710063
0.745449 0 0.719356
0.745449 0 0.719356
0.745449 0 0.719356
0.745449 0 0.719356
0 0.493065 0.786801
0 0.461036 0.774594
0 0.41236 0.754757
0.421454 0.502159 0.82594
0.813962 0.474067 0.849058
0.845685 0.429664 0.836835
0.82388 0.360189 0.81239
0.798581 0.281605 0.783963
0.74638 0.0150454 0.720699
0 0.588388 0.822126
0 0.580087 0.818372
0 0.5691 0.813931
0 0.612833 0.842985
0.7841 0.767727 0.924819
0.931044 0.734722 0.926848
0.930999 0.698085 0.917205
0.913985 0.64213 0.902159
0.895766 0.582208 0.885527
0 0.614984 0.833555
0 0.607736 0.829404
0 0.602884 0.826719
0 0.598825 0.824598
0.46537 0.800748 0.911604
0.929824 0.885161 0.95967
0.982132 0.877531 0.960815
0.978271 0.856428 0.955962
0.968521 0.823209 0.948257
0 0.630747 0.841657
0 0.630747 0.841657
0 0.629282 0.840833
0 0.62266 0.83743
0 0.697627 0.872953
0.803098 0.890837 0.954269
0.980056 0.923003 0.971038
0.995758 0.920363 0.969879
0.9935 0.911711 0.96791
0 0.630747 0.841657
0 0.630747 0.841657
0 0.630747 0.841657
0 0.630747 0.841657
0 0.630747 0.841657
0.543084 0.834943 0.926192
0.929107 0.921843 0.968933
0.9953 0.933593 0.974151
0.998642 0.932296 0.973175
0 0.630747 0.841657
0 0.630747 0.841657
0 0.630747 0.841657
0 0.630747 0.841657
0 0.630747 0.841657
0 0.73257 0.884138
0.80444 0.895872 0.956344
0.975601 0.931716 0.973495
0.999954 0.936339 0.975418
