luts/Crizo Mzeyah 2021.cube
TITLE "Generated by Resolve"
LUT_3D_SIZE 9
0 0 0
0.169055 0 0
0.339422 0 0
0.443458 0 0
0.516243 0 0
0.596368 0 0
0.763867 0 0
0.970413 0 0
1 0 0
0 0.127214 0
0.0733654 0.0994583 0
0.300893 0.0734874 0
0.420722 0.05243 0
0.500404 0.0332799 0
0.56994 0.0150149 0
0.720012 0 0
0.922774 0 0
1 0 0
0 0.295979 0
0 0.284367 0
0.25301 0.270436 0
0.393896 0.25655 0
0.482628 0.243473 0
0.54844 0.230854 0
0.677211 0.218402 0
0.874205 0.205966 0
1 0.193439 0
0 0.400961 0
0 0.39382 0
0.202243 0.385672 0
0.363668 0.376867 0
0.46276 0.368063 0
0.532357 0.359487 0
0.63711 0.351095 0
0.825086 0.342748 0
1 0.334386 0
0 0.474968 0
0 0.469917 0
0.146426 0.464393 0
0.331472 0.458396 0
0.441398 0.452171 0
0.516854 0.44596 0
0.601617 0.439826 0
0.776104 0.433768 0
0.986999 0.427756 0
0 0.531701 0
0 0.527825 0
0.0812543 0.523674 0
0.297276 0.519234 0
0.418906 0.51458 0
0.500496 0.509834 0
0.572442 0.505089 0
0.728573 0.500359 0
0.936065 0.495689 0
0 0.611917 0
0 0.60325 0
0.0186007 0.594705 0
0.260365 0.586313 0
0.395285 0.578195 0
0.483467 0.57055 0
0.550195 0.56347 0
0.683848 0.557046 0
0.885344 0.551247 0
0 0.759609 0
0 0.747234 0
0 0.734676 0
0.220142 0.72192 0
0.37023 0.70901 0
0.465736 0.696132 0
0.534417 0.683436 0
0.643503 0.671138 0
0.835538 0.659312 0
0 0.936522 0
0 0.923232 0
0 0.909682 0
0.176608 0.895827 0
0.343297 0.881651 0
0.447196 0.867231 0
0.520333 0.852735 0
0.608637 0.83827 0
0.787289 0.823926 0
0 0 0.230838
0.14847 0 0.21384
0.333394 0 0.18526
0.440024 0 0.160906
0.513512 0 0.135332
0.591531 0 0.113924
0.756161 0 0.0941787
0.961944 0 0.0755016
1 0 0.0574807
0 0.108324 0.162356
0.0468299 0.0814221 0.151629
0.298878 0.0528725 0.103792
0.418479 0.0340124 0.0811933
0.498421 0.0160067 0.062089
0.56669 0 0.0442512
0.713451 0 0.0271153
0.915053 0 0.0103761
1 0 0
0 0.287877 0.0730449
0 0.277638 0.0356909
0.242191 0.262348 0
0.391028 0.246113 0
0.48072 0.232578 0
0.546304 0.219852 0
0.671778 0.207324 0
0.867201 0.194797 0
1 0.182422 0
0 0.395956 0.00207523
0 0.389258 0
0.185275 0.381201 0
0.357061 0.371466 0
0.459785 0.361791 0
0.530449 0.352773 0
0.632212 0.344121 0
0.818326 0.335622 0
1 0.327123 0
0 0.471397 0
0 0.466529 0
0.123461 0.461097 0
0.321981 0.454917 0
0.436728 0.448234 0
0.514168 0.441596 0
0.596841 0.435187 0
0.7691 0.428946 0
0.979538 0.422812 0
0 0.528923 0
0 0.525124 0
0.0594949 0.52105 0
0.286046 0.516579 0
0.412848 0.511742 0
0.49691 0.506752 0
0.56788 0.501762 0
0.720928 0.496864 0
0.928038 0.492058 0
0 0.605585 0
0 0.597436 0
0 0.58938 0
0.247807 0.581399 0
0.388205 0.573556 0
0.479103 0.566049 0
0.546242 0.559136 0
0.675746 0.552911 0
0.876478 0.547372 0
0 0.750546 0
0 0.738552 0
0 0.726329 0
0.206409 0.713848 0
0.362295 0.701106 0
0.460746 0.688228 0
0.531029 0.675486 0
0.635401 0.663127 0
0.825803 0.651316 0
0 0.926741 0
0 0.913695 0
0 0.900359 0
0.160266 0.886687 0
0.334554 0.872602 0
0.441672 0.858167 0
0.516518 0.843503 0
0.60116 0.828824 0
0.776974 0.814267 0
0 0 0.421195
0.120638 0 0.415778
0.321965 0 0.405783
0.43447 0 0.39379
0.51014 0 0.381949
0.58584 0 0.371695
0.747265 0 0.362173
0.952514 0 0.353079
1 0 0.344228
0 0.0878767 0.39443
0.0363775 0.0635691 0.391852
0.285649 0.0366674 0.383169
0.413809 0.0164034 0.367269
0.495598 0 0.354131
0.562905 0 0.343145
0.706188 0 0.333165
0.906706 0 0.323659
1 0 0.314382
0 0.277745 0.361746
0 0.266484 0.355062
0.224994 0.251164 0.351354
0.389593 0.232685 0.329824
0.47895 0.220264 0.317937
0.544198 0.207965 0.307973
0.666209 0.195621 0.298482
0.859922 0.183398 0.289113
1 0.170153 0.279698
0 0.390021 0.326711
0 0.383444 0.314107
0.162356 0.376379 0.29546
0.349111 0.365957 0.273396
0.457618 0.354559 0.269703
0.528893 0.345266 0.26421
0.627878 0.336568 0.256748
0.811917 0.328023 0.248325
1 0.319448 0.239277
0 0.467369 0.290974
0 0.462638 0.275746
0.0988479 0.457572 0.256565
0.309926 0.451545 0.234852
0.431647 0.44419 0.220706
0.511742 0.436896 0.214328
0.592813 0.430167 0.208362
0.762814 0.423804 0.20116
0.97258 0.417578 0.192874
0 0.525887 0.253864
0 0.522194 0.237064
0.0371557 0.518273 0.217578
0.272953 0.513924 0.196429
0.405814 0.508965 0.177981
0.493141 0.503594 0.164446
0.56376 0.498283 0.154574
0.71397 0.493187 0.145113
0.920562 0.488258 0.135012
0 0.599161 0.214572
0 0.591546 0.196597
0 0.584085 0.176852
0.233875 0.576654 0.152758
0.380179 0.569177 0.127123
0.474296 0.561852 0.106523
0.542489 0.555016 0.0915541
0.667979 0.548943 0.0800336
0.868009 0.543648 0.0696269
0 0.741222 0.172778
0 0.729595 0.150713
0 0.71783 0.124941
0.191669 0.705791 0.0988937
0.353521 0.69337 0.0738689
0.455268 0.680583 0.0518959
0.527398 0.66775 0.0339055
0.62742 0.655253 0.0196078
0.816236 0.643412 0.00758373
0 0.916671 0.119051
0 0.903883 0.0951095
0 0.890852 0.0704967
0.14078 0.877455 0.0456397
0.325063 0.863584 0.0214694
0.435676 0.84921 0
0.512444 0.834424 0
0.593759 0.819486 0
0.766598 0.804654 0
0 0 0.528054
0.0996262 0 0.524971
0.309712 0 0.520317
0.426932 0 0.513771
0.505714 0 0.507012
0.579095 0 0.500404
0.736919 0 0.494133
0.941833 0 0.488228
1 0 0.482551
0 0.0715343 0.51284
0.0223087 0.0491188 0.510689
0.270298 0.0253147 0.507134
0.40528 0.0030518 0.500572
0.491066 0 0.492561
0.558007 0 0.485008
0.697353 0 0.478202
0.897047 0 0.471931
1 0 0.466026
0 0.267475 0.495399
0 0.255055 0.493095
0.218372 0.240024 0.491325
0.379446 0.222477 0.48603
0.475059 0.208331 0.475715
0.541283 0.195972 0.467033
0.659434 0.183734 0.459892
0.851637 0.170993 0.453513
1 0.156329 0.447532
0 0.383505 0.47602
0 0.376349 0.471778
0.150896 0.368505 0.467674
0.33756 0.358083 0.465507
0.456489 0.34522 0.452461
0.527443 0.336797 0.44445
0.623468 0.328435 0.438148
0.805203 0.319997 0.432288
1 0.311421 0.426612
0 0.462928 0.455879
0 0.458076 0.449668
0.0797131 0.453071 0.442191
0.294987 0.447776 0.431418
0.42533 0.440162 0.417487
0.510033 0.431479 0.41529
0.589685 0.424613 0.412055
0.757168 0.418265 0.407691
0.965881 0.412055 0.402792
0 0.522606 0.435416
0 0.518914 0.427939
0.0172122 0.515099 0.419089
0.258503 0.51104 0.408087
0.396918 0.506264 0.395453
0.489021 0.500404 0.387015
0.56025 0.494545 0.383383
0.708019 0.489219 0.380072
0.913863 0.484199 0.376028
0 0.59263 0.414511
0 0.585489 0.40618
0 0.578607 0.396658
0.219104 0.571862 0.385702
0.370886 0.565042 0.373724
0.468727 0.557977 0.362951
0.538857 0.551125 0.355764
0.660746 0.545129 0.351064
0.860273 0.540063 0.346838
0 0.731563 0.392844
0 0.720287 0.38381
0 0.708995 0.373754
0.176471 0.697536 0.362615
0.343877 0.685679 0.350637
0.449073 0.673198 0.33901
0.523415 0.660273 0.329213
0.619501 0.647532 0.32192
0.807004 0.635569 0.316197
0 0.906264 0.370062
0 0.893721 0.360296
0 0.88098 0.349706
0.120851 0.867979 0.338155
0.314855 0.85449 0.325856
0.429099 0.840345 0.313481
0.507973 0.825498 0.302052
0.586358 0.810269 0.292302
0.75613 0.795071 0.284321
0 0 0.695476
0.08159 0 0.686625
0.298482 0 0.675425
0.419516 0 0.66067
0.500679 0 0.645502
0.571801 0 0.630533
0.725155 0 0.616678
0.929793 0 0.604379
1 0 0.593484
0 0.0565042 0.65536
0.00820935 0.0352636 0.649165
0.258137 0.0131838 0.641245
0.396506 0 0.629984
0.485344 0 0.61593
0.552209 0 0.601724
0.68658 0 0.589151
0.885634 0 0.578485
1 0 0.569451
0 0.257664 0.618051
0 0.244938 0.613321
0.208988 0.230625 0.608682
0.368948 0.21474 0.601617
0.468299 0.199161 0.589578
0.537026 0.185275 0.576272
0.650355 0.172107 0.565255
0.841413 0.157473 0.556603
1 0.141161 0.549661
0 0.376928 0.585016
0 0.369253 0.580301
0.145785 0.360708 0.576593
0.333165 0.35053 0.573831
0.448188 0.338613 0.566796
0.524025 0.328771 0.554208
0.61709 0.320256 0.545159
0.796841 0.311803 0.538888
1 0.303181 0.534295
0 0.458259 0.558831
0 0.453132 0.554009
0.0702678 0.447715 0.549584
0.289113 0.44181 0.545754
0.417197 0.43415 0.543847
0.509041 0.424521 0.534371
0.586725 0.418387 0.528099
0.751278 0.412329 0.523445
0.958831 0.406256 0.519219
0 0.519112 0.539971
0 0.515297 0.53579
0.00300603 0.511391 0.531655
0.247227 0.507378 0.526497
0.386481 0.503151 0.519265
0.483635 0.497276 0.50901
0.557946 0.490242 0.507408
0.703426 0.484825 0.505165
0.907851 0.47985 0.502129
0 0.586114 0.52604
0 0.579309 0.521431
0 0.572869 0.516258
0.205661 0.566735 0.510201
0.360906 0.560769 0.502754
0.461692 0.554452 0.494057
0.535454 0.547478 0.48806
0.654459 0.54136 0.485618
0.853651 0.536538 0.483452
0 0.72163 0.511955
0 0.710582 0.506844
0 0.699657 0.501183
0.160174 0.688731 0.494804
0.333776 0.677668 0.487495
0.441993 0.665965 0.479515
0.518791 0.653193 0.472313
0.611521 0.639994 0.467521
0.798245 0.627726 0.464485
0 0.895506 0.497581
0 0.883085 0.492088
0 0.870619 0.486091
0.101808 0.858 0.4795
0.30428 0.845029 0.472251
0.421927 0.831418 0.46453
0.502937 0.816815 0.457023
0.578759 0.801282 0.450752
0.745495 0.785504 0.446143
0 0 0.986816
0.0649271 0 0.97641
0.28806 0 0.963943
0.412375 0 0.94786
0.495521 0 0.930602
0.564584 0 0.911833
0.712505 0 0.892653
0.916518 0 0.873701
1 0 0.855528
0 0.0421302 0.939178
0 0.0216373 0.930602
0.247211 0.00062562 0.920378
0.388571 0 0.907256
0.479515 0 0.890578
0.546365 0 0.871275
0.674479 0 0.851148
0.872541 0 0.831571
1 0 0.813092
0 0.248188 0.890806
0 0.235355 0.883253
0.199222 0.221378 0.875242
0.360662 0.206302 0.865019
0.461555 0.190829 0.850156
0.532464 0.175982 0.830549
0.6392 0.160296 0.809293
0.828824 0.143343 0.788907
1 0.126482 0.770199
0 0.370459 0.840711
0 0.362509 0.832929
0.137148 0.353811 0.825971
0.326833 0.344076 0.819059
0.440497 0.333303 0.80853
0.518425 0.322621 0.789761
0.607431 0.312978 0.76672
0.785428 0.30396 0.745357
0.996246 0.295033 0.726864
0 0.453559 0.790478
0 0.448173 0.781323
0.0632334 0.44242 0.773114
0.286168 0.436057 0.766415
0.414054 0.428611 0.761181
0.501976 0.419944 0.748623
0.579843 0.41265 0.722545
0.742412 0.406455 0.700298
0.949905 0.400397 0.683116
0 0.515526 0.742123
0 0.511543 0.731395
0 0.507424 0.720897
0.241489 0.50309 0.710765
0.382773 0.49836 0.70164
0.477684 0.492378 0.69691
0.556405 0.484703 0.67158
0.698802 0.479927 0.652125
0.901457 0.475227 0.639292
0 0.579736 0.697261
0 0.573205 0.685695
0 0.567025 0.673869
0.195911 0.561196 0.661448
0.353429 0.555718 0.6477
0.453941 0.5505 0.630198
0.530632 0.544228 0.606073
0.650355 0.537408 0.602472
0.848539 0.53312 0.597986
0 0.711513 0.657069
0 0.700572 0.64564
0 0.68983 0.633921
0.144671 0.679225 0.621714
0.324712 0.668742 0.608545
0.434592 0.658167 0.593927
0.512978 0.646525 0.578653
0.603082 0.6327 0.569039
0.790539 0.619669 0.565591
0 0.884413 0.622232
0 0.872084 0.611765
0 0.859724 0.601221
0.0848249 0.847349 0.590555
0.294148 0.834836 0.57969
0.414557 0.821958 0.568658
0.497246 0.808133 0.558175
0.570657 0.79263 0.54992
0.734417 0.776013 0.545068
0 0 1
0.0491035 0 1
0.277485 0 1
0.4056 0 1
0.490471 0 1
0.557931 0 1
0.69958 0 1
0.902388 0 1
1 0 1
0 0.0281224 1
0 0.00820935 1
0.236774 0 1
0.381262 0 1
0.47396 0 1
0.541085 0 1
0.662058 0 1
0.858351 0 1
1 0 1
0 0.238819 1
0 0.22591 1
0.189227 0.2121 1
0.353201 0.197406 1
0.455528 0.182452 1
0.527687 0.166232 1
0.627497 0.148241 1
0.814511 0.130053 1
1 0.112657 1
0 0.364141 1
0 0.356008 1
0.126513 0.34725 1
0.32018 0.337743 1
0.434394 0.327504 1
0.512993 0.316899 1
0.596643 0.306569 1
0.771206 0.296773 1
0.983032 0.287251 1
0 0.448905 1
0 0.443336 1
0.054963 0.4374 1
0.2813 0.430976 1
0.409537 0.42385 1
0.496025 0.416052 1
0.570016 0.408286 1
0.728695 0.401312 1
0.937591 0.394842 0.990326
0 0.51191 1
0 0.507774 1
0 0.503471 1
0.236912 0.498894 1
0.380606 0.493874 1
0.475242 0.488045 1
0.547463 0.481331 0.993957
0.687312 0.475532 0.965698
0.891463 0.470695 0.939681
0 0.573663 0.997818
0 0.567376 0.985931
0 0.561425 0.974121
0.189151 0.555795 0.962463
0.349599 0.550408 0.951141
0.451392 0.545144 0.940932
0.526192 0.53933 0.93547
0.646891 0.533013 0.907927
0.843122 0.529091 0.881193
0 0.701396 0.948196
0 0.690501 0.934981
0 0.679774 0.921431
0.132448 0.66923 0.907317
0.318181 0.658854 0.89221
0.429267 0.64863 0.875151
0.506935 0.638514 0.852872
0.591669 0.626169 0.816892
0.785641 0.610742 0.810468
0 0.873152 0.900145
0 0.860746 0.886061
0 0.848386 0.871427
0.0707103 0.836027 0.855924
0.285542 0.823667 0.839124
0.408103 0.811246 0.820157
0.491432 0.79852 0.797635
0.561547 0.784314 0.771252
0.722164 0.766705 0.752071
0 0 1
0.0337682 0 1
0.26775 0 1
0.399069 0 1
0.485588 0 1
0.55198 0 1
0.6869 0 1
0.888029 0 1
1 0 1
0 0.014374 1
0 0 1
0.226505 0 1
0.374319 0 1
0.468727 0 1
0.536553 0 1
0.650065 0 1
0.843702 0 1
1 0 1
0 0.229511 1
0 0.21648 1
0.179263 0.202716 1
0.346044 0.188266 1
0.450019 0.173114 1
0.523171 0.155581 1
0.616419 0.136202 1
0.799603 0.11751 1
1 0.0995804 1
0 0.35787 1
0 0.349599 1
0.114809 0.34081 1
0.313329 0.331411 1
0.428901 0.321401 1
0.508186 0.310964 1
0.586816 0.300404 1
0.755978 0.290028 1
0.968017 0.279881 1
0 0.444312 1
0 0.438605 1
0.0453651 0.432578 1
0.275257 0.426139 1
0.404746 0.419211 1
0.491279 0.41181 1
0.561791 0.404196 1
0.713069 0.396796 1
0.922271 0.389792 1
0 0.508309 1
0 0.504067 1
0 0.499626 1
0.231495 0.494926 1
0.377142 0.489876 1
0.471778 0.484306 1
0.541466 0.478248 1
0.671 0.472221 1
0.876051 0.466789 1
0 0.567971 1
0 0.561959 1
0 0.556283 1
0.183383 0.550881 1
0.346426 0.545724 1
0.449668 0.540703 1
0.524224 0.535851 1
0.629084 0.530388 1
0.829099 0.525582 1
0 0.691402 1
0 0.680552 1
0 0.669856 1
0.122621 0.659297 1
0.313542 0.648829 1
0.42649 0.638346 1
0.505074 0.627573 1
0.583978 0.615183 1
0.780285 0.600214 1
0 0.861784 1
0 0.849287 1
0 0.836805 1
0.0590219 0.824308 1
0.278813 0.811795 1
0.40351 0.799222 1
0.487404 0.786587 1
0.553765 0.773785 1
0.703868 0.758389 1
0 0 1
0.0187533 0 1
0.258137 0 1
0.392706 0 1
0.480827 0 1
0.546731 0 1
0.674815 0 1
0.873655 0 1
1 0 1
0 0.00077821 1
0 0 1
0.216266 0 1
0.367544 0 1
0.463691 0 1
0.532738 0 1
0.638804 0 1
0.82916 0 1
1 0 1
0 0.220127 1
0 0.207004 1
0.1682 0.193225 1
0.339025 0.179034 1
0.444785 0.162707 1
0.518929 0.143725 1
0.606409 0.124254 1
0.784894 0.105348 1
0.998352 0.0870832 1
0 0.351629 1
0 0.343252 1
0.102586 0.334386 1
0.306294 0.325002 1
0.423667 0.315084 1
0.503777 0.304738 1
0.578393 0.294102 1
0.741207 0.283406 1
0.952361 0.272755 1
0 0.43975 1
0 0.433951 1
0.0347753 0.427863 1
0.268498 0.421424 1
0.399832 0.414603 1
0.486976 0.407401 1
0.555291 0.399939 1
0.69839 0.392432 1
0.905882 0.385077 1
0 0.504753 1
0 0.500404 1
0 0.495888 1
0.225132 0.491142 1
0.3729 0.486091 1
0.468101 0.48069 1
0.537209 0.474952 1
0.656825 0.469062 1
0.85861 0.46334 1
0 0.562692 1
0 0.556985 1
0 0.551614 1
0.176837 0.546532 1
0.342672 0.541711 1
0.447028 0.537118 1
0.521431 0.532769 1
0.617029 0.527855 1
0.809842 0.522927 1
0 0.681666 1
0 0.670893 1
0 0.660288 1
0.113573 0.64979 1
0.309377 0.639353 1
0.42414 0.628885 1
0.503639 0.618158 1
0.580285 0.60676 1
0.75729 0.594766 1
0 0.850446 1
0 0.837842 1
0 0.825238 1
0.0489204 0.812573 1
0.273213 0.799817 1
0.400198 0.786877 1
0.485267 0.773617 1
0.551644 0.759609 1
0.694087 0.743099 1
