luts/Crizo Mzeyah Kenya.cube
TITLE "Generated by Resolve"
LUT_3D_SIZE 5
0.0428473 0.0455024 0.0645151
0.540337 0.0672007 0.0728008
0.625589 0 0.0803082
0.625589 0 0.0803082
0.625589 0 0.0803082
0 0.257496 0.115892
0.264729 0.224506 0.0931106
0.678416 0.135546 0.0856184
0.625589 0 0.0803082
0.625589 0 0.0803082
0 0.45185 0.154391
0 0.440131 0.150469
0.908812 0.734127 0
0.950988 0.687266 0
0.913069 0.600763 0.00289921
0 0.490166 0.178561
0 0.490166 0.178561
0.531975 0.687526 0.136995
1 0.817197 0
1 0.811749 0
0 0.490166 0.178561
0 0.490166 0.178561
0 0.490166 0.178561
0.940078 0.806332 0
1 0.818509 0
0 0 0.484062
0.599283 0 0.546258
0.684764 0 0.475395
0.670451 0 0.362463
0.658625 0 0.24799
0 0.310063 0.395499
0.227008 0.224353 0.22623
0.667414 0.109712 0.0892653
0.625589 0 0.0803082
0.625589 0 0.0803082
0 0.450416 0.153735
0 0.437934 0.149996
0.89865 0.725399 0
0.945129 0.673503 0
0.904372 0.582025 0.00714122
0 0.490166 0.178561
0 0.490166 0.178561
0.494026 0.673075 0.138613
1 0.816709 0
1 0.810162 0
0 0.490166 0.178561
0 0.490166 0.178561
0 0.490166 0.178561
0.930632 0.803891 0.000442512
1 0.818509 0
0 0 0.56968
0.627604 0 0.694194
0.745449 0 0.719356
0.745449 0 0.719356
0.740932 0 0.710231
0 0.320165 0.719738
0.00494392 0.23061 0.693202
0.712886 0 0.666773
0.71664 0 0.65243
0.709728 0 0.631662
0 0.592645 0.801892
0 0.576242 0.769985
0.872221 0.819577 0.819715
0.952926 0.746136 0.721019
0.916365 0.62858 0.594949
0 0.606027 0.699046
0 0.590005 0.606561
0.333318 0.699763 0.46952
1 0.816846 0.00608835
1 0.806455 0
0 0.52163 0.290318
0 0.490166 0.178561
0 0.490166 0.178561
0.91014 0.798321 0.00900282
1 0.818509 0
0 0 0.56968
0.59321 0 0.689998
0.745449 0 0.719356
0.745449 0 0.719356
0.745449 0 0.719356
0 0.267903 0.697276
0 0.164096 0.66508
0.732631 0 0.711284
0.745449 0 0.719356
0.745449 0 0.719356
0 0.59266 0.822263
0 0.576211 0.8168
0.822003 0.799008 0.934081
0.941802 0.73315 0.926482
0.909499 0.627283 0.898131
0 0.630747 0.841657
0 0.630747 0.841657
6.10361e-05 0.729152 0.881285
0.986847 0.926177 0.960723
0.997253 0.917632 0.942763
0 0.626627 0.834974
0 0.626062 0.827359
0 0.621469 0.802258
0.858351 0.896361 0.862776
1 0.9149 0.798352
0 0 0.56968
0.558221 0 0.685389
0.745449 0 0.719356
0.745449 0 0.719356
0.745449 0 0.719356
0 0.214893 0.67538
0 0.00373846 0.626551
0.729122 0 0.710063
0.745449 0 0.719356
0.745449 0 0.719356
0 0.588388 0.822126
0 0.5691 0.813931
0.7841 0.767727 0.924819
0.930999 0.698085 0.917205
0.895766 0.582208 0.885527
0 0.630747 0.841657
0 0.629282 0.840833
0 0.697627 0.872953
0.980056 0.923003 0.971038
0.9935 0.911711 0.96791
0 0.630747 0.841657
0 0.630747 0.841657
0 0.630747 0.841657
0.80444 0.895872 0.956344
0.999954 0.936339 0.975418
