luts/Crizo Mzeyah 2021.cube
TITLE "Generated by Resolve"
LUT_3D_SIZE 5
0 0 0
0.339422 0 0
0.516243 0 0
0.763867 0 0
1 0 0
0 0.295979 0
0.25301 0.270436 0
0.482628 0.243473 0
0.677211 0.218402 0
1 0.193439 0
0 0.474968 0
0.146426 0.464393 0
0.441398 0.452171 0
0.601617 0.439826 0
0.986999 0.427756 0
0 0.611917 0
0.0186007 0.594705 0
0.395285 0.578195 0
0.550195 0.56347 0
0.885344 0.551247 0
0 0.936522 0
0 0.909682 0
0.343297 0.881651 0
0.520333 0.852735 0
0.787289 0.823926 0
0 0 0.421195
0.321965 0 0.405783
0.51014 0 0.381949
0.747265 0 0.362173
1 0 0.344228
0 0.277745 0.361746
0.224994 0.251164 0.351354
0.47895 0.220264 0.317937
0.666209 0.195621 0.298482
1 0.170153 0.279698
0 0.467369 0.290974
0.0988479 0.457572 0.256565
0.431647 0.44419 0.220706
0.592813 0.430167 0.208362
0.97258 0.417578 0.192874
0 0.599161 0.214572
0 0.584085 0.176852
0.380179 0.569177 0.127123
0.542489 0.555016 0.0915541
0.868009 0.543648 0.0696269
0 0.916671 0.119051
0 0.890852 0.0704967
0.325063 0.863584 0.0214694
0.512444 0.834424 0
0.766598 0.804654 0
0 0 0.695476
0.298482 0 0.675425
0.500679 0 0.645502
0.725155 0 0.616678
1 0 0.593484
0 0.257664 0.618051
0.208988 0.230625 0.608682
0.468299 0.199161 0.589578
0.650355 0.172107 0.565255
1 0.141161 0.549661
0 0.458259 0.558831
0.0702678 0.447715 0.549584
0.417197 0.43415 0.543847
0.586725 0.418387 0.528099
0.958831 0.406256 0.519219
0 0.586114 0.52604
0 0.572869 0.516258
0.360906 0.560769 0.502754
0.535454 0.547478 0.48806
0.853651 0.536538 0.483452
0 0.895506 0.497581
0 0.870619 0.486091
0.30428 0.845029 0.472251
0.502937 0.816815 0.457023
0.745495 0.785504 0.446143
0 0 1
0.277485 0 1
0.490471 0 1
0.69958 0 1
1 0 1
0 0.238819 1
0.189227 0.2121 1
0.455528 0.182452 1
0.627497 0.148241 1
1 0.112657 1
0 0.448905 1
0.054963 0.4374 1
0.409537 0.42385 1
0.570016 0.408286 1
0.937591 0.394842 0.990326
0 0.573663 0.997818
0 0.561425 0.974121
0.349599 0.550408 0.951141
0.526192 0.53933 0.93547
0.843122 0.529091 0.881193
0 0.873152 0.900145
0 0.848386 0.871427
0.285542 0.823667 0.839124
0.491432 0.79852 0.797635
0.722164 0.766705 0.752071
0 0 1
0.258137 0 1
0.480827 0 1
0.674815 0 1
1 0 1
0 0.220127 1
0.1682 0.193225 1
0.444785 0.162707 1
0.606409 0.124254 1
0.998352 0.0870832 1
0 0.43975 1
0.0347753 0.427863 1
0.399832 0.414603 1
0.555291 0.399939 1
0.905882 0.385077 1
0 0.562692 1
0 0.551614 1
0.342672 0.541711 1
0.521431 0.532769 1
0.809842 0.522927 1
0 0.850446 1
0 0.825238 1
0.273213 0.799817 1
0.485267 0.773617 1
0.694087 0.743099 1
