luts/Crizo Mzeyah Kenya.cube
TITLE "Generated by Resolve"
LUT_3D_SIZE 33
0.0428473 0.0455024 0.0645151
0.0424964 0.0446326 0.0568856
0.0672465 0.051667 0.0576028
0.14728 0.068925 0.0598611
0.239567 0.0845655 0.0610361
0.341985 0.0908064 0.0625315
0.425254 0.0899519 0.0650797
0.49305 0.0807965 0.069398
0.540337 0.0672007 0.0728008
0.572534 0.0514076 0.0749523
0.594354 0.0328222 0.0767376
0.608759 0.00534066 0.0780804
0.618387 0 0.0793011
0.625254 0 0.0802625
0.625589 0 0.0803082
0.625589 0 0.0803082
0.625589 0 0.0803082
0.625589 0 0.0803082
0.625589 0 0.0803082
0.625589 0 0.0803082
0.625589 0 0.0803082
0.625589 0 0.0803082
0.625589 0 0.0803082
0.625589 0 0.0803082
0.625589 0 0.0803082
0.625589 0 0.0803082
0.625589 0 0.0803082
0.625589 0 0.0803082
0.625589 0 0.0803082
0.625589 0 0.0803082
0.625589 0 0.0803082
0.625589 0 0.0803082
0.625589 0 0.0803082
0.0426642 0.0436255 0.0532998
0.0426642 0.0436255 0.0532998
0.0426642 0.0436255 0.0532998
0.0932021 0.057908 0.0584573
0.180682 0.0754864 0.0603342
0.275074 0.0872663 0.0614786
0.374578 0.0914473 0.0631266
0.451835 0.0874189 0.0665293
0.513695 0.0766155 0.0708782
0.554116 0.0609598 0.0737011
0.582238 0.0442054 0.0757305
0.60061 0.025742 0.0772869
0.61323 0 0.078584
0.621027 0 0.0796674
0.625589 0 0.0803082
0.625589 0 0.0803082
0.625589 0 0.0803082
0.625589 0 0.0803082
0.625589 0 0.0803082
0.625589 0 0.0803082
0.625589 0 0.0803082
0.625589 0 0.0803082
0.625589 0 0.0803082
0.625589 0 0.0803082
0.625589 0 0.0803082
0.625589 0 0.0803082
0.625589 0 0.0803082
0.625589 0 0.0803082
0.625589 0 0.0803082
0.625589 0 0.0803082
0.625589 0 0.0803082
0.625589 0 0.0803082
0.625589 0 0.0803082
0.0426642 0.0436255 0.0532998
0.0426642 0.0436255 0.0532998
0.0426642 0.0436255 0.0532998
0.0553902 0.0479896 0.056733
0.119203 0.0640879 0.0594034
0.213581 0.08159 0.0605631
0.315267 0.0894331 0.0619669
0.406836 0.0909133 0.0642405
0.479454 0.0832074 0.0684367
0.532311 0.070634 0.0722515
0.567407 0.0549172 0.0745556
0.59115 0.0355535 0.076463
0.606485 0.00880446 0.077821
0.616907 0 0.0790875
0.623957 0 0.0800793
0.625589 0 0.0803082
0.625589 0 0.0803082
0.625589 0 0.0803082
0.625589 0 0.0803082
0.625589 0 0.0803082
0.625589 0 0.0803082
0.625589 0 0.0803082
0.625589 0 0.0803082
0.625589 0 0.0803082
0.625589 0 0.0803082
0.625589 0 0.0803082
0.625589 0 0.0803082
0.625589 0 0.0803082
0.625589 0 0.0803082
0.625589 0 0.0803082
0.625589 0 0.0803082
0.625589 0 0.0803082
0.625589 0 0.0803082
0.0462196 0.0547951 0.0583963
0.0436866 0.0456245 0.0543526
0.0426642 0.0436255 0.0532998
0.0426642 0.0436255 0.0532998
0.0776226 0.0537575 0.0579232
0.159274 0.0710307 0.0600137
0.252216 0.0858473 0.0613107
0.356619 0.0910964 0.0627909
0.438941 0.0886397 0.0658274
0.50515 0.0784619 0.0702678
0.549172 0.0632029 0.0733806
0.579187 0.0467536 0.0754864
0.598688 0.0291295 0.0771191
0.611856 0.00149538 0.0784314
0.620188 0 0.0795605
0.625589 0 0.0803082
0.625589 0 0.0803082
0.625589 0 0.0803082
0.625589 0 0.0803082
0.625589 0 0.0803082
0.625589 0 0.0803082
0.625589 0 0.0803082
0.625589 0 0.0803082
0.625589 0 0.0803082
0.625589 0 0.0803082
0.625589 0 0.0803082
0.625589 0 0.0803082
0.625589 0 0.0803082
0.625589 0 0.0803082
0.625589 0 0.0803082
0.625589 0 0.0803082
0.625589 0 0.0803082
0.625589 0 0.0803082
0.0380407 0.0855726 0.0700236
0.0428626 0.0731975 0.0659342
0.046952 0.0612192 0.0620737
0.0462501 0.0548714 0.0584573
0.0466926 0.0472419 0.0559243
0.101671 0.0605631 0.0588083
0.196628 0.0785229 0.0604715
0.297185 0.0885023 0.0615854
0.394965 0.0912642 0.0637675
0.470939 0.0845197 0.0678416
0.527382 0.072221 0.0718853
0.56437 0.0563058 0.0743572
0.589364 0.0372778 0.0763256
0.605371 0.0120241 0.0777142
0.616251 0 0.078996
0.623499 0 0.0800183
0.625589 0 0.0803082
0.625589 0 0.0803082
0.625589 0 0.0803082
0.625589 0 0.0803082
0.625589 0 0.0803082
0.625589 0 0.0803082
0.625589 0 0.0803082
0.625589 0 0.0803082
0.625589 0 0.0803082
0.625589 0 0.0803082
0.625589 0 0.0803082
0.625589 0 0.0803082
0.625589 0 0.0803082
0.625589 0 0.0803082
0.625589 0 0.0803082
0.625589 0 0.0803082
0.625589 0 0.0803082
0 0.120867 0.0819409
0.0163272 0.106874 0.0777905
0.030869 0.095552 0.0739452
0.0378424 0.0860914 0.0702068
0.0419776 0.0753796 0.0665599
0.0676432 0.0708324 0.0665904
0.158633 0.0847944 0.0654307
0.251728 0.0901503 0.0628367
0.344076 0.0908522 0.062562
0.431022 0.0894026 0.0654002
0.500374 0.0793774 0.0699168
0.546609 0.0643626 0.0732128
0.577707 0.0477913 0.0753643
0.597894 0.0298161 0.0770428
0.611368 0.00210575 0.0783703
0.620035 0 0.07953
0.625589 0 0.0803082
0.625589 0 0.0803082
0.625589 0 0.0803082
0.625589 0 0.0803082
0.625589 0 0.0803082
0.625589 0 0.0803082
0.625589 0 0.0803082
0.625589 0 0.0803082
0.625589 0 0.0803082
0.625589 0 0.0803082
0.625589 0 0.0803082
0.625589 0 0.0803082
0.625589 0 0.0803082
0.625589 0 0.0803082
0.625589 0 0.0803082
0.625589 0 0.0803082
0.625589 0 0.0803082
0 0.167544 0.0947738
0 0.152895 0.0906233
0 0.138262 0.0865492
0 0.123323 0.0825818
0.0108034 0.110475 0.0788891
0.0283055 0.0986954 0.075227
0.116075 0.110964 0.0768749
0.230747 0.124681 0.0741741
0.340536 0.126299 0.0715648
0.438209 0.117983 0.0703899
0.496101 0.0986343 0.0709087
0.525429 0.0728466 0.0717479
0.563516 0.0566873 0.0743114
0.588998 0.037644 0.0762951
0.605264 0.0123445 0.0777142
0.616342 0 0.0790112
0.623682 0 0.0800488
0.625589 0 0.0803082
0.625589 0 0.0803082
0.625589 0 0.0803082
0.625589 0 0.0803082
0.625589 0 0.0803082
0.625589 0 0.0803082
0.625589 0 0.0803082
0.625589 0 0.0803082
0.625589 0 0.0803082
0.625589 0 0.0803082
0.625589 0 0.0803082
0.625589 0 0.0803082
0.625589 0 0.0803082
0.625589 0 0.0803082
0.625589 0 0.0803082
0.625589 0 0.0803082
0 0.211154 0.106477
0 0.196979 0.103166
0 0.184283 0.0996414
0 0.172076 0.0960861
0 0.159533 0.0925002
0 0.146456 0.0887922
0.0332799 0.13933 0.0867475
0.1738 0.157168 0.086183
0.309102 0.170718 0.0822766
0.432181 0.173404 0.0797131
0.521462 0.166155 0.0788128
0.580285 0.145953 0.079469
0.610864 0.119951 0.0803235
0.622889 0.0975967 0.0803082
0.620233 0.065095 0.0793774
0.611811 0.00155642 0.0784161
0.620386 0 0.0795758
0.625589 0 0.0803082
0.625589 0 0.0803082
0.625589 0 0.0803082
0.625589 0 0.0803082
0.625589 0 0.0803082
0.625589 0 0.0803082
0.625589 0 0.0803082
0.625589 0 0.0803082
0.625589 0 0.0803082
0.625589 0 0.0803082
0.625589 0 0.0803082
0.625589 0 0.0803082
0.625589 0 0.0803082
0.625589 0 0.0803082
0.625589 0 0.0803082
0.625589 0 0.0803082
0 0.257496 0.115892
0 0.243702 0.113237
0 0.230518 0.110689
0 0.218463 0.108186
0 0.206836 0.10547
0 0.194873 0.102678
0 0.183383 0.099382
0.11075 0.198566 0.0973831
0.264729 0.224506 0.0931106
0.401297 0.235554 0.0877089
0.523491 0.233875 0.0852064
0.599771 0.218952 0.0853285
0.648173 0.201816 0.0862135
0.670329 0.184131 0.0863508
0.680079 0.169711 0.0860761
0.68162 0.154086 0.0856947
0.678416 0.135546 0.0856184
0.671458 0.117723 0.0851759
0.656901 0.0940108 0.083299
0.637583 0.0538186 0.0813153
0.625589 0 0.0803082
0.625589 0 0.0803082
0.625589 0 0.0803082
0.625589 0 0.0803082
0.625589 0 0.0803082
0.625589 0 0.0803082
0.625589 0 0.0803082
0.625589 0 0.0803082
0.625589 0 0.0803082
0.625589 0 0.0803082
0.625589 0 0.0803082
0.625589 0 0.0803082
0.625589 0 0.0803082
0 0.303288 0.125139
0 0.29163 0.122606
0 0.280278 0.120272
0 0.268696 0.118059
0 0.257374 0.115877
0 0.246021 0.11368
0 0.234546 0.111467
0 0.230228 0.109682
0.190616 0.268894 0.104982
0.361074 0.29575 0.0963455
0.505211 0.306355 0.0903029
0.607889 0.304219 0.0878614
0.673426 0.291005 0.0878309
0.707668 0.274495 0.0887922
0.723522 0.256992 0.0895094
0.729839 0.241428 0.0903487
0.730678 0.228351 0.0906386
0.727947 0.217334 0.0911727
0.721614 0.204364 0.0905623
0.710521 0.186847 0.0891585
0.699351 0.167239 0.0881361
0.688258 0.146242 0.0870222
0.676844 0.125551 0.0858015
0.664408 0.106401 0.0842756
0.649836 0.0787366 0.082536
0.632792 0.0424048 0.0808728
0.625589 0 0.0803082
0.625589 0 0.0803082
0.625589 0 0.0803082
0.625589 0 0.0803082
0.625589 0 0.0803082
0.625589 0 0.0803082
0.625589 0 0.0803082
0 0.341955 0.13286
0 0.332952 0.131151
0 0.324575 0.129534
0 0.316411 0.127962
0 0.30724 0.125994
0 0.29781 0.123949
0 0.288029 0.121828
0 0.277394 0.119722
0.0737469 0.305486 0.115358
0.304097 0.350195 0.106859
0.466423 0.374945 0.0948501
0.602853 0.382544 0.0881819
0.686625 0.375402 0.0860914
0.737881 0.36228 0.086183
0.761379 0.345876 0.0877394
0.772824 0.332998 0.0892042
0.775799 0.322057 0.0899977
0.775677 0.312734 0.0909133
0.773419 0.303243 0.0922255
0.764431 0.284566 0.0926528
0.754925 0.264775 0.0928359
0.745403 0.245487 0.0928206
0.735958 0.228428 0.0920729
0.726421 0.211826 0.0911879
0.716945 0.197101 0.0899367
0.707393 0.181353 0.0888685
0.697581 0.164111 0.0879683
0.688045 0.14583 0.0870069
0.677974 0.127428 0.0859236
0.666911 0.109895 0.0846265
0.653849 0.0874342 0.0829786
0.637736 0.0540932 0.0813306
0.625589 0 0.0803082
0 0.375784 0.138613
0 0.36846 0.137438
0 0.361563 0.136278
0 0.35465 0.135073
0 0.347738 0.133867
0 0.340917 0.132677
0 0.33344 0.131243
0 0.325582 0.129732
0 0.330556 0.129519
0.211872 0.391516 0.117739
0.41706 0.436667 0.102235
0.577737 0.45922 0.0870069
0.687617 0.463294 0.0778363
0.756817 0.453925 0.0749828
0.792218 0.438651 0.0775921
0.808927 0.422538 0.0804913
0.815946 0.409613 0.082948
0.817884 0.399039 0.0850843
0.8168 0.39115 0.0870375
0.812314 0.378851 0.0890059
0.803525 0.361547 0.0901656
0.79472 0.344488 0.0911269
0.785931 0.327352 0.0918898
0.777371 0.310414 0.0922103
0.768719 0.293324 0.092546
0.760571 0.276524 0.0927291
0.752285 0.259312 0.0928817
0.744106 0.243153 0.0927138
0.735958 0.228428 0.0920729
0.727428 0.213382 0.0913252
0.718944 0.200214 0.0902113
0.709651 0.185336 0.0890669
0.700389 0.16907 0.0882277
0 0.404028 0.143374
0 0.39852 0.142412
0 0.393423 0.141527
0 0.388479 0.140673
0 0.38294 0.139773
0 0.376989 0.138811
0 0.370871 0.137819
0 0.364645 0.136812
0 0.357458 0.135561
0.0580453 0.406989 0.128008
0.348547 0.472236 0.11191
0.529458 0.513527 0.0892348
0.673671 0.533654 0.0666056
0.762524 0.536034 0.0527962
0.815198 0.527123 0.0455024
0.839063 0.511818 0.052781
0.85095 0.49897 0.0634318
0.854459 0.487358 0.0679789
0.854658 0.477119 0.0715038
0.852995 0.467674 0.0758831
0.845655 0.450568 0.079057
0.837919 0.433082 0.0822309
0.830259 0.416205 0.084947
0.822797 0.400656 0.0866407
0.815396 0.38529 0.0883192
0.808011 0.370245 0.0896925
0.800671 0.356023 0.090486
0.793256 0.34165 0.0912795
0.785855 0.327184 0.0918898
0.778363 0.312383 0.0921798
0.77055 0.296941 0.0924697
0.762493 0.280552 0.0926833
0.754604 0.264134 0.0928359
0 0.422385 0.147158
0 0.419516 0.146609
0 0.416281 0.145937
0 0.412833 0.145205
0 0.40943 0.144472
0 0.405982 0.14374
0 0.40148 0.142931
0 0.396475 0.142061
0 0.391241 0.141146
0 0.409796 0.140322
0.243244 0.48716 0.121233
0.46656 0.547463 0.0953231
0.636149 0.581949 0.0588388
0.750042 0.596506 0.0123293
0.823545 0.596475 0.00077821
0.860716 0.586892 0.00105287
0.878141 0.574075 0.00961318
0.885969 0.564691 0.00846876
0.888594 0.556542 0.0126955
0.88777 0.548638 0.027512
0.883955 0.537179 0.0417945
0.87689 0.521538 0.0569162
0.86978 0.505348 0.0627909
0.862852 0.48957 0.0685283
0.856092 0.474174 0.0741283
0.849683 0.459709 0.077409
0.843244 0.445136 0.0800488
0.836713 0.430365 0.0827192
0.830259 0.416205 0.084947
0.82356 0.402258 0.0864729
0.81677 0.388144 0.0879988
0.809476 0.373098 0.0895247
0.802228 0.359045 0.0903182
0 0.434974 0.149416
0 0.432776 0.14905
0 0.430747 0.148714
0 0.428779 0.148394
0 0.426398 0.147951
0 0.42388 0.147463
0 0.421302 0.14696
0 0.418585 0.146426
0 0.414816 0.145617
0 0.410788 0.144762
0.0647898 0.480964 0.13138
0.385351 0.55874 0.107027
0.573968 0.610681 0.0648203
0.722469 0.642298 0.000732433
0.816266 0.654002 1.5259e-05
0.872297 0.652079 0
0.898146 0.641718 0
0.911742 0.632303 1.5259e-05
0.916442 0.62356 0
0.917723 0.616251 0
0.917159 0.609918 0.000701915
0.911421 0.597192 0.00370794
0.905409 0.584237 0.00663767
0.899474 0.571466 0.00953689
0.8934 0.558068 0.0214389
0.887358 0.544717 0.0344549
0.881575 0.531914 0.0469368
0.875578 0.518547 0.0579995
0.869429 0.504555 0.0630808
0.863203 0.490364 0.0682383
0.85687 0.475975 0.0734722
0.850202 0.460868 0.0771954
0.84358 0.445914 0.0799115
0 0.444633 0.151614
0 0.443091 0.151125
0 0.441321 0.150744
0 0.439628 0.150362
0 0.437934 0.149996
0 0.436179 0.149599
0 0.434104 0.149264
0 0.431922 0.148913
0 0.429633 0.148531
0 0.427024 0.148058
0 0.459037 0.145556
0.270985 0.546822 0.120348
0.498375 0.617655 0.0827039
0.672312 0.663218 0.00392157
0.791928 0.690715 0
0.870283 0.701076 0
0.909834 0.698268 0
0.930068 0.691157 0
0.939529 0.685039 0
0.942672 0.677455 0
0.942428 0.670375 0
0.940185 0.66186 0
0.935256 0.650446 0
0.930083 0.638697 0
0.925048 0.627253 0
0.920165 0.616159 0
0.914977 0.604852 0.00196841
0.909667 0.593439 0.00456245
0.904448 0.582193 0.0071107
0.899077 0.570611 0.00973526
0.893233 0.557702 0.0218051
0.887022 0.543954 0.0352026
0.880812 0.530221 0.0485847
0 0.45185 0.154391
0 0.450568 0.153796
0 0.449393 0.153246
0 0.448096 0.152728
0 0.446693 0.152285
0 0.445274 0.151827
0 0.443793 0.151354
0 0.442069 0.150912
0 0.440131 0.150469
0 0.438087 0.150027
0 0.435996 0.149569
0.0947127 0.519493 0.13228
0.409735 0.603937 0.102434
0.600748 0.663935 0.031754
0.751736 0.705638 0
0.849561 0.726207 0
0.908812 0.734127 0
0.938552 0.732708 0
0.954314 0.729183 0
0.960952 0.725216 0
0.963211 0.720684 0
0.962661 0.714626 0
0.959045 0.705882 0
0.9552 0.697093 0
0.950988 0.687266 0
0.946685 0.677134 0
0.942367 0.667002 0
0.938125 0.657023 0
0.933455 0.646372 0
0.92871 0.635584 0
0.923827 0.624491 0
0.9187 0.612863 0.00015259
0.913069 0.600763 0.00289921
0 0.458549 0.157656
0 0.45716 0.15697
0 0.455879 0.156344
0 0.454658 0.155749
0 0.453437 0.155154
0 0.452247 0.154589
0 0.451011 0.154009
0 0.44976 0.153414
0 0.448386 0.152819
0 0.446769 0.1523
0 0.445121 0.151781
0 0.489067 0.147295
0.29897 0.579095 0.11989
0.519966 0.652689 0.0730144
0.694987 0.704829 0
0.814908 0.737682 0
0.894102 0.753124 0
0.936751 0.758251 0
0.959991 0.758236 0
0.971191 0.756115 0
0.97641 0.753445 0
0.977661 0.750439 0
0.976699 0.745495 0
0.973678 0.738857 0
0.970687 0.732311 0
0.967758 0.725856 0
0.96408 0.717433 0
0.960464 0.709148 0
0.956847 0.700862 0
0.953048 0.692103 0
0.948745 0.681971 0
0.944228 0.671382 0
0.939788 0.660945 0
0 0.46772 0.163134
0 0.465583 0.161761
0 0.463844 0.160739
0 0.462196 0.159777
0 0.460578 0.158831
0 0.458915 0.15787
0 0.457572 0.157183
0 0.45626 0.156527
0 0.454887 0.155856
0 0.453468 0.155169
0 0.452079 0.154513
0 0.450706 0.153857
0.157 0.547799 0.133242
0.434226 0.631647 0.0999924
0.621332 0.692622 0.0198825
0.77023 0.738048 0
0.86717 0.762219 0
0.926207 0.773587 0
0.957992 0.776898 0
0.975555 0.777584 0
0.983383 0.775937 0
0.986969 0.773831 0
0.988083 0.771481 0
0.986465 0.767147 0
0.984192 0.762081 0
0.981979 0.757153 0
0.979767 0.752224 0
0.977096 0.746349 0
0.974243 0.740093 0
0.971374 0.733822 0
0.968475 0.727459 0
0.964843 0.719203 0
0.961074 0.710536 0
0 0.477943 0.16997
0 0.475776 0.16846
0 0.473747 0.167025
0 0.47187 0.165805
0 0.469993 0.164584
0 0.468101 0.163378
0 0.466117 0.162112
0 0.464271 0.160983
0 0.462486 0.159945
0 0.460594 0.158846
0 0.458656 0.157717
0 0.45716 0.15697
0 0.513741 0.148074
0.334249 0.602564 0.120607
0.542123 0.674617 0.0712596
0.712688 0.727596 0
0.829511 0.762188 0
0.906859 0.780392 0
0.94992 0.788464 0
0.974395 0.791363 0
0.986618 0.791913 0
0.992706 0.790753 0
0.99469 0.788968 0
0.994995 0.786618 0
0.993515 0.783123 0
0.991791 0.779217 0
0.990082 0.775311 0
0.988357 0.771405 0
0.986435 0.767071 0
0.984253 0.762219 0
0.98204 0.75729 0
0.979797 0.752285 0
0.97705 0.746258 0
0 0.487846 0.176928
0 0.485863 0.17554
0 0.483955 0.174212
0 0.482124 0.17293
0 0.480232 0.171588
0 0.478279 0.170214
0 0.476249 0.16878
0 0.474113 0.167285
0 0.472007 0.165881
0 0.469795 0.164462
0 0.467597 0.163058
0 0.465278 0.161578
0 0.463294 0.160418
0.222126 0.571756 0.137057
0.461845 0.650843 0.103563
0.640528 0.709407 0.0227054
0.782849 0.754116 0
0.876661 0.779171 0
0.935164 0.793103 0
0.967681 0.799008 0
0.986191 0.801724 0
0.995056 0.802304 0
0.998779 0.801266 0
0.999252 0.799603 0
0.999207 0.797589 0
0.998611 0.795193 0
0.99733 0.792126 0
0.996017 0.789029 0
0.994736 0.785962 0
0.993255 0.782544 0
0.991547 0.778637 0
0.989792 0.77467 0
0.988052 0.770703 0
0 0.490166 0.178561
0 0.490166 0.178561
0 0.490166 0.178561
0 0.490166 0.178561
0 0.489784 0.178286
0 0.487984 0.17702
0 0.486076 0.175692
0 0.484092 0.174304
0 0.481971 0.172808
0 0.479698 0.171221
0 0.477348 0.169558
0 0.474983 0.167895
0 0.472572 0.166247
0.0453498 0.540413 0.153155
0.375799 0.624231 0.129625
0.56669 0.6907 0.0861372
0.726604 0.739712 0.00396735
0.837446 0.773068 0
0.912627 0.792065 0
0.955779 0.802014 0
0.981048 0.806775 0
0.994217 0.808789 0
0.999908 0.808927 0
0.999985 0.807355 0
1 0.805997 0
1 0.804654 0
0.999878 0.802976 0
0.999619 0.800977 0
0.999374 0.798962 0
0.999115 0.796948 0
0.998245 0.794308 0
0.996887 0.791104 0
0.995575 0.787961 0
0 0.490166 0.178561
0 0.490166 0.178561
0 0.490166 0.178561
0 0.490166 0.178561
0 0.490166 0.178561
0 0.490166 0.178561
0 0.490166 0.178561
0 0.490166 0.178561
0 0.490166 0.178561
0 0.488914 0.177676
0 0.486702 0.17612
0 0.484413 0.174517
0 0.482124 0.17293
0 0.4972 0.169726
0.284413 0.597635 0.148806
0.496468 0.669856 0.120516
0.66154 0.722683 0.069688
0.792172 0.762493 6.10361e-05
0.881804 0.787106 3.0518e-05
0.938796 0.80177 0
0.97142 0.808789 0
0.990631 0.812604 0
0.999512 0.813764 0
1 0.812329 0
1 0.8112 0
1 0.810193 0
1 0.809232 0
1 0.80798 0
1 0.806668 0
1 0.805371 0
1 0.804074 0
0.999756 0.802029 0
0.999496 0.799969 0
0 0.490166 0.178561
0 0.490166 0.178561
0 0.490166 0.178561
0 0.490166 0.178561
0 0.490166 0.178561
0 0.490166 0.178561
0 0.490166 0.178561
0 0.490166 0.178561
0 0.490166 0.178561
0 0.490166 0.178561
0 0.490166 0.178561
0 0.490166 0.178561
0 0.490166 0.178561
0 0.488533 0.177401
0.174533 0.568261 0.162829
0.420905 0.646113 0.143694
0.596201 0.706004 0.113695
0.741848 0.749081 0.0602426
0.843458 0.778408 0.00350958
0.915389 0.797452 0
0.957641 0.808011 0
0.983215 0.813733 0
0.996963 0.816632 0
1 0.816098 0
1 0.814908 0
1 0.813993 0
1 0.813275 0
1 0.812482 0
1 0.811536 0
1 0.81059 0
1 0.809628 0
1 0.808484 0
1 0.807126 0
0 0.490166 0.178561
0 0.490166 0.178561
0 0.490166 0.178561
0 0.490166 0.178561
0 0.490166 0.178561
0 0.490166 0.178561
0 0.490166 0.178561
0 0.490166 0.178561
0 0.490166 0.178561
0 0.490166 0.178561
0 0.490166 0.178561
0 0.490166 0.178561
0 0.490166 0.178561
0 0.490166 0.178561
0 0.528038 0.173678
0.334295 0.619638 0.158251
0.531975 0.687526 0.136995
0.68484 0.735225 0.107271
0.80206 0.768841 0.0581979
0.885405 0.790509 0.00424201
0.939681 0.804776 1.5259e-05
0.971954 0.812451 0
0.991455 0.817044 0
1 0.818586 0
1 0.817197 0
1 0.816419 0
1 0.81593 0
1 0.815579 0
1 0.814908 0
1 0.814206 0
1 0.813474 0
1 0.812726 0
1 0.811749 0
0 0.490166 0.178561
0 0.490166 0.178561
0 0.490166 0.178561
0 0.490166 0.178561
0 0.490166 0.178561
0 0.490166 0.178561
0 0.490166 0.178561
0 0.490166 0.178561
0 0.490166 0.178561
0 0.490166 0.178561
0 0.490166 0.178561
0 0.490166 0.178561
0 0.490166 0.178561
0 0.490166 0.178561
0 0.490166 0.178561
0.224918 0.582818 0.164431
0.451011 0.658991 0.147738
0.61912 0.716365 0.124376
0.756603 0.757366 0.0960861
0.850828 0.783368 0.0614481
0.917449 0.800107 0.00503548
0.9579 0.810254 0
0.983032 0.816068 0
0.996872 0.819135 0
1 0.818723 0
1 0.817777 0
1 0.817136 0
1 0.816968 0
1 0.816663 0
1 0.816327 0
1 0.815991 0
1 0.815625 0
1 0.814969 0
0 0.490166 0.178561
0 0.490166 0.178561
0 0.490166 0.178561
0 0.490166 0.178561
0 0.490166 0.178561
0 0.490166 0.178561
0 0.490166 0.178561
0 0.490166 0.178561
0 0.490166 0.178561
0 0.490166 0.178561
0 0.490166 0.178561
0 0.490166 0.178561
0 0.490166 0.178561
0 0.490166 0.178561
0 0.490166 0.178561
0.00135805 0.54258 0.17084
0.357519 0.627558 0.156588
0.548348 0.693248 0.135103
0.699321 0.740475 0.109895
0.81062 0.772839 0.0791333
0.889845 0.793118 0.0302892
0.940917 0.806546 0
0.972 0.814237 0
0.991119 0.819013 0
1 0.820615 0
1 0.819104 0
1 0.818158 0
1 0.817639 0
1 0.817456 0
1 0.817304 0
1 0.817136 0
1 0.816968 0
1 0.816663 0
0 0.490166 0.178561
0 0.490166 0.178561
0 0.490166 0.178561
0 0.490166 0.178561
0 0.490166 0.178561
0 0.490166 0.178561
0 0.490166 0.178561
0 0.490166 0.178561
0 0.490166 0.178561
