luts/Cross Process CP130.cube
TITLE "Generated by Resolve"
LUT_3D_SIZE 33
0 0 0
0 0 0
0 0 0
0 0 0
0 0 0
0 0 0
0 0 0
0 0 0
0 0 0
0 0 0
9.15541e-05 0 0
0.00482185 0 0
0.0111849 0 0
0.0177768 0 0
0.0248112 0 0
0.0322423 0 0
0.0400092 0 0
0.0479591 0 0
0.0560311 0 0
0.0689403 0 0
0.0972152 0 0
0.134234 0 0
0.176089 0 0
0.221912 0 0
0.271412 0 0
0.32517 0 0
0.384741 0 0
0.447974 0 0
0.508659 0 0
0.563973 0 0
0.613275 0 0
0.658244 0 0
0.700023 0 0
0 0 0
0 0 0
0 0 0
0 0 0
0 0 0
0 0 0
0 0 0
0 0 0
0 0 0
0.00274662 0 0
0.00770581 0 0
0.0143282 0 0
0.0216831 0 0
0.0292515 0 0
0.0369726 0 0
0.044831 0 0
0.059968 0 0
0.083711 0 0
0.112917 0 0
0.146044 0 1.5259e-05
0.184863 0 0
0.227771 0 0
0.273823 0 0
0.32224 0 0
0.37319 0 0
0.427451 0 0
0.488029 0 0
0.551858 0 0
0.611399 0 0
0.663157 0 0
0.707469 0 0
0.746166 0 0
0.781338 0 0
0 0 0
0 0 0
0 0 0
0 0 0
0 0 0
0 0 0
0 0 0
0.00177005 0 0
0.00680552 0 0
0.0135653 0 0
0.0210422 0 0
0.0288243 0 0
0.0374304 0 0
0.0541848 0 0
0.0767071 0 0.000259403
0.102998 0 0.000732433
0.13373 0 0.000946059
0.169467 0 0.000823987
0.208347 0 0.000381476
0.249653 0 6.10361e-05
0.293202 0 0
0.338949 0 0
0.386694 0 0
0.435355 0 0
0.485328 0 0
0.538491 0 0
0.598566 0 0
0.661357 0 0
0.717739 0 0
0.763485 0 0
0.799786 0 0
0.82974 0 0
0.855924 0 0
0 0 0
0 0 0
0 0 0
0 0 0
0 0 0
0.00102235 0 0
0.00611887 0 0
0.0127413 0 0
0.0203098 0 0
0.0305333 0 0
0.0468605 0 3.0518e-05
0.0671397 0 0.000671397
0.0903487 0 0.00117494
0.118074 0 0.00134279
0.149645 0 0.00123598
0.184344 0 0.000915541
0.22118 0 0.000366217
0.26009 0 0.000213626
0.300786 0 9.15541e-05
0.343343 0 1.5259e-05
0.387182 0 0
0.432624 0 0
0.47866 0 0
0.525139 0 0
0.572351 0 0
0.622797 0 0
0.680186 0 0
0.73959 0 0
0.790249 0 0
0.82855 0 0
0.856214 0 0
0.87689 0 0
0.893248 0 0
0 0 0
0 0 0
0 0 0
0.000549325 0 0
0.00552377 0 0
0.0119783 0 0
0.0225834 0 0
0.0371862 3.0518e-05 0.000289921
0.0547036 0.000701915 0.0009308
0.0752117 0.00120546 0.00134279
0.0993515 0.00117494 0.00141909
0.126513 0.000656138 0.00134279
0.156405 0.000106813 0.000946059
0.188571 0 0.000457771
0.223056 0 0.00030518
0.259342 0 0.000183108
0.297108 0 3.0518e-05
0.336248 0 0
0.376791 0 0
0.418265 0 0
0.460807 0 0
0.503761 0 0
0.546761 0 0
0.589731 0 0
0.632975 0 0
0.679088 0 0
0.731884 0 0
0.785626 0 0
0.829099 0 0
0.858976 0 0
0.877668 0 0
0.890684 0 0
0.901381 0 0
0 0 0
0.000228885 0 0
0.00520333 6.10361e-05 0
0.0135805 0.002121 0
0.0253758 0.00463874 0.000457771
0.0396735 0.00672923 0.0010071
0.0568704 0.00830091 0.00128176
0.0772564 0.00941482 0.00131228
0.100175 0.0101778 0.00114443
0.125475 0.0104372 0.00062562
0.153002 0.0101472 0.000396735
0.182712 0.00933852 0.00030518
0.214572 0.00817884 0.000167849
0.248127 0.00682078 3.0518e-05
0.283055 0.00521859 0
0.319188 0.00337224 0
0.356405 0.00134279 0
0.394659 0.000198367 0
0.433722 0 0
0.473045 0 0
0.512566 0 0
0.551949 0 0
0.591028 0 0
0.629435 0 0
0.667491 0 0
0.707591 0 0
0.754055 0 0
0.801221 0 0
0.839063 0 0
0.864759 0 0
0.88098 0 0
0.892317 0 0
0.902007 0 0
0.00541695 0.00776684 0
0.0116426 0.0105135 0.000518807
0.0222629 0.0136263 0.000961318
0.0356756 0.0168002 0.00106813
0.0517586 0.0196384 0.0010071
0.0703136 0.0218814 0.000671397
0.0913252 0.0235447 0.000396735
0.114549 0.0246281 0.000320439
0.139818 0.0251316 0.000228885
0.167102 0.0251774 7.62951e-05
0.196262 0.0247807 0
0.227085 0.0239872 0
0.259449 0.0228428 0
0.292958 0.0213626 0
0.327367 0.0196384 0
0.362615 0.0177462 0
0.398444 0.0157473 0
0.434714 0.0139467 0
0.471077 0.0124208 0
0.507164 0.0110018 0
0.542885 0.00967422 0
0.577966 0.00859083 0
0.612009 0.00773632 0
0.644907 0.00726329 0
0.677623 0.00675975 0
0.713527 0.00544747 0
0.757366 0.00233463 0
0.803067 0.000335698 0
0.839963 0 0
0.865095 0 0
0.881056 0.00177005 0
0.892317 0.0056611 0
0.901961 0.010193 0
0.0136721 0.0277867 0.00062562
0.023209 0.0310216 0.000457771
0.0372778 0.0345922 0.00030518
0.0538033 0.0375982 0.000274662
0.072694 0.0400092 0.000228885
0.0938888 0.041886 0.000106813
0.117098 0.0432136 1.5259e-05
0.142153 0.0440223 0
0.168963 0.0443885 0
0.197391 0.0443885 0
0.227375 0.0440986 0
0.258381 0.0434424 0
0.290394 0.0425269 0
0.32311 0.0413977 0
0.356329 0.0401923 0
0.389914 0.0389715 0
0.423545 0.0377813 0
0.456901 0.0366064 0
0.489693 0.0355535 0
0.521721 0.034699 0
0.553109 0.0341192 0
0.584344 0.0336309 0
0.615457 0.0332036 0
0.646479 0.0327764 0
0.678035 0.0322118 0
0.713298 0.0306706 0
0.756939 0.0268406 0
0.802762 0.0228885 0
0.839719 0.0213474 0
0.864866 0.0224765 0
0.880796 0.0261387 0
0.892073 0.0314488 0
0.901717 0.0372778 0
0.0162661 0.0534524 0.000167849
0.0280461 0.0563211 9.15541e-05
0.0449378 0.0594797 1.5259e-05
0.0641642 0.0621195 0
0.0854353 0.0641337 0
0.108629 0.0656138 0
0.133486 0.0666514 0
0.159945 0.0673381 0
0.187732 0.0676585 0
0.21677 0.0677348 0
0.246677 0.0675212 0
0.277226 0.0670939 0
0.308324 0.0665293 0
0.339757 0.0659342 0
0.371099 0.0653544 0
0.402228 0.0649119 0
0.432761 0.0645457 0
0.462898 0.0642557 0
0.493004 0.0640269 0
0.523125 0.0638285 0
0.553384 0.0636759 0
0.583886 0.0635233 0
0.614542 0.0632792 0
0.645441 0.0629892 0
0.677073 0.0625467 0
0.712428 0.0611124 0
0.756283 0.057435 0
0.802197 0.0531319 0
0.83917 0.0513161 0
0.864332 0.0528115 0
0.880308 0.0569619 0
0.89163 0.0625162 0
0.901289 0.0685283 0
0.0122835 0.082414 0
0.0263066 0.0848707 0
0.0458686 0.0875715 0
0.0673991 0.0896925 0
0.0906996 0.0912947 0
0.115557 0.0924697 0
0.141772 0.0933394 0
0.169085 0.0938888 0
0.197406 0.094255 0
0.226383 0.094377 0
0.255772 0.0943313 0
0.285374 0.0942092 0
0.315068 0.0941024 0
0.34461 0.0941329 0
0.373953 0.0941329 0
0.403296 0.0941329 0
0.432639 0.0941329 0
0.462089 0.0941482 0
0.491783 0.0941939 0
0.521767 0.094255 0
0.55201 0.0941939 0
0.582513 0.0940719 0
0.613199 0.093904 0
0.644221 0.0937514 0
0.675959 0.0934462 0
0.711452 0.0921492 0
0.755337 0.0884718 0
0.801312 0.0841993 0
0.838376 0.0824598 0
0.863615 0.0841077 0
0.879622 0.0883955 0
0.890929 0.0940566 0
0.900526 0.10013 0
0.00367742 0.113802 0
0.0198062 0.115816 0
0.0417945 0.117891 0
0.0654002 0.119493 0
0.0904402 0.120699 0
0.116701 0.121614 0
0.143893 0.122362 0
0.171695 0.12282 0
0.199954 0.123125 0
0.228412 0.123323 0
0.256977 0.123552 0
0.285618 0.123735 0
0.314504 0.12398 0
0.34342 0.124178 0
0.372351 0.124346 0
0.401434 0.124498 0
0.430762 0.124697 0
0.460288 0.124834 0
0.490089 0.125032 0
0.520088 0.125139 0
0.550378 0.125139 0
0.580941 0.125109 0
0.611749 0.125078 0
0.642832 0.125017 0
0.674662 0.124834 0
0.710185 0.123568 0
0.754131 0.119936 0
0.800229 0.11574 0
0.837385 0.114107 0
0.86273 0.115923 0
0.878721 0.120287 0
0.889921 0.125978 0
0.899489 0.132128 0
0.000350958 0.146441 0
0.0125124 0.147921 0
0.0351415 0.149401 0
0.0606394 0.150561 0
0.0871595 0.151385 0
0.114473 0.152041 0
0.142184 0.152529 0
0.170123 0.152895 0
0.19823 0.153216 0
0.226505 0.153567 0
0.254871 0.153903 0
0.283436 0.154314 0
0.3122 0.154635 0
0.341115 0.15491 0
0.370092 0.155169 0
0.399313 0.155474 0
0.428779 0.15584 0
0.458381 0.156085 0
0.488182 0.156298 0
0.518212 0.156451 0
0.548547 0.156542 0
0.579232 0.156649 0
0.610178 0.156786 0
0.641306 0.156786 0
0.673121 0.156619 0
0.708675 0.155398 0
0.752743 0.151873 0
0.798947 0.147768 0
0.836225 0.146273 0
0.861524 0.148104 0
0.87747 0.152514 0
0.88867 0.158297 0
0.898268 0.164584 0
0 0.179187 0
0.00613413 0.180117 0
0.0287633 0.181003 0
0.0558938 0.181704 0
0.0834669 0.182254 0
0.111284 0.182712 0
0.139178 0.183124 0
0.167178 0.183536 0
0.195377 0.184009 0
0.223743 0.184512 0
0.252201 0.184985 0
0.280797 0.185412 0
0.30959 0.185794 0
0.338598 0.186191 0
0.367681 0.186572 0
0.397024 0.187045 0
0.426505 0.187427 0
0.456138 0.187732 0
0.485985 0.188006 0
0.516121 0.188296 0
0.546532 0.188495 0
0.577325 0.188739 0
0.608255 0.188891 0
0.639414 0.188952 0
0.67126 0.188815 0
0.706905 0.187732 0
0.751049 0.184253 0
0.797391 0.18027 0
0.834669 0.17879 0
0.859937 0.180652 0
0.875898 0.185153 0
0.887129 0.191058 0
0.896773 0.197528 0
0 0.210834 0
0.00216678 0.211429 0
0.024506 0.21207 0
0.0521553 0.21268 0
0.0799725 0.213184 0
0.107912 0.213672 0
0.135943 0.214206 0
0.164065 0.214755 0
0.192355 0.215351 0
0.220783 0.21593 0
0.249302 0.216464 0
0.277943 0.216968 0
0.306828 0.217472 0
0.335912 0.217945 0
0.365148 0.218509 0
0.394491 0.219013 0
0.423987 0.219425 0
0.453666 0.219806 0
0.483635 0.220218 0
0.513863 0.220645 0
0.544366 0.220951 0
0.575128 0.221195 0
0.606058 0.221363 0
0.637247 0.221485 0
0.669215 0.2215 0
0.704982 0.220554 0
0.749172 0.217136 0
0.795514 0.213123 0
0.832776 0.211658 0
0.858137 0.213642 0
0.874083 0.218235 0
0.885359 0.224292 0
0.894911 0.230762 0
0 0.241993 0
0.00030518 0.242649 0
0.0211337 0.24332 0
0.0485695 0.243931 0
0.076463 0.244511 0
0.104509 0.245121 0
0.132662 0.245792 0
0.160922 0.246509 0
0.189258 0.24715 0
0.2177 0.247745 0
0.246265 0.248356 0
0.275029 0.248981 0
0.304021 0.249622 0
0.333196 0.250217 0
0.362432 0.250797 0
0.391791 0.251316 0
0.421363 0.25185 0
0.451148 0.252354 0
0.481193 0.252872 0
0.511437 0.253346 0
0.541955 0.253681 0
0.572732 0.253956 0
0.603738 0.254246 0
0.635004 0.254459 0
0.667048 0.254597 0
0.7028 0.253651 0
0.747021 0.250248 0
0.793378 0.246265 0
0.830747 0.244907 0
0.856092 0.246921 0
0.872129 0.251682 0
0.883314 0.257755 0
0.892805 0.26424 0
0 0.273594 0
0 0.27425 0
0.0180514 0.274952 0
0.0448463 0.275654 0
0.0728771 0.276387 0
0.10103 0.277104 0
0.129274 0.277897 0
0.15758 0.278614 0
0.185962 0.279316 0
0.214481 0.280018 0
0.243137 0.280735 0
0.271977 0.281468 0
0.301045 0.2822 0
0.330236 0.282826 0
0.359503 0.283452 0
0.388922 0.284077 0
0.41857 0.284688 0
0.448463 0.285344 0
0.478508 0.285893 0
0.508751 0.286366 0
0.5393 0.286763 0
0.570153 0.287144 0
0.601251 0.287556 0
0.632578 0.287877 0
0.664591 0.287999 0
0.700328 0.287037 0
0.744595 0.28368 0
0.791043 0.279805 0
0.828489 0.278569 0
0.853849 0.280659 0
0.86981 0.285405 0
0.880934 0.291493 0
0.89044 0.298085 0
0 0.305577 0
0 0.306264 0
0.0149081 0.307057 0
0.041001 0.307897 0
0.0691844 0.308782 0
0.0974136 0.309575 0
0.125658 0.310369 0
0.153994 0.311131 0
0.182452 0.311925 0
0.211078 0.312749 0
0.239887 0.313634 0
0.268742 0.314412 0
0.297795 0.315129 0
0.327016 0.315816 0
0.356374 0.316548 0
0.385885 0.317281 0
0.41561 0.317998 0
0.445487 0.318654 0
0.475532 0.319219 0
0.505821 0.319768 0
0.536431 0.320272 0
0.567346 0.320745 0
0.598474 0.321202 0
0.629801 0.321538 0
0.661799 0.321675 0
0.697581 0.320806 0
0.741924 0.317525 0
0.788449 0.313726 0
0.825879 0.31249 0
0.851209 0.314611 0
0.867109 0.319371 0
0.878248 0.325567 0
0.887739 0.332204 0
0 0.338003 0
0 0.338811 0
0.0116732 0.339696 0
0.0370336 0.340658 0
0.0652323 0.341558 0
0.0935073 0.342397 0
0.121813 0.343236 0
0.150271 0.344137 0
0.17879 0.345006 0
0.207523 0.345968 0
0.236316 0.346853 0
0.265202 0.347662 0
0.294301 0.34844 0
0.323613 0.349233 0
0.353017 0.350042 0
0.382605 0.350866 0
0.412314 0.351614 0
0.442191 0.35227 0
0.472297 0.352926 0
0.502632 0.353552 0
0.533349 0.354192 0
0.564279 0.354696 0
0.595346 0.355123 0
0.626673 0.355489 0
0.658717 0.355703 0
0.694575 0.35494 0
0.738994 0.351766 0
0.785489 0.347936 0
0.822873 0.34667 0
0.848188 0.348821 0
0.864134 0.353704 0
0.875288 0.359976 0
0.884764 0.366705 0
0 0.370947 0
0 0.371771 0
0.00831617 0.372824 0
0.0327764 0.3738 0
0.0610208 0.374701 0
0.0893721 0.375601 0
0.117784 0.376577 0
0.146365 0.37763 0
0.174945 0.378576 0
0.203647 0.379507 0
0.232456 0.380392 0
0.261387 0.381277 0
0.290593 0.382177 0
0.320012 0.383124 0
0.349432 0.383963 0
0.378988 0.384771 0
0.408713 0.385534 0
0.438666 0.386297 0
0.468803 0.387015 0
0.499229 0.387762 0
0.5299 0.388373 0
0.560815 0.388876 0
0.591913 0.389364 0
0.623285 0.389822 0
0.65536 0.390097 0
0.691249 0.389395 0
0.735637 0.386191 0
0.782116 0.382361 0
0.819516 0.381155 0
0.844846 0.383383 0
0.860792 0.388327 0
0.871916 0.394659 0
0.881331 0.401389 0
0 0.404379 0
0 0.405264 0
0.00468452 0.406302 0
0.0282444 0.407294 0
0.0565957 0.408301 0
0.0850233 0.409293 0
0.113558 0.410391 0
0.142123 0.411444 0
0.170748 0.412421 0
0.199481 0.413382 0
0.228382 0.414389 0
0.257359 0.415335 0
0.286641 0.416342 0
0.316045 0.417273 0
0.34548 0.418143 0
0.375051 0.418967 0
0.404837 0.419837 0
0.434806 0.420645 0
0.465034 0.421485 0
0.49543 0.422202 0
0.52607 0.422812 0
0.557 0.423377 0
0.588144 0.423941 0
0.619608 0.424521 0
0.651682 0.424826 0
0.687495 0.424063 0
0.731868 0.420859 0
0.778363 0.417075 0
0.815808 0.415961 0
0.841199 0.41828 0
0.857084 0.423224 0
0.868116 0.429526 0
0.87747 0.436271 0
0 0.438209 0
0 0.439109 0
0.000976577 0.440162 0
0.0234531 0.441245 0
0.0518044 0.442313 0
0.0803693 0.443458 0
0.108904 0.444556 0
0.137484 0.445594 0
0.16614 0.446616 0
0.194965 0.4477 0
0.223957 0.448829 0
0.252995 0.449851 0
0.282246 0.450828 0
0.311635 0.451743 0
0.341085 0.452644 0
0.370733 0.45359 0
0.400626 0.454582 0
0.430594 0.455421 0
0.460761 0.456214 0
0.491142 0.456947 0
0.521859 0.457649 0
0.552789 0.458244 0
0.583993 0.458915 0
0.615396 0.459464 0
0.647456 0.459754 0
0.683253 0.459007 0
0.727657 0.455879 0
0.774182 0.45214 0
0.811643 0.451087 0
0.836957 0.453391 0
0.852781 0.45832 0
0.863783 0.464637 0
0.873167 0.471458 0
0 0.472465 0
0 0.473381 0
4.57771e-05 0.474556 0
0.0189975 0.475746 0
0.0465705 0.47689 0
0.0751202 0.478019 0
0.10367 0.479103 0
0.132311 0.480232 0
0.161044 0.481331 0
0.189929 0.482506 0
0.218921 0.483635 0
0.247974 0.484672 0
0.277226 0.485664 0
0.306661 0.486671 0
0.336172 0.487633 0
0.365881 0.488685 0
0.395727 0.489647 0
0.425696 0.490486 0
0.455848 0.491295 0
0.486275 0.492103 0
0.516976 0.492821 0
0.547997 0.493538 0
0.579141 0.494179 0
0.610498 0.494682 0
0.642527 0.495018 0
0.67837 0.494347 0
0.72285 0.491325 0
0.76936 0.487602 0
0.806729 0.486458 0
0.831983 0.488746 0
0.847791 0.493721 0
0.858824 0.50013 0
0.868254 0.507073 0
0 0.507927 0
0 0.508904 0
0 0.51014 0
0.0127871 0.511376 0
0.0387427 0.512535 0
0.0673228 0.513649 0
0.0959182 0.514824 0
0.124605 0.515999 0
0.153445 0.517266 0
0.18233 0.51841 0
0.211276 0.519524 0
0.240345 0.520592 0
0.269642 0.52166 0
0.299168 0.522759 0
0.32871 0.523812 0
0.358358 0.524804 0
0.388159 0.52575 0
0.418143 0.526619 0
0.448356 0.527504 0
0.478813 0.52842 0
0.509529 0.529168 0
0.54049 0.529854 0
0.571572 0.530449 0
0.60296 0.531044 0
0.635004 0.531411 0
0.670878 0.530831 0
0.715267 0.527733 0
0.76173 0.523995 0
0.799054 0.522866 0
0.824338 0.525246 0
0.840146 0.530266 0
0.851225 0.536782 0
0.860594 0.543709 0
0 0.546014 0
0 0.547021 0
0 0.548226 0
0.00236515 0.549432 0
0.0248264 0.550607 0
0.0532692 0.551843 0
0.0819104 0.553079 0
0.110643 0.55436 0
0.139437 0.555581 0
0.168292 0.556725 0
0.197269 0.557885 0
0.226352 0.559045 0
0.255695 0.560189 0
0.285191 0.561318 0
0.314702 0.562371 0
0.34432 0.563348 0
0.374136 0.56434 0
0.40412 0.565286 0
0.434363 0.566247 0
0.46479 0.567147 0
0.495445 0.567895 0
0.52636 0.568551 0
0.557473 0.569223 0
0.588815 0.569818 0
0.62092 0.570321 0
0.656718 0.56968 0
0.701015 0.566552 0
0.747448 0.562814 0
0.784787 0.561761 0
0.810132 0.564279 0
0.825986 0.569406 0
0.837003 0.575906 0
0.846342 0.582849 0
0 0.587121 0
0 0.587686 0
0 0.588739 0
0 0.589944 0
0.00790417 0.591211 0
0.0327001 0.592477 0
0.061387 0.59382 0
0.0900587 0.595071 0
0.118822 0.596292 0
0.147677 0.597498 0
0.176654 0.598718 0
0.205814 0.600015 0
0.235096 0.60116 0
0.264515 0.602228 0
0.29398 0.603296 0
0.323613 0.604349 0
0.35346 0.605432 0
0.383474 0.606455 0
0.413626 0.60737 0
0.443961 0.608225 0
0.474586 0.608988 0
0.505516 0.609735 0
0.536645 0.610483 0
0.567987 0.611139 0
0.6 0.611597 0
0.635737 0.610941 0
0.680049 0.607889 0
0.726452 0.604212 0
0.763836 0.603281 0
0.789136 0.605798 0
0.804974 0.610971 0
0.815991 0.617517 0
0.825406 0.624598 0
0 0.628687 0
0 0.62948 0
0 0.630396 0
0 0.631601 0
0.000885023 0.632959 0
0.0125429 0.634241 0
0.0382239 0.635523 0
0.0668803 0.636774 0
0.0956588 0.638086 0
0.124514 0.639353 0
0.153521 0.640665 0
0.182605 0.641901 0
0.211826 0.64303 0
0.241215 0.644144 0
0.270695 0.645258 0
0.300313 0.646372 0
0.330144 0.647486 0
0.360082 0.648478 0
0.390173 0.649409 0
0.420508 0.650294 0
0.451133 0.651118 0
0.482063 0.651942 0
0.513161 0.652735 0
0.544472 0.653407 0
0.57644 0.65388 0
0.612192 0.653315 0
0.656504 0.650339 0
0.702998 0.64686 0
0.740322 0.64593 0
0.76556 0.648417 0
0.781369 0.653605 0
0.792432 0.660243 0
0.801907 0.66746 0
0 0.668513 0
0 0.67042 0
0 0.671336 0
0 0.672465 0
0 0.673732 0
0.00175479 0.674983 0
0.0196994 0.676249 0
0.0470436 0.677592 0
0.0758068 0.678904 0
0.104707 0.680262 0
0.133654 0.681544 0
0.162661 0.682734 0
0.191882 0.683894 0
0.221286 0.685084 0
0.250813 0.68632 0
0.2804 0.687434 0
0.31014 0.688487 0
0.340032 0.689494 0
0.370138 0.690471 0
0.400488 0.691463 0
0.431189 0.692424 0
0.462074 0.693248 0
0.493111 0.694011 0
0.524392 0.694713 0
0.556405 0.695308 0
0.592187 0.69485 0
0.63653 0.691997 0
0.682963 0.688518 0
0.720256 0.687602 0
0.745495 0.69015 0
0.761334 0.695415 0
0.772412 0.702129 0
0.781857 0.709316 0
0 0.706127 0
0 0.708629 0
0 0.709865 0
0 0.710796 0
0 0.711955 0
0 0.713207 0
0.00926223 0.714549 0
0.0345464 0.715984 0
0.0633097 0.717296 0
