luts/Cross Process CP130.cube
TITLE "Generated by Resolve"
LUT_3D_SIZE 9
0 0 0
0 0 0
0 0 0
0.0111849 0 0
0.0400092 0 0
0.0972152 0 0
0.271412 0 0
0.508659 0 0
0.700023 0 0
0 0 0
0.00552377 0 0
0.0547036 0.000701915 0.0009308
0.156405 0.000106813 0.000946059
0.297108 0 3.0518e-05
0.460807 0 0
0.632975 0 0
0.829099 0 0
0.901381 0 0
0.0162661 0.0534524 0.000167849
0.0854353 0.0641337 0
0.187732 0.0676585 0
0.308324 0.0665293 0
0.432761 0.0645457 0
0.553384 0.0636759 0
0.677073 0.0625467 0
0.83917 0.0513161 0
0.901289 0.0685283 0
0 0.179187 0
0.0834669 0.182254 0
0.195377 0.184009 0
0.30959 0.185794 0
0.426505 0.187427 0
0.546532 0.188495 0
0.67126 0.188815 0
0.834669 0.17879 0
0.896773 0.197528 0
0 0.305577 0
0.0691844 0.308782 0
0.182452 0.311925 0
0.297795 0.315129 0
0.41561 0.317998 0
0.536431 0.320272 0
0.661799 0.321675 0
0.825879 0.31249 0
0.887739 0.332204 0
0 0.438209 0
0.0518044 0.442313 0
0.16614 0.446616 0
0.282246 0.450828 0
0.400626 0.454582 0
0.521859 0.457649 0
0.647456 0.459754 0
0.811643 0.451087 0
0.873167 0.471458 0
0 0.587121 0
0.00790417 0.591211 0
0.118822 0.596292 0
0.235096 0.60116 0
0.35346 0.605432 0
0.474586 0.608988 0
0.6 0.611597 0
0.763836 0.603281 0
0.825406 0.624598 0
0 0.741405 0
0 0.74728 0
0.0589609 0.752636 0
0.175189 0.757855 0
0.293462 0.762615 0
0.414633 0.766964 0
0.540047 0.770413 0
0.703853 0.763043 0
0.765469 0.785031 0
0 0.862577 0
0 0.867094 0
0.104723 0.873014 0
0.221866 0.878798 0
0.340902 0.884291 0
0.462654 0.889311 0
0.588495 0.893385 0
0.752514 0.886473 0
0.814527 0.909255 0
0 0 0
0 0 0
0 0 0
0.0152132 0 0
0.0455787 0 0
0.133852 0 0.0106661
0.318013 0 0.0191501
0.556802 0 0.0112612
0.738552 0 0.0162356
0 0 0
0.0107118 0 0.00209049
0.0738842 0.00187686 0.0186923
0.183352 3.0518e-05 0.0298924
0.326192 0 0.0323491
0.488228 0 0.0282292
0.654536 0 0.0208438
0.84033 0 0.00794995
0.904585 0 0.0202182
0.0171664 0.0599527 0.0284123
0.0918288 0.0687877 0.0278477
0.196841 0.071046 0.0228885
0.316854 0.0695506 0.0175021
0.437736 0.0683909 0.01561
0.557427 0.06804 0.01561
0.681224 0.0669566 0.015259
0.843702 0.0559548 0.00819409
0.904311 0.0735943 0.0209659
0 0.184131 0.00425727
0.0871138 0.186648 0.00451667
0.199222 0.18854 0.00579843
0.313542 0.190417 0.00723278
0.430564 0.192172 0.00874342
0.550835 0.193454 0.0100099
0.675639 0.19379 0.0107881
0.839338 0.183932 0.00523384
0.899886 0.203067 0.0181125
0 0.310292 0
0.0732433 0.31371 0
0.186572 0.316945 0
0.302007 0.320241 0
0.419928 0.323247 0.000274662
0.540841 0.325582 0.00183108
0.666285 0.327031 0.00358587
0.830625 0.318013 0.000122072
0.890929 0.338155 0.0123598
0 0.443397 0
0.0562142 0.447807 0
0.170489 0.452094 0
0.286641 0.456336 0
0.405051 0.460182 0
0.526268 0.463218 0
0.651987 0.465415 0
0.816419 0.456916 0
0.876234 0.477531 0.00340276
0 0.593286 0
0.0105592 0.597681 0
0.12282 0.602838 0
0.239078 0.607752 0
0.357473 0.6121 0
0.478553 0.615625 0
0.604013 0.61828 0
0.76817 0.6103 0
0.827939 0.631724 0
0 0.747997 0
0 0.753811 0
0.0647593 0.759319 0
0.180987 0.764675 0
0.299321 0.769635 0
0.420417 0.773907 0
0.545907 0.777462 0
0.70988 0.77023 0
0.769909 0.792615 0
0 0.868009 0
0.00169375 0.872877 0
0.111421 0.87892 0
0.228595 0.884855 0
0.347539 0.890303 0
0.469322 0.895415 0
0.595239 0.899596 0
0.759594 0.892958 0
0.819821 0.915846 0
0 0 0
0 0 0
0 0 0
0.019791 0 0
0.0510872 0 0.00817884
0.172641 0 0.0369268
0.36202 0 0.0594797
0.601434 0 0.0631418
0.772595 0 0.0809491
0 0 0.000503548
0.0203403 0 0.0187686
0.0941939 0.00231937 0.0513924
0.208759 0 0.076112
0.352346 0 0.0902724
0.511543 0 0.095552
0.671077 0 0.0947433
0.846342 0 0.0834669
0.906569 0 0.0990005
0.0169375 0.0652934 0.0786755
0.096849 0.072221 0.0889601
0.203967 0.0732891 0.092546
0.322927 0.0717479 0.0925765
0.441077 0.0714427 0.0928206
0.560571 0.0713817 0.0931716
0.684688 0.0705577 0.092958
0.847318 0.059556 0.0844739
0.906462 0.0776837 0.0999924
0 0.18764 0.0789197
0.0899062 0.18996 0.0803845
0.202228 0.192065 0.0820783
0.316609 0.194003 0.0838026
0.433799 0.195911 0.0856489
0.554238 0.19736 0.0872358
0.679149 0.197726 0.0880903
0.843107 0.188006 0.0813611
0.902144 0.207584 0.0970779
0 0.31397 0.0645457
0.0764172 0.317601 0.0672313
0.189944 0.321096 0.0700542
0.305333 0.324331 0.0728771
0.423362 0.327443 0.0757305
0.544442 0.329946 0.0782788
0.669917 0.33135 0.0801709
0.83447 0.322438 0.0747539
0.893233 0.343008 0.0906539
0 0.447547 0.0475471
0.0596628 0.45214 0.0510719
0.174014 0.456565 0.0547646
0.29015 0.460792 0.0585336
0.408637 0.464729 0.0622568
0.530022 0.467933 0.0656596
0.655665 0.470008 0.0684215
0.820264 0.461585 0.0641794
0.878584 0.482719 0.0802777
0 0.598077 0.00505074
0.0125277 0.602945 0.00608835
0.125704 0.608026 0.0104982
0.241978 0.61297 0.0151827
0.360357 0.61738 0.0197299
0.481498 0.620981 0.0239567
0.606973 0.623652 0.0277714
0.771359 0.615824 0.0251621
0.829633 0.637766 0.0413977
0 0.753079 0
0 0.759075 0
0.0693523 0.764538 0
0.185565 0.769985 0
0.303914 0.775051 0
0.425025 0.7794 0
0.550607 0.783032 0.00030518
0.714794 0.775998 9.15541e-05
0.773205 0.798703 0.00292973
0 0.87216 0.0019379
0.00437934 0.877379 0.00280766
0.117082 0.883513 0.00390631
0.234272 0.88957 0.00946059
0.353338 0.895247 0.0153964
0.475013 0.900252 0.0211185
0.601007 0.904494 0.0267948
0.76556 0.898009 0.0261234
0.824155 0.921202 0.043122
0 0 0
0 0 0
0 0 0
0.0247807 0 0.00631724
0.0668193 0 0.0279088
0.211444 0 0.0749218
0.403738 0 0.112627
0.642618 0 0.128054
0.802167 0 0.157427
0 0 0.0143435
0.0321965 0.000976577 0.0477455
0.113619 0.00190738 0.097612
0.23183 0 0.136385
0.375219 0 0.161578
0.530877 0 0.174945
0.682902 0 0.178714
0.850034 0 0.168215
0.908049 0 0.185
0.0158236 0.0695964 0.142672
0.100679 0.0746471 0.163134
0.209476 0.074815 0.173724
0.327047 0.0737163 0.177218
0.443519 0.07393 0.177935
0.563104 0.074052 0.17847
0.687404 0.0733349 0.178317
0.850385 0.0625162 0.169451
0.90811 0.0810559 0.186221
0 0.190219 0.163516
0.0921187 0.192615 0.16527
0.204593 0.194873 0.167147
0.319188 0.197009 0.1691
0.436423 0.198978 0.171038
0.557031 0.200549 0.172763
0.6822 0.201144 0.17377
0.846281 0.191379 0.166491
0.903883 0.211398 0.183413
0 0.316976 0.149416
0.0789807 0.320775 0.152316
0.192584 0.324346 0.155261
0.30811 0.327718 0.158236
0.4262 0.330922 0.161227
0.547448 0.333562 0.163897
0.673014 0.335027 0.165774
0.83772 0.326131 0.159838
0.895033 0.347127 0.176898
0 0.450965 0.132326
0.062501 0.455756 0.136049
0.176928 0.460258 0.139879
0.29308 0.46453 0.143725
0.411627 0.468528 0.147524
0.533028 0.471748 0.150912
0.658763 0.473884 0.153643
0.823499 0.465522 0.148867
0.8804 0.487098 0.166079
0 0.602197 0.0842756
0.0140383 0.60734 0.0883192
0.128145 0.612543 0.0929427
0.244297 0.61738 0.0975967
0.362707 0.621866 0.10219
0.483909 0.625544 0.106416
0.609415 0.628229 0.110124
0.773953 0.620523 0.106905
0.830854 0.642939 0.124346
0 0.757183 0.030518
0 0.763333 0.0357214
0.0731365 0.768811 0.0410468
0.18938 0.774365 0.0467384
0.30779 0.779553 0.0524147
0.429023 0.7841 0.0578012
0.554559 0.787671 0.0626993
0.718929 0.780774 0.0610666
0.775952 0.803937 0.0785382
0 0.875654 0.0751354
0.00724804 0.88127 0.0805829
0.122042 0.887373 0.0868696
0.239246 0.893523 0.0933852
0.358297 0.89926 0.099733
0.480049 0.904402 0.105791
0.606073 0.908644 0.111299
0.770794 0.902251 0.110018
0.828 0.925933 0.128161
0 0 0
0 0 0.000137331
0.000976577 0 0.00723278
0.030808 0 0.0231479
0.0971542 0 0.0609445
0.252308 0 0.126558
0.445579 0 0.178943
0.681514 0 0.204929
0.828305 0 0.243961
0.000411994 0.000198367 0.0320592
0.0448463 0.00262455 0.090547
0.131945 0.000808728 0.157763
0.252903 9.15541e-05 0.209873
0.395499 0 0.244648
0.546487 0 0.263828
0.690303 0 0.269612
0.85243 0 0.258579
0.908995 0 0.276341
0.0142214 0.0730602 0.219059
0.103639 0.0764782 0.248264
0.213672 0.0760815 0.263539
0.329519 0.075761 0.267872
0.445655 0.0761883 0.268574
0.565438 0.076463 0.26923
0.69012 0.0759442 0.269245
0.852964 0.0653086 0.260121
0.909239 0.084062 0.277745
0.000244144 0.192538 0.253849
0.0941024 0.195026 0.255711
0.20679 0.197482 0.257816
0.321492 0.199695 0.259861
0.438865 0.201785 0.261921
0.559609 0.203464 0.263752
0.685084 0.204181 0.264836
0.849012 0.194629 0.257298
0.905119 0.214801 0.275013
0 0.319829 0.239918
0.0813001 0.323705 0.242924
0.195102 0.327489 0.246082
0.310719 0.330922 0.249165
0.42884 0.334142 0.252171
0.550179 0.336873 0.254917
0.676005 0.338415 0.256794
0.840452 0.329641 0.250507
0.896284 0.350835 0.26836
0 0.45417 0.222705
0.0650492 0.459083 0.226566
0.179553 0.463676 0.230503
0.295796 0.468025 0.234409
0.414359 0.472038 0.238239
0.535943 0.475456 0.241718
0.661799 0.477531 0.244327
0.826215 0.46923 0.239109
0.881651 0.491005 0.257053
0 0.606104 0.172198
0.0156558 0.611383 0.176379
0.130022 0.616571 0.181003
0.24625 0.621515 0.185702
0.364691 0.626047 0.190311
0.485893 0.629755 0.194476
0.611658 0.632547 0.198123
0.775952 0.625025 0.194491
0.831464 0.64773 0.212757
0 0.760922 0.1178
0 0.767178 0.123049
0.0768597 0.772763 0.128435
0.193088 0.778317 0.134096
0.311543 0.783627 0.139773
0.432776 0.78819 0.145083
0.558526 0.791836 0.149889
0.722667 0.785153 0.147753
0.778332 0.808621 0.166171
0 0.878233 0.165148
0.010605 0.884199 0.170809
0.126375 0.890272 0.176989
0.243595 0.896498 0.183474
0.362753 0.902403 0.189868
0.484504 0.907546 0.195773
0.610651 0.911788 0.201144
0.775174 0.905623 0.199451
0.830854 0.929381 0.21825
0 0 0.00306706
0 0 0.0113375
0.00584421 0 0.0236667
0.0395056 0 0.0436408
0.134279 0 0.110674
0.295155 0 0.193545
0.487846 0 0.258946
0.719783 0 0.29398
0.850462 0 0.338888
0.00436408 0.000900282 0.0594492
0.0570077 0.00360113 0.148135
0.148455 0.000808728 0.231006
0.271061 9.15541e-05 0.294759
0.412146 0 0.337087
0.55787 0 0.359594
0.693584 0 0.36466
0.854124 0 0.353506
0.909361 0 0.37174
0.0126802 0.0758679 0.306767
0.10573 0.077821 0.342016
0.216571 0.0772259 0.359274
0.331273 0.0776226 0.362707
0.447593 0.0782025 0.363546
0.567514 0.078584 0.364294
0.692668 0.0781262 0.364324
0.854795 0.0678416 0.355184
0.909789 0.0865644 0.373327
0.000854505 0.194522 0.348455
0.0958267 0.197177 0.350484
0.208667 0.199756 0.352743
0.323674 0.202274 0.355093
0.441047 0.204303 0.357122
0.561913 0.206073 0.35903
0.687861 0.206882 0.360159
0.850965 0.197589 0.352483
0.90576 0.217685 0.370657
0 0.322347 0.334752
0.0833448 0.326345 0.337881
0.197253 0.33022 0.341176
0.312947 0.333715 0.344289
0.431205 0.337057 0.347402
0.552636 0.339849 0.350195
0.678981 0.341543 0.352148
0.842481 0.332952 0.345586
0.896941 0.353964 0.36379
0 0.45713 0.317479
0.0673075 0.462104 0.321416
0.181979 0.46688 0.32549
0.298192 0.471168 0.329366
0.416815 0.475242 0.333181
0.538445 0.478676 0.336645
0.664714 0.480842 0.339223
0.828214 0.472755 0.333684
0.882292 0.494377 0.351965
0 0.609766 0.264668
0.0175326 0.615122 0.268894
0.131762 0.620508 0.273655
0.247898 0.625345 0.278233
0.366339 0.629892 0.282765
0.487739 0.633844 0.287037
0.613748 0.636515 0.29044
0.777188 0.629343 0.286564
0.831373 0.651881 0.30518
0 0.764294 0.210407
0 0.770489 0.215549
0.0804913 0.776211 0.220966
0.196735 0.781811 0.226581
0.315236 0.787213 0.232242
0.436637 0.791974 0.237583
0.562631 0.795529 0.24213
0.725948 0.789166 0.239704
0.78027 0.812467 0.258503
0 0.879606 0.259083
0.0140383 0.88571 0.264744
0.129824 0.891875 0.270893
0.247044 0.898177 0.277317
0.366201 0.904143 0.283619
0.487984 0.909331 0.289433
0.614466 0.913558 0.294636
0.778149 0.907698 0.292668
0.83267 0.931487 0.31194
0 0 0.0182803
1.5259e-05 0 0.027924
0.0113832 0 0.0418097
0.0521096 0 0.0722667
0.170367 0 0.176318
0.3346 0 0.276402
0.525399 0 0.353811
0.751202 0 0.395895
0.867262 0 0.444663
0.00999466 0.00183108 0.110079
0.0679179 0.00337224 0.222354
0.162799 0.0009308 0.319768
0.286397 0 0.39382
0.425574 0 0.441932
0.565377 0 0.464851
0.695109 0 0.467582
0.855146 0 0.456565
0.909148 0 0.475212
0.0105592 0.0774548 0.408148
0.106813 0.0782635 0.447135
0.218128 0.077821 0.463569
0.332311 0.0787213 0.46566
0.448936 0.0795911 0.466789
0.568933 0.0799878 0.467536
0.694499 0.0795758 0.467582
0.856138 0.06981 0.45861
0.909804 0.0883497 0.477043
0.00132753 0.195941 0.451469
0.0969406 0.198581 0.453513
0.209934 0.201297 0.455879
0.325032 0.203891 0.45832
0.442618 0.206134 0.460548
0.563577 0.207935 0.46247
0.689876 0.208743 0.463523
0.852384 0.199908 0.455909
0.905837 0.219806 0.474372
0 0.324208 0.437903
0.0847791 0.328222 0.441062
0.198795 0.332189 0.444419
0.314733 0.335943 0.447776
0.432959 0.339223 0.450843
0.554452 0.342046 0.453574
0.681086 0.343694 0.455406
0.843915 0.335485 0.448798
0.897047 0.356329 0.467262
0 0.459327 0.420508
0.0689555 0.464332 0.42446
0.183688 0.469184 0.42858
0.300023 0.47361 0.432502
0.418647 0.477653 0.436271
0.540307 0.481132 0.439673
0.666941 0.483284 0.4421
0.829633 0.475486 0.436408
0.882429 0.496971 0.454902
0 0.61265 0.365515
0.0187228 0.618006 0.369696
0.132799 0.623423 0.374426
0.248997 0.628336 0.379004
0.367453 0.632914 0.383474
0.488914 0.636957 0.387671
0.615381 0.639826 0.391073
0.777935 0.632822 0.386862
0.830884 0.655222 0.405737
0 0.766812 0.311421
0 0.772976 0.316457
0.0835279 0.778912 0.32195
0.199756 0.784543 0.327474
0.318273 0.78999 0.333043
0.439765 0.794873 0.338323
0.566064 0.798428 0.342702
0.728588 0.79237 0.339986
0.781659 0.815473 0.35906
0 0.880339 0.361151
0.016846 0.886534 0.366781
0.132769 0.892989 0.373007
0.249851 0.899153 0.379202
0.369039 0.905211 0.385428
0.490974 0.910613 0.391272
0.617639 0.914656 0.396139
0.780545 0.909117 0.393957
0.833753 0.932647 0.413397
0 0 0.0344396
0.000198367 0 0.0455177
0.0184176 0 0.0636606
0.0768597 0 0.127474
0.205936 0 0.258885
0.371893 0 0.374456
0.559457 0 0.46128
0.777874 0 0.507683
0.878264 0 0.556405
0.0146792 0.00335698 0.179309
0.0774395 0.00230411 0.312001
0.175647 0.00062562 0.422721
0.299672 0 0.504356
0.436011 0 0.554772
0.570016 0 0.57528
0.696483 0 0.57554
0.855909 0 0.564691
0.908721 0 0.58381
0.00857557 0.0782788 0.519921
0.107485 0.0784161 0.559533
0.219028 0.0784314 0.572274
0.333211 0.0796368 0.573693
0.450004 0.0806439 0.57496
0.570199 0.0811933 0.575845
0.696178 0.0807965 0.575845
0.857145 0.0714275 0.566964
0.909468 0.0898909 0.585718
0.00172427 0.19704 0.559411
0.0978256 0.199786 0.561563
0.210971 0.202609 0.56405
0.326284 0.205356 0.566644
0.444038 0.207752 0.568994
0.565057 0.209583 0.570901
0.691768 0.210407 0.571923
0.853544 0.201938 0.56434
0.905638 0.221698 0.583032
0 0.325811 0.546075
0.0859998 0.329885 0.549264
0.200122 0.333944 0.552712
0.316182 0.337789 0.55613
0.434546 0.341192 0.559258
0.556085 0.344015 0.561959
0.683101 0.345693 0.563699
0.845167 0.337865 0.557061
0.89688 0.358465 0.575662
0 0.461387 0.528618
0.0704051 0.466361 0.532509
0.185183 0.471244 0.536629
0.301686 0.475807 0.540627
0.42031 0.479866 0.54432
0.542 0.48333 0.547616
0.668925 0.485451 0.549844
0.830854 0.478065 0.544076
0.882292 0.499336 0.562692
0 0.615366 0.471382
0.0196078 0.620676 0.475471
0.133623 0.626169 0.480186
0.249897 0.631189 0.484749
0.368307 0.635752 0.489082
0.489845 0.639872 0.493187
0.616632 0.642725 0.496406
0.778424 0.636149 0.492103
0.830014 0.658366 0.511101
0 0.769116 0.417777
0 0.775219 0.422644
0.0862898 0.781216 0.428077
0.202625 0.787015 0.433585
0.321157 0.792508 0.439063
0.44271 0.797498 0.444251
0.569436 0.801144 0.448508
0.731044 0.795331 0.445533
0.782788 0.81825 0.464775
0 0.880735 0.468254
0.0194705 0.887037 0.473808
0.135348 0.893507 0.479912
0.252506 0.899809 0.486061
0.371679 0.905898 0.49218
0.493721 0.911421 0.497948
0.620691 0.915419 0.502602
0.782712 0.910155 0.500206
0.834638 0.933547 0.519829
0 0 0.0507057
0.00105287 0 0.0632639
0.0278782 0 0.0934615
0.104646 0 0.201602
0.23975 0 0.353643
0.406256 0 0.481193
0.589868 0 0.573602
0.799786 0 0.62034
0.885603 0 0.665812
0.0183566 0.00411994 0.263508
0.0859541 0.00209049 0.412924
0.187076 4.57771e-05 0.53286
0.311116 0 0.618067
0.444373 0 0.666957
0.572747 0 0.682017
0.698161 0 0.680766
0.856947 0 0.6701
0.908492 0 0.689525
0.00700389 0.0789197 0.63331
0.108186 0.0788128 0.669459
0.220005 0.079469 0.67747
0.33434 0.0807965 0.67895
0.451347 0.0819715 0.680385
0.57174 0.0826581 0.681376
0.698116 0.0822766 0.681331
0.858396 0.0732738 0.672572
0.909468 0.091722 0.69163
0.00205997 0.198383 0.664607
0.0990005 0.201312 0.666926
0.212268 0.204196 0.669459
0.327718 0.207019 0.672129
0.445594 0.209522 0.674556
0.566781 0.211505 0.676555
0.693858 0.212314 0.677485
0.854948 0.204242 0.669993
0.905653 0.22385 0.688838
0 0.327718 0.651484
0.0874342 0.331823 0.654704
0.201663 0.335927 0.658167
0.317861 0.339895 0.661662
0.436301 0.343374 0.664805
0.557931 0.346258 0.667475
0.685298 0.347875 0.669062
0.846525 0.340352 0.662379
0.89688 0.360815 0.681086
0 0.463584 0.633829
0.0720226 0.46862 0.637736
0.186877 0.473548 0.64184
0.303502 0.478248 0.645884
0.422156 0.482307 0.649485
0.543877 0.485771 0.652659
0.671168 0.487907 0.654749
0.832242 0.480827 0.648875
0.882368 0.501976 0.667582
0 0.618296 0.574517
0.0205539 0.623606 0.578515
0.134554 0.629114 0.583154
0.250935 0.634256 0.587686
0.36936 0.638834 0.591913
0.490959 0.643015 0.595941
0.618173 0.645975 0.599054
0.779126 0.63975 0.594629
0.829343 0.661738 0.613687
0 0.771679 0.52163
0 0.777691 0.526299
0.08925 0.783871 0.531746
0.205661 0.789761 0.537194
0.324193 0.79527 0.542535
0.445808 0.80032 0.547616
0.5729 0.803998 0.55172
0.733684 0.79852 0.548608
0.78407 0.821225 0.567926
0 0.881392 0.57258
0.0222171 0.887755 0.578042
0.13817 0.894392 0.584131
0.255329 0.90071 0.590158
0.374502 0.906828 0.596139
0.496574 0.912413 0.601785
0.623941 0.916457 0.606317
0.785077 0.911437 0.603738
0.83566 0.934615 0.623423
