luts/Cross Process CP130.cube
TITLE "Generated by Resolve"
LUT_3D_SIZE 5
0 0 0
0 0 0
0.0400092 0 0
0.271412 0 0
0.700023 0 0
0.0162661 0.0534524 0.000167849
0.187732 0.0676585 0
0.432761 0.0645457 0
0.677073 0.0625467 0
0.901289 0.0685283 0
0 0.305577 0
0.182452 0.311925 0
0.41561 0.317998 0
0.661799 0.321675 0
0.887739 0.332204 0
0 0.587121 0
0.118822 0.596292 0
0.35346 0.605432 0
0.6 0.611597 0
0.825406 0.624598 0
0 0.862577 0
0.104723 0.873014 0
0.340902 0.884291 0
0.588495 0.893385 0
0.814527 0.909255 0
0 0 0
0 0 0
0.0510872 0 0.00817884
0.36202 0 0.0594797
0.772595 0 0.0809491
0.0169375 0.0652934 0.0786755
0.203967 0.0732891 0.092546
0.441077 0.0714427 0.0928206
0.684688 0.0705577 0.092958
0.906462 0.0776837 0.0999924
0 0.31397 0.0645457
0.189944 0.321096 0.0700542
0.423362 0.327443 0.0757305
0.669917 0.33135 0.0801709
0.893233 0.343008 0.0906539
0 0.598077 0.00505074
0.125704 0.608026 0.0104982
0.360357 0.61738 0.0197299
0.606973 0.623652 0.0277714
0.829633 0.637766 0.0413977
0 0.87216 0.0019379
0.117082 0.883513 0.00390631
0.353338 0.895247 0.0153964
0.601007 0.904494 0.0267948
0.824155 0.921202 0.043122
0 0 0
0.000976577 0 0.00723278
0.0971542 0 0.0609445
0.445579 0 0.178943
0.828305 0 0.243961
0.0142214 0.0730602 0.219059
0.213672 0.0760815 0.263539
0.445655 0.0761883 0.268574
0.69012 0.0759442 0.269245
0.909239 0.084062 0.277745
0 0.319829 0.239918
0.195102 0.327489 0.246082
0.42884 0.334142 0.252171
0.676005 0.338415 0.256794
0.896284 0.350835 0.26836
0 0.606104 0.172198
0.130022 0.616571 0.181003
0.364691 0.626047 0.190311
0.611658 0.632547 0.198123
0.831464 0.64773 0.212757
0 0.878233 0.165148
0.126375 0.890272 0.176989
0.362753 0.902403 0.189868
0.610651 0.911788 0.201144
0.830854 0.929381 0.21825
0 0 0.0182803
0.0113832 0 0.0418097
0.170367 0 0.176318
0.525399 0 0.353811
0.867262 0 0.444663
0.0105592 0.0774548 0.408148
0.218128 0.077821 0.463569
0.448936 0.0795911 0.466789
0.694499 0.0795758 0.467582
0.909804 0.0883497 0.477043
0 0.324208 0.437903
0.198795 0.332189 0.444419
0.432959 0.339223 0.450843
0.681086 0.343694 0.455406
0.897047 0.356329 0.467262
0 0.61265 0.365515
0.132799 0.623423 0.374426
0.367453 0.632914 0.383474
0.615381 0.639826 0.391073
0.830884 0.655222 0.405737
0 0.880339 0.361151
0.132769 0.892989 0.373007
0.369039 0.905211 0.385428
0.617639 0.914656 0.396139
0.833753 0.932647 0.413397
0 0 0.0507057
0.0278782 0 0.0934615
0.23975 0 0.353643
0.589868 0 0.573602
0.885603 0 0.665812
0.00700389 0.0789197 0.63331
0.220005 0.079469 0.67747
0.451347 0.0819715 0.680385
0.698116 0.0822766 0.681331
0.909468 0.091722 0.69163
0 0.327718 0.651484
0.201663 0.335927 0.658167
0.436301 0.343374 0.664805
0.685298 0.347875 0.669062
0.89688 0.360815 0.681086
0 0.618296 0.574517
0.134554 0.629114 0.583154
0.36936 0.638834 0.591913
0.618173 0.645975 0.599054
0.829343 0.661738 0.613687
0 0.881392 0.57258
0.13817 0.894392 0.584131
0.374502 0.906828 0.596139
0.623941 0.916457 0.606317
0.83566 0.934615 0.623423
