luts/Crushin'.cube
TITLE "Generated by Resolve"
LUT_3D_SIZE 33
0 0 0
0 0 0
0 0 0
0 0 0
0 0 0
0.0156252 0 0
0.0458839 0 0
0.0762341 0 0
0.10753 0 0
0.141131 0 0
0.17705 0 0
0.216022 0 0
0.257984 0 0
0.301457 0 0
0.34609 0 0
0.390494 0 0
0.433234 0 0
0.476585 0 0
0.520958 0 0
0.564843 0 0
0.607996 0 0
0.649775 0 0
0.688457 0 0
0.725765 0 0
0.760678 0 0
0.79353 0 0
0.824598 0 0
0.854185 0 0
0.883162 0 0
0.911681 0 0
0.939986 0 0
0.968597 0 0
0.997391 0 0
0 0 0
0 0 0
0 0 0
0 0 0
0 0 0
0.0168612 0 0
0.047425 0 0
0.0781415 0 0
0.109499 0 0
0.142947 0 0
0.178973 0 0
0.218067 0 0
0.259922 0 0
0.303853 0 0
0.348226 0 0
0.392538 0 0
0.435218 0 0
0.478614 0 0
0.522347 0 0
0.566506 0 0
0.609659 0 0
0.651499 0 0
0.690837 0 0
0.727794 0 0
0.76257 0 0
0.795438 0 0
0.826658 0 0
0.85594 0 0
0.884932 0 0
0.913695 0 0
0.942397 0 0
0.970977 0 0
0.999664 0 0
0 0 0
0 0 0
0 0 0
0 0 0
0 0 0
0.0180972 0 0
0.0487831 0 0
0.0793927 0 0
0.110796 0 0
0.144305 0 0
0.180423 0 0
0.219593 0 0
0.261769 0 0
0.30547 0 0
0.349844 0 0
0.393439 0 0
0.436149 0 0
0.479881 0 0
0.524712 0 0
0.568673 0 0
0.611765 0 0
0.653208 0 0
0.692424 0 0
0.729778 0 0
0.764523 0 0
0.796918 0 0
0.828199 0 0
0.857664 0 0
0.887129 0 0
0.915846 0 0
0.944869 0 0
0.973602 0 0
1 0 0
0 0 0
0 0 0
0 0 0
0 0 0
0 0 0
0.0194247 0 0
0.0498512 0 0
0.0804761 0 0
0.111894 0 0
0.145388 0 0
0.181888 0 0
0.22121 0 0
0.262303 0 0
0.306462 0 0
0.350927 0 0
0.395239 0 0
0.438178 0 0
0.482063 0 0
0.526253 0 0
0.570092 0 0
0.613169 0 0
0.654627 0 0
0.69427 0 0
0.73138 0 0
0.766155 0 0
0.798703 0 0
0.830167 0 0
0.860197 0 0
0.889662 0 0
0.918807 0 0
0.948226 0 0
0.977172 0 0
1 0 0
0 0 0
0 0 0
0 0 0
0 0 0
0 0 0
0.0202029 0 0
0.0506294 0 0
0.081239 0 0
0.111833 0 0
0.145678 0 0
0.1823 0 0
0.221927 0 0
0.263783 0 0
0.307622 0 0
0.351995 0 0
0.396628 0 0
0.439384 0 0
0.483024 0 0
0.527276 0 0
0.571298 0 0
0.614649 0 0
0.656641 0 0
0.695872 0 0
0.733135 0 0
0.768353 0 0
0.801419 0 0
0.833295 0 0
0.863676 0 0
0.893294 0 0
0.922942 0 0
0.952773 0 0
0.982544 0 0
1 0 0
0 0.0109712 0
0 0.00968948 0
0 0.009308 0
0 0.00924697 0
0 0.00923171 0
0.0208133 0.00883497 0
0.0513771 0.0090486 0
0.0820935 0.00915541 0
0.113893 0.00923171 0
0.14728 0.00866712 0
0.184161 0.00727855 0
0.22356 0.00505074 0
0.265324 0.00218204 0
0.309407 0 0
0.354055 0 0
0.398123 0 0
0.440986 0 0
0.484657 0 0
0.529488 0 0
0.573968 0 0
0.617136 0 0
0.659327 0 0
0.698878 0 0
0.736233 0 0
0.772061 0 0
0.805753 0 0
0.837934 0 0
0.868757 0 0
0.898924 0 0
0.929305 0 0
0.959731 0 0
0.990448 0 0
1 0 0
0 0.0395209 0
0 0.0385595 0
0 0.0373388 0
0 0.0375677 0
0 0.0376135 0
0.0215305 0.0378119 0
0.052079 0.0379492 0
0.0829328 0.0382696 0
0.114626 0.0380713 0
0.14789 0.0373693 0
0.184619 0.0358129 0
0.223835 0.0337072 0
0.266392 0.0311894 0
0.310491 0.0278477 0
0.355154 0.0242161 0
0.399496 0.0205081 0
0.442496 0.0170596 0
0.486763 0.0136721 0
0.531975 0.0101015 0
0.576501 0.00669871 0
0.620157 0.00360113 0
0.662638 0.000991836 0
0.702739 0 0
0.740948 0 0
0.777661 0 0
0.811627 0 0
0.844343 0 0
0.875929 0.00163272 0
0.906828 0.00367742 0
0.937728 0.00607309 0
0.969009 0.00860609 0
0.999878 0.0113069 0
1 0.0142061 0
0 0.0679026 0
0 0.066804 0
0 0.0664836 0
0 0.0663005 0
0 0.0662394 0
0.0220188 0.0665141 0
0.0529335 0.0668803 0
0.0834363 0.0668956 0
0.115084 0.0666819 0
0.148333 0.0661021 0
0.185382 0.0649424 0
0.225223 0.0631723 0
0.26772 0.0604257 0
0.311681 0.0573129 0
0.356756 0.0538796 0
0.40148 0.050782 0
0.44506 0.047776 0
0.48983 0.0446174 0
0.535073 0.0413519 0
0.580163 0.0382849 0
0.624369 0.0357061 0
0.66746 0.0336614 0
0.708431 0.032639 0
0.747066 0.0323796 0
0.783917 0.0326848 0
0.818677 0.0337835 0
0.851881 0.0355535 0
0.883986 0.0378576 0
0.915892 0.0407874 0
0.947677 0.0437629 0
0.97966 0.0468147 0
1 0.0502174 0
1 0.053666 0
0 0.0972152 0
0 0.0959487 0
0 0.0954147 0
0 0.0952621 0
0 0.0957351 0
0.0217746 0.0959487 0
0.0523537 0.0960403 0
0.0829633 0.0962081 0
0.114992 0.0962387 0
0.148821 0.096025 0
0.186053 0.095079 0
0.22594 0.0933394 0
0.26865 0.0909743 0
0.313146 0.0881666 0
0.358526 0.0852216 0
0.403937 0.0825666 0
0.448127 0.0800641 0
0.493385 0.0772717 0
0.539178 0.0745861 0
0.584726 0.0721752 0
0.629648 0.070161 0
0.673747 0.0688334 0
0.715282 0.0684062 0
0.754452 0.0686656 0
0.791974 0.0696117 0
0.827161 0.0713512 0
0.861006 0.0735027 0
0.894179 0.0768292 0
0.926406 0.0801709 0
0.958572 0.0838026 0
0.991272 0.0874647 0
1 0.09131 0
1 0.0956741 0
0 0.126864 0
0 0.125536 0
0 0.125292 0
0 0.12546 0
0 0.125597 0
0.0202487 0.126009 0
0.0510262 0.126329 0
0.0822003 0.127016 0
0.114458 0.12726 0
0.14873 0.127428 0
0.186099 0.126665 0
0.226413 0.125338 0
0.269657 0.123415 0
0.314611 0.121126 0
0.361013 0.118944 0
0.40647 0.116609 0
0.451301 0.114733 0
0.49691 0.112566 0
0.54342 0.110323 0
0.589914 0.108537 0
0.635508 0.107469 0
0.679988 0.106645 0
0.722118 0.106691 0
0.762203 0.107515 0
0.800259 0.109163 0
0.836347 0.111788 0
0.871015 0.114748 0
0.904418 0.118334 0
0.937179 0.12224 0
0.969833 0.126375 0
1 0.130327 0
1 0.135027 0
1 0.13959 0
0 0.157946 0
0 0.157076 0
0 0.156802 0
0 0.156924 0
0 0.15729 0
0.01738 0.157961 0
0.0483558 0.158938 0
0.0799268 0.160037 0
0.112612 0.160693 0
0.147234 0.161059 0
0.185275 0.1608 0
0.225971 0.160098 0
0.269917 0.15874 0
0.315938 0.157351 0
0.362264 0.155627 0
0.408377 0.153903 0
0.453468 0.152499 0
0.499977 0.150958 0
0.547356 0.149523 0
0.594629 0.148653 0
0.640894 0.147936 0
0.685679 0.147539 0
0.728511 0.148241 0
0.769162 0.149722 0
0.808042 0.152071 0
0.844709 0.155016 0
0.879713 0.158572 0
0.91371 0.162524 0
0.946639 0.166903 0
0.979492 0.171069 0
1 0.176013 0
1 0.180835 0
1 0.185153 0
0 0.190936 0
0 0.190066 0
0 0.190036 0
0 0.190509 0
0 0.191257 0
0.0128634 0.192554 0
0.044419 0.194125 0
0.0764935 0.195438 0
0.109667 0.196704 0
0.145052 0.197635 0
0.183612 0.198032 0
0.224948 0.197955 0
0.269917 0.197559 0
0.315999 0.196582 0
0.363149 0.195438 0
0.409644 0.194095 0
0.455375 0.193362 0
0.5028 0.192889 0
0.550973 0.192004 0
0.598581 0.191501 0
0.645289 0.191455 0
0.690867 0.191592 0
0.734157 0.192874 0
0.77586 0.195102 0
0.814649 0.197543 0
0.851484 0.2009 0
0.886915 0.204746 0
0.92108 0.208942 0
0.954055 0.213474 0
0.987518 0.218418 0
1 0.223041 0
1 0.22771 0
1 0.232319 0
0 0.226001 0
0 0.225345 0
0 0.225757 0
0 0.226719 0
0 0.22826 0
0.00697337 0.23006 0
0.0387274 0.231998 0
0.0713207 0.233951 0
0.10547 0.235737 0
0.141329 0.237354 0
0.180758 0.238697 0
0.222995 0.239277 0
0.268177 0.239246 0
0.315145 0.238849 0
0.363012 0.238346 0
0.410346 0.237842 0
0.457038 0.237949 0
0.504616 0.237736 0
0.55317 0.237461 0
0.601389 0.237293 0
0.648417 0.237537 0
0.694621 0.238331 0
0.73846 0.240406 0
0.779644 0.24242 0
0.819074 0.245304 0
0.856062 0.24889 0
0.891142 0.25272 0
0.925444 0.257176 0
0.958923 0.262211 0
0.992065 0.266529 0
1 0.271168 0
1 0.27602 0
1 0.280385 0
0 0.263661 0
0 0.263539 0
0 0.26453 0
0 0.2663 0
0 0.268391 0
0.000549325 0.270665 0
0.0329442 0.273228 0
0.0664225 0.275746 0
0.100893 0.278294 0
0.137819 0.280812 0
0.177615 0.28246 0
0.220172 0.283604 0
0.266087 0.28423 0
0.313649 0.284504 0
0.362036 0.284611 0
0.410147 0.284901 0
0.457115 0.285252 0
0.505287 0.28542 0
0.554147 0.285344 0
0.602487 0.285573 0
0.650553 0.286595 0
0.696727 0.287617 0
0.740307 0.289265 0
0.781842 0.291661 0
0.821332 0.294652 0
0.857969 0.298054 0
0.893645 0.302571 0
0.927764 0.306889 0
0.960525 0.311192 0
0.993469 0.315679 0
1 0.320104 0
1 0.324636 0
1 0.329564 0
0 0.303899 0
0 0.304387 0
0 0.306279 0
0 0.308537 0
0 0.310887 0
0 0.313771 0
0.0276799 0.316976 0
0.0616464 0.32047 0
0.0971389 0.323857 0
0.134478 0.326757 0
0.174731 0.328847 0
0.217975 0.330648 0
0.264393 0.331792 0
0.312779 0.332784 0
0.361501 0.333211 0
0.409827 0.333715 0
0.457069 0.334386 0
0.505165 0.334585 0
0.554314 0.334905 0
0.603281 0.335775 0
0.650843 0.336339 0
0.697154 0.337484 0
0.740948 0.3393 0
0.782147 0.341466 0
0.821439 0.34435 0
0.858549 0.348333 0
0.893538 0.352071 0
0.927428 0.356054 0
0.96025 0.360571 0
0.993042 0.365164 0
1 0.369497 0
1 0.374868 0
1 0.379553 0
0 0.346166 0
0 0.347707 0
0 0.349996 0
0 0.352895 0
0 0.356069 0
0 0.359426 0
0.0238193 0.363516 0
0.0586862 0.367605 0
0.0943923 0.371405 0
0.132036 0.374517 0
0.172992 0.377295 0
0.216678 0.379522 0
0.263447 0.381155 0
0.312001 0.382208 0
0.361089 0.382986 0
0.409598 0.383642 0
0.456672 0.384298 0
0.505043 0.384863 0
0.554604 0.385595 0
0.602991 0.385916 0
0.65069 0.386618 0
0.69688 0.387655 0
0.740368 0.389013 0
0.781796 0.391562 0
0.821057 0.39443 0
0.857588 0.397665 0
0.892744 0.401633 0
0.926711 0.405997 0
0.959716 0.410574 0
0.992584 0.41561 0
1 0.420386 0
1 0.425223 0
1 0.429862 0
0 0.390997 0
0 0.392905 0
0 0.395819 0
0 0.399359 0
0 0.403113 0
0 0.407538 0
0.0222324 0.411933 0
0.0572824 0.416251 0
0.0930953 0.420188 0
0.131258 0.423911 0
0.17258 0.427115 0
0.216388 0.429694 0
0.263493 0.431296 0
0.311955 0.432471 0
0.360876 0.433082 0
0.40943 0.433799 0
0.456901 0.434852 0
0.50518 0.435325 0
0.554253 0.435554 0
0.60267 0.435889 0
0.650034 0.436362 0
0.695979 0.437049 0
0.740032 0.438911 0
0.78146 0.441413 0
0.820523 0.444083 0
0.857313 0.447776 0
0.892729 0.45182 0
0.926345 0.456107 0
0.959655 0.461219 0
0.992676 0.466056 0
1 0.470665 0
1 0.475547 0
1 0.480247 0
0 0.438071 0
0 0.440482 0
0 0.443992 0
0 0.448035 0
0 0.452476 0
0 0.457023 0
0.0208743 0.461738 0
0.0558785 0.466087 0
0.0923018 0.470436 0
0.130449 0.47451 0
0.171801 0.477806 0
0.215808 0.480308 0
0.262669 0.482017 0
0.310842 0.482887 0
0.359899 0.483665 0
0.408484 0.484413 0
0.455558 0.485069 0
0.503655 0.485374 0
0.552651 0.485542 0
0.601038 0.485725 0
0.648615 0.486275 0
0.695491 0.487709 0
0.739025 0.489418 0
0.780163 0.491798 0
0.819516 0.49482 0
0.856291 0.498512 0
0.891661 0.502663 0
0.92578 0.507332 0
0.958526 0.512032 0
0.991241 0.516518 0
1 0.521248 0
1 0.526024 0
1 0.530648 0
0 0.48719 0
0 0.490013 0
0 0.493553 0
0 0.498405 0
0 0.502937 0
0 0.507469 0
0.0190738 0.512322 0
0.0543984 0.517021 0
0.090837 0.52166 0
0.128847 0.525643 0
0.17026 0.52871 0
0.21384 0.530953 0
0.260365 0.532479 0
0.308614 0.533455 0
0.357839 0.534401 0
0.406088 0.534722 0
0.45333 0.535439 0
0.501656 0.535912 0
0.550561 0.535973 0
0.599374 0.536553 0
0.647318 0.537636 0
0.693507 0.538506 0
0.737224 0.540368 0
0.778698 0.542809 0
0.817578 0.545632 0
0.854551 0.549523 0
0.889937 0.553796 0
0.923644 0.557885 0
0.95639 0.562463 0
0.989013 0.566995 0
1 0.571511 0
1 0.576165 0
1 0.580606 0
0 0.537408 0
0 0.540566 0
0 0.544701 0
0 0.549187 0
0 0.553506 0
0 0.558297 0
0.0178836 0.56318 0
0.0533761 0.567941 0
0.0894026 0.572305 0
0.127321 0.576074 0
0.168063 0.578744 0
0.211749 0.581064 0
0.258335 0.582681 0
0.306874 0.583978 0
0.355886 0.58471 0
0.404456 0.585397 0
0.451637 0.586175 0
0.499886 0.586557 0
0.549325 0.586969 0
0.598154 0.587716 0
0.645563 0.588373 0
0.692042 0.589456 0
0.735714 0.591226 0
0.776837 0.593332 0
0.816205 0.596735 0
0.853147 0.600137 0
0.887861 0.603769 0
0.921508 0.607904 0
0.953887 0.612299 0
0.986114 0.61651 0
1 0.620966 0
1 0.625238 0
1 0.62916 0
0 0.58793 0
0 0.59115 0
0 0.595224 0
0 0.599374 0
0 0.603937 0
0 0.608545 0
0.0170443 0.613474 0
0.0522621 0.617868 0
0.0881208 0.622187 0
0.125811 0.625772 0
0.166934 0.628885 0
0.2112 0.631769 0
0.257679 0.63328 0
0.306111 0.63444 0
0.355337 0.635294 0
0.403738 0.635721 0
0.451118 0.636576 0
0.499916 0.637552 0
0.548867 0.637613 0
0.597436 0.638056 0
0.644907 0.638727 0
0.691127 0.639475 0
0.734737 0.641016 0
0.77615 0.64358 0
0.814969 0.646296 0
0.851255 0.649241 0
0.88603 0.652796 0
0.919432 0.656611 0
0.951537 0.660761 0
0.98349 0.664714 0
1 0.668528 0
1 0.672343 0
1 0.675853 0
0 0.637812 0
0 0.640604 0
0 0.644556 0
0 0.648798 0
0 0.653315 0
0 0.658061 0
0.0175021 0.662882 0
0.0526131 0.667338 0
0.0886397 0.671656 0
0.126711 0.675624 0
0.16788 0.679149 0
0.211856 0.681605 0
0.258503 0.683391 0
0.306828 0.684504 0
0.355718 0.685161 0
0.404288 0.685771 0
0.45211 0.686839 0
0.500298 0.687037 0
0.549432 0.687175 0
0.598062 0.687358 0
0.645228 0.687572 0
0.691295 0.688258 0
0.734844 0.690044 0
0.775921 0.691829 0
0.814267 0.693935 0
0.850385 0.696803 0
0.88484 0.699962 0
0.917952 0.703822 0
0.949523 0.707195 0
0.980911 0.710521 0
1 0.713726 0
1 0.717067 0
1 0.720058 0
0 0.685969 0
0 0.68896 0
0 0.692988 0
0 0.697383 0
0 0.70219 0
0 0.70695 0
0.0204929 0.71162 0
0.0559701 0.716274 0
0.0919051 0.720851 0
0.130083 0.725032 0
0.171206 0.728252 0
0.215015 0.7308 0
0.261295 0.73225 0
0.309606 0.733303 0
0.359106 0.734249 0
0.407248 0.73463 0
0.454475 0.735073 0
0.502663 0.735241 0
0.551614 0.735119 0
0.599619 0.734813 0
0.647257 0.735256 0
0.693065 0.735637 0
0.736065 0.736584 0
0.776379 0.737926 0
0.814771 0.739605 0
0.850401 0.742046 0
0.884611 0.745129 0
0.917174 0.747951 0
0.948409 0.750973 0
0.979324 0.75378 0
1 0.756573 0
1 0.759243 0
1 0.761929 0
0 0.733639 0
0 0.737072 0
0 0.741253 0
0 0.745815 0
0 0.750469 0
0 0.755093 0
0.0260624 0.759991 0
0.0614939 0.764889 0
0.0974136 0.769345 0
0.135286 0.773312 0
0.176318 0.77641 0
0.21976 0.778546 0
0.266056 0.780056 0
0.314504 0.78117 0
0.363272 0.781491 0
0.411124 0.781643 0
0.458152 0.781857 0
0.506127 0.781674 0
0.554589 0.780926 0
0.602945 0.780774 0
0.650141 0.780423 0
0.695323 0.780362 0
0.737926 0.780804 0
0.778408 0.781613 0
0.815732 0.782788 0
0.851209 0.785046 0
0.884794 0.787137 0
0.916716 0.789517 0
0.947646 0.791974 0
0.978225 0.794324 0
1 0.796918 0
1 0.799222 0
1 0.801083 0
0 0.780743 0
0 0.784543 0
0 0.788739 0
0 0.793072 0
0 0.797711 0
0 0.802548 0
0.0336767 0.807202 0
0.0687724 0.812116 0
0.104768 0.816388 0
0.14229 0.820111 0
0.18265 0.822919 0
0.226398 0.824964 0
0.272801 0.826596 0
0.320455 0.826993 0
0.368826 0.826917 0
0.416281 0.826703 0
0.46305 0.82649 0
0.511009 0.826062 0
0.559319 0.824964 0
0.607004 0.823972 0
0.653513 0.823087 0
0.698466 0.822416 0
0.740826 0.822248 0
0.78085 0.822873 0
0.818235 0.823804 0
0.852918 0.825177 0
0.885985 0.826795 0
0.917372 0.828672 0
0.947967 0.830594 0
0.977981 0.832868 0
1 0.834607 0
1 0.836378 0
1 0.837827 0
0 0.827726 0
0 0.831098 0
0 0.835065 0
0 0.839536 0
0 0.84416 0
0.00839246 0.848951 0
0.0429084 0.853498 0
0.0778973 0.857816 0
0.11313 0.861891 0
0.15053 0.865156 0
0.190936 0.867933 0
0.23444 0.869947 0
0.279835 0.870665 0
0.327092 0.870634 0
0.375097 0.870222 0
0.422095 0.869505 0
0.468742 0.868925 0
0.516365 0.867872 0
0.564324 0.866285 0
0.611383 0.864515 0
0.657496 0.863081 0
0.701961 0.861906 0
0.743969 0.861509 0
0.783566 0.861418 0
0.820218 0.861799 0
0.854582 0.862623 0
0.887282 0.863722 0
0.918151 0.865141 0
0.948379 0.866941 0
0.978119 0.868315 0
1 0.86978 0
1 0.871168 0
1 0.872145 0
0 0.873472 0
0 0.876539 0
0 0.880537 0
0 0.884871 0
0 0.889281 0
0.0186465 0.893736 0
0.0532082 0.897887 0
0.0874189 0.902022 0
0.122515 0.90544 0
0.159625 0.908644 0
0.199786 0.911177 0
0.242283 0.91252 0
0.287266 0.912734 0
0.33402 0.912184 0
0.381323 0.911162 0
0.428443 0.910216 0
0.474479 0.908919 0
0.521416 0.907179 0
0.568948 0.905135 0
0.615732 0.903059 0
0.661921 0.901122 0
0.706157 0.899626 0
0.74757 0.898466 0
0.786419 0.897826 0
0.822751 0.897688 0
0.856565 0.89807 0
0.88896 0.898863 0
0.919387 0.899962 0
0.949233 0.900877 0
0.978469 0.901961 0
1 0.903029 0
1 0.90396 0
1 0.904799 0
0 0.918044 0
0 0.92105 0
0 0.92517 0
0 0.928878 0
0 0.932982 0
0.0291905 0.936873 0
0.0631113 0.940703 0
0.0969711 0.944244 0
0.131884 0.947753 0
