luts/Crushin'.cube
TITLE "Generated by Resolve"
LUT_3D_SIZE 9
0 0 0
0 0 0
0.10753 0 0
0.257984 0 0
0.433234 0 0
0.607996 0 0
0.760678 0 0
0.883162 0 0
0.997391 0 0
0 0 0
0 0 0
0.111833 0 0
0.263783 0 0
0.439384 0 0
0.614649 0 0
0.768353 0 0
0.893294 0 0
1 0 0
0 0.0972152 0
0 0.0957351 0
0.114992 0.0962387 0
0.26865 0.0909743 0
0.448127 0.0800641 0
0.629648 0.070161 0
0.791974 0.0696117 0
0.926406 0.0801709 0
1 0.0956741 0
0 0.226001 0
0 0.22826 0
0.10547 0.235737 0
0.268177 0.239246 0
0.457038 0.237949 0
0.648417 0.237537 0
0.819074 0.245304 0
0.958923 0.262211 0
1 0.280385 0
0 0.390997 0
0 0.403113 0
0.0930953 0.420188 0
0.263493 0.431296 0
0.456901 0.434852 0
0.650034 0.436362 0
0.820523 0.444083 0
0.959655 0.461219 0
1 0.480247 0
0 0.58793 0
0 0.603937 0
0.0881208 0.622187 0
0.257679 0.63328 0
0.451118 0.636576 0
0.644907 0.638727 0
0.814969 0.646296 0
0.951537 0.660761 0
1 0.675853 0
0 0.780743 0
0 0.797711 0
0.104768 0.816388 0
0.272801 0.826596 0
0.46305 0.82649 0
0.653513 0.823087 0
0.818235 0.823804 0
0.947967 0.830594 0
1 0.837827 0
0 0.961547 0
0.00505074 0.974899 0
0.139986 0.987671 0
0.300298 0.990463 0
0.483772 0.982559 0
0.668101 0.970947 0
0.825818 0.964263 0
0.949569 0.964523 0
1 0.966217 0
0 1 0
0.0299687 1 0
0.157092 1 0
0.310109 1 0
0.48777 1 0
0.667582 1 0
0.822461 1 0
0.944305 1 0
1 1 0
0 0 0
0 0 0
0.108186 0 0
0.258808 0 0
0.434165 0 0
0.60795 0 0
0.761456 0 0
0.883879 0 0
0.998154 0 0
0 0 0
0 0 0
0.112871 0 0
0.264851 0 0
0.440467 0 0
0.615808 0 0
0.769787 0 0
0.895582 0 0
1 0 0
0 0.0979019 0
0 0.0962387 0
0.115724 0.0972915 0
0.270893 0.0924849 0
0.450813 0.0822309 0
0.633448 0.0733806 0
0.796674 0.0738231 0
0.932113 0.0854963 0
1 0.101472 0
0 0.228107 0
0 0.231083 0
0.109026 0.239841 0
0.273213 0.244129 0
0.462547 0.24358 0
0.655222 0.244007 0
0.826017 0.251987 0
0.965988 0.268864 0
1 0.286976 0
0 0.396597 0
0 0.409476 0
0.0994736 0.427268 0
0.270176 0.43827 0
0.463249 0.441382 0
0.656748 0.442878 0
0.827359 0.451041 0
0.966155 0.468009 0
1 0.487022 0
0 0.594873 0
0 0.610803 0
0.0943313 0.629053 0
0.264347 0.64036 0
0.457527 0.643488 0
0.65153 0.645304 0
0.821149 0.652476 0
0.956893 0.66627 0
1 0.680735 0
0 0.787945 0
0 0.804669 0
0.110903 0.823026 0
0.278355 0.832425 0
0.468147 0.831861 0
0.658381 0.827695 0
0.821546 0.827405 0
0.950301 0.83357 0
1 0.840146 0
0 0.967498 0
0.0101167 0.97998 0
0.144259 0.992203 0
0.304112 0.994079 0
0.486824 0.985336 0
0.67039 0.972961 0
0.827161 0.965499 0
0.950439 0.965652 0
1 0.966873 0
0 1 0
0.0324254 1 0
0.158877 1 0
0.311635 1 0
0.488838 1 0
0.668711 1 0
0.822904 1 0
0.944961 1 0
1 1 0
0 0 0.0679637
0 0 0.0657359
0.107774 0 0.0657969
0.258396 0 0.0585031
0.433738 0 0.0428931
0.607614 0 0.0255436
0.761212 0 0.0157168
0.883589 0 0.014435
0.998062 0 0.0156405
0 0 0.0730297
0 0 0.0710002
0.112688 0 0.0708171
0.264393 0 0.0635691
0.439979 0 0.0481575
0.615625 0 0.0321965
0.770474 0 0.024506
0.897169 0 0.0278935
1 0 0.0362249
0 0.097612 0.0745403
0 0.0960708 0.0731212
0.115984 0.0976272 0.0746014
0.271519 0.0935836 0.0704509
0.452171 0.0839551 0.0604562
0.636362 0.0762646 0.0523842
0.8009 0.0777905 0.0539254
0.937209 0.0901808 0.0672618
1 0.106981 0.0855879
0 0.229206 0.0539101
0 0.233371 0.0606394
0.112428 0.242954 0.0711376
0.277653 0.248432 0.0768139
0.46775 0.248524 0.0768139
0.661082 0.249653 0.0771191
0.832135 0.257694 0.0847639
0.971679 0.273945 0.101579
1 0.292271 0.119921
0 0.400809 0.0282902
0 0.414832 0.045304
0.105547 0.433005 0.0644388
0.276005 0.44419 0.0754864
0.46862 0.447059 0.0781567
0.66247 0.448463 0.0788434
0.833524 0.456855 0.0863661
0.972107 0.473381 0.102068
1 0.492393 0.120272
0 0.600855 0.0227359
0 0.616419 0.0405737
0.100084 0.634913 0.0592966
0.26981 0.646052 0.0704051
0.462882 0.649378 0.073228
0.656977 0.650782 0.0739605
0.8262 0.65742 0.0794537
0.961273 0.670512 0.0916915
1 0.684367 0.103883
0 0.794018 0.0417182
0 0.810834 0.0587778
0.115862 0.828565 0.0764782
0.282704 0.837201 0.0851301
0.47219 0.836072 0.0839704
0.661433 0.830915 0.0790112
0.824231 0.829847 0.0780041
0.952361 0.835294 0.082887
1 0.841001 0.0879835
0 0.972335 0.0872358
0.0137179 0.984039 0.0986038
0.147051 0.995178 0.109895
0.305882 0.996201 0.110948
0.488075 0.986877 0.101793
0.671016 0.9738 0.0891737
0.827344 0.965805 0.081117
0.950134 0.965393 0.0805829
1 0.966522 0.0824292
0 1 0.115831
0.033341 1 0.119463
0.158999 1 0.123339
0.311528 1 0.118151
0.488472 1 0.103288
0.66804 1 0.0867475
0.822492 1 0.076585
0.944686 1 0.0755169
1 1 0.0762188
0 0 0.227756
0 0 0.223377
0.104585 0 0.22359
0.254871 0 0.216266
0.430152 0 0.201022
0.604349 0 0.184268
0.757931 0 0.174914
0.880171 0 0.174578
0.994751 0 0.177096
0 0 0.234089
0 0 0.229297
0.109361 0 0.229938
0.260975 0 0.222751
0.436301 0 0.207691
0.61268 0 0.192599
0.768383 0 0.186435
0.895842 0 0.191684
1 0 0.202197
0 0.0941634 0.236164
0 0.0929885 0.232944
0.113787 0.095201 0.235004
0.269734 0.0920119 0.231998
0.451102 0.0834363 0.223102
0.636469 0.0766918 0.216953
0.802014 0.0789044 0.220249
0.939178 0.0919509 0.235416
1 0.109346 0.255161
0 0.227375 0.217578
0 0.232837 0.223667
0.113512 0.243626 0.235126
0.278782 0.249928 0.241871
0.469825 0.250935 0.243153
0.664118 0.252293 0.244587
0.835615 0.260563 0.253574
0.974456 0.276387 0.27042
1 0.294575 0.28957
0 0.402502 0.19559
0 0.417395 0.211444
0.108644 0.43592 0.230732
0.278676 0.446937 0.24213
0.471168 0.449622 0.244709
0.665309 0.451194 0.246036
0.836423 0.459251 0.254566
0.97525 0.476219 0.271397
1 0.494667 0.289509
0 0.603616 0.190143
0 0.619379 0.20676
0.102998 0.637919 0.225025
0.272404 0.64918 0.236332
0.465858 0.652384 0.239963
0.659297 0.6533 0.240574
0.827878 0.658793 0.245991
0.962768 0.671672 0.258854
1 0.684367 0.270756
0 0.796887 0.20914
0 0.813581 0.224338
0.118532 0.831174 0.241505
0.284169 0.839353 0.249516
0.472816 0.837125 0.24799
0.661585 0.83122 0.242725
0.823438 0.829129 0.241413
0.950927 0.833875 0.246677
1 0.838758 0.25211
0 0.9738 0.252033
0.014313 0.984726 0.261036
0.146578 0.994934 0.270634
0.304845 0.99559 0.27158
0.48603 0.985229 0.262181
0.668482 0.97171 0.249805
0.824491 0.963165 0.242084
0.947234 0.962295 0.242496
1 0.963241 0.244877
0 1 0.277333
0.0316625 1 0.278401
0.156878 1 0.281132
0.308568 1 0.275837
0.485405 1 0.261738
0.664439 1 0.245975
0.819242 1 0.236728
0.941741 1 0.236606
1 1 0.2383
0 0 0.435599
0 0 0.431312
0.0972763 0 0.431464
0.247257 0 0.425193
0.421393 0 0.410193
0.596582 0 0.395789
0.750072 0 0.386816
0.872389 0 0.386648
0.987701 0 0.389776
0 0 0.441703
0 0 0.437385
0.10219 0 0.437949
0.253498 0 0.431434
0.428992 0 0.417853
0.605676 0 0.404562
0.762097 0 0.399924
0.890608 0 0.405341
1 0 0.416632
0 0.0872816 0.444373
0 0.0866255 0.441184
0.107683 0.0894789 0.443854
0.263783 0.0869764 0.441794
0.446357 0.0793927 0.434958
0.632853 0.0736248 0.430304
0.799603 0.0768902 0.434562
0.937896 0.0906691 0.448936
1 0.108782 0.467613
0 0.222553 0.429618
0 0.22916 0.435721
0.110826 0.240925 0.447227
0.27715 0.248341 0.454551
0.468727 0.250019 0.456413
0.663386 0.251667 0.458457
0.83505 0.2598 0.4663
0.974289 0.275807 0.481498
1 0.294133 0.499031
0 0.400992 0.412512
0 0.416464 0.427298
0.108263 0.435142 0.445014
0.277882 0.44622 0.45568
0.470497 0.448997 0.458228
0.664714 0.450538 0.459632
0.835813 0.458656 0.466896
0.975158 0.475563 0.482094
1 0.494118 0.498512
0 0.602319 0.407614
0 0.618357 0.422019
0.102358 0.636896 0.438941
0.271656 0.6486 0.449424
0.464759 0.651667 0.452644
0.658579 0.652125 0.453346
0.826459 0.657145 0.457725
0.96054 0.669123 0.467979
1 0.68127 0.47866
0 0.796033 0.424002
0 0.81265 0.436957
0.116716 0.82948 0.45182
0.282155 0.8374 0.459129
0.469841 0.83444 0.457053
0.657282 0.82739 0.451362
0.818845 0.824689 0.449821
0.945998 0.828611 0.45388
1 0.833143 0.458717
0 0.971557 0.460197
0.0116121 0.98204 0.467338
0.142977 0.991562 0.475135
0.300328 0.991455 0.47567
0.480858 0.98027 0.466743
0.662013 0.965942 0.454795
0.818051 0.956909 0.447852
0.940627 0.955779 0.448081
1 0.956741 0.450065
0 1 0.479667
0.0267643 1 0.479957
0.151446 1 0.481971
0.302525 1 0.477226
0.478904 1 0.464622
0.65742 1 0.450187
0.812619 1 0.441947
0.935134 1 0.442069
1 1 0.443381
0 0 0.627939
0 0 0.624887
0.0911574 0 0.625055
0.240604 0 0.619348
0.415305 0 0.60618
0.589914 0 0.592966
0.743389 0 0.58436
0.866224 0 0.583947
0.98204 0 0.586862
0 0 0.633677
0 0 0.63035
0.0961624 0 0.630869
0.246921 0 0.624949
0.423087 0 0.613001
0.600092 0 0.601602
0.757397 0 0.597421
0.887327 0 0.60293
1 0 0.613748
0 0.0817884 0.636118
0 0.0816663 0.634455
0.103212 0.0852369 0.637598
0.259541 0.0835737 0.636408
0.443519 0.0772717 0.631357
0.630808 0.0725414 0.627894
0.798703 0.0764324 0.631998
0.93846 0.0912184 0.645823
1 0.109651 0.662852
0 0.219425 0.625467
0 0.226886 0.632197
0.110262 0.240085 0.644144
0.27689 0.248249 0.651881
0.469291 0.250797 0.654139
0.663844 0.252476 0.65568
0.83566 0.260166 0.662425
0.975387 0.276295 0.676127
1 0.295247 0.692653
0 0.400839 0.612161
0 0.416785 0.627008
0.109102 0.435584 0.643168
0.27834 0.446693 0.652995
0.470954 0.449516 0.655818
0.665766 0.451423 0.656916
0.836851 0.459327 0.662943
0.976425 0.476051 0.67686
1 0.494347 0.691341
0 0.602274 0.607584
0 0.618662 0.621424
0.103502 0.637522 0.637293
0.272236 0.64918 0.647211
0.464881 0.652094 0.64979
0.658015 0.651896 0.649409
0.825757 0.656397 0.652735
0.959533 0.667796 0.66154
1 0.678874 0.670161
0 0.796597 0.621897
0 0.812665 0.633799
0.116503 0.829114 0.647364
0.280949 0.836378 0.653712
0.467979 0.832822 0.651179
0.654292 0.824979 0.645197
0.815229 0.821576 0.642557
0.941909 0.824659 0.645472
1 0.828428 0.649012
0 0.970474 0.653574
0.00924697 0.979751 0.659175
0.140093 0.988632 0.6663
0.296681 0.988067 0.66656
0.476448 0.976211 0.657649
0.656779 0.961395 0.645975
0.812665 0.951736 0.638651
0.935073 0.950576 0.638422
1 0.951202 0.639811
0 1 0.669123
0.0223239 1 0.668986
0.146624 1 0.670802
0.297246 1 0.666453
0.472969 1 0.654383
0.651576 1 0.640787
0.807111 1 0.632898
0.929152 1 0.632197
1 1 0.633768
0 0 0.777844
0 0 0.776379
0.0882429 0 0.776837
0.237324 0 0.771206
0.412451 0 0.758389
0.586694 0 0.744884
0.740475 0 0.735927
0.863813 0 0.734905
0.980423 0 0.737545
0 0 0.782055
0 0 0.781018
0.0935378 0 0.781598
0.243961 0 0.776074
0.420844 0 0.764492
0.598199 0 0.753429
0.756786 0 0.749157
0.888075 0 0.755001
1 0 0.76553
0 0.0798352 0.784985
0 0.0801404 0.785306
0.102174 0.0844129 0.789136
0.259297 0.0840009 0.78912
0.444282 0.078645 0.784527
0.632624 0.0750286 0.781506
0.801785 0.0796674 0.785641
0.942519 0.095079 0.798871
1 0.113756 0.815137
0 0.219776 0.777203
0 0.228519 0.786145
0.112856 0.242115 0.798733
0.280156 0.251621 0.807095
0.472969 0.254627 0.809522
0.667948 0.256428 0.810437
0.839857 0.263844 0.816266
0.979828 0.280003 0.829252
1 0.299306 0.844648
0 0.404273 0.767056
0 0.4206 0.782696
0.113313 0.439277 0.799191
0.281666 0.450294 0.808484
0.474678 0.453376 0.810956
0.669429 0.454994 0.811597
0.841184 0.463233 0.817227
0.980591 0.479667 0.829526
1 0.497505 0.842786
0 0.605966 0.762478
0 0.622385 0.777584
0.107698 0.641306 0.7935
0.276265 0.653162 0.80325
0.468315 0.655482 0.80473
0.660563 0.654612 0.803433
0.828672 0.658671 0.805615
0.961456 0.669017 0.812909
1 0.67953 0.819867
0 0.800519 0.77612
0 0.815839 0.789014
0.119326 0.831952 0.802396
0.282673 0.838453 0.80798
0.468788 0.834043 0.804501
0.654124 0.825345 0.797147
0.815167 0.82118 0.793317
0.941253 0.82359 0.794995
1 0.826902 0.797162
0 0.97203 0.805692
0.0099794 0.980453 0.812238
0.140063 0.988678 0.819089
0.295369 0.987167 0.818311
0.474098 0.974975 0.808743
0.654475 0.959762 0.796643
0.81033 0.949752 0.78854
0.932982 0.948318 0.787121
1 0.949126 0.787686
0 1 0.81944
0.0208133 1 0.820432
0.144457 1 0.822095
0.294667 1 0.817533
0.470207 1 0.805203
0.648997 1 0.791485
0.804654 1 0.783001
0.926833 1 0.781155
1 1 0.782162
0 0 0.894743
0 0 0.8934
0.0882734 0 0.893935
0.235798 0 0.887556
0.412222 0 0.875471
0.586267 0 0.861723
0.74023 0 0.852674
0.864485 0 0.851621
0.981903 0 0.854826
0 0 0.898848
0 0 0.897902
0.0934157 0 0.898497
0.243702 0 0.893065
0.421164 0 0.882139
0.59939 0 0.871489
0.759365 0 0.86775
0.892149 0 0.87422
1 0 0.885527
0 0.0805676 0.901793
0 0.0814069 0.903181
0.103914 0.0862593 0.907713
0.261845 0.0870222 0.908644
0.448081 0.0828412 0.905333
0.637217 0.0800793 0.902403
0.807858 0.0854963 0.90692
0.949187 0.101305 0.920165
1 0.120333 0.936568
0 0.223301 0.896712
0 0.2327 0.907362
0.118715 0.24744 0.920348
0.286305 0.257649 0.929259
0.479377 0.260945 0.931868
0.674266 0.262623 0.932387
0.846403 0.269871 0.937636
0.986923 0.286061 0.950988
1 0.305272 0.966384
0 0.410407 0.889097
0 0.426581 0.905516
0.120119 0.445472 0.921401
0.288243 0.456641 0.930892
0.480827 0.459785 0.933089
0.675914 0.461372 0.933669
0.848539 0.469413 0.93901
0.987228 0.485573 0.950942
1 0.502297 0.963684
0 0.612314 0.884611
0 0.628305 0.899977
0.114427 0.647654 0.915755
0.282368 0.659358 0.925383
0.473976 0.661524 0.926802
0.665766 0.660029 0.924605
0.833509 0.662852 0.925704
0.965713 0.672602 0.932204
1 0.682124 0.938491
0 0.806683 0.897856
0 0.821347 0.91017
0.124147 0.836866 0.922957
0.28603 0.842664 0.927886
0.471015 0.83711 0.923583
0.656107 0.828046 0.915846
0.816709 0.822812 0.910826
0.942443 0.824842 0.91194
1 0.827634 0.91371
0 0.976059 0.925185
0.0130617 0.983627 0.931426
0.142214 0.991043 0.937789
0.296376 0.988876 0.936477
0.474281 0.976089 0.926238
0.654246 0.960311 0.913344
0.810544 0.950164 0.904906
0.933104 0.948516 0.903334
1 0.949401 0.903777
0 1 0.937102
0.0216068 1 0.937896
0.144945 1 0.939315
0.29424 1 0.934615
0.469718 1 0.922133
0.6486 1 0.908309
0.804227 1 0.899184
0.927077 1 0.897475
1 1 0.898375
0 0 1
0 0 1
0.0881971 0 1
0.235889 0 1
0.41178 0 0.990906
0.585946 0 0.97705
0.740353 0 0.968048
0.865583 0 0.967666
0.983734 0 0.971466
0 0 1
0 0 1
0.0934157 0 1
0.243702 0 1
0.421759 0 0.998444
0.600885 0 0.988373
0.762188 0 0.985428
0.896147 0 0.99292
1 0 1
0 0.0814527 1
0 0.0829938 1
0.106371 0.0887465 1
0.265095 0.0907454 1
0.451667 0.0875257 1
0.642084 0.0856489 1
0.814023 0.0915694 1
0.955856 0.107683 1
1 0.126528 1
0 0.226902 1
0 0.237629 1
0.125017 0.2533 1
0.292668 0.264225 1
0.485512 0.26746 1
0.680751 0.268803 1
0.853559 0.275959 1
0.993912 0.292287 1
1 0.311315 1
0 0.416892 1
0 0.432883 1
0.12697 0.451591 1
0.294484 0.462959 1
0.487007 0.466056 1
0.682139 0.467857 1
0.855314 0.475425 1
0.994018 0.491188 1
1 0.507469 1
0 0.618753 1
0 0.634974 1
0.121019 0.654063 1
0.288136 0.665599 1
0.478874 0.666789 1
0.670756 0.664897 1
0.837766 0.666987 1
0.969406 0.67541 1
1 0.684367 1
0 0.812375 1
0 0.826886 1
0.128573 0.841596 1
0.289433 0.846906 1
0.473503 0.840528 1
0.658427 0.830472 1
0.818311 0.824491 1
0.943313 0.825666 1
1 0.828199 1
0 0.979324 1
0.0158999 0.986252 1
0.144259 0.993027 1
0.297169 0.990494 1
0.474784 0.977127 1
0.654017 0.961089 1
0.810269 0.950698 1
0.933013 0.948745 1
1 0.949737 1
0 1 1
0.0221103 1 1
0.145296 1 1
0.293812 1 1
0.469535 1 1
0.64828 1 1
0.804211 1 1
0.927398 1 1
1 1 1
