luts/Crushin'.cube
TITLE "Generated by Resolve"
LUT_3D_SIZE 5
0 0 0
0.10753 0 0
0.433234 0 0
0.760678 0 0
0.997391 0 0
0 0.0972152 0
0.114992 0.0962387 0
0.448127 0.0800641 0
0.791974 0.0696117 0
1 0.0956741 0
0 0.390997 0
0.0930953 0.420188 0
0.456901 0.434852 0
0.820523 0.444083 0
1 0.480247 0
0 0.780743 0
0.104768 0.816388 0
0.46305 0.82649 0
0.818235 0.823804 0
1 0.837827 0
0 1 0
0.157092 1 0
0.48777 1 0
0.822461 1 0
1 1 0
0 0 0.0679637
0.107774 0 0.0657969
0.433738 0 0.0428931
0.761212 0 0.0157168
0.998062 0 0.0156405
0 0.097612 0.0745403
0.115984 0.0976272 0.0746014
0.452171 0.0839551 0.0604562
0.8009 0.0777905 0.0539254
1 0.106981 0.0855879
0 0.400809 0.0282902
0.105547 0.433005 0.0644388
0.46862 0.447059 0.0781567
0.833524 0.456855 0.0863661
1 0.492393 0.120272
0 0.794018 0.0417182
0.115862 0.828565 0.0764782
0.47219 0.836072 0.0839704
0.824231 0.829847 0.0780041
1 0.841001 0.0879835
0 1 0.115831
0.158999 1 0.123339
0.488472 1 0.103288
0.822492 1 0.076585
1 1 0.0762188
0 0 0.435599
0.0972763 0 0.431464
0.421393 0 0.410193
0.750072 0 0.386816
0.987701 0 0.389776
0 0.0872816 0.444373
0.107683 0.0894789 0.443854
0.446357 0.0793927 0.434958
0.799603 0.0768902 0.434562
1 0.108782 0.467613
0 0.400992 0.412512
0.108263 0.435142 0.445014
0.470497 0.448997 0.458228
0.835813 0.458656 0.466896
1 0.494118 0.498512
0 0.796033 0.424002
0.116716 0.82948 0.45182
0.469841 0.83444 0.457053
0.818845 0.824689 0.449821
1 0.833143 0.458717
0 1 0.479667
0.151446 1 0.481971
0.478904 1 0.464622
0.812619 1 0.441947
1 1 0.443381
0 0 0.777844
0.0882429 0 0.776837
0.412451 0 0.758389
0.740475 0 0.735927
0.980423 0 0.737545
0 0.0798352 0.784985
0.102174 0.0844129 0.789136
0.444282 0.078645 0.784527
0.801785 0.0796674 0.785641
1 0.113756 0.815137
0 0.404273 0.767056
0.113313 0.439277 0.799191
0.474678 0.453376 0.810956
0.841184 0.463233 0.817227
1 0.497505 0.842786
0 0.800519 0.77612
0.119326 0.831952 0.802396
0.468788 0.834043 0.804501
0.815167 0.82118 0.793317
1 0.826902 0.797162
0 1 0.81944
0.144457 1 0.822095
0.470207 1 0.805203
0.804654 1 0.783001
1 1 0.782162
0 0 1
0.0881971 0 1
0.41178 0 0.990906
0.740353 0 0.968048
0.983734 0 0.971466
0 0.0814527 1
0.106371 0.0887465 1
0.451667 0.0875257 1
0.814023 0.0915694 1
1 0.126528 1
0 0.416892 1
0.12697 0.451591 1
0.487007 0.466056 1
0.855314 0.475425 1
1 0.507469 1
0 0.812375 1
0.128573 0.841596 1
0.473503 0.840528 1
0.818311 0.824491 1
1 0.828199 1
0 1 1
0.145296 1 1
0.469535 1 1
0.804211 1 1
1 1 1
