luts/cute.cube
LUT_3D_SIZE 16
0.000000 0.000000 0.000000
0.000000 0.000000 0.000000
0.000000 0.000000 0.000000
0.124420 0.000000 0.000000
0.278404 0.000000 0.000000
0.421790 0.000000 0.026099
0.546757 0.013144 0.079831
0.645210 0.117956 0.134905
0.716309 0.206253 0.209059
0.764235 0.276795 0.277915
0.798455 0.335400 0.338507
0.823965 0.384585 0.392385
0.844213 0.425360 0.439797
0.853921 0.455145 0.475540
0.853921 0.462615 0.486217
0.853921 0.462788 0.488142
0.000000 0.000000 0.000000
0.000000 0.000000 0.000000
0.000000 0.000000 0.000000
0.124626 0.000000 0.000000
0.277046 0.000000 0.000000
0.419573 0.000000 0.017957
0.544711 0.019971 0.073461
0.643763 0.117694 0.132409
0.715468 0.205111 0.207434
0.763668 0.275966 0.276853
0.798021 0.334551 0.337578
0.823668 0.383963 0.391583
0.843779 0.424709 0.438965
0.853921 0.454656 0.474954
0.853921 0.462555 0.486130
0.853921 0.462788 0.488116
0.000000 0.000000 0.000000
0.000000 0.000000 0.000000
0.000000 0.000000 0.000000
0.125385 0.056629 0.000000
0.271992 0.073103 0.000000
0.411375 0.026769 0.000000
0.536948 0.043767 0.044239
0.638412 0.116618 0.122786
0.712232 0.200911 0.201435
0.761649 0.272721 0.272864
0.796346 0.331500 0.334117
0.822443 0.381482 0.388697
0.842600 0.422086 0.435889
0.853921 0.452976 0.472850
0.853921 0.462428 0.485881
0.853921 0.462788 0.488015
0.000000 0.155816 0.000000
0.000000 0.153711 0.000000
0.057900 0.146741 0.000000
0.131459 0.139722 0.000000
0.267009 0.175010 0.000000
0.401814 0.180988 0.000000
0.526003 0.162053 0.000000
0.629321 0.154988 0.100775
0.707330 0.202202 0.193221
0.758846 0.268420 0.266839
0.794270 0.328161 0.330218
0.820800 0.378412 0.385131
0.840979 0.419069 0.432389
0.853921 0.450753 0.470010
0.853921 0.462315 0.485469
0.853921 0.462790 0.487860
0.000000 0.321387 0.011277
0.000000 0.319857 0.005429
0.002779 0.313944 0.000000
0.150518 0.304490 0.000000
0.260441 0.294927 0.000000
0.392070 0.306441 0.000000
0.515887 0.298301 0.009246
0.619565 0.274407 0.098004
0.701215 0.261645 0.193524
0.755763 0.283438 0.268293
0.792424 0.324876 0.325476
0.819399 0.375441 0.381600
0.839743 0.416298 0.429173
0.853446 0.448713 0.467523
0.853921 0.462110 0.485115
0.853921 0.462812 0.487702
0.095478 0.474222 0.056097
0.095162 0.473089 0.054360
0.095529 0.468868 0.046993
0.133206 0.461772 0.023857
0.240038 0.451821 0.017232
0.375495 0.441143 0.029760
0.506254 0.433210 0.068781
0.613113 0.405553 0.128222
0.696364 0.368909 0.200559
0.750450 0.348539 0.271808
0.790097 0.353428 0.338687
0.818114 0.373648 0.378238
0.838611 0.414178 0.426532
0.852857 0.447243 0.465784
0.853921 0.462064 0.484928
0.853921 0.462839 0.487603
0.199468 0.609244 0.173941
0.198743 0.608366 0.172862
0.196223 0.605208 0.169297
0.193741 0.600109 0.163583
0.217328 0.593302 0.155325
0.331125 0.583548 0.150671
0.480696 0.573702 0.161110
0.604532 0.548250 0.196669
0.687276 0.507223 0.242489
0.743159 0.470064 0.292574
0.784112 0.437494 0.344777
0.814602 0.425035 0.399407
0.837374 0.428247 0.434237
0.852445 0.446240 0.464265
0.853921 0.461996 0.484777
0.853921 0.462836 0.487538
0.284994 0.713453 0.289192
0.284335 0.712743 0.288296
0.282032 0.710031 0.285110
0.278931 0.706487 0.280974
0.277244 0.702471 0.276605
0.310651 0.696968 0.277300
0.423426 0.688799 0.273406
0.571270 0.680133 0.285341
0.674856 0.650564 0.312789
0.734564 0.606487 0.344885
0.776682 0.565978 0.378858
0.808118 0.525496 0.412481
0.832764 0.490573 0.449844
0.851083 0.480548 0.487556
0.853921 0.462103 0.484492
0.853921 0.462813 0.487420
0.353054 0.786355 0.380169
0.352511 0.785808 0.379447
0.350596 0.784000 0.376860
0.348158 0.781334 0.373660
0.345221 0.778612 0.369806
0.347108 0.775568 0.367946
0.395378 0.771230 0.376516
0.516168 0.764697 0.376756
0.640695 0.758565 0.387373
0.723448 0.731427 0.409128
0.768497 0.687891 0.432768
0.801223 0.647563 0.455935
0.825987 0.605437 0.476202
0.846596 0.557988 0.496702
0.853921 0.516265 0.518044
0.853921 0.470250 0.491834
0.408351 0.838229 0.453050
0.407860 0.837861 0.452408
0.406261 0.836412 0.450365
0.403898 0.834353 0.447276
0.401771 0.832406 0.444429
0.399662 0.830500 0.441687
0.408153 0.828263 0.444606
0.482760 0.824158 0.457376
0.593024 0.819266 0.459951
0.690293 0.814951 0.469749
0.759678 0.793067 0.487124
0.794230 0.751416 0.504375
0.819519 0.713726 0.519455
0.840189 0.673608 0.531091
0.853740 0.623657 0.533554
0.853921 0.548024 0.523681
0.453551 0.875893 0.512074
0.453122 0.875495 0.511517
0.451651 0.874472 0.509637
0.449957 0.872950 0.507351
0.448017 0.871494 0.504864
0.446253 0.870130 0.502559
0.445807 0.868907 0.501317
0.484194 0.866752 0.525123
0.557665 0.863136 0.523667
0.649643 0.859615 0.528142
0.727493 0.856615 0.537073
0.786527 0.840675 0.550566
0.813462 0.802801 0.563017
0.834345 0.768509 0.573028
0.850108 0.735170 0.577199
0.853834 0.687536 0.558736
0.489231 0.903322 0.558468
0.488872 0.903062 0.558018
0.487681 0.902301 0.556549
0.486231 0.901001 0.554652
0.484626 0.899876 0.552464
0.483204 0.898800 0.550549
0.482011 0.897968 0.549109
0.490190 0.896826 0.553978
0.546915 0.894462 0.577133
0.622104 0.891606 0.577498
0.693428 0.889362 0.583222
0.757137 0.887064 0.591481
0.806954 0.876111 0.601874
0.828983 0.842542 0.611048
0.845049 0.814438 0.616722
0.851906 0.787179 0.609947
0.518605 0.924830 0.596606
0.518280 0.924797 0.596274
0.517158 0.923986 0.594829
0.515825 0.922907 0.593076
0.514488 0.921931 0.591309
0.513150 0.921050 0.589522
0.512185 0.920340 0.588378
0.512130 0.919662 0.587775
0.552252 0.918284 0.617405
0.606186 0.915861 0.618993
0.670957 0.913854 0.622132
0.728645 0.912047 0.627853
0.780197 0.910356 0.635215
0.823635 0.903354 0.643671
0.840350 0.876686 0.649463
0.849575 0.855855 0.648944
0.541576 0.941777 0.626485
0.541299 0.941562 0.626216
0.540446 0.941065 0.625144
0.539352 0.940158 0.623680
0.538445 0.939558 0.622487
0.537556 0.938796 0.621349
0.536706 0.938337 0.620223
0.536005 0.937729 0.619301
0.548829 0.937124 0.628750
0.600040 0.935437 0.654168
0.657481 0.933373 0.655168
0.709763 0.932113 0.659246
0.756733 0.930725 0.665206
0.799529 0.929419 0.671854
0.835479 0.927828 0.677633
0.846770 0.908613 0.679720
0.554901 0.948924 0.645618
0.554880 0.948924 0.645532
0.554701 0.948931 0.645072
0.554444 0.948762 0.644430
0.554125 0.948535 0.643752
0.553861 0.948340 0.643268
0.553617 0.948273 0.642753
0.553255 0.948144 0.642121
0.559201 0.948095 0.646462
0.604501 0.947650 0.679120
0.651600 0.946933 0.678519
0.699783 0.945816 0.681589
0.742991 0.944843 0.686616
0.782647 0.944126 0.692669
0.815353 0.943180 0.698300
0.839075 0.942021 0.701977
0.556538 0.948924 0.668094
0.556636 0.948924 0.667611
0.556639 0.948924 0.665318
0.556631 0.948924 0.662458
0.556638 0.948924 0.660341
0.556642 0.948924 0.658855
0.556615 0.948924 0.657791
0.556609 0.948924 0.656596
0.558563 0.948924 0.656962
0.596133 0.948924 0.684641
0.653259 0.948924 0.697713
0.696564 0.948924 0.696396
0.737060 0.948924 0.697080
0.774601 0.948837 0.700251
0.805980 0.948678 0.705310
0.828433 0.948495 0.709926
0.000000 0.000000 0.000000
0.000000 0.000000 0.000000
0.000000 0.000000 0.000000
0.123426 0.000000 0.000000
0.278335 0.000000 0.000000
0.422027 0.000000 0.043091
0.547042 0.012792 0.093127
0.645511 0.118237 0.143513
0.716238 0.206215 0.213249
0.764186 0.276755 0.279959
0.798423 0.335388 0.339558
0.823950 0.384614 0.392640
0.844176 0.425359 0.439725
0.853921 0.455127 0.475538
0.853921 0.462613 0.486196
0.853921 0.462788 0.488137
0.000000 0.000000 0.000000
0.000000 0.000000 0.000000
0.000000 0.000000 0.000000
0.123651 0.000000 0.000000
0.277062 0.000000 0.000000
0.420028 0.000000 0.036199
0.545181 0.018949 0.086781
0.644207 0.117974 0.140456
0.715569 0.205231 0.211301
0.763721 0.275951 0.278760
0.798044 0.334617 0.338605
0.823701 0.384005 0.391902
0.843833 0.424738 0.439041
0.853921 0.454740 0.475038
0.853921 0.462561 0.486138
0.853921 0.462788 0.488122
0.000000 0.000000 0.000000
0.000000 0.000000 0.000000
0.000000 0.000000 0.000000
0.124416 0.051661 0.000000
0.272064 0.058932 0.000000
0.411934 0.000000 0.000000
0.537724 0.042053 0.061825
0.639018 0.116771 0.131105
0.712376 0.201034 0.205215
0.761634 0.272560 0.274496
0.796309 0.331372 0.334955
0.822422 0.381512 0.389013
0.842656 0.422104 0.435920
0.853921 0.453015 0.472840
0.853921 0.462429 0.485884
0.853921 0.462788 0.488019
0.000000 0.153478 0.000000
0.000000 0.151450 0.000000
0.045492 0.144320 0.000000
0.129483 0.137223 0.000000
0.266875 0.171204 0.000000
0.402155 0.175143 0.000000
0.526604 0.155661 0.001463
0.630112 0.153092 0.109912
0.707369 0.201286 0.196437
0.758600 0.267845 0.267854
0.794223 0.327703 0.330603
0.820796 0.378350 0.385339
0.840991 0.419019 0.432357
0.853921 0.450683 0.469935
0.853921 0.462326 0.485464
0.853921 0.462790 0.487859
0.000000 0.319919 0.029256
0.000000 0.318508 0.024520
0.002414 0.312648 0.000000
0.145216 0.303188 0.000000
0.259280 0.293539 0.000000
0.391857 0.304276 0.000000
0.516109 0.295822 0.020421
0.619977 0.272420 0.104418
0.700807 0.261585 0.196652
0.755202 0.282753 0.268674
0.792154 0.324273 0.325612
0.819246 0.375265 0.381796
0.839706 0.416206 0.429063
0.853472 0.448697 0.467527
0.853921 0.462150 0.485160
0.853921 0.462817 0.487692
0.094845 0.473443 0.068507
0.094542 0.472357 0.066233
0.094860 0.468158 0.059562
0.128446 0.461049 0.032769
0.238125 0.450930 0.025963
0.374914 0.440393 0.037082
0.506019 0.432150 0.073826
0.612653 0.404897 0.131246
0.694892 0.369892 0.201530
0.749436 0.349415 0.272045
0.789765 0.353108 0.338909
0.818050 0.373519 0.378508
0.838619 0.414054 0.426461
0.852798 0.447184 0.465758
0.853921 0.462047 0.484913
0.853921 0.462839 0.487597
0.199098 0.608837 0.175407
0.198446 0.607966 0.174283
0.195843 0.604671 0.170576
0.193387 0.599813 0.164972
0.216527 0.592929 0.156583
0.330395 0.582980 0.151742
0.480318 0.573142 0.161960
0.603715 0.548253 0.197054
0.685874 0.508224 0.242177
0.742138 0.471064 0.291994
0.783811 0.437433 0.344777
0.814614 0.424778 0.399788
0.837326 0.427974 0.434090
0.852445 0.446149 0.464223
0.853921 0.462015 0.484780
0.853921 0.462833 0.487528
0.284711 0.713167 0.288864
0.284192 0.712594 0.288165
0.281848 0.709859 0.284999
0.278713 0.706137 0.280749
0.276918 0.702104 0.276314
0.310124 0.696718 0.276968
0.422824 0.688402 0.273089
0.570573 0.679938 0.284997
0.673942 0.650968 0.312322
0.733979 0.606576 0.344520
0.776419 0.565768 0.378383
0.808087 0.524893 0.412171
0.832731 0.490161 0.449697
0.851015 0.479841 0.486961
0.853921 0.462135 0.484486
0.853921 0.462808 0.487441
0.352837 0.786137 0.379794
0.352334 0.785750 0.379275
0.350433 0.783795 0.376615
0.348009 0.781175 0.373390
0.345044 0.778331 0.369578
0.346806 0.775347 0.367626
0.394729 0.770987 0.376170
0.515744 0.764527 0.376356
0.640146 0.758237 0.386994
0.723338 0.731247 0.408764
0.768468 0.687560 0.432416
0.801131 0.647193 0.455675
0.825896 0.604921 0.475887
0.846603 0.557518 0.496553
0.853921 0.516026 0.518059
0.853921 0.470233 0.491818
0.408166 0.838006 0.452725
0.407796 0.837751 0.452238
0.406165 0.836257 0.450177
0.403798 0.834263 0.447052
0.401633 0.832308 0.444228
0.399545 0.830335 0.441410
0.407697 0.828131 0.444174
0.482194 0.823987 0.457062
0.592797 0.819258 0.459688
0.690080 0.814697 0.469444
0.759463 0.792907 0.486820
0.794193 0.751295 0.504047
0.819471 0.713430 0.519191
0.840121 0.673320 0.530856
0.853754 0.623275 0.533309
0.853921 0.547656 0.523623
0.453355 0.875689 0.511772
0.453051 0.875501 0.511403
0.451504 0.874340 0.509441
0.449811 0.872947 0.507217
0.447865 0.871500 0.504618
0.446111 0.869988 0.502389
0.445615 0.868762 0.501074
0.483761 0.866508 0.524695
0.557241 0.863002 0.523411
0.649429 0.859578 0.527955
0.727396 0.856379 0.536733
0.786494 0.840424 0.550389
0.813332 0.802760 0.562744
0.834348 0.768234 0.572779
0.850125 0.734915 0.577149
0.853832 0.687028 0.558456
0.489009 0.903200 0.558249
0.488773 0.903021 0.557903
0.487643 0.902256 0.556435
0.486148 0.901002 0.554455
0.484485 0.899757 0.552342
0.483003 0.898699 0.550430
0.481959 0.897761 0.548917
0.489971 0.896800 0.553739
0.546613 0.894387 0.577058
0.621851 0.891512 0.577344
0.693223 0.889209 0.583063
0.756839 0.886989 0.591317
0.806965 0.876033 0.601579
0.828950 0.842323 0.610880
0.845045 0.814180 0.616390
0.851873 0.786921 0.609754
0.518465 0.924791 0.596471
0.518201 0.924686 0.596178
0.517150 0.923842 0.594762
0.515763 0.922867 0.592976
0.514335 0.921935 0.591104
0.513058 0.920858 0.589473
0.512077 0.920259 0.588174
0.512060 0.919535 0.587675
0.551758 0.918179 0.616998
0.605909 0.915805 0.618906
0.670775 0.913827 0.621922
0.728741 0.912027 0.627829
0.780212 0.910210 0.635037
0.823588 0.903322 0.643430
0.840316 0.876434 0.649358
0.849598 0.855601 0.648880
0.541424 0.941647 0.626418
0.541193 0.941427 0.626171
0.540464 0.940867 0.625085
0.539256 0.940070 0.623481
0.538332 0.939389 0.622375
0.537435 0.938728 0.621150
0.536594 0.938117 0.620035
0.535855 0.937661 0.619093
0.548440 0.937004 0.628511
0.599810 0.935438 0.654256
0.657239 0.933348 0.655057
0.709642 0.932019 0.659150
0.756491 0.930703 0.665072
0.799469 0.929432 0.671698
0.835462 0.927773 0.677478
0.846736 0.908640 0.679721
0.554883 0.948924 0.645728
0.554778 0.948924 0.645637
0.554680 0.948873 0.645186
0.554428 0.948686 0.644563
0.554127 0.948539 0.643929
0.553865 0.948385 0.643288
0.553527 0.948271 0.642740
0.553180 0.948150 0.642066
0.558970 0.948109 0.646320
0.604291 0.947654 0.679099
0.651366 0.947009 0.678374
0.699466 0.945781 0.681453
0.742890 0.944759 0.686357
0.782556 0.944083 0.692430
0.815206 0.943086 0.698087
0.839019 0.941876 0.701784
0.556542 0.948924 0.668649
0.556558 0.948924 0.668053
0.556577 0.948924 0.665778
0.556584 0.948924 0.662870
0.556613 0.948924 0.660693
0.556646 0.948924 0.659221
0.556641 0.948924 0.658189
0.556601 0.948924 0.657034
0.558501 0.948924 0.657297
0.595544 0.948924 0.684506
0.653241 0.948924 0.698208
0.696500 0.948924 0.696857
0.736847 0.948924 0.697504
0.774642 0.948763 0.700260
0.805903 0.948602 0.705133
0.828477 0.948522 0.709885
0.000000 0.000000 0.000000
0.000000 0.000000 0.000000
0.000000 0.000000 0.000000
0.119647 0.000000 0.000000
0.277845 0.000000 0.035916
0.422715 0.000000 0.098349
0.548102 0.011535 0.138854
0.646527 0.119324 0.175171
0.716134 0.206104 0.229865
0.764044 0.276274 0.288503
0.798168 0.335089 0.343872
0.823862 0.384315 0.393844
0.844041 0.425102 0.439516
0.853921 0.455015 0.475372
0.853921 0.462608 0.486158
0.853921 0.462788 0.488152
0.000000 0.000000 0.000000
0.000000 0.000000 0.000000
0.000000 0.000000 0.000000
0.119836 0.000000 0.000000
0.276690 0.000000 0.035010
0.420968 0.000000 0.094167
0.546501 0.016819 0.134070
0.645414 0.118919 0.172249
0.715497 0.205171 0.227693
0.763528 0.275423 0.286953
0.797793 0.334269 0.342683
0.823490 0.383828 0.393116
0.843799 0.424476 0.438747
0.853921 0.454570 0.474872
0.853921 0.462542 0.486104
0.853921 0.462788 0.488102
0.000000 0.000000 0.000000
0.000000 0.000000 0.000000
0.000000 0.000000 0.000000
0.120505 0.000000 0.000000
0.272314 0.000000 0.014880
0.414159 0.000000 0.069486
0.540615 0.035590 0.114388
0.641257 0.117380 0.160748
0.712725 0.201556 0.219466
0.761184 0.272053 0.281068
0.796152 0.331217 0.338300
0.822450 0.381628 0.390269
0.842654 0.422296 0.436096
0.853921 0.453083 0.472939
0.853921 0.462440 0.485869
0.853921 0.462788 0.488000
0.000000 0.144659 0.005107
0.000000 0.142493 0.002248
0.000000 0.135107 0.000000
0.120798 0.127680 0.000000
0.266235 0.150808 0.000000
0.403519 0.147455 0.000000
0.529047 0.127702 0.053324
0.633145 0.148031 0.141743
0.707651 0.198781 0.208898
0.757155 0.265467 0.272090
0.793444 0.326368 0.332609
0.820739 0.378264 0.386438
0.840998 0.418988 0.432321
0.853926 0.450480 0.469722
0.853921 0.462312 0.485496
0.853921 0.462790 0.487852
0.000000 0.314404 0.080999
0.000000 0.312992 0.078084
0.000000 0.307759 0.061363
0.119769 0.298308 0.000000
0.254932 0.288221 0.000000
0.391007 0.296016 0.007992
0.516883 0.286532 0.057652
0.621506 0.264854 0.128467
0.698990 0.261125 0.208654
0.752235 0.280063 0.270245
0.790905 0.321994 0.326484
0.819111 0.374904 0.382711
0.839566 0.416005 0.428834
0.853372 0.448617 0.467365
0.853921 0.462141 0.485099
0.853921 0.462839 0.487683
0.092448 0.470472 0.108670
0.092113 0.469423 0.106547
0.092290 0.465647 0.098339
0.118138 0.458007 0.074115
0.230785 0.447747 0.056214
0.372767 0.437374 0.063497
0.505117 0.428315 0.092738
0.610878 0.402079 0.142751
0.689455 0.373245 0.205267
0.745450 0.352654 0.272822
0.788762 0.351999 0.339813
0.817784 0.373258 0.379551
0.838510 0.413749 0.426200
0.852730 0.446944 0.465378
0.853921 0.462010 0.484900
0.853921 0.462839 0.487606
0.197734 0.607119 0.182407
0.197042 0.606227 0.180870
0.194505 0.603013 0.175639
0.192142 0.598275 0.170262
0.213177 0.591427 0.161428
0.327756 0.581327 0.155810
0.478823 0.571114 0.165127
0.600281 0.548334 0.198548
0.680175 0.512117 0.240813
0.737984 0.474902 0.289741
0.782720 0.437064 0.344801
0.814289 0.424019 0.400945
0.837086 0.426882 0.433260
0.852273 0.446007 0.463957
0.853921 0.461976 0.484741
0.853921 0.462823 0.487485
0.283684 0.712048 0.288148
0.283128 0.711341 0.287326
0.281263 0.709068 0.284515
0.277879 0.705157 0.279856
0.275567 0.700988 0.275032
0.308104 0.695587 0.275746
0.420579 0.687286 0.271896
0.567827 0.679083 0.283622
0.670436 0.652747 0.310525
0.732526 0.606613 0.342688
0.775432 0.564757 0.376537
0.807793 0.522700 0.410993
0.832624 0.488198 0.449059
0.850925 0.477489 0.485051
0.853921 0.462156 0.484498
0.853921 0.462802 0.487424
0.351908 0.785322 0.378674
0.351380 0.784783 0.377978
0.349735 0.783166 0.375748
0.347140 0.780531 0.372401
0.344371 0.777543 0.368549
0.345882 0.774571 0.366624
0.392638 0.770337 0.374962
0.513937 0.763768 0.375058
0.638436 0.757618 0.385666
0.722364 0.730724 0.407394
0.767950 0.686543 0.431125
0.800879 0.645132 0.454215
0.825692 0.603047 0.474794
0.846501 0.555691 0.495860
0.853921 0.514988 0.518065
0.853921 0.470249 0.491842
0.407333 0.837361 0.451745
0.406971 0.837113 0.451183
0.405639 0.835778 0.449483
0.403307 0.833689 0.446423
0.401065 0.831813 0.443552
0.398879 0.829840 0.440627
0.405896 0.827624 0.442667
0.480082 0.823378 0.456098
0.591586 0.818659 0.458636
0.689494 0.814064 0.468498
0.759033 0.791934 0.485610
0.793840 0.750177 0.502999
0.819291 0.712145 0.518119
0.840006 0.671858 0.529925
0.853744 0.621765 0.532674
0.853921 0.546133 0.523498
0.452670 0.875232 0.510924
0.452317 0.874892 0.510460
0.451132 0.874129 0.508999
0.449367 0.872525 0.506583
0.447318 0.870950 0.503980
0.445567 0.869612 0.501729
0.444949 0.868287 0.500289
0.482116 0.866211 0.523221
0.555623 0.862552 0.522673
0.648481 0.859158 0.527050
0.727050 0.855906 0.535977
0.786300 0.839640 0.549383
0.813083 0.801703 0.561899
0.834346 0.767254 0.572214
0.850217 0.733597 0.576551
0.853839 0.685271 0.557692
0.488494 0.902841 0.557516
0.488223 0.902619 0.557196
0.487309 0.901828 0.556078
0.485695 0.900692 0.553968
0.483947 0.899419 0.551608
0.482614 0.898364 0.549809
0.481515 0.897545 0.548397
0.489188 0.896347 0.552895
0.545023 0.894103 0.576319
0.620769 0.891198 0.576651
0.692491 0.888786 0.582320
0.756746 0.886560 0.590520
0.806713 0.875465 0.600948
0.828763 0.841747 0.610271
0.845000 0.813285 0.615819
0.851923 0.785639 0.609012
0.517962 0.924533 0.595854
0.517646 0.924323 0.595397
0.516839 0.923764 0.594362
0.515354 0.922539 0.592462
0.513936 0.921549 0.590555
0.512640 0.920647 0.588901
0.511727 0.919893 0.587763
0.511530 0.919137 0.587019
0.549804 0.917893 0.615193
0.604498 0.915493 0.618113
0.669927 0.913454 0.621380
0.728127 0.911840 0.627299
0.779902 0.909936 0.634422
0.823412 0.902995 0.642890
0.840312 0.875825 0.648872
0.849542 0.854916 0.648277
0.540910 0.941326 0.625694
0.540722 0.941244 0.625519
0.540101 0.940766 0.624700
0.539123 0.939948 0.623365
0.538045 0.939211 0.621907
0.537078 0.938455 0.620698
0.536317 0.937964 0.619680
0.535529 0.937432 0.618705
0.547301 0.936842 0.627369
0.598594 0.935128 0.653970
0.656101 0.933071 0.654492
0.708846 0.931714 0.658676
0.756102 0.930513 0.664519
0.799214 0.929013 0.671260
0.835439 0.927536 0.677144
0.846648 0.908281 0.679365
0.554639 0.948924 0.646378
0.554655 0.948924 0.646256
0.554505 0.948746 0.645544
0.554171 0.948732 0.644763
0.553978 0.948573 0.644008
0.553685 0.948414 0.643308
0.553388 0.948329 0.642637
0.552891 0.948135 0.641852
0.558177 0.947941 0.645581
0.603306 0.947649 0.678898
0.650243 0.946719 0.678062
0.698625 0.945509 0.681053
0.742228 0.944588 0.685937
0.782222 0.943663 0.692041
0.815120 0.943012 0.697835
0.839031 0.941705 0.701423
0.556417 0.948924 0.670538
0.556424 0.948924 0.669883
0.556627 0.948924 0.667643
0.556646 0.948924 0.664490
0.556593 0.948924 0.662349
0.556607 0.948924 0.660902
0.556645 0.948924 0.659763
0.556612 0.948924 0.658526
0.558235 0.948924 0.658487
0.593329 0.948924 0.683723
0.652979 0.948924 0.700271
0.696004 0.948924 0.698466
0.736328 0.948924 0.698542
0.774093 0.948726 0.700514
0.805519 0.948531 0.705090
0.828202 0.948313 0.709934
0.000000 0.002208 0.000000
0.006861 0.000000 0.000000
0.039432 0.000000 0.000000
0.115257 0.000000 0.037747
0.279696 0.000000 0.141516
0.423032 0.000000 0.197734
0.548036 0.010038 0.228365
0.646298 0.119774 0.246903
0.716096 0.206380 0.277535
0.763670 0.276030 0.316510
0.798142 0.334859 0.358989
0.823722 0.384050 0.400955
0.843852 0.424795 0.440716
0.853921 0.454876 0.475310
0.853921 0.462604 0.486174
0.853921 0.462788 0.488124
0.000000 0.008113 0.000000
0.000000 0.006652 0.000000
0.041051 0.000000 0.000000
0.115616 0.000000 0.040339
0.277652 0.000000 0.139943
0.421351 0.000000 0.195078
0.546820 0.012996 0.225513
0.645422 0.119199 0.244644
0.715351 0.205456 0.275548
0.763329 0.275296 0.315023
0.797695 0.334091 0.357773
0.823363 0.383456 0.400015
0.843649 0.424154 0.439902
0.853921 0.454448 0.474735
0.853921 0.462524 0.486075
0.853921 0.462788 0.488105
0.000000 0.034675 0.029564
0.000000 0.033389 0.029103
0.038514 0.000000 0.033935
0.117967 0.000000 0.052125
0.270284 0.000000 0.132908
0.414721 0.000000 0.183249
0.542104 0.024145 0.214381
0.642219 0.117012 0.235846
0.712800 0.201961 0.267447
0.761572 0.272513 0.309189
0.796196 0.331311 0.353157
0.822267 0.381032 0.396743
0.842582 0.421835 0.437011
0.853921 0.452901 0.472781
0.853921 0.462415 0.485824
0.853921 0.462788 0.487996
0.000000 0.134518 0.088819
0.000000 0.132673 0.087132
0.000000 0.125879 0.082301
0.104329 0.103293 0.082778
0.261719 0.096554 0.109467
0.404596 0.094338 0.146058
0.532301 0.102049 0.181242
0.635726 0.137569 0.215930
0.709068 0.198995 0.253263
0.758535 0.267629 0.297538
0.793836 0.327121 0.345050
0.820500 0.377809 0.391470
0.840967 0.418844 0.433146
0.853953 0.450575 0.469852
0.853921 0.462317 0.485494
0.853921 0.462788 0.487861
0.000000 0.302934 0.172753
0.000000 0.301424 0.170915
0.000000 0.295450 0.162819
0.090514 0.285901 0.138027
0.245611 0.275405 0.118812
0.390191 0.274034 0.129752
0.518806 0.262824 0.156784
0.624322 0.252587 0.204325
0.701518 0.252738 0.249859
0.753804 0.275386 0.290601
0.790674 0.321743 0.336966
0.818378 0.373433 0.386454
0.839197 0.415008 0.428953
0.853288 0.448383 0.467268
0.853921 0.462145 0.485118
0.853921 0.462792 0.487670
0.087476 0.463621 0.204423
0.087046 0.462568 0.202879
0.086605 0.458611 0.196907
0.109866 0.451642 0.181167
0.210553 0.441050 0.151996
0.367546 0.429718 0.153028
0.504348 0.418032 0.168656
0.611833 0.393300 0.202344
0.690618 0.367971 0.248436
0.746375 0.354520 0.303344
0.786342 0.352344 0.346376
0.816326 0.371433 0.382159
0.837713 0.412150 0.425659
0.852691 0.446686 0.465149
0.853921 0.461997 0.484842
0.853921 0.462831 0.487582
0.194860 0.603484 0.231797
0.194172 0.602663 0.230182
0.191616 0.599383 0.224294
0.188941 0.594755 0.214612
0.206146 0.587708 0.206281
0.322136 0.577622 0.199375
0.476442 0.567063 0.204191
0.599120 0.542933 0.228509
0.680324 0.507295 0.262848
0.737107 0.472923 0.303863
0.778655 0.442831 0.349516
0.812206 0.427185 0.404628
0.835896 0.427180 0.433587
0.852229 0.445519 0.463463
0.853921 0.461988 0.484690
0.853921 0.462809 0.487456
0.281649 0.709840 0.296964
0.281125 0.709173 0.295920
0.279245 0.706969 0.292038
0.276342 0.703563 0.285674
0.273537 0.699148 0.280714
0.305658 0.693376 0.282626
0.417196 0.685113 0.278104
0.566614 0.676903 0.288970
