luts/cute.cube
LUT_3D_SIZE 6
0.000000 0.000000 0.000000
0.124420 0.000000 0.000000
0.546757 0.013144 0.079831
0.764235 0.276795 0.277915
0.844213 0.425360 0.439797
0.853921 0.462788 0.488142
0.000000 0.155816 0.000000
0.131459 0.139722 0.000000
0.526003 0.162053 0.000000
0.758846 0.268420 0.266839
0.840979 0.419069 0.432389
0.853921 0.462790 0.487860
0.199468 0.609244 0.173941
0.193741 0.600109 0.163583
0.480696 0.573702 0.161110
0.743159 0.470064 0.292574
0.837374 0.428247 0.434237
0.853921 0.462836 0.487538
0.408351 0.838229 0.453050
0.403898 0.834353 0.447276
0.408153 0.828263 0.444606
0.690293 0.814951 0.469749
0.819519 0.713726 0.519455
0.853921 0.548024 0.523681
0.518605 0.924830 0.596606
0.515825 0.922907 0.593076
0.512185 0.920340 0.588378
0.606186 0.915861 0.618993
0.780197 0.910356 0.635215
0.849575 0.855855 0.648944
0.556538 0.948924 0.668094
0.556631 0.948924 0.662458
0.556615 0.948924 0.657791
0.596133 0.948924 0.684641
0.737060 0.948924 0.697080
0.828433 0.948495 0.709926
0.000000 0.002208 0.000000
0.115257 0.000000 0.037747
0.548036 0.010038 0.228365
0.763670 0.276030 0.316510
0.843852 0.424795 0.440716
0.853921 0.462788 0.488124
0.000000 0.134518 0.088819
0.104329 0.103293 0.082778
0.532301 0.102049 0.181242
0.758535 0.267629 0.297538
0.840967 0.418844 0.433146
0.853921 0.462788 0.487861
0.194860 0.603484 0.231797
0.188941 0.594755 0.214612
0.476442 0.567063 0.204191
0.737107 0.472923 0.303863
0.835896 0.427180 0.433587
0.853921 0.462809 0.487456
0.406422 0.836509 0.450514
0.402451 0.833036 0.445334
0.402911 0.826714 0.440216
0.688269 0.813254 0.466923
0.818946 0.710259 0.516501
0.853921 0.543874 0.523327
0.517144 0.923909 0.594761
0.514906 0.922265 0.591825
0.511130 0.919493 0.586931
0.602552 0.915027 0.617399
0.779416 0.909437 0.633609
0.849478 0.853724 0.647507
0.556275 0.948924 0.676465
0.556485 0.948924 0.669363
0.556371 0.948924 0.663566
0.589490 0.948924 0.683673
0.735987 0.948924 0.701764
0.827817 0.948314 0.709594
0.116011 0.099587 0.572809
0.164505 0.100556 0.582076
0.536517 0.046540 0.643825
0.762563 0.281641 0.593094
0.843160 0.424557 0.559019
0.853921 0.462732 0.497606
0.115501 0.099109 0.570166
0.130342 0.098866 0.569488
0.523985 0.036090 0.632031
0.757499 0.273207 0.576474
0.840020 0.417915 0.542492
0.853921 0.462791 0.492785
0.333919 0.548456 0.615382
0.328363 0.538057 0.606325
0.478712 0.517268 0.593492
0.741294 0.455746 0.574067
0.835794 0.413064 0.514755
0.853921 0.462769 0.491636
0.397405 0.828796 0.601855
0.393602 0.825388 0.589191
0.389604 0.819741 0.564517
0.690903 0.805430 0.615010
0.815144 0.720434 0.583315
0.853921 0.547870 0.530056
0.512128 0.920610 0.649064
0.509771 0.918859 0.638708
0.506695 0.916474 0.619612
0.612092 0.912284 0.669659
0.778779 0.906871 0.652644
0.848740 0.852130 0.645414
0.555412 0.948924 0.735167
0.555313 0.948924 0.727551
0.555109 0.948924 0.714416
0.577457 0.948924 0.720111
0.745800 0.948378 0.770758
0.827204 0.947826 0.720952
0.182421 0.158805 0.873923
0.182377 0.158695 0.873743
0.429904 0.182390 0.895393
0.732573 0.308563 0.925124
0.841496 0.435537 0.848213
0.853921 0.470538 0.805627
0.181584 0.157850 0.871956
0.181107 0.157317 0.870755
0.411234 0.175689 0.888385
0.726710 0.299598 0.918435
0.838211 0.428393 0.836686
0.853921 0.469521 0.787510
0.229302 0.321456 0.868951
0.219693 0.300436 0.866455
0.336312 0.276441 0.869211
0.710963 0.303766 0.908574
0.834021 0.419123 0.820923
0.853921 0.468136 0.763437
0.514752 0.764947 0.869109
0.511316 0.760995 0.865307
0.505601 0.752820 0.859489
0.712162 0.774075 0.862919
0.815595 0.744061 0.863212
0.853921 0.520907 0.755955
0.513514 0.912281 0.847956
0.508274 0.910749 0.841434
0.501009 0.908657 0.830324
0.605747 0.904455 0.844174
0.795898 0.897012 0.882458
0.846578 0.871254 0.850393
0.554746 0.948923 0.851735
0.554440 0.948924 0.844545
0.553465 0.948924 0.832493
0.567082 0.948924 0.829349
0.775093 0.945652 0.905280
0.832113 0.944776 0.887527
0.260601 0.250440 0.956552
0.260428 0.250224 0.956553
0.337586 0.260892 0.959700
0.642081 0.354465 0.988708
0.817374 0.454219 0.991160
0.853921 0.489637 0.991160
0.259127 0.248687 0.956553
0.258479 0.247973 0.956551
0.314985 0.254471 0.958706
0.628521 0.346133 0.987415
0.809162 0.447332 0.991160
0.853921 0.488642 0.991160
0.259459 0.249887 0.956593
0.257374 0.247120 0.956610
0.265527 0.244972 0.956885
0.603238 0.330449 0.984993
0.798416 0.437779 0.991160
0.853921 0.486727 0.991160
0.452282 0.633459 0.942600
0.445661 0.625338 0.942794
0.432060 0.607853 0.943536
0.677346 0.721958 0.959904
0.786385 0.649197 0.991148
0.853921 0.492398 0.991160
0.603019 0.847352 0.954361
0.601142 0.845174 0.953848
0.598317 0.841472 0.953086
0.641840 0.844330 0.953792
0.809155 0.879210 0.965028
0.850402 0.869738 0.974153
0.629039 0.937897 0.976227
0.628625 0.937392 0.976052
0.625611 0.936644 0.972673
0.629663 0.935904 0.970273
0.802139 0.933474 0.974473
0.855441 0.932999 0.973944
0.304129 0.300685 0.956611
0.304050 0.300535 0.956611
0.316843 0.302187 0.957161
0.631244 0.375925 0.986755
0.815145 0.467398 0.991160
0.853921 0.501228 0.991160
0.303490 0.299945 0.956610
0.303429 0.299834 0.956611
0.309082 0.300228 0.956775
0.613540 0.369075 0.984832
0.804651 0.461220 0.991160
0.853921 0.501145 0.991160
0.303543 0.300511 0.956572
0.302685 0.299286 0.956587
0.301766 0.297963 0.956605
0.575584 0.354749 0.980389
0.786291 0.449855 0.991160
0.853921 0.500409 0.991160
0.442834 0.605420 0.944619
0.434090 0.592458 0.945213
0.417274 0.566802 0.946474
0.644427 0.684348 0.959403
0.762678 0.576868 0.991148
0.853921 0.500323 0.991160
0.594683 0.817957 0.948844
0.591206 0.812364 0.947977
0.585101 0.802945 0.946743
0.612870 0.803771 0.947647
0.802021 0.867893 0.964268
0.844008 0.855207 0.975316
0.631329 0.920386 0.971965
0.631080 0.918412 0.971497
0.630669 0.915513 0.970801
0.633987 0.912986 0.970077
0.797364 0.920718 0.971097
0.852448 0.925353 0.972301
