luts/DANGGER LUT.cube
# VEGAS Pro LUT
TITLE "DANGGER LUT"
LUT_3D_SIZE 5
0.02359991 0.03202781 0.03519234
0.16214484 0.06197391 0.04908654
0.47506398 0.09272365 0.04041565
1.04799819 0.15999515 0.01508617
1.13415933 0.20950229 -0.01225442
0.07405342 0.09091632 0.06150709
0.21777251 0.12989628 0.07071821
0.59949541 0.18180558 0.04994898
1.10349560 0.25948539 -0.01915536
1.15675533 0.28829175 -0.01493456
0.23919618 0.23414259 0.10471053
0.37973171 0.26280260 0.08413474
0.81294918 0.37793940 0.02705035
1.17973733 0.46866524 -0.04164807
1.19591773 0.45755947 -0.03420138
0.61527741 0.53540826 0.04953972
0.71239847 0.54922968 0.00384488
0.97908652 0.62867403 -0.04212643
1.20387650 0.70154643 -0.04530039
1.20861650 0.69249350 0.07730588
0.94080126 0.93208086 0.07775538
1.01790905 0.94787675 0.05639826
1.15600967 0.98931640 0.00207634
1.19904554 0.94689244 -0.02296907
1.20747435 0.87737298 0.04534295
-0.04542875 0.07165450 0.09523572
0.07684908 0.07773519 0.10441320
0.43868119 0.11580489 0.09841219
1.04394138 0.20666672 0.10385765
1.14675653 0.27264211 0.04404299
0.01432502 0.11392407 0.12194616
0.13493890 0.13528076 0.12843618
0.54694331 0.20189425 0.13507432
1.08281755 0.29151890 0.11813942
1.16307986 0.33684057 0.05930574
0.14685228 0.23954785 0.17312220
0.32850915 0.29093757 0.16830164
0.77126312 0.40691435 0.14953676
1.15994370 0.50003463 0.15779912
1.19202638 0.49614775 0.10905058
0.54898876 0.57406771 0.18524447
0.68251085 0.59911919 0.15194924
0.95209396 0.65287280 0.07058569
1.19627643 0.73849571 0.14560542
1.20243120 0.72455084 0.22377381
0.89158136 0.93343890 0.10554617
0.97410381 0.95086974 0.08527984
1.13890994 0.99351549 0.02388294
1.19801700 0.96086895 -0.00774373
1.20111322 0.90647936 0.18954349
-0.00978453 0.23337981 0.28502101
-0.00263260 0.22945461 0.28182814
0.20311362 0.19184797 0.26791549
0.89237332 0.20279315 0.25667021
1.11488473 0.33122432 0.29849845
-0.00100293 0.26354998 0.30111861
0.00520707 0.25686729 0.29686806
0.28733796 0.25829542 0.29657772
0.96929002 0.28128374 0.27989179
1.13342929 0.41037929 0.33225521
0.01730439 0.33200252 0.34148127
0.02491093 0.32549322 0.33627379
0.51556087 0.44127440 0.36310518
1.07874930 0.55361092 0.40410686
1.16973901 0.58716500 0.40244281
0.04280220 0.52667147 0.42000639
0.23902029 0.59130877 0.42593974
0.81417930 0.72060770 0.39214826
1.14840889 0.81581640 0.47619322
1.18315387 0.83280027 0.52221918
0.58159781 0.90092230 0.47174442
0.73281729 0.93690979 0.46939206
1.02009618 0.99808925 0.39942801
1.18194604 1.02441049 0.31218618
1.18168330 0.98330224 0.51627094
0.05796348 0.55131018 0.60623962
0.07083157 0.55598789 0.60787165
0.07389025 0.53341782 0.59940422
0.50247419 0.46131670 0.59221560
1.08860636 0.55785656 0.60239577
0.06995874 0.58592534 0.61892116
0.08060694 0.58352929 0.61876571
0.08443344 0.56312919 0.61091548
0.58561730 0.52839887 0.61466014
1.09758043 0.61975825 0.62217009
0.08799133 0.63621628 0.63831574
0.09943970 0.63499314 0.63837790
0.10597020 0.62027782 0.63221931
0.75965005 0.67099380 0.65043485
1.12082863 0.74854076 0.66604650
0.11480119 0.71404302 0.66130978
0.12668850 0.71339417 0.66086495
0.33427936 0.75097203 0.67286777
0.93371475 0.85387480 0.69997025
1.15254331 0.94590771 0.75303727
0.13346021 0.80971360 0.66530836
0.17291357 0.81860435 0.66483510
0.65372092 0.94256711 0.69657791
1.07580769 1.04141808 0.72787207
1.15421391 1.07267058 0.79690033
0.11463893 0.70640564 0.75394583
0.12835325 0.71245158 0.75567615
0.14035046 0.71312201 0.75612128
0.53608382 0.81711090 0.79194057
0.92104971 0.82252765 0.81837243
0.12221456 0.73094153 0.75914097
0.13572143 0.73657393 0.76068246
0.14685544 0.73474431 0.76071870
0.57143736 0.84682769 0.79782528
0.94403934 0.85414976 0.82714653
0.13050517 0.76806974 0.76573634
0.14303230 0.77108109 0.76693481
0.15422043 0.76830775 0.76678789
0.63700533 0.89354742 0.81063616
1.00065744 0.91336030 0.84592664
0.13876931 0.81984961 0.77361393
0.15061966 0.82084775 0.77441871
0.16171953 0.81744730 0.77407408
0.67231864 0.94398707 0.82282317
1.07086825 0.99668193 0.87557846
0.14172705 0.87514770 0.77888513
0.15327819 0.87787378 0.77950311
0.26254678 0.90286994 0.78866434
0.84685791 1.04229927 0.86843157
1.13377249 1.10968292 0.91712081
