luts/DANGGER LUT.cube
# VEGAS Pro LUT
TITLE "DANGGER LUT"
LUT_3D_SIZE 9
0.02359991 0.03202781 0.03519234
0.07048186 0.04314000 0.04167908
0.16214484 0.06197391 0.04908654
0.29473180 0.07781605 0.04811596
0.47506398 0.09272365 0.04041565
0.74517322 0.11920656 0.03188428
1.04799819 0.15999515 0.01508617
1.12332284 0.19071448 -0.01346361
1.13415933 0.20950229 -0.01225442
0.04060959 0.05475757 0.04450533
0.08520593 0.06543597 0.04912030
0.18114975 0.08718073 0.05626057
0.31928030 0.10353999 0.05323862
0.51090646 0.12025711 0.04439603
0.79664612 0.15184356 0.03315563
1.07403350 0.19281413 0.00861094
1.13215661 0.22134927 -0.01373810
1.14174747 0.23591048 -0.01251047
0.07405342 0.09091632 0.06150709
0.11303324 0.10142007 0.06376599
0.21777251 0.12989628 0.07071821
0.37887967 0.15587287 0.06625729
0.59949541 0.18180558 0.04994898
0.89744627 0.22044685 0.01960356
1.10349560 0.25948539 -0.01915536
1.14946437 0.28220707 -0.01639175
1.15675533 0.28829175 -0.01493456
0.13214979 0.14694797 0.08443621
0.17478131 0.15811864 0.08365691
0.27500162 0.18237230 0.08205836
0.46192950 0.22445832 0.07574908
0.72396278 0.27474278 0.05297961
1.00637245 0.31921604 -0.00009313
1.14185309 0.35784841 -0.03165380
1.17158723 0.36722973 -0.02401239
1.17652941 0.36296394 -0.02147704
0.23919618 0.23414259 0.10471053
0.28597352 0.24500495 0.09944843
0.37973171 0.26280260 0.08413474
0.55006444 0.30507278 0.05962663
0.81294918 0.37793940 0.02705035
1.07273495 0.45025039 0.00837687
1.17973733 0.46866524 -0.04164807
1.19179022 0.47192797 -0.03831118
1.19591773 0.45755947 -0.03420138
0.40622750 0.36011857 0.09379695
0.44880053 0.36733586 0.08175977
0.52825242 0.38035586 0.05794870
0.65218115 0.40799916 0.02647962
0.88032848 0.48564377 -0.01779198
1.10070944 0.55430734 -0.05349425
1.19684219 0.59670079 0.00111914
1.20327926 0.58828020 -0.00973548
1.20975363 0.56605113 -0.04441963
0.61527741 0.53540826 0.04953972
0.64907038 0.54042041 0.03603950
0.71239847 0.54922968 0.00384488
0.80389595 0.56583440 -0.02971790
0.97908652 0.62867403 -0.04212643
1.13512802 0.68341720 -0.04644884
1.20387650 0.70154643 -0.04530039
1.20482528 0.70657504 0.05339974
1.20861650 0.69249350 0.07730588
0.81009066 0.74686170 0.04310130
0.83704591 0.75220764 0.03724098
0.89217091 0.76424861 0.02353837
0.97708297 0.78305364 -0.00033142
1.08824539 0.80265892 -0.02525380
1.17626786 0.82980025 -0.03498608
1.20252573 0.82294124 -0.03706931
1.20651853 0.80286455 -0.00712793
1.20702028 0.79301763 0.10760623
0.94080126 0.93208086 0.07775538
0.96591192 0.93742907 0.07141083
1.01790905 0.94787675 0.05639826
1.09428775 0.96452093 0.03047413
1.15600967 0.98931640 0.00207634
1.19344234 0.97755921 -0.01495674
1.19904554 0.94689244 -0.02296907
1.20511639 0.90763116 -0.02847949
1.20747435 0.87737298 0.04534295
0.00617937 0.04737088 0.06006866
0.04364416 0.04950364 0.06260189
0.14297029 0.06861623 0.06636822
0.28005803 0.09357028 0.07047845
0.47397935 0.11366099 0.06139116
0.76365340 0.14859009 0.05002348
1.06611490 0.19741473 0.01627227
1.13301396 0.22682789 -0.00746729
1.14134097 0.23701403 -0.00608414
0.02229191 0.06365013 0.06829670
0.06204152 0.07041209 0.07109194
0.15381464 0.09360438 0.07870871
0.30132955 0.11593516 0.07806520
0.50578284 0.13654767 0.06888577
0.80476081 0.17393866 0.05329829
1.07790637 0.22430974 0.01420423
1.14082479 0.25328112 -0.00811654
1.14852130 0.26110959 -0.00674420
0.05737105 0.09653663 0.08243585
0.09715322 0.10695894 0.08465419
0.19189219 0.13226211 0.09337743
0.35950652 0.16336530 0.09640968
0.58483952 0.18894693 0.08182400
0.88994098 0.23101953 0.05377059
1.10170758 0.27891305 0.01428363
1.15561664 0.30675817 -0.01088375
1.16165566 0.30831811 -0.00904660
0.11436586 0.15104862 0.10330223
0.15855739 0.16313502 0.10599278
0.26205057 0.18887891 0.10615024
0.44884473 0.23238286 0.10637309
0.70848989 0.28219384 0.08995838
0.99312860 0.32723701 0.05558264
1.13599360 0.36455691 0.02147539
1.17382383 0.37947589 -0.01782236
1.17963672 0.37883028 -0.01571975
0.21926513 0.23853233 0.12890466
0.26997596 0.25204945 0.12518436
0.37267965 0.27367812 0.11055318
0.54320204 0.31469309 0.09008880
0.80286801 0.38778108 0.07077396
1.06567919 0.46110320 0.06776433
1.17412424 0.48138058 0.04630741
1.19092166 0.47674096 -0.01137996
1.19729817 0.46988910 -0.02785207
0.38737428 0.36893409 0.12614098
0.43629089 0.37918615 0.11393808
0.52291822 0.39422381 0.09068780
0.64579546 0.41884586 0.06208257
0.87316287 0.49714631 0.03892586
1.09463751 0.56750149 0.03134577
1.19443941 0.60998255 0.07180510
1.20064211 0.60163176 0.06480588
1.20680213 0.58012354 0.02767424
0.60255742 0.55038834 0.09780645
0.63882685 0.55647993 0.08697714
0.70768309 0.56727660 0.06027283
0.80357993 0.58001649 0.00695735
0.97298193 0.63229918 -0.03315672
1.13219976 0.68748546 -0.03836099
1.20099616 0.71359324 0.02734806
1.20265400 0.71809793 0.10638285
1.20691001 0.70258343 0.12065304
0.79910588 0.75190443 0.05458061
0.82735038 0.75758147 0.04806387
0.88436937 0.76964736 0.03412595
0.97167677 0.78861982 0.00994916
1.08566415 0.80857360 -0.01610659
1.17340672 0.83352816 -0.02767310
1.20213616 0.82751614 -0.02972069
1.20315611 0.81555724 0.07138737
1.20530021 0.80266953 0.14865491
0.92810380 0.93294919 0.08806598
0.95384336 0.93851328 0.08156140
1.00673342 0.94927454 0.06688574
1.08789492 0.96584487 0.04057401
1.15162170 0.99090070 0.01093522
1.19305921 0.98167121 -0.00779198
1.19861698 0.95088428 -0.01590200
1.20471668 0.91190052 -0.02117726
1.20508218 0.88709831 0.09961014
-0.04542875 0.07165450 0.09523572
-0.01615856 0.07716897 0.10003644
0.07684908 0.07773519 0.10441320
0.23838487 0.10150549 0.10712334
0.43868119 0.11580489 0.09841219
0.72466826 0.14953142 0.10211943
1.04394138 0.20666672 0.10385765
1.12906742 0.25427216 0.09097077
1.14675653 0.27264211 0.04404299
-0.02830387 0.08635970 0.10376664
0.01603525 0.09503884 0.11100529
0.09557763 0.09809489 0.11278003
0.25671649 0.12284222 0.11523901
0.47033960 0.14374034 0.11248033
0.76619661 0.17943153 0.11214363
1.05751967 0.23424299 0.10786551
1.13618422 0.27771503 0.09379889
1.15240777 0.29425228 0.04820048
0.01432502 0.11392407 0.12194616
0.04840690 0.12009209 0.12527609
0.13493890 0.13528076 0.12843618
0.30651641 0.17348495 0.14047432
0.54694331 0.20189425 0.13507432
0.85321760 0.23969704 0.12258530
1.08281755 0.29151890 0.11813942
1.14923584 0.32547468 0.10165253
1.16307986 0.33684057 0.05930574
0.06131643 0.15804920 0.14363883
0.09720182 0.16700891 0.14459017
0.20801358 0.19650036 0.15074211
0.40563959 0.24816254 0.16238272
0.66617739 0.29609653 0.15327297
0.95768917 0.34000388 0.13770832
1.11949527 0.38125777 0.13382149
1.16696513 0.40121904 0.11456334
1.17755401 0.40506625 0.07886309
0.14685228 0.23954785 0.17312220
0.20081443 0.25600114 0.17562044
0.32850915 0.29093757 0.16830164
0.51266104 0.33258069 0.14899573
0.77126312 0.40691435 0.14953676
1.04584074 0.47670734 0.16132224
1.15994370 0.50003463 0.15779912
1.18453753 0.50368071 0.13762362
1.19202638 0.49614775 0.10905058
0.31692791 0.38031936 0.19610476
0.37397739 0.39566365 0.18538204
0.48975009 0.42160991 0.16140522
0.62798613 0.44658056 0.13330825
0.84958148 0.51820648 0.12214956
1.08047843 0.58913743 0.13477165
1.18952155 0.63412309 0.19157979
1.19586015 0.62478495 0.18002833
1.20143688 0.60540116 0.15425311
0.54898876 0.57406771 0.18524447
0.59439361 0.58268833 0.17279814
0.68251085 0.59911919 0.15194924
0.79351062 0.61914766 0.11759139
0.95209396 0.65287280 0.07058569
1.11957085 0.71116006 0.09024831
1.19627643 0.73849571 0.14560542
1.19812369 0.74198765 0.21523848
1.20243120 0.72455084 0.22377381
0.75815994 0.76886755 0.14530301
0.79020888 0.77490103 0.13298246
0.85615337 0.78604913 0.09875596
0.95301241 0.80075914 0.03026287
1.07668996 0.82289135 -0.00361010
1.16522050 0.84267086 -0.01929532
1.19656110 0.85055685 0.09238826
1.19890547 0.83779323 0.17305724
1.20069778 0.82430434 0.24732877
0.89158136 0.93343890 0.10554617
0.91841823 0.93915373 0.09917863
0.97410381 0.95086974 0.08527984
1.06278455 0.96809018 0.05906472
1.13890994 0.99351549 0.02388294
1.19250989 0.99248171 0.00081572
1.19801700 0.96086895 -0.00774373
1.19915414 0.93407631 0.10183254
1.20111322 0.90647936 0.18954349
-0.03633608 0.13260590 0.16863020
-0.03194570 0.13350308 0.16880058
-0.02925585 0.12715703 0.16468546
0.12488612 0.12230373 0.16915752
0.38400698 0.14866668 0.17124382
0.63451254 0.13479154 0.14947848
0.98090088 0.19125362 0.17019722
1.11289179 0.26212770 0.18926752
1.13334417 0.29961133 0.18224454
-0.03341299 0.14388870 0.17418218
-0.02960471 0.14284182 0.17374647
-0.02087425 0.13859850 0.17143369
0.14557442 0.14157237 0.17760912
0.40846312 0.16986021 0.17953447
0.68027347 0.16775222 0.16385695
1.01558220 0.22531654 0.18068783
1.12070620 0.28980649 0.19874762
1.13948345 0.32281137 0.18913193
-0.02915124 0.15939829 0.18373479
-0.02529332 0.15843877 0.18309304
0.03905258 0.17024957 0.19379443
0.19662496 0.18071979 0.19429713
0.46553254 0.21194264 0.19214500
0.77510583 0.24091482 0.19031969
1.04885769 0.29742306 0.20776561
1.13577199 0.34702384 0.21924445
1.15138960 0.36774808 0.20215577
-0.02322786 0.18381724 0.19828638
-0.01787270 0.18348694 0.19804136
0.09554863 0.21291783 0.21752980
0.28326806 0.25090653 0.22055729
0.57179391 0.30988640 0.22667305
0.88231516 0.35247797 0.23003596
1.08719754 0.39782012 0.24316089
1.15558243 0.42763495 0.24331823
1.16768551 0.43833935 0.22323172
0.03010882 0.24130183 0.23112515
0.07611860 0.25949687 0.24074171
0.17901132 0.29317591 0.24882741
0.41348228 0.35240740 0.23880914
0.69590366 0.43067482 0.25701132
0.98863566 0.49429777 0.27929267
1.13042688 0.52359229 0.28482699
1.17540967 0.53470129 0.27735573
1.18397951 0.53083861 0.25594476
0.12683681 0.37555462 0.27635333
0.18682145 0.39262712 0.27549881
0.34424311 0.43362769 0.27846998
0.56632698 0.48766595 0.25352630
0.79360670 0.54051828 0.22901966
1.05109251 0.61554611 0.27309754
1.16570807 0.66813403 0.33935899
1.18743420 0.66070175 0.32597828
1.19408476 0.64277136 0.30186328
0.35804191 0.56686640 0.31570375
0.42973554 0.58863193 0.31998843
0.57140923 0.62357479 0.30131543
0.74468684 0.65768516 0.24837744
0.90923256 0.68613589 0.19749539
1.09643829 0.73742282 0.21386549
1.18577600 0.77011955 0.30634564
1.18805563 0.78646988 0.37796843
1.19409406 0.76576328 0.36704582
0.62885988 0.77521551 0.32862368
0.67506266 0.78380185 0.32166016
0.76781464 0.80221885 0.28354758
0.89059645 0.82833374 0.23089932
1.03626180 0.85737449 0.17713210
1.14118958 0.87388587 0.15545319
1.18998826 0.88057709 0.23353286
1.19022143 0.87068284 0.33275294
1.19166744 0.86694324 0.40305698
0.79918528 0.93254787 0.31114981
0.83070898 0.93949229 0.30023366
0.89611137 0.95462084 0.26385707
0.99702066 0.97703838 0.20698285
1.10827136 1.00303698 0.13307554
1.18684459 1.01482666 0.01746857
1.19102454 0.99221814 0.14298084
1.19207847 0.96267080 0.24412969
1.19303167 0.93617404 0.34173280
-0.00978453 0.23337981 0.28502101
-0.00512506 0.23530969 0.28551233
-0.00263260 0.22945461 0.28182814
-0.00351746 0.21318093 0.27085826
0.20311362 0.19184797 0.26791549
0.59921348 0.21923460 0.27026927
0.89237332 0.20279315 0.25667021
1.08699441 0.25692725 0.27738744
1.11488473 0.33122432 0.29849845
-0.00622283 0.24630624 0.29106039
-0.00238612 0.24543867 0.29083097
0.00015672 0.23955505 0.28710872
0.00019490 0.22476539 0.27696460
0.22795871 0.21415240 0.27896738
0.62309659 0.24135646 0.27804521
0.91978556 0.22779617 0.26403463
1.09624374 0.29179844 0.29260039
1.12095129 0.35768804 0.30953500
-0.00100293 0.26354998 0.30111861
0.00285171 0.26272851 0.30078030
0.00520707 0.25686729 0.29686806
0.00502617 0.24218230 0.28637081
0.28733796 0.25829542 0.29657772
0.67631125 0.28595436 0.29237646
0.96929002 0.28128374 0.27989179
1.11287296 0.36301523 0.32383066
1.13342929 0.41037929 0.33225521
0.00739660 0.29135203 0.31838697
0.01135354 0.29063898 0.31781483
0.01371207 0.28467491 0.31314719
0.09794716 0.30713570 0.32991529
0.39176989 0.32919389 0.32148951
0.75251347 0.35836959 0.31460527
1.03291798 0.40554261 0.33715922
1.13544512 0.46283978 0.36662966
1.15098667 0.48657697 0.36187607
0.01730439 0.33200252 0.34148127
0.02163471 0.33142489 0.34099662
0.02491093 0.32549322 0.33627379
0.20448926 0.38527665 0.36628261
0.51556087 0.44127440 0.36310518
0.85993099 0.51027322 0.38321376
1.07874930 0.55361092 0.40410686
1.15959489 0.58213377 0.41627568
1.16973901 0.58716500 0.40244281
0.02624241 0.38785499 0.36526376
0.03126380 0.39138189 0.36723065
0.08271006 0.41759121 0.38279447
0.32503480 0.49690250 0.39817131
0.66577238 0.57057279 0.38251007
0.96222466 0.65181786 0.42408481
1.11547232 0.71188450 0.47596228
1.17441630 0.72024703 0.47688633
1.18167412 0.70778763 0.45696819
0.04280220 0.52667147 0.42000639
0.04805218 0.53015316 0.41767222
0.23902029 0.59130877 0.42593974
0.52476066 0.66028666 0.43597996
0.81417930 0.72060770 0.39214826
1.04902804 0.76247340 0.37546492
1.14840889 0.81581640 0.47619322
1.17566144 0.85710627 0.54961306
1.18315387 0.83280027 0.52221918
0.27476546 0.70691401 0.44278687
0.34673905 0.72600091 0.44585568
0.51219368 0.77320850 0.45404905
0.72947896 0.82447052 0.45147097
0.93130183 0.86632657 0.39762750
1.09986496 0.90120077 0.32212657
1.17765999 0.91547668 0.41343287
1.17905581 0.92257738 0.51135182
1.18004096 0.93173742 0.56867385
0.58159781 0.90092230 0.47174442
0.63269931 0.91462386 0.47177440
0.73281729 0.93690979 0.46939206
0.86455846 0.96315491 0.45558983
1.02009618 0.99808925 0.39942801
1.14250374 1.04100108 0.30688292
1.18194604 1.02441049 0.31218618
1.18073750 0.99818432 0.43720126
1.18168330 0.98330224 0.51627094
0.02652580 0.39967531 0.45807666
0.03145402 0.40288427 0.45933399
0.03511167 0.39901030 0.45712912
0.03700031 0.38437301 0.44913828
0.03306197 0.33718342 0.42143399
0.32441089 0.30169764 0.41914043
0.83364046 0.32769305 0.42543447
1.05366600 0.35135835 0.42393684
1.09742546 0.40439254 0.42800504
0.02958075 0.41704226 0.46524081
0.03398202 0.41712499 0.46577048
0.03743738 0.41164514 0.46313101
0.03939775 0.39730138 0.45520228
0.03631384 0.35453898 0.43056306
0.34999657 0.32506299 0.43085873
0.84713280 0.35165745 0.43348533
1.05867743 0.37660897 0.43215442
1.10216200 0.43115878 0.43870187
0.03262421 0.43628868 0.47483456
0.03705095 0.43622980 0.47527370
0.04086512 0.43111819 0.47271818
0.04315157 0.41749462 0.46494702
0.04194012 0.38590360 0.44653487
0.41255447 0.37122703 0.45007616
0.87706709 0.40046638 0.44876546
1.07023668 0.42911124 0.44940898
1.11334896 0.49256536 0.46615005
0.03675658 0.46446401 0.48928732
0.04144288 0.46447212 0.48950803
0.04555441 0.45966691 0.48677498
0.04821911 0.44712448 0.47922659
0.07934923 0.43772483 0.47450715
0.51219326 0.44541597 0.47762972
0.92311680 0.47704244 0.47102839
1.08764219 0.50952989 0.47667313
1.12897563 0.58033359 0.50742102
0.04333471 0.50335765 0.50800049
0.04853699 0.50332320 0.50796521
0.05295955 0.49876815 0.50492573
0.05572443 0.48710850 0.49714065
0.26872346 0.53312546 0.52755392
0.64613795 0.54354119 0.50633651
0.97697282 0.57631904 0.49988359
1.11674356 0.63531196 0.53314126
1.14810753 0.67401147 0.54966509
0.05591714 0.55124182 0.52919221
0.06170952 0.55133635 0.52903569
0.06638458 0.54775286 0.52623475
0.06877797 0.53837669 0.51934338
0.40285319 0.61199129 0.54618561
0.76499617 0.66876590 0.54504716
1.04222858 0.73410851 0.57370800
1.14459538 0.77482337 0.59869409
1.16305852 0.78409898 0.59573507
0.06999138 0.59918666 0.54054689
0.07656470 0.60140419 0.54165792
0.08304911 0.60345155 0.54212070
0.21809939 0.63975465 0.55886137
0.54012471 0.71500373 0.56349581
0.87948561 0.78290188 0.55047351
1.08209944 0.85788155 0.62144709
1.15613031 0.90838283 0.67181253
1.16947067 0.90082055 0.65779698
0.10056071 0.69529498 0.56929410
0.10654394 0.69604343 0.56860942
0.16316283 0.71495414 0.56816638
0.43761104 0.78290379 0.57097828
0.70592469 0.84638166 0.59202516
0.97185552 0.90290153 0.56509292
1.12968349 0.94417667 0.57327050
1.16465640 0.97864485 0.66747200
1.16641927 0.99601221 0.71214283
0.32248920 0.83779764 0.57331461
0.37484586 0.85171950 0.57694113
0.48970616 0.88264012 0.58716053
0.64159197 0.92413473 0.59739256
0.84537941 0.97203016 0.61499703
1.04882872 1.01705205 0.57959223
1.16179097 1.05704796 0.51691270
1.16853237 1.03870511 0.61246920
1.16867518 1.03400731 0.67667145
0.05796348 0.55131018 0.60623962
0.06478494 0.55450904 0.60743785
0.07083157 0.55598789 0.60787165
0.07344937 0.54841542 0.60562181
0.07389025 0.53341782 0.59940422
0.06077834 0.47289392 0.57134491
0.50247419 0.46131670 0.59221560
0.99408853 0.49579191 0.60439014
1.08860636 0.55785656 0.60239577
0.06323186 0.56664836 0.61159885
0.06997462 0.56957161 0.61274761
0.07485327 0.56708026 0.61209893
0.07765708 0.55962133 0.60974634
0.07793696 0.54578984 0.60457772
0.07369760 0.49394822 0.58122325
0.52880120 0.48340395 0.59994596
0.99938363 0.51761091 0.60934865
1.09142339 0.57870722 0.60876369
0.06995874 0.58592534 0.61892116
0.07585187 0.58630812 0.61950195
0.08060694 0.58352929 0.61876571
0.08372603 0.57603347 0.61598372
0.08443344 0.56312919 0.61091548
0.19778487 0.56053388 0.61750531
0.58561730 0.52839887 0.61466014
1.01078296 0.56219018 0.61935997
1.09758043 0.61975825 0.62217009
0.07796218 0.60830414 0.62824798
0.08402232 0.60891062 0.62894773
0.08917118 0.60668707 0.62843430
0.09252854 0.59990096 0.62566829
0.09380519 0.58772004 0.61999047
0.35386330 0.63127518 0.65058184
0.66800070 0.59403467 0.63233781
1.02687645 0.62712240 0.63363302
1.10743892 0.67929167 0.64219809
0.08799133 0.63621628 0.63831574
0.09412423 0.63676310 0.63881838
0.09943970 0.63499314 0.63837790
0.10350329 0.62976253 0.63643742
0.10597020 0.62027782 0.63221931
0.46109024 0.69689119 0.66223311
0.75965005 0.67099380 0.65043485
1.04376280 0.70483369 0.65220088
1.12082863 0.74854076 0.66604650
0.10211372 0.67243218 0.65094501
0.10843939 0.67317110 0.65153003
0.11400092 0.67183459 0.65114909
0.11805233 0.66715407 0.64892197
0.12035771 0.65817893 0.64431030
0.54933381 0.74843478 0.67292148
0.85315520 0.75108957 0.66832829
1.06641173 0.78973806 0.67574680
1.13938534 0.84247828 0.70630872
0.11480119 0.71404302 0.66130978
0.12105326 0.71465176 0.66157019
0.12668850 0.71339417 0.66086495
0.13146099 0.70930982 0.65902138
0.33427936 0.75097203 0.67286777
0.64928156 0.80678749 0.68653113
0.93371475 0.85387480 0.69997025
1.09803510 0.91837943 0.73907775
1.15254331 0.94590771 0.75303727
0.12294587 0.74733007 0.65882230
0.12924260 0.74803507 0.65911996
0.13534394 0.74796987 0.65915918
0.16989839 0.75266683 0.66179341
0.48812336 0.83251262 0.67387652
0.75781024 0.88742024 0.70650542
1.01314628 0.94192255 0.71055162
1.12531328 1.00961816 0.77613187
1.15217400 1.03382111 0.80135083
0.13346021 0.80971360 0.66530836
0.13943154 0.81017089 0.66544461
0.17291357 0.81860435 0.66483510
0.42111409 0.88875127 0.67011499
0.65372092 0.94256711 0.69657791
0.87365615 0.98998946 0.73518574
1.07580769 1.04141808 0.72787207
1.15741944 1.07215333 0.74380964
1.15421391 1.07267058 0.79690033
0.09291076 0.64544851 0.69647789
0.09973823 0.64822191 0.69744539
0.10730217 0.65254462 0.69853562
0.11215212 0.64967549 0.69815886
0.11555699 0.64273620 0.69661546
0.11955633 0.63776070 0.69473219
0.51866472 0.70096540 0.73064947
0.73437691 0.65439165 0.72307229
1.05012298 0.68246979 0.74408400
0.09777444 0.65822470 0.70020854
0.10472792 0.66090095 0.70120323
0.11193331 0.66416574 0.70210069
0.11609226 0.65982020 0.70122612
0.11946626 0.65319192 0.69971550
0.12371771 0.64880425 0.69786489
0.53546631 0.71662641 0.73380315
0.74793208 0.67107582 0.72694653
1.05274773 0.69866860 0.74722332
0.10521776 0.67690271 0.70572913
0.11192116 0.67921948 0.70649445
0.11749972 0.67807382 0.70672059
0.12179831 0.67409742 0.70591426
0.12520581 0.66787922 0.70417356
0.12995711 0.66482508 0.70254433
0.57377297 0.74434853 0.74024987
0.77810585 0.70158267 0.73362947
1.05712557 0.72848403 0.75136989
0.11084510 0.69539368 0.70995486
0.11712181 0.69617677 0.71062171
0.12284546 0.69527984 0.71096194
0.12789045 0.69225043 0.71077037
0.13246642 0.68759620 0.70990479
0.13995248 0.68646777 0.70877463
0.62635511 0.78258294 0.74979806
0.82304507 0.74484241 0.74397469
1.06449080 0.77148187 0.75823808
0.11784175 0.71730369 0.71564114
0.12399843 0.71804929 0.71618479
0.12979823 0.71738124 0.71650535
0.13506885 0.71491379 0.71635419
0.13986073 0.71112454 0.71543145
0.28557971 0.74237478 0.72872812
0.68643087 0.82769364 0.76337069
0.87486160 0.79484910 0.75666273
1.07713044 0.82503158 0.76994109
0.12569657 0.74478686 0.72224069
0.13193464 0.74569309 0.72283828
0.13796359 0.74534237 0.72319973
0.14359285 0.74332237 0.72316813
0.14855011 0.73964667 0.72228640
0.39215082 0.79301906 0.74190712
0.74152768 0.87158012 0.77813077
0.93153828 0.85026968 0.77188182
1.09446287 0.88534528 0.78665417
0.13244256 0.77738595 0.72786367
0.13866615 0.77835476 0.72841311
0.14461993 0.77819777 0.72873634
0.15021721 0.77640915 0.72852379
0.15519980 0.77251589 0.72737634
0.49613845 0.85254300 0.74962986
0.79027939 0.90935838 0.79061031
0.99789834 0.91291940 0.78982115
1.12186396 0.95626527 0.80855763
0.13822252 0.81549489 0.73309487
0.14422815 0.81622362 0.73346198
0.15012114 0.81554055 0.73352051
0.15575039 0.81271118 0.73307431
0.33559784 0.85347521 0.74541605
0.62004459 0.91773963 0.76526082
0.86408114 0.95825136 0.80472505
1.06511736 0.99856102 0.82185256
1.14442778 1.05127954 0.85342336
0.14090027 0.84944946 0.73096979
0.14677237 0.84938347 0.73099959
0.15239415 0.84711587 0.73047453
0.20449138 0.85239542 0.73331082
0.49113670 0.93260270 0.74900985
0.71655190 0.98000526 0.78195000
0.94661963 1.02719760 0.82431608
1.10244703 1.07106304 0.83378685
1.14501834 1.09702277 0.87253898
0.11463893 0.70640564 0.75394583
0.12132375 0.70886368 0.75478697
0.12835325 0.71245158 0.75567615
0.13537785 0.71602631 0.75644034
0.14035046 0.71312201 0.75612128
0.14675364 0.71531045 0.75566787
0.53608382 0.81711090 0.79194057
0.79837215 0.85551322 0.82145834
0.92104971 0.82252765 0.81837243
0.11775608 0.71675825 0.75605744
0.12437537 0.71909857 0.75683177
0.13139752 0.72258377 0.75773120
0.13809867 0.72512478 0.75838935
0.14315593 0.72244751 0.75807655
0.14961545 0.72490728 0.75761735
0.54676509 0.82894039 0.79393661
0.80824459 0.86793429 0.82504225
0.92844737 0.83493412 0.82170618
0.12221456 0.73094153 0.75914097
0.12880784 0.73323798 0.75988472
0.13572143 0.73657393 0.76068246
0.14164843 0.73697048 0.76099479
0.14685544 0.73474431 0.76071870
0.15343536 0.73778486 0.76022601
0.57143736 0.84682769 0.79782528
0.82990241 0.88747007 0.83052707
0.94403934 0.85414976 0.82714653
0.12688868 0.74847281 0.76257634
0.13329759 0.75065237 0.76322651
0.13975099 0.75341016 0.76383269
0.14544633 0.75189984 0.76406491
0.15105876 0.75025785 0.76387811
0.15732227 0.75359148 0.76305640
0.60431242 0.86893666 0.80317032
0.85649228 0.91142499 0.83752429
0.96863639 0.88061875 0.83522379
0.13050517 0.76806974 0.76573634
0.13690580 0.77016258 0.76642257
0.14303230 0.77108109 0.76693481
0.14874344 0.76977611 0.76714361
0.15422043 0.76830775 0.76678789
0.16039200 0.77129030 0.76582187
0.63700533 0.89354742 0.81063616
0.88856685 0.94025832 0.84715986
1.00065744 0.91336030 0.84592664
0.13553461 0.79265463 0.76986754
0.14146580 0.79350245 0.77029836
0.14731827 0.79338312 0.77071559
0.15290816 0.79192269 0.77095950
0.15809873 0.78963321 0.77061373
0.16404667 0.79122043 0.76943433
0.65901423 0.91807902 0.81710303
0.92492664 0.97395027 0.85911155
1.03761506 0.95135677 0.85889649
0.13876931 0.81984961 0.77361393
0.14472541 0.82080466 0.77408934
0.15061966 0.82084775 0.77441871
0.15623388 0.81961143 0.77445185
0.16171953 0.81744730 0.77407408
0.16735786 0.81566012 0.77324712
0.67231864 0.94398707 0.82282317
0.96208584 1.00846708 0.87195897
1.07086825 0.99668193 0.87557846
0.14157099 0.85206711 0.77728528
0.14752302 0.85307735 0.77775276
0.15328395 0.85310721 0.77799982
0.15883353 0.85180110 0.77786624
0.16419220 0.84899461 0.77721971
0.42022157 0.91447628 0.79778194
0.73270154 0.98609734 0.83884394
0.99237245 1.03929281 0.88395834
1.10218418 1.04877067 0.89430034
0.14172705 0.87514770 0.77888513
0.14757541 0.87656081 0.77927274
0.15327819 0.87787378 0.77950311
0.15899608 0.87914079 0.77954996
0.26254678 0.90286994 0.78866434
0.58726221 0.99428344 0.82008445
0.84685791 1.04229927 0.86843157
1.05298424 1.08386683 0.90099907
1.13377249 1.10968292 0.91712081
