luts/DANGGER LUT.cube
# VEGAS Pro LUT
TITLE "DANGGER LUT"
LUT_3D_SIZE 33
0.02359991 0.03202781 0.03519234
0.03009949 0.03345220 0.03620016
0.04028055 0.03585880 0.03787771
0.05271702 0.03876727 0.03970548
0.07048186 0.04314000 0.04167908
0.08987737 0.04793740 0.04385499
0.11047587 0.05232666 0.04597382
0.13432640 0.05691184 0.04772366
0.16214484 0.06197391 0.04908654
0.19149342 0.06669119 0.05013284
0.22242942 0.07076606 0.05035199
0.25744891 0.07470906 0.04973947
0.29473180 0.07781605 0.04811596
0.33499199 0.08129551 0.04635803
0.37764400 0.08467643 0.04432772
0.42433041 0.08859868 0.04229702
0.47506398 0.09272365 0.04041565
0.53187037 0.09780698 0.03830636
0.59488171 0.10341278 0.03641751
0.66699475 0.11040796 0.03419482
0.74517322 0.11920656 0.03188428
0.82483023 0.12861110 0.02889249
0.90328419 0.13888009 0.02545871
0.97838861 0.14935964 0.02093934
1.04799819 0.15999515 0.01508617
1.09013176 0.17129375 0.00967566
1.11496329 0.18138148 0.00357025
1.11995101 0.18613937 -0.00641852
1.12332284 0.19071448 -0.01346361
1.12628460 0.19621530 -0.01342317
1.12909222 0.20128557 -0.01300597
1.13168037 0.20558381 -0.01262390
1.13415933 0.20950229 -0.01225442
0.02594852 0.03564378 0.03667096
0.03221250 0.03714483 0.03751872
0.04209190 0.03953595 0.03924239
0.05475059 0.04262453 0.04105566
0.07236764 0.04694567 0.04298995
0.09165859 0.05174063 0.04516444
0.11281221 0.05621053 0.04703370
0.13695031 0.06080090 0.04872991
0.16492760 0.06576216 0.05002207
0.19456530 0.07050090 0.05081099
0.22554117 0.07462205 0.05102237
0.26095712 0.07842743 0.05032242
0.29823095 0.08183144 0.04893243
0.33873361 0.08537849 0.04712720
0.38170755 0.08867563 0.04504621
0.42866808 0.09267665 0.04298574
0.48004043 0.09691735 0.04105305
0.53731227 0.10205891 0.03893627
0.60134256 0.10782099 0.03717678
0.67438537 0.11528362 0.03483111
0.75284314 0.12412296 0.03249255
0.83252954 0.13371271 0.02928439
0.91070467 0.14384939 0.02537940
0.98548740 0.15445971 0.02029926
1.05360949 0.16483232 0.01456427
1.09206629 0.17626581 0.00892473
1.11652064 0.18635687 0.00273623
1.12143290 0.19100285 -0.00730229
1.12474072 0.19554202 -0.01380766
1.12764239 0.20094234 -0.01337663
1.13035679 0.20568225 -0.01299224
1.13298261 0.21011099 -0.01262263
1.13539958 0.21381968 -0.01223799
0.03014160 0.04132473 0.03900819
0.03751725 0.04314315 0.03956268
0.04635346 0.04499171 0.04104957
0.05832519 0.04815201 0.04307698
0.07529778 0.05236240 0.04501274
0.09449606 0.05713247 0.04712635
0.11648289 0.06185957 0.04862435
0.14104846 0.06649511 0.05022179
0.16914508 0.07147303 0.05147146
0.19898036 0.07611874 0.05213565
0.23036118 0.08046460 0.05230319
0.26634461 0.08453314 0.05177128
0.30365762 0.08763114 0.05004677
0.34467298 0.09131517 0.04819595
0.38805789 0.09478873 0.04609673
0.43607169 0.09882055 0.04401836
0.48801935 0.10324307 0.04210187
0.54632211 0.10837099 0.03999959
0.61151636 0.11455705 0.03771989
0.68622738 0.12283808 0.03576935
0.76458275 0.13163236 0.03280088
0.84421128 0.14125881 0.02936216
0.92188227 0.15110506 0.02493053
0.99632752 0.16205570 0.01949883
1.05938017 0.17248812 0.01325026
1.09507108 0.18377614 0.00750802
1.11888671 0.19373968 0.00059746
1.12359595 0.19789778 -0.00912540
1.12677932 0.20264523 -0.01373136
1.12962270 0.20783004 -0.01335997
1.13229299 0.21241382 -0.01299035
1.13476694 0.21631867 -0.01261088
1.13715696 0.21996203 -0.01221963
0.03537615 0.04802412 0.04165477
0.04276211 0.04979944 0.04202235
0.05154445 0.05140364 0.04318464
0.06403567 0.05435808 0.04479469
0.07921582 0.05853055 0.04726491
0.09777804 0.06326091 0.04938070
0.12051533 0.06828029 0.05060376
0.14589201 0.07308797 0.05202094
0.17441654 0.07846698 0.05352305
0.20429641 0.08339055 0.05433813
0.23624805 0.08758716 0.05414978
0.27293095 0.09167029 0.05334517
0.31048802 0.09474660 0.05148489
0.35203603 0.09837974 0.04937935
0.39623654 0.10206760 0.04740488
0.44517863 0.10624626 0.04528638
0.49805838 0.11075164 0.04331272
0.55728638 0.11604150 0.04092024
0.62475073 0.12338583 0.03896387
0.70014817 0.13170657 0.03660379
0.77883065 0.14055291 0.03315260
0.85824603 0.15019928 0.02920163
0.93554318 0.16030343 0.02366430
1.00890267 0.17119658 0.01782329
1.06768453 0.18148093 0.01134257
1.09871697 0.19267642 0.00516316
1.12161803 0.20215172 -0.00190005
1.12620974 0.20609728 -0.01165969
1.12919259 0.21103387 -0.01372739
1.13191867 0.21581192 -0.01335775
1.13449836 0.22009462 -0.01298112
1.13691151 0.22382991 -0.01263257
1.13921666 0.22716568 -0.01230942
0.04060959 0.05475757 0.04450533
0.04730819 0.05636951 0.04490614
0.05765875 0.05863475 0.04554776
0.06981696 0.06131994 0.04701591
0.08520593 0.06543597 0.04912030
0.10323466 0.07079209 0.05196201
0.12549710 0.07611310 0.05355958
0.15231121 0.08172764 0.05480458
0.18114975 0.08718073 0.05626057
0.21111202 0.09202910 0.05685947
0.24381268 0.09632367 0.05627369
0.28121957 0.10040650 0.05524627
0.31928030 0.10353999 0.05323862
0.36191219 0.10732572 0.05102694
0.40699238 0.11119303 0.04908501
0.45711535 0.11534604 0.04673864
0.51090646 0.12025711 0.04439603
0.57230222 0.12663044 0.04238675
0.64145935 0.13435128 0.04016070
0.71772933 0.14275831 0.03708093
0.79664612 0.15184356 0.03315563
0.87587464 0.16162857 0.02801958
0.95244247 0.17195523 0.02197002
1.02435803 0.18252628 0.01532623
1.07403350 0.19281413 0.00861094
1.10326982 0.20380120 0.00152271
1.12510514 0.21266976 -0.00534479
1.12933922 0.21664321 -0.01290739
1.13215661 0.22134927 -0.01373810
1.13477337 0.22576284 -0.01346043
1.13722765 0.22961625 -0.01316283
1.13954377 0.23299091 -0.01285275
1.14174747 0.23591048 -0.01251047
0.04653862 0.06213573 0.04789076
0.05232852 0.06357805 0.04816492
0.06397145 0.06653083 0.04866837
0.07594700 0.06926765 0.04985909
0.09044646 0.07303135 0.05183049
0.10938966 0.07849112 0.05423307
0.13314530 0.08507115 0.05644309
0.16006035 0.09164275 0.05817028
0.18932128 0.09732924 0.05951085
0.21945968 0.10231481 0.05991022
0.25343961 0.10641457 0.05867903
0.29161543 0.11071640 0.05745011
0.33054292 0.11407851 0.05537632
0.37450820 0.11803932 0.05306794
0.42064041 0.12209058 0.05100808
0.47175241 0.12683380 0.04824507
0.52781922 0.13284738 0.04636922
0.59124517 0.13946989 0.04394403
0.66203582 0.14745198 0.04101381
0.73883522 0.15599619 0.03706353
0.81820434 0.16532105 0.03194840
0.89662278 0.17570329 0.02589391
0.97171974 0.18587506 0.01911323
1.04036713 0.19599843 0.01181011
1.07995033 0.20669016 0.00392564
1.10881579 0.21691367 -0.00318639
1.12929165 0.22498016 -0.01002830
1.13305736 0.22914883 -0.01437297
1.13569248 0.23361892 -0.01409323
1.13823438 0.23765537 -0.01384074
1.14057958 0.24105841 -0.01363108
1.14283490 0.24413893 -0.01334827
1.14493859 0.24670735 -0.01304169
0.05324547 0.07024083 0.05175043
0.06000720 0.07205210 0.05217742
0.07078299 0.07486026 0.05259737
0.08275113 0.07790630 0.05337830
0.09655541 0.08142863 0.05510224
0.11464755 0.08644120 0.05720406
0.13910280 0.09339014 0.05939398
0.16973962 0.10180608 0.06167077
0.19862339 0.10851364 0.06383822
0.22941026 0.11355610 0.06345515
0.26496542 0.11789655 0.06155042
0.30426395 0.12271702 0.06014296
0.34467542 0.12635686 0.05779289
0.38980407 0.13077463 0.05499168
0.43692887 0.13561158 0.05289235
0.48994237 0.14107138 0.05051689
0.54854447 0.14749169 0.04801224
0.61370742 0.15442145 0.04502271
0.68580282 0.16248533 0.04128757
0.76324165 0.17134276 0.03591488
0.84232032 0.18188989 0.02965574
0.91969985 0.19197844 0.02237827
0.99352926 0.20195521 0.01468930
1.05523050 0.21181762 0.00585678
1.08690977 0.22241548 -0.00209842
1.11517537 0.23193914 -0.00870114
1.13413882 0.23936155 -0.01469950
1.13744187 0.24408469 -0.01504829
1.13997316 0.24809952 -0.01481066
1.14232481 0.25150719 -0.01455153
1.14451551 0.25437018 -0.01426563
1.14659595 0.25686038 -0.01396138
1.14855540 0.25894809 -0.01360201
0.06299034 0.07995065 0.05645520
0.06929023 0.08170233 0.05684841
0.07892863 0.08426393 0.05733830
0.09024905 0.08725872 0.05786348
0.10400085 0.09092281 0.05912703
0.12133561 0.09556542 0.06092400
0.14514439 0.10211200 0.06278145
0.17582345 0.11065061 0.06497904
0.21013844 0.11985177 0.06766994
0.24147275 0.12533510 0.06798945
0.27831244 0.13029134 0.06631324
0.31859446 0.13562360 0.06384552
0.36057520 0.14054704 0.06106769
0.40706778 0.14575906 0.05799046
0.45687932 0.15136901 0.05510111
0.51217425 0.15731862 0.05240004
0.57282954 0.16391157 0.04911274
0.63927770 0.17115028 0.04528553
0.71303356 0.18003656 0.03998818
0.79063785 0.19008414 0.03309181
0.86882037 0.20032471 0.02538957
0.94498640 0.21024625 0.01734789
1.01714349 0.22003791 0.00755179
1.06451178 0.23004054 -0.00185371
1.09480107 0.23994890 -0.00975191
1.12242675 0.24920219 -0.01590127
1.13932157 0.25682211 -0.01605395
1.14227605 0.26106462 -0.01586901
1.14458668 0.26437575 -0.01559132
1.14675713 0.26717460 -0.01528584
1.14878869 0.26947361 -0.01494434
1.15070486 0.27134851 -0.01458843
1.15253925 0.27292213 -0.01421956
0.07405342 0.09091632 0.06150709
0.08005219 0.09249488 0.06186557
0.08896346 0.09494729 0.06237175
0.09971296 0.09786119 0.06293355
0.11303324 0.10142007 0.06376599
0.13068345 0.10589267 0.06492640
0.15400462 0.11219454 0.06655568
0.18300384 0.12012102 0.06852834
0.21777251 0.12989628 0.07071821
0.25533849 0.13740261 0.07076323
0.29369873 0.14440995 0.07116762
0.33510351 0.15056603 0.06949262
0.37887967 0.15587287 0.06625729
0.42698091 0.16159765 0.06285746
0.47944254 0.16764583 0.05899015
0.53682995 0.17447487 0.05481666
0.59949541 0.18180558 0.04994898
0.66770238 0.19094808 0.04371324
0.74249256 0.20027009 0.03640606
0.82025111 0.21052176 0.02839193
0.89744627 0.22044685 0.01960356
0.97205782 0.23071986 0.00927078
1.04066515 0.24008280 -0.00146639
1.07368553 0.25001663 -0.01056103
1.10349560 0.25948539 -0.01915536
1.13034439 0.26901501 -0.02066478
1.14485908 0.27605310 -0.01700229
1.14731383 0.27949321 -0.01669756
1.14946437 0.28220707 -0.01639175
1.15145898 0.28435272 -0.01605838
1.15332842 0.28604519 -0.01570307
1.15509009 0.28734297 -0.01532869
1.15675533 0.28829175 -0.01493456
0.08650087 0.10299029 0.06676362
0.09224639 0.10458843 0.06713280
0.10095716 0.10694209 0.06764631
0.11116511 0.10969149 0.06815827
0.12407983 0.11305945 0.06851508
0.14273095 0.11770718 0.06880430
0.16542163 0.12370713 0.07015804
0.19330585 0.13140473 0.07199347
0.22671598 0.14072084 0.07389598
0.26526538 0.14905970 0.07383347
0.31041014 0.15832679 0.07388043
0.35355222 0.16597451 0.07360742
0.40076485 0.17321283 0.07163844
0.45071214 0.17929903 0.06783917
0.50509077 0.18545976 0.06327911
0.56292498 0.19304164 0.05891879
0.62677878 0.20143431 0.05169114
0.69691145 0.21132630 0.04294012
0.77368152 0.22179955 0.03249848
0.85145009 0.23274648 0.02150548
0.92719179 0.24294946 0.01071717
0.99909389 0.25296837 -0.00024910
1.05212545 0.26218531 -0.01212440
1.08377242 0.27210799 -0.02207785
1.11264729 0.28100777 -0.02609392
1.13863540 0.29076111 -0.02126159
1.15060723 0.29651338 -0.01821203
1.15272582 0.29909027 -0.01791503
1.15468752 0.30110285 -0.01757907
1.15652943 0.30268407 -0.01721213
1.15823901 0.30379117 -0.01681139
1.15984511 0.30452728 -0.01636978
1.16135252 0.30491692 -0.01590014
0.10003794 0.11634175 0.07225494
0.10582230 0.11788941 0.07267623
0.11414317 0.12016034 0.07309604
0.12422277 0.12285022 0.07359627
0.13856758 0.12670064 0.07332933
0.15635294 0.13101304 0.07324758
0.17926565 0.13691691 0.07395145
0.20668590 0.14448082 0.07582524
0.23970519 0.15309343 0.07699823
0.27852929 0.16214600 0.07672878
0.32292277 0.17135036 0.07647806
0.37296507 0.18122795 0.07560648
0.42441097 0.19051862 0.07447583
0.47713232 0.19919756 0.07307959
0.53241003 0.20633967 0.06783759
0.59128690 0.21428385 0.06082341
0.65675962 0.22318658 0.05251507
0.72883111 0.23322770 0.04272326
0.80493248 0.24409786 0.03114426
0.88138455 0.25585291 0.01769958
0.95618188 0.26695582 0.00279827
1.02435005 0.27685198 -0.01272837
1.06378233 0.28639299 -0.02531771
1.09447968 0.29540074 -0.03212036
1.12209892 0.30482635 -0.02836977
1.14746332 0.31355211 -0.02172378
1.15657043 0.31799555 -0.01948047
1.15853107 0.32006377 -0.01922971
1.16033244 0.32152849 -0.01889002
1.16198134 0.32242095 -0.01849128
1.16352439 0.32291672 -0.01805155
1.16494000 0.32293761 -0.01756176
1.16629624 0.32276988 -0.01703395
0.11529914 0.13106266 0.07825671
0.12078581 0.13251902 0.07858224
0.12930283 0.13480307 0.07895857
0.14103010 0.13788381 0.07869309
0.15556772 0.14169338 0.07831299
0.17322630 0.14601794 0.07798329
0.19540903 0.15156171 0.07831909
0.22308259 0.15914342 0.07988822
0.25592673 0.16702066 0.07984875
0.29484105 0.17629524 0.07912363
0.33919305 0.18598318 0.07871763
0.38823497 0.19585335 0.07764985
0.44543141 0.20786187 0.07614155
0.50157446 0.21841353 0.07354803
0.56146687 0.22915271 0.06947330
0.62279445 0.23798919 0.06208094
0.68947232 0.24729839 0.05269646
0.76203036 0.25806397 0.04220492
0.83724219 0.26944733 0.02921379
0.91233742 0.28068233 0.01553478
0.98332036 0.29162794 0.00049394
1.04208899 0.30177039 -0.01881487
1.07535386 0.31163016 -0.03712013
1.10529411 0.32166871 -0.03637388
1.13180017 0.33073038 -0.02969159
1.15664768 0.33851206 -0.02342441
1.16261339 0.34153187 -0.02203728
1.16442537 0.34292856 -0.02170694
1.16608238 0.34367210 -0.02130646
1.16760623 0.34385419 -0.02084743
1.16901016 0.34360629 -0.02033670
1.17027688 0.34306034 -0.01977900
1.17148197 0.34228089 -0.01919228
0.13214979 0.14694797 0.08443621
0.13875207 0.14867483 0.08434147
0.14839822 0.15126176 0.08417362
0.16014163 0.15431097 0.08394606
0.17478131 0.15811864 0.08365691
0.19281586 0.16295269 0.08341040
0.21435449 0.16807050 0.08338358
0.24249288 0.17478979 0.08287597
0.27500162 0.18237230 0.08205836
0.31439728 0.19189897 0.08112973
0.35886514 0.20228243 0.08078440
0.40626699 0.21223432 0.07907037
0.46192950 0.22445832 0.07574908
0.52329147 0.23738100 0.07123438
0.58738500 0.25014079 0.06646566
0.65448844 0.26329228 0.06153708
0.72396278 0.27474278 0.05297961
0.79709315 0.28600836 0.04045005
0.87052608 0.29736817 0.02740788
0.94126797 0.30820209 0.01464710
1.00637245 0.31921604 -0.00009313
1.05405748 0.32847396 -0.01842104
1.08601689 0.33770156 -0.03771113
1.11548257 0.34808046 -0.03804570
1.14185309 0.35784841 -0.03165380
1.16593337 0.36494011 -0.02548324
1.16844964 0.36648303 -0.02493062
1.17010236 0.36722028 -0.02451351
1.17158723 0.36722973 -0.02401239
1.17295051 0.36670843 -0.02344355
1.17421937 0.36578628 -0.02282399
1.17541146 0.36453438 -0.02216798
1.17652941 0.36296394 -0.02147704
0.15353008 0.16507716 0.08993748
0.16035612 0.16686040 0.08986719
0.17012170 0.16950655 0.08975163
0.18222988 0.17274392 0.08955362
0.19715847 0.17679867 0.08940820
0.21598423 0.18163627 0.08870331
0.23789148 0.18651894 0.08786587
0.26417911 0.19181982 0.08575223
0.29715154 0.19935423 0.08421274
0.33712697 0.20919567 0.08270167
0.37996364 0.22019529 0.08082055
0.42705417 0.23018160 0.07783798
0.48099259 0.24237570 0.07386949
0.54152614 0.25589865 0.06840065
0.60918355 0.27078480 0.06274460
0.68106234 0.28653514 0.05616734
0.75677252 0.30287915 0.04901123
0.83197004 0.31698000 0.03929367
0.89986563 0.32821643 0.02800247
0.96636945 0.33905441 0.01498812
1.02967048 0.34890711 0.00050482
1.06636131 0.35799569 -0.01731095
1.09735692 0.36572009 -0.03710634
1.12567616 0.37449533 -0.03962527
1.15180767 0.38342810 -0.03334272
1.17238569 0.39119667 -0.02802858
1.17419875 0.39272031 -0.02769316
1.17566943 0.39262158 -0.02718009
1.17701399 0.39192504 -0.02660109
1.17825472 0.39074078 -0.02597432
1.17939961 0.38910949 -0.02531391
1.18046761 0.38711670 -0.02461863
1.18149674 0.38496047 -0.02389754
0.17823189 0.18563202 0.09607774
0.18489447 0.18744756 0.09605148
0.19516820 0.19022039 0.09596796
0.20741999 0.19346887 0.09552908
0.22360718 0.19745930 0.09454191
0.24304187 0.20220023 0.09354553
0.26498276 0.20685861 0.09108346
0.28961846 0.21120402 0.08827604
0.32207197 0.21819180 0.08468822
0.36111903 0.22824790 0.08272703
0.40280423 0.23892033 0.07913704
0.45004737 0.24959128 0.07506039
0.50250381 0.26182938 0.07048285
0.56150460 0.27592677 0.06504788
0.62725735 0.29126632 0.05824345
0.70271176 0.30931637 0.04926060
0.78268361 0.32827854 0.04024329
0.85646999 0.34619787 0.03555854
0.92753154 0.36252296 0.02920874
0.99232495 0.37241569 0.01630528
1.04641485 0.38119778 0.00249191
1.07865596 0.38955048 -0.01455487
1.10875678 0.39558989 -0.03376380
1.13589811 0.40225446 -0.04116257
1.16143990 0.41023886 -0.03518113
1.17755198 0.41611379 -0.03128761
1.17960048 0.41885626 -0.03120598
1.18119192 0.41932982 -0.03076530
1.18238473 0.41782182 -0.03001095
1.18347156 0.41578642 -0.02917393
1.18450534 0.41348851 -0.02828784
1.18544054 0.41073477 -0.02731148
1.18634152 0.40787411 -0.02632540
0.20618369 0.20835903 0.10140906
0.21377251 0.21032211 0.10094728
0.22458082 0.21313348 0.10023126
0.23754315 0.21648076 0.09947964
0.25371647 0.22054268 0.09857455
0.27264395 0.22452959 0.09605858
0.29468846 0.22904541 0.09257223
0.31922019 0.23334891 0.08905334
0.35007274 0.23948172 0.08502539
0.38542694 0.24792749 0.08071263
0.42723384 0.25865769 0.07620269
0.47457582 0.27066663 0.07133023
0.52535903 0.28256285 0.06637263
0.58326507 0.29727894 0.05965752
0.64763653 0.31350127 0.05167201
0.72089076 0.33183986 0.04214833
0.79929221 0.35296470 0.03323899
0.87656307 0.37387520 0.02612417
0.94859159 0.39161611 0.02223527
1.01758027 0.40714580 0.01844116
1.06022692 0.41583109 0.00583991
1.09067738 0.42284077 -0.00895393
1.11985528 0.42754680 -0.02717456
1.14625788 0.43235895 -0.04152476
1.17100239 0.43893653 -0.03828368
1.18240249 0.44284731 -0.03547028
1.18429363 0.44469661 -0.03525878
1.18607545 0.44592160 -0.03494785
1.18750536 0.44513464 -0.03431723
1.18857574 0.44229487 -0.03336020
1.18959451 0.43917280 -0.03235586
1.19049084 0.43580621 -0.03128140
1.19127464 0.43224433 -0.03014912
0.23919618 0.23414259 0.10471053
0.24661109 0.23609771 0.10430485
0.25770938 0.23891172 0.10360117
0.27032629 0.24170846 0.10199915
0.28597352 0.24500495 0.09944843
0.30492014 0.24879014 0.09627038
0.32739019 0.25324887 0.09238729
0.35323972 0.25816482 0.08802422
0.37973171 0.26280260 0.08413474
0.41246992 0.26941174 0.07782601
0.45394218 0.27974236 0.07205870
0.49908841 0.29268122 0.06606927
0.55006444 0.30507278 0.05962663
0.60627502 0.32014725 0.05224152
0.66925871 0.33733976 0.04342278
0.73921716 0.35607421 0.03453585
0.81294918 0.37793940 0.02705035
0.89042324 0.39922082 0.01992038
0.96598744 0.41859272 0.01298507
1.03235197 0.43480098 0.00939560
1.07273495 0.45025039 0.00837687
1.10306060 0.45790738 -0.00159790
1.13064194 0.46184656 -0.01726516
1.15674436 0.46499285 -0.03431550
1.17973733 0.46866524 -0.04164807
1.18694460 0.47097570 -0.03973488
1.18862295 0.47172463 -0.03932052
1.19023395 0.47201365 -0.03884210
1.19179022 0.47192797 -0.03831118
1.19303763 0.46972919 -0.03748035
1.19405103 0.46595573 -0.03642470
1.19501781 0.46186846 -0.03533184
1.19591773 0.45755947 -0.03420138
0.27606213 0.26232493 0.10689745
0.28337908 0.26383096 0.10571689
0.29388168 0.26604149 0.10389005
0.30656999 0.26866406 0.10162405
0.32261533 0.27187952 0.09871700
0.34211445 0.27569383 0.09516506
0.36402774 0.28004262 0.09088704
0.38841790 0.28483850 0.08599453
0.41260481 0.28818810 0.08078890
0.44359422 0.29376650 0.07411093
0.48137754 0.30252311 0.06618601
0.52515578 0.31547010 0.05913488
0.57527387 0.32912934 0.05158909
0.63011193 0.34422562 0.04335360
0.69074351 0.36239424 0.03460686
0.75699031 0.38228399 0.02824431
0.82826734 0.40346116 0.02118006
0.90193999 0.42418045 0.01276585
0.97700107 0.44403940 0.00424393
1.04608512 0.46180993 -0.00225206
1.08116138 0.47688991 -0.00218299
1.11326134 0.49009100 0.00123379
1.14070797 0.49719328 -0.00279362
1.16605902 0.49963552 -0.01817133
1.18707347 0.50086790 -0.03395198
1.19113755 0.50021470 -0.04397101
1.19268155 0.50000381 -0.04344278
1.19415641 0.49930593 -0.04284360
1.19558001 0.49825603 -0.04217669
1.19696188 0.49691796 -0.04145359
1.19799614 0.49315995 -0.04038315
1.19887090 0.48835713 -0.03914464
1.19974589 0.48355404 -0.03790714
0.31633362 0.29237640 0.10445474
0.32377228 0.29384053 0.10316182
0.33460608 0.29599354 0.10097641
0.34757698 0.29853719 0.09838337
0.36311203 0.30167246 0.09535211
0.38147667 0.30544934 0.09173238
0.40195829 0.30908906 0.08697117
0.42458558 0.31270486 0.08106861
0.44974327 0.31654847 0.07464086
0.47677344 0.32036179 0.06869574
0.51091063 0.32794306 0.05977144
0.55226868 0.33926857 0.05085592
0.60047412 0.35419500 0.04215176
0.65425962 0.36981073 0.03418870
0.71196997 0.38881785 0.02801509
0.77574420 0.40914616 0.02133337
0.84407103 0.42966729 0.01303912
0.91491187 0.45022821 0.00325280
0.98682094 0.46904874 -0.00660406
1.05131352 0.48673627 -0.01560900
1.08856153 0.50300026 -0.01861493
1.12062597 0.51606995 -0.01325783
1.14899123 0.52774960 -0.00284559
1.17502820 0.53578287 0.00069441
1.19227493 0.53570700 -0.01247071
1.19451797 0.53274107 -0.03079996
1.19653392 0.53007913 -0.04468670
1.19810569 0.52805352 -0.04756005
1.19941473 0.52601200 -0.04684439
1.20069194 0.52376598 -0.04604562
1.20188069 0.52097529 -0.04497056
1.20274138 0.51579511 -0.04343814
1.20354033 0.51019353 -0.04188901
0.36040232 0.32482040 0.09972122
0.36766392 0.32633388 0.09806409
0.37776783 0.32841420 0.09604362
0.39015779 0.33087718 0.09353805
0.40474194 0.33350131 0.09017561
0.42157221 0.33624071 0.08554118
0.44145375 0.33940497 0.08025531
0.46456760 0.34303510 0.07400046
0.48844194 0.34703726 0.06729020
0.51299602 0.35030216 0.06108129
0.54328263 0.35604966 0.05255818
0.58095920 0.36513227 0.04146808
0.62628728 0.38049620 0.03285742
0.67749524 0.39707500 0.02789244
0.73356467 0.41599590 0.02066386
0.79491901 0.43687984 0.01137578
0.86110556 0.45694274 0.00143794
0.92885327 0.47674558 -0.01118925
0.99752009 0.49477214 -0.02364263
1.05834627 0.51147294 -0.03369889
1.09411061 0.52747631 -0.03678095
1.12748599 0.54172224 -0.03289561
1.15589941 0.55317199 -0.01981802
1.18155098 0.56403786 -0.00314586
1.19437659 0.57122803 0.01023737
1.19641185 0.56783664 -0.00239047
1.19842052 0.56374770 -0.01653663
1.20044875 0.55934870 -0.03329163
1.20238423 0.55494547 -0.04648167
1.20388651 0.55150414 -0.04902342
1.20524824 0.54822457 -0.04843154
1.20646560 0.54398155 -0.04774200
1.20730829 0.53776443 -0.04679183
0.40622750 0.36011857 0.09379695
0.41331950 0.36133793 0.09172677
0.42325547 0.36309820 0.08858042
0.43469274 0.36503166 0.08548920
0.44880053 0.36733586 0.08175977
0.46623534 0.37007460 0.07699469
0.48506421 0.37325680 0.07159434
0.50616527 0.37698054 0.06559034
0.52825242 0.38035586 0.05794870
0.55248296 0.38379553 0.05040796
0.57845438 0.38711858 0.04401001
0.61209929 0.39557785 0.03547102
0.65218115 0.40799916 0.02647962
0.70167249 0.42587698 0.01914008
0.75738323 0.44519126 0.00968444
0.81663036 0.46592930 -0.00330986
0.88032848 0.48564377 -0.01779198
0.94534099 0.50418615 -0.03436115
1.01108813 0.52197969 -0.04682741
1.06636214 0.53865457 -0.05430868
1.10070944 0.55430734 -0.05349425
1.13287067 0.56710964 -0.05182421
1.16179276 0.57870042 -0.04095683
1.18710291 0.58929741 -0.02049240
1.19684219 0.59670079 0.00111914
1.19794130 0.60198742 0.02060091
1.19962931 0.59873033 0.01493758
1.20144641 0.59370399 0.00345919
1.20327926 0.58828020 -0.00973548
1.20516670 0.58246464 -0.02486197
1.20714116 0.57641196 -0.04180586
1.20868802 0.57154810 -0.04753763
1.20975363 0.56605113 -0.04441963
0.45502084 0.39825493 0.08323159
0.46210235 0.39940220 0.08112150
0.47258446 0.40119791 0.07788946
0.48391613 0.40322751 0.07424676
0.49706528 0.40549949 0.07048057
0.51277453 0.40820009 0.06671239
0.52969718 0.41073847 0.06193725
0.54905313 0.41368741 0.05707394
0.57086682 0.41697627 0.05141608
0.59332681 0.42065555 0.04504111
0.61673999 0.42373508 0.03926268
0.64617097 0.42993367 0.03109442
0.68271983 0.43995881 0.01761476
0.72938704 0.45689231 0.00480811
0.78404325 0.47639382 -0.00904536
0.84117609 0.49610865 -0.02841612
0.90170038 0.51547134 -0.04787257
0.96479928 0.53519887 -0.05130019
1.02765071 0.55370319 -0.05371198
1.07488978 0.56989944 -0.05286028
1.10788524 0.58434260 -0.05188764
1.13870239 0.59595692 -0.05065302
1.16699314 0.60567772 -0.04953025
1.19227624 0.61453927 -0.04125681
1.19942153 0.62140369 -0.01528154
