luts/darkies.cube
TITLE "Generated by Resolve"
LUT_3D_SIZE 33
0.101427 0.0595102 0.0437629
0.10309 0.0605325 0.0455787
0.104204 0.0612192 0.0469215
0.104738 0.0616465 0.0475929
0.104891 0.0617533 0.0477302
0.105272 0.0619974 0.0480507
0.106081 0.0625315 0.0489357
0.107286 0.0633402 0.050309
0.108705 0.0642405 0.0519417
0.110246 0.0653849 0.0539101
0.111925 0.0665293 0.0557259
0.114412 0.0681773 0.0587015
0.116945 0.0702373 0.0620432
0.120089 0.0726482 0.066331
0.124056 0.0755016 0.0711528
0.128862 0.0787671 0.0766003
0.1346 0.0822309 0.0827039
0.141085 0.0858778 0.0893568
0.14847 0.0899214 0.0963302
0.156664 0.0944076 0.103716
0.165652 0.0997635 0.112413
0.175692 0.105745 0.122118
0.186358 0.112306 0.132921
0.198138 0.119722 0.144701
0.210712 0.127626 0.157336
0.224628 0.136385 0.17116
0.239231 0.145708 0.185916
0.254994 0.155718 0.201907
0.271885 0.166506 0.218982
0.290196 0.178012 0.237232
0.309606 0.190295 0.256764
0.330419 0.203357 0.277714
0.352773 0.217441 0.300206
0.103746 0.0626993 0.0478523
0.10518 0.0637827 0.0495766
0.106249 0.0644846 0.050782
0.106752 0.0647746 0.0513466
0.106874 0.0648508 0.0514992
0.107179 0.0650187 0.0518349
0.107973 0.0655528 0.0527504
0.109163 0.066331 0.0541085
0.110674 0.0673533 0.0558328
0.112367 0.068513 0.0578164
0.11397 0.0696422 0.0597391
0.115984 0.0711528 0.0622263
0.11873 0.0731975 0.0659495
0.121935 0.0757 0.0700389
0.125917 0.0784161 0.0746471
0.130831 0.0814679 0.0800793
0.136614 0.0850385 0.0861372
0.143145 0.0885023 0.092607
0.1505 0.0923476 0.0991836
0.158648 0.0971237 0.10695
0.167651 0.102632 0.11577
0.1776 0.108766 0.125734
0.188602 0.115541 0.136568
0.200336 0.122789 0.148348
0.213138 0.130938 0.161212
0.226734 0.13962 0.174945
0.241413 0.148974 0.189731
0.257496 0.159182 0.205966
0.274113 0.169924 0.222766
0.292302 0.181521 0.241123
0.311833 0.193912 0.260838
0.332815 0.207172 0.282017
0.355367 0.221027 0.304601
0.105074 0.0649729 0.0505989
0.106447 0.0658122 0.0521553
0.107546 0.0664988 0.0533913
0.108217 0.0668498 0.0541238
0.108385 0.0669413 0.0543221
0.108766 0.0671855 0.0546426
0.10956 0.0677195 0.0554513
0.110567 0.0685435 0.0568399
0.112062 0.0695506 0.0585641
0.11371 0.0706951 0.060502
0.115099 0.0716259 0.0620584
0.117235 0.0732433 0.0650492
0.11986 0.0753033 0.0683909
0.122942 0.0776226 0.0724346
0.127413 0.080415 0.0773785
0.132219 0.0834363 0.0826123
0.137987 0.0866102 0.0885481
0.144549 0.0901961 0.0948959
0.151949 0.0943313 0.101518
0.160098 0.0992142 0.109529
0.169299 0.104738 0.11841
0.179248 0.110948 0.128435
0.190036 0.117708 0.1393
0.201892 0.125109 0.151049
0.214572 0.133349 0.164004
0.228351 0.142 0.177737
0.24303 0.1514 0.192554
0.258854 0.161532 0.208515
0.275914 0.172351 0.225803
0.294148 0.184024 0.244221
0.313726 0.196445 0.263996
0.334569 0.209552 0.284855
0.357229 0.223713 0.307729
0.105715 0.066041 0.0519875
0.107393 0.0670024 0.0538491
0.108476 0.0677043 0.0548867
0.109071 0.068101 0.0555428
0.109224 0.0681926 0.0557107
0.109575 0.0684367 0.0561074
0.110262 0.0689708 0.057023
0.11136 0.0697795 0.058381
0.112825 0.0707713 0.0601053
0.11429 0.0717327 0.061677
0.115877 0.0728008 0.0636759
0.117922 0.0744488 0.0665141
0.120485 0.0764477 0.0698405
0.12369 0.0787976 0.0737926
0.128161 0.081529 0.0788128
0.133013 0.0845197 0.0840314
0.13875 0.087602 0.0898909
0.145403 0.0912184 0.0962081
0.152758 0.0954757 0.102876
0.160952 0.10042 0.11078
0.170153 0.105974 0.119875
0.180133 0.112215 0.129809
0.190829 0.118914 0.140536
0.20264 0.126452 0.152621
0.215396 0.134463 0.165286
0.229252 0.143359 0.179294
0.243992 0.152758 0.194186
0.25977 0.162936 0.210132
0.276875 0.173785 0.227268
0.295125 0.185473 0.245701
0.314595 0.197803 0.265385
0.335576 0.211048 0.28661
0.358068 0.225025 0.309331
0.105943 0.0663615 0.0523995
0.107622 0.0673228 0.0542611
0.10869 0.06804 0.0552682
0.10927 0.0684215 0.0559396
0.109422 0.0685283 0.0561074
0.109773 0.0687572 0.0565042
0.110414 0.0693065 0.057435
0.111559 0.0700999 0.0587778
0.113024 0.0710918 0.0604715
0.114473 0.0720531 0.0620737
0.11606 0.0731212 0.0641184
0.118105 0.0747692 0.0668193
0.120592 0.0766766 0.070161
0.123903 0.0790875 0.0741741
0.128283 0.0817578 0.0791028
0.133211 0.0847944 0.0843977
0.138964 0.0878614 0.0902419
0.145663 0.0914778 0.0965896
0.152941 0.0957961 0.103243
0.161181 0.10074 0.111147
0.170382 0.106294 0.120241
0.180362 0.112551 0.130205
0.191058 0.119249 0.140932
0.202884 0.126802 0.152926
0.215656 0.134798 0.165728
0.229496 0.143709 0.17969
0.244297 0.153094 0.194675
0.259998 0.163302 0.210559
0.277134 0.174151 0.227695
0.295369 0.185855 0.246143
0.314794 0.198108 0.265766
0.335836 0.211429 0.287068
0.358343 0.225422 0.309804
0.106569 0.0670634 0.0534676
0.108125 0.0680858 0.055024
0.109178 0.0687724 0.056199
0.109758 0.0691691 0.0568704
0.109911 0.0692607 0.0570382
0.110185 0.0695201 0.0574655
0.110872 0.0700542 0.0583658
0.112032 0.0708324 0.0596933
0.113313 0.0716564 0.0610513
0.115007 0.0727398 0.0630655
0.116411 0.0738537 0.0650492
0.118517 0.0754864 0.0676585
0.120928 0.0773175 0.0709697
0.124468 0.0797436 0.0751812
0.128573 0.0823682 0.0797284
0.133761 0.0853895 0.0852522
0.139437 0.0884565 0.0910353
0.146151 0.0921035 0.0972457
0.153368 0.0965133 0.104005
0.161685 0.101457 0.112016
0.170825 0.107057 0.121157
0.180743 0.113176 0.130953
0.191592 0.120027 0.141833
0.203433 0.127596 0.153765
0.216205 0.135607 0.166659
0.229908 0.144396 0.180499
0.244892 0.153933 0.195529
0.260563 0.164141 0.211536
0.277699 0.175021 0.228687
0.295933 0.186694 0.24712
0.315389 0.198993 0.266789
0.336446 0.212329 0.288121
0.358999 0.226337 0.310826
0.107698 0.0687572 0.0554055
0.109224 0.0697642 0.0571145
0.110185 0.0704662 0.05832
0.110689 0.0708782 0.0589914
0.110826 0.0709697 0.0591745
0.111177 0.0711986 0.0595712
0.111879 0.0716564 0.0603799
0.112886 0.0723125 0.0614023
0.114458 0.0732433 0.0632334
0.115984 0.0743725 0.0651865
0.117311 0.0754864 0.0669261
0.119326 0.076997 0.0695811
0.121828 0.0789197 0.0728161
0.125505 0.0812848 0.0771801
0.129564 0.0838636 0.0816968
0.134768 0.0867781 0.0871138
0.140414 0.0897841 0.0926986
0.146975 0.093492 0.0986648
0.154452 0.0978714 0.10573
0.162646 0.102922 0.113771
0.17174 0.108598 0.122805
0.181872 0.114839 0.132937
0.192859 0.121767 0.143969
0.204578 0.129152 0.155795
0.217426 0.137423 0.168765
0.231159 0.146151 0.182666
0.245823 0.155703 0.197528
0.261845 0.165866 0.213748
0.278721 0.176898 0.230869
0.297047 0.188495 0.249241
0.316732 0.201007 0.269123
0.337819 0.214145 0.290486
0.360372 0.228412 0.313359
0.109361 0.0713054 0.0585946
0.110613 0.0722362 0.0602274
0.111635 0.0728008 0.0612192
0.112261 0.0731518 0.0619211
0.112398 0.0732433 0.062089
0.112734 0.0734722 0.0624857
0.113481 0.0739757 0.0633555
0.114595 0.0747387 0.064683
0.115938 0.0757153 0.0663767
0.117296 0.0768597 0.0681315
0.118532 0.0777295 0.0697948
0.120592 0.0792554 0.0724956
0.1234 0.0812543 0.0760052
0.126879 0.0833906 0.0797894
0.131304 0.0859388 0.0847486
0.136156 0.0886091 0.0897536
0.142168 0.0919509 0.095552
0.148684 0.0958572 0.101396
0.156176 0.100328 0.108644
0.164553 0.105409 0.116732
0.173663 0.111147 0.125994
0.183703 0.117494 0.136034
0.194553 0.124269 0.146822
0.206439 0.131914 0.158877
0.219226 0.140093 0.171756
0.233082 0.148989 0.18584
0.24773 0.158526 0.200839
0.263722 0.168734 0.216861
0.280766 0.179721 0.234165
0.299062 0.191485 0.252735
0.318715 0.204013 0.272648
0.339727 0.217258 0.29395
0.362387 0.231418 0.316945
0.11133 0.074403 0.062562
0.112795 0.0753796 0.0642405
0.113771 0.0760357 0.0654002
0.114321 0.0764019 0.0660563
0.114473 0.0765087 0.0662089
0.114794 0.0767376 0.0665599
0.115526 0.0772259 0.0672923
0.11635 0.0779431 0.0685588
0.117494 0.0787518 0.0700999
0.119097 0.0797742 0.0721294
0.120439 0.0807965 0.0737469
0.122454 0.0823529 0.0765087
0.125231 0.084062 0.0795758
0.128939 0.0861982 0.0838331
0.133227 0.088426 0.0881361
0.138415 0.0914015 0.0933242
0.144198 0.0948501 0.0985275
0.150912 0.0988479 0.104906
0.158465 0.103609 0.112306
0.166674 0.108766 0.120684
0.175952 0.114534 0.129793
0.18587 0.120836 0.13994
0.196811 0.127901 0.151034
0.208804 0.135485 0.163165
0.221546 0.143725 0.176089
0.235309 0.152575 0.189853
0.250202 0.162127 0.20499
0.266102 0.172427 0.221149
0.283345 0.183429 0.238651
0.301625 0.195224 0.257267
0.321355 0.207889 0.277302
0.342626 0.221286 0.298695
0.365377 0.235523 0.321843
0.113863 0.078294 0.0673228
0.115068 0.0790265 0.0687877
0.116045 0.0796521 0.0700694
0.116518 0.0800183 0.0707561
0.11664 0.0801099 0.0709087
0.116945 0.0803235 0.0712902
0.117571 0.0807965 0.0721447
0.118593 0.0815137 0.073228
0.11986 0.082414 0.0748608
0.121218 0.0834058 0.0767071
0.122332 0.0842298 0.0783398
0.124743 0.0855573 0.0809339
0.12781 0.0872969 0.0843214
0.131243 0.0892195 0.0879835
0.13579 0.0918746 0.0925765
0.14078 0.0949416 0.0972457
0.146883 0.0986801 0.10309
0.15349 0.102846 0.109545
0.161089 0.107515 0.116915
0.169528 0.112764 0.125368
0.178698 0.118639 0.134615
0.188891 0.125093 0.1449
0.19968 0.132021 0.15584
0.211627 0.139788 0.167956
0.224475 0.147982 0.181018
0.238422 0.157092 0.195132
0.253223 0.16672 0.210285
0.2692 0.177066 0.226535
0.28632 0.188205 0.243977
0.304768 0.200076 0.262745
0.324361 0.212619 0.28275
0.345693 0.2262 0.304402
0.368627 0.240391 0.327672
0.116213 0.0819867 0.0724193
0.117479 0.0829023 0.0738842
0.118349 0.0834974 0.0749981
0.118837 0.0838331 0.0756237
0.118975 0.0839094 0.0757763
0.119265 0.0841077 0.0761425
0.119844 0.0844587 0.0768902
0.120684 0.0849775 0.0780194
0.12195 0.0857557 0.0796063
0.1234 0.0867018 0.0814069
0.124926 0.0875715 0.0831464
0.127306 0.0889143 0.0856031
0.130083 0.0906233 0.0887465
0.134096 0.0929427 0.0926375
0.138354 0.0956283 0.096849
0.14374 0.0989548 0.101808
0.149569 0.102678 0.107515
0.156374 0.106874 0.114275
0.164004 0.11162 0.121782
0.17232 0.116991 0.130312
0.181643 0.122896 0.139757
0.191745 0.129458 0.149981
0.202747 0.136645 0.161181
0.214527 0.144289 0.173159
0.22742 0.152667 0.186297
0.241398 0.161715 0.200534
0.256397 0.171374 0.215656
0.272221 0.181842 0.232029
0.289601 0.192981 0.249531
0.30808 0.204959 0.268437
0.327749 0.217563 0.288579
0.349187 0.231235 0.310506
0.372305 0.245548 0.333913
0.119158 0.0863813 0.0786755
0.120439 0.0871595 0.0800641
0.121263 0.0876631 0.081117
0.121675 0.0879683 0.0817121
0.121767 0.0880598 0.0818799
0.121996 0.0882582 0.0822461
0.122606 0.0887007 0.0830701
0.123644 0.0893568 0.0842908
0.125002 0.0902113 0.0856489
0.126513 0.0910811 0.0873121
0.128222 0.0920577 0.0891585
0.130541 0.0936599 0.0915999
0.133745 0.0956893 0.094789
0.137484 0.0979782 0.0981765
0.142016 0.100984 0.102693
0.14725 0.104234 0.107866
0.153155 0.108049 0.113771
0.160006 0.112352 0.120653
0.167727 0.11725 0.128374
0.176181 0.122606 0.136843
0.185412 0.128649 0.146273
0.195529 0.135271 0.156725
0.206729 0.142504 0.167956
0.21854 0.150225 0.180011
0.231617 0.15877 0.193362
0.245396 0.167849 0.207599
0.26041 0.1776 0.222812
0.276463 0.188144 0.239139
0.293721 0.19939 0.256977
0.312322 0.21149 0.27602
0.332265 0.224369 0.296529
0.353628 0.23798 0.318303
0.376867 0.25243 0.342214
0.122576 0.0918898 0.0860304
0.123888 0.0928054 0.0875715
0.124834 0.0934462 0.0886397
0.125368 0.0937972 0.0892348
0.125505 0.0938888 0.0893873
0.125826 0.0941024 0.0897383
0.126558 0.0945907 0.0905318
0.127687 0.0953384 0.0915541
0.129 0.0963455 0.0931106
0.130663 0.0973068 0.094789
0.132311 0.0982986 0.096376
0.134707 0.0999924 0.0985122
0.137987 0.102113 0.101686
0.141802 0.104509 0.10547
0.146365 0.107546 0.110048
0.151858 0.110933 0.115572
0.157809 0.114855 0.121553
0.16463 0.11928 0.128496
0.172259 0.124224 0.136339
0.180804 0.129717 0.145052
0.190082 0.135851 0.154543
0.200412 0.14255 0.164904
0.21146 0.149859 0.176394
0.223346 0.157717 0.188602
0.236439 0.166232 0.201907
0.250431 0.175509 0.21619
0.2654 0.185397 0.231769
0.281697 0.195972 0.24831
0.298894 0.207431 0.266056
0.317678 0.219593 0.285344
0.337743 0.232425 0.305882
0.359503 0.246311 0.32842
0.382605 0.261051 0.352331
0.12723 0.0992142 0.0946517
0.128557 0.100221 0.0961318
0.129519 0.100908 0.0970474
0.130098 0.101305 0.0974136
0.130236 0.101411 0.0975357
0.130587 0.10164 0.0978408
0.13135 0.102144 0.0985733
0.132509 0.102922 0.0997177
0.134005 0.103838 0.101198
0.135561 0.104891 0.102968
0.137301 0.106035 0.104524
0.139895 0.107744 0.107134
0.142977 0.109773 0.110277
0.146975 0.112459 0.114534
0.151614 0.115419 0.119097
0.157153 0.119066 0.124758
0.163287 0.123033 0.131044
0.170092 0.127565 0.138003
0.177691 0.132647 0.145922
0.186313 0.138231 0.154635
0.195621 0.144457 0.16437
0.205997 0.151263 0.174853
0.217014 0.158495 0.186191
0.229206 0.166583 0.198718
0.242115 0.175174 0.212039
0.256214 0.184405 0.22652
0.271275 0.194614 0.242145
0.287724 0.205356 0.25893
0.305013 0.216724 0.277043
0.323888 0.229023 0.296513
0.344274 0.242222 0.317449
0.365988 0.256153 0.340002
0.389593 0.271214 0.364904
0.132769 0.108141 0.104005
0.134234 0.109178 0.105516
0.135225 0.109895 0.106676
0.135882 0.110262 0.107362
0.136034 0.110353 0.107515
0.136355 0.110567 0.107851
0.136995 0.110948 0.108522
0.138201 0.111757 0.109682
0.139757 0.11281 0.111177
0.14139 0.114046 0.113069
0.14316 0.115221 0.114885
0.145754 0.116747 0.117372
0.149004 0.119051 0.120928
0.153033 0.121736 0.125048
0.157809 0.124849 0.129824
0.163195 0.128389 0.135378
0.169284 0.132479 0.141665
0.17641 0.137179 0.148989
0.184131 0.142397 0.157153
0.192767 0.148089 0.165881
0.201984 0.154238 0.175555
0.21239 0.161135 0.18613
0.223606 0.168719 0.197711
0.235615 0.17673 0.210147
0.24889 0.185595 0.223896
0.26305 0.19498 0.23859
0.278111 0.205142 0.254231
0.294621 0.216037 0.271214
0.312215 0.227695 0.289769
0.331334 0.240223 0.30959
0.351583 0.253437 0.330831
0.373678 0.267796 0.353887
0.397375 0.282963 0.378973
0.139193 0.118349 0.115511
0.140597 0.119448 0.117052
0.141665 0.12018 0.118166
0.142275 0.120592 0.118807
0.142428 0.120699 0.118959
0.142794 0.120943 0.119341
0.143633 0.121477 0.120226
0.144976 0.122271 0.121569
0.146441 0.1234 0.123125
0.148043 0.124437 0.124849
0.149828 0.125643 0.126711
0.152499 0.127474 0.129335
0.155764 0.12958 0.132891
0.159808 0.132448 0.137087
0.164584 0.135531 0.141985
0.170108 0.139284 0.147616
0.176455 0.143496 0.154177
0.183368 0.148211 0.161517
0.191211 0.153429 0.169665
0.199924 0.159228 0.178515
0.209354 0.165667 0.188495
0.219608 0.172503 0.199023
0.23093 0.180179 0.210742
0.243046 0.188403 0.223346
0.256413 0.19733 0.237278
0.270481 0.206912 0.251926
0.285847 0.217197 0.268055
0.302449 0.228229 0.285298
0.320241 0.240131 0.304097
0.339422 0.252872 0.324193
0.359915 0.266346 0.345953
0.382284 0.280964 0.369772
0.406455 0.2963 0.395514
0.146593 0.130312 0.128832
0.148028 0.131258 0.130358
0.149081 0.13196 0.131456
0.149691 0.132372 0.132097
0.149844 0.132479 0.132265
0.15021 0.132738 0.132662
0.151049 0.133303 0.133516
0.152377 0.134142 0.134737
0.153903 0.135256 0.136538
0.155642 0.1364 0.138354
0.157397 0.137575 0.140047
0.15996 0.139467 0.142885
0.163455 0.141665 0.146349
0.167483 0.144533 0.150759
0.172244 0.147707 0.155749
0.177829 0.151644 0.161578
0.184131 0.155871 0.168139
0.191226 0.160616 0.17554
0.199145 0.165957 0.183627
0.207828 0.171893 0.192798
0.217426 0.178424 0.202701
0.227634 0.185397 0.213489
0.239002 0.19321 0.225467
0.251408 0.201465 0.2383
0.264652 0.210666 0.252216
0.279088 0.220356 0.267414
0.294469 0.230838 0.28365
0.311147 0.242145 0.30132
0.329229 0.2542 0.320363
0.348669 0.267231 0.341115
0.369421 0.280934 0.363348
0.392126 0.295872 0.387808
0.416876 0.311589 0.414343
0.154864 0.143587 0.14374
0.156268 0.144518 0.145235
0.157397 0.145296 0.146242
0.158068 0.145708 0.146944
0.158236 0.145815 0.147143
0.158572 0.146075 0.147616
0.15938 0.146654 0.148531
0.160647 0.147539 0.149859
0.16228 0.148669 0.151598
0.16408 0.149889 0.153307
0.165667 0.151095 0.155169
0.168551 0.152926 0.15819
0.171801 0.155276 0.161639
0.176074 0.15816 0.165911
0.18085 0.16141 0.170947
0.186603 0.165362 0.17705
0.192828 0.169741 0.183536
0.199985 0.174594 0.191043
0.207828 0.180072 0.199466
0.216663 0.186099 0.208576
0.226322 0.192737 0.218799
0.236698 0.199847 0.229664
0.248249 0.207767 0.241871
0.260517 0.216236 0.254856
0.274006 0.22562 0.269184
0.288563 0.235492 0.284459
0.304158 0.246204 0.301289
0.321035 0.257694 0.319219
0.339254 0.2701 0.338827
0.358938 0.283345 0.35996
0.380133 0.297414 0.383062
0.403159 0.312749 0.408408
0.428519 0.328679 0.436667
0.163912 0.158267 0.160067
0.165454 0.159426 0.161883
0.166583 0.160204 0.163073
0.167208 0.160647 0.163745
0.167376 0.160769 0.163928
0.167758 0.161044 0.164233
0.168612 0.161639 0.165042
0.169894 0.162539 0.166415
0.171221 0.163531 0.168017
0.173266 0.164813 0.170077
0.175128 0.16611 0.171939
0.177752 0.168093 0.174929
0.181277 0.170336 0.178454
0.185458 0.173388 0.182925
0.190234 0.17673 0.188144
0.195789 0.180621 0.194018
0.202228 0.185046 0.200824
0.209552 0.190112 0.208377
0.21767 0.195727 0.216968
0.226291 0.201724 0.226169
0.236042 0.208499 0.236484
0.246616 0.215961 0.24773
0.258 0.223941 0.259907
0.270665 0.232715 0.273442
0.284123 0.2421 0.287892
0.298817 0.252216 0.303639
0.314763 0.26334 0.32076
0.331655 0.274998 0.339208
0.35021 0.287633 0.359258
0.370214 0.301289 0.381247
0.391836 0.315984 0.40528
0.41529 0.331319 0.432395
0.441581 0.347356 0.465415
0.173907 0.174838 0.178317
0.175555 0.175998 0.180072
0.176699 0.176791 0.181399
0.177279 0.177203 0.182116
0.177401 0.177279 0.182254
0.177722 0.177478 0.182528
0.178546 0.178058 0.183291
0.179858 0.178973 0.18468
0.181537 0.180163 0.186465
0.183307 0.181567 0.188479
0.185168 0.182727 0.190341
0.187945 0.184634 0.193301
0.191409 0.187228 0.196994
0.19556 0.190097 0.20145
0.200473 0.1935 0.206683
0.206363 0.197635 0.212924
0.212848 0.202152 0.219638
0.219928 0.207294 0.227436
0.227985 0.212985 0.236072
0.237049 0.219257 0.245548
0.246799 0.22623 0.25626
0.257389 0.233646 0.267552
0.269123 0.241962 0.280156
0.281682 0.250828 0.293767
0.29546 0.260517 0.308812
0.310338 0.271031 0.325032
0.326253 0.282277 0.342641
0.343771 0.294377 0.361761
0.362463 0.307454 0.382605
0.382574 0.321355 0.40531
0.404517 0.3364 0.431189
0.428855 0.351904 0.462821
0.457267 0.367864 0.502586
0.184695 0.19292 0.198276
0.186389 0.194095 0.200092
0.187655 0.194888 0.201297
0.188266 0.195377 0.201968
0.188403 0.195499 0.202167
0.188708 0.195804 0.202594
0.189548 0.196384 0.203494
0.190707 0.197162 0.204746
0.192386 0.198383 0.206561
0.194247 0.199802 0.208499
0.196185 0.201144 0.210651
0.198886 0.202976 0.213367
0.20238 0.205615 0.217304
0.206714 0.208545 0.221805
0.211765 0.212268 0.227207
0.217487 0.216312 0.233402
0.224018 0.22092 0.240436
0.231373 0.226139 0.248371
0.239399 0.232013 0.257221
0.248493 0.238468 0.266987
0.258366 0.245609 0.277714
0.269139 0.253254 0.289433
0.280903 0.261799 0.302434
0.293721 0.270863 0.316426
0.307713 0.280995 0.331868
0.322713 0.291661 0.348714
0.339055 0.303273 0.366979
0.356619 0.315785 0.386892
0.375708 0.329351 0.408728
0.396231 0.343557 0.433509
0.418708 0.358877 0.464103
0.443717 0.374472 0.502556
0.475624 0.390143 0.54905
0.196475 0.212833 0.220035
0.198215 0.214038 0.221912
0.19939 0.214878 0.223178
0.200046 0.215366 0.22388
0.200214 0.215488 0.224079
0.200565 0.215778 0.224506
0.201328 0.216449 0.225483
0.202487 0.217227 0.226566
0.204211 0.218463 0.228443
0.206302 0.219837 0.230701
0.208072 0.221286 0.232639
0.210742 0.223163 0.235554
0.214405 0.225834 0.239536
0.218585 0.228916 0.244038
0.223865 0.23267 0.249851
0.229541 0.236896 0.256062
0.236149 0.241627 0.263188
0.243519 0.246998 0.271244
0.251713 0.253025 0.280415
0.260914 0.259693 0.290379
0.270848 0.267048 0.30161
0.281758 0.274876 0.313573
0.293873 0.283696 0.327092
0.306706 0.29308 0.341573
0.32105 0.303502 0.357809
0.336248 0.314595 0.374945
0.352743 0.326635 0.394247
0.370825 0.339574 0.415137
0.390188 0.353536 0.439307
0.410742 0.368078 0.469734
0.434028 0.38349 0.507881
0.462516 0.399115 0.552529
0.498253 0.416403 0.600732
0.20914 0.234714 0.243793
0.210864 0.235981 0.245655
0.212024 0.236851 0.246952
0.212604 0.237354 0.247745
0.212787 0.237476 0.247974
0.213214 0.237736 0.248432
0.213962 0.238209 0.249271
0.215305 0.2392 0.250629
0.217044 0.240497 0.252491
0.218875 0.242008 0.254719
0.220798 0.243366 0.256748
0.223667 0.245335 0.259815
0.227253 0.248142 0.263767
0.231525 0.251255 0.268696
0.236759 0.255131 0.274296
0.242664 0.25948 0.280888
0.249348 0.264378 0.28835
0.256764 0.269947 0.296574
0.265064 0.276158 0.305959
0.274434 0.28304 0.316304
0.284337 0.29044 0.327733
0.295399 0.298802 0.340414
0.307744 0.307942 0.354253
0.320912 0.317647 0.369528
0.335149 0.328283 0.386084
0.350591 0.339879 0.404318
0.367636 0.352316 0.425193
0.38587 0.365698 0.449088
0.405325 0.379873 0.480064
0.426825 0.394781 0.518273
0.45243 0.410849 0.562219
0.485817 0.429297 0.608423
0.529427 0.453696 0.653162
0.222812 0.258686 0.26981
0.224323 0.2598 0.27155
0.225391 0.260746 0.272923
0.226078 0.26125 0.273686
0.226246 0.261387 0.273884
0.226642 0.261677 0.274327
0.227604 0.262348 0.275395
0.229068 0.263355 0.276829
0.230762 0.264698 0.278828
0.232502 0.266041 0.280919
0.23447 0.267536 0.282933
0.2374 0.269734 0.286427
0.24097 0.272389 0.290257
0.245441 0.275853 0.295308
0.250462 0.279713 0.301213
0.256413 0.284169 0.307988
0.263203 0.289281 0.315526
0.270817 0.295003 0.324239
0.279179 0.301457 0.333883
0.288594 0.308629 0.344747
0.299031 0.316518 0.356893
0.31014 0.325017 0.369955
0.322423 0.334569 0.384466
0.335897 0.344701 0.400519
0.350561 0.356023 0.418296
0.366476 0.368032 0.438865
0.383474 0.380758 0.4645
0.401633 0.394491 0.496147
0.421988 0.409094 0.534569
0.445289 0.425589 0.577188
0.477317 0.446311 0.621012
0.517052 0.472145 0.661524
0.564736 0.505791 0.698268
0.237095 0.284871 0.298161
0.238834 0.286229 0.300175
0.240055 0.28716 0.301518
0.24065 0.287587 0.302052
0.240818 0.287678 0.302251
0.241215 0.287907 0.302708
0.242145 0.288609 0.303838
0.243412 0.289708 0.305455
0.245197 0.291096 0.307515
0.247257 0.292683 0.309667
0.249027 0.294026 0.311818
0.252033 0.29633 0.315175
0.255604 0.299229 0.319493
0.260243 0.302647 0.324651
0.265263 0.306706 0.330556
0.271458 0.311528 0.337804
0.278401 0.316869 0.345892
0.286152 0.322866 0.355016
0.29456 0.329564 0.365072
0.30399 0.336873 0.376303
0.314458 0.34519 0.388907
0.32607 0.354253 0.402792
0.338582 0.363973 0.418463
0.35227 0.374868 0.436515
0.366995 0.386236 0.458701
0.382696 0.398642 0.485313
0.399512 0.411902 0.518822
0.418769 0.427115 0.556435
0.441108 0.445136 0.597574
0.470512 0.46836 0.637171
0.508629 0.497124 0.674037
0.552499 0.531472 0.706554
0.600885 0.569558 0.738262
0.252476 0.313634 0.329091
0.254398 0.315007 0.331334
0.255467 0.316014 0.33283
0.256123 0.316548 0.333623
0.256275 0.31664 0.333791
0.256596 0.316884 0.334188
0.257481 0.317586 0.335042
0.258885 0.3187 0.33669
0.260655 0.320165 0.338872
0.26276 0.321798 0.341451
0.264576 0.323217 0.343465
0.267445 0.325673 0.347082
0.271412 0.328664 0.351568
0.275776 0.332311 0.356832
0.281041 0.336492 0.36321
0.287343 0.341588 0.370764
0.294224 0.347234 0.379141
0.302113 0.353536 0.3888
0.310796 0.360494 0.399466
0.320226 0.368261 0.411429
0.331212 0.376898 0.425559
0.342809 0.386435 0.441444
0.355138 0.396551 0.461448
0.368795 0.407538 0.485328
0.383169 0.419806 0.514534
0.399329 0.433616 0.548058
0.417029 0.450034 0.584085
0.438972 0.471885 0.621317
0.467308 0.497353 0.656336
0.502754 0.528817 0.68838
0.544884 0.563485 0.718212
0.590646 0.599603 0.746914
0.634104 0.634058 0.774975
0.268757 0.345418 0.363424
0.270558 0.346899 0.365637
0.271763 0.347662 0.367102
0.272465 0.348241 0.367956
0.272648 0.348394 0.368185
0.272999 0.348745 0.368704
0.273869 0.349569 0.36968
0.275288 0.350759 0.371405
0.277134 0.352285 0.373663
0.279011 0.353826 0.375952
0.281086 0.355505 0.378515
0.284138 0.358053 0.3823
0.287678 0.361166 0.386786
0.292409 0.365103 0.392706
0.297948 0.369482 0.399405
0.304051 0.374701 0.407156
0.311177 0.380591 0.41651
0.318914 0.387274 0.427359
0.327794 0.394675 0.439536
0.337606 0.402853 0.455146
0.347997 0.411963 0.473518
0.359197 0.421653 0.494957
