luts/darkies.cube
TITLE "Generated by Resolve"
LUT_3D_SIZE 5
0.101427 0.0595102 0.0437629
0.108705 0.0642405 0.0519417
0.1346 0.0822309 0.0827039
0.210712 0.127626 0.157336
0.352773 0.217441 0.300206
0.11133 0.074403 0.062562
0.117494 0.0787518 0.0700999
0.144198 0.0948501 0.0985275
0.221546 0.143725 0.176089
0.365377 0.235523 0.321843
0.146593 0.130312 0.128832
0.153903 0.135256 0.136538
0.184131 0.155871 0.168139
0.264652 0.210666 0.252216
0.416876 0.311589 0.414343
0.237095 0.284871 0.298161
0.245197 0.291096 0.307515
0.278401 0.316869 0.345892
0.366995 0.386236 0.458701
0.600885 0.569558 0.738262
0.402426 0.710414 0.739178
0.416678 0.723064 0.754437
0.471916 0.763561 0.804654
0.635981 0.830869 0.895109
0.811765 0.945876 1
0.104189 0.0625315 0.0594797
0.111208 0.0671702 0.0671244
0.137209 0.0848707 0.0959793
0.213779 0.130785 0.172671
0.356115 0.220798 0.317845
0.113802 0.0772412 0.0773785
0.119814 0.0814069 0.0846418
0.146883 0.0976577 0.112367
0.224475 0.146792 0.191501
0.368582 0.238987 0.340047
0.149111 0.133333 0.143496
0.156466 0.138308 0.151354
0.186938 0.158984 0.183429
0.267659 0.214023 0.269032
0.420157 0.315343 0.436332
0.239948 0.288563 0.31577
0.248081 0.29482 0.325307
0.281163 0.320806 0.364767
0.369268 0.390097 0.488502
0.608423 0.580255 0.760281
0.408637 0.718547 0.762966
0.422263 0.730236 0.776822
0.477775 0.769116 0.824308
0.641703 0.834882 0.91313
0.814817 0.950439 1
0.114244 0.0739757 0.115816
0.120134 0.0783856 0.123369
0.147402 0.0945754 0.153948
0.225086 0.143267 0.23653
0.369009 0.234607 0.394217
0.122133 0.0870069 0.133242
0.12871 0.0909743 0.140902
0.157458 0.108934 0.172335
0.236042 0.159808 0.256733
0.381598 0.253117 0.419455
0.159777 0.145892 0.205798
0.167224 0.151064 0.213886
0.198077 0.172244 0.248127
0.279316 0.22797 0.340063
0.432197 0.327916 0.566949
0.250828 0.303853 0.391867
0.258946 0.310246 0.402579
0.292027 0.336461 0.451072
0.378058 0.404395 0.633921
0.63592 0.61944 0.841581
0.43125 0.746944 0.848554
0.44416 0.756954 0.860258
0.501289 0.789685 0.900389
0.661906 0.851637 0.987259
0.827329 0.968795 1
0.131579 0.0936904 0.237675
0.138506 0.0980392 0.246052
0.168139 0.11696 0.281025
0.247135 0.167956 0.376822
0.388907 0.256184 0.635126
0.141268 0.108125 0.25745
0.148486 0.112795 0.266117
0.178424 0.132418 0.301778
0.257939 0.184771 0.400931
0.40177 0.27512 0.669993
0.180255 0.170794 0.340261
0.1879 0.176074 0.349798
0.219135 0.197696 0.390692
0.299184 0.252567 0.534676
0.465705 0.356954 0.774899
0.266331 0.328771 0.633234
0.274418 0.335256 0.64889
0.30837 0.363043 0.702022
0.407889 0.451423 0.814557
0.678096 0.679591 0.988861
0.472038 0.791348 1
0.486213 0.798611 1
0.550988 0.824079 1
0.694987 0.884535 1
0.850584 1 1
0.159136 0.12491 0.466789
0.166064 0.129427 0.482033
0.194141 0.147082 0.556848
0.27187 0.197635 0.711604
0.433433 0.300542 0.88397
0.167697 0.139544 0.505318
0.17464 0.143938 0.524025
0.202991 0.162097 0.601038
0.283162 0.215564 0.737697
0.45185 0.321538 0.906416
0.202869 0.200855 0.665858
0.210559 0.206241 0.679301
0.242786 0.229129 0.726574
0.330755 0.292287 0.831586
0.551797 0.42417 1
0.300587 0.379767 0.881132
0.309758 0.38764 0.891005
0.348302 0.422965 0.932631
0.47837 0.568276 1
0.724468 0.743404 1
0.540673 0.841993 1
0.557397 0.847456 1
0.622003 0.869215 1
0.736004 0.934691 1
0.88539 1 1
