luts/Dark Green.cube
TITLE "Generated by Resolve"
LUT_3D_SIZE 9
0 0.00143435 0.00390631
0.0225376 0.00172427 0.00419623
0.0537575 0.00267033 0.00514229
0.0875257 0.00422675 0.00668345
0.123064 0.0062562 0.0087129
0.159991 0.00869764 0.0111696
0.198093 0.0115206 0.0139773
0.237171 0.0146487 0.0171054
0.277134 0.0180819 0.0205386
0 0.0350042 0.00578317
0.0281529 0.0390326 0.00981155
0.0619821 0.0425727 0.0133669
0.0978408 0.0462196 0.0170138
0.135164 0.0500343 0.0208286
0.173663 0.0540475 0.0248417
0.213153 0.0582589 0.0290532
0.253513 0.0626688 0.0334478
0.294652 0.0672618 0.038056
0.0059968 0.079118 0.0130007
0.0370642 0.0848249 0.0187228
0.0723888 0.0898909 0.0237736
0.109606 0.0948806 0.0287633
0.148165 0.0999313 0.033814
0.187793 0.105074 0.0389715
0.228351 0.110338 0.0442359
0.269688 0.11574 0.0496376
0.311757 0.121279 0.0551614
0.0163729 0.128923 0.0233768
0.0486305 0.135836 0.0302892
0.085069 0.142 0.0364538
0.123308 0.148028 0.0424659
0.162829 0.15404 0.0484932
0.203387 0.160098 0.054551
0.2448 0.166232 0.0606851
0.286961 0.172457 0.0669108
0.329824 0.178775 0.073228
0.0291447 0.18291 0.0361486
0.0623484 0.190784 0.044007
0.0996872 0.197833 0.0510719
0.138781 0.2047 0.0579385
0.17911 0.211536 0.0647593
0.220432 0.218372 0.0715953
0.262592 0.225238 0.0784772
0.30547 0.232166 0.0854047
0.349004 0.23917 0.0924086
0.0439155 0.240269 0.0509194
0.0779126 0.24892 0.0595712
0.115999 0.256748 0.0673838
0.155825 0.264347 0.0749828
0.196857 0.27187 0.0825208
0.238849 0.279377 0.0900282
0.281651 0.2869 0.0975509
0.32517 0.294453 0.105104
0.369314 0.302068 0.112703
0.0603952 0.300481 0.0673991
0.095079 0.309819 0.0767376
0.133837 0.318303 0.0852216
0.174304 0.326543 0.0934615
0.215961 0.334691 0.10161
0.258549 0.342809 0.109712
0.30193 0.350912 0.11783
0.346014 0.35903 0.125948
0.390707 0.367193 0.134112
0.0783856 0.36318 0.0853895
0.113695 0.373144 0.0953536
0.153048 0.382208 0.104433
0.19408 0.391028 0.113252
0.236301 0.399741 0.12195
0.279438 0.408392 0.130602
0.323354 0.417029 0.139239
0.367941 0.425666 0.14789
0.413138 0.434333 0.156542
0.0977646 0.428092 0.104768
0.133623 0.438621 0.115282
0.17351 0.448218 0.124895
0.215076 0.457572 0.134234
0.257801 0.466789 0.14345
0.301442 0.475944 0.152605
0.345846 0.485069 0.16173
0.390906 0.494179 0.17084
0.436576 0.503304 0.179965
0 0.00123598 0.0351873
0.0230716 0.00227359 0.0362249
0.0546883 0.00360113 0.0375525
0.0887312 0.00543221 0.0393835
0.124498 0.00769055 0.0416419
0.161624 0.0103304 0.0442817
0.199878 0.0133059 0.0472572
0.239109 0.0165866 0.0505379
0.27921 0.0201419 0.0540932
7.62951e-05 0.0363012 0.0385748
0.0296483 0.040528 0.0428016
0.0636606 0.0442664 0.04654
0.0996872 0.0480659 0.0503395
0.137148 0.052018 0.0543069
0.175784 0.0561685 0.0584421
0.215396 0.0604868 0.0627756
0.255863 0.0650034 0.0672923
0.297093 0.0697185 0.0719921
0.00790417 0.0810101 0.0463874
0.0390936 0.0868696 0.0522469
0.0745403 0.0920424 0.0574197
0.111879 0.0971542 0.0625315
0.150546 0.102312 0.067689
0.19028 0.107561 0.0729381
0.230915 0.112917 0.078294
0.272358 0.11841 0.0837873
0.314504 0.124025 0.0894026
0.0186923 0.131243 0.0571756
0.0510414 0.138262 0.0641947
0.0875868 0.144518 0.0704509
0.125917 0.150637 0.0765698
0.16553 0.156741 0.0826734
0.206165 0.16289 0.0888228
0.247654 0.1691 0.0950332
0.289906 0.175387 0.101335
0.33283 0.181781 0.107713
0.0317845 0.18555 0.0702831
0.0650797 0.1935 0.078233
0.102495 0.200641 0.085359
0.141665 0.207599 0.0923171
0.182071 0.214496 0.0992142
0.223468 0.221393 0.106126
0.26569 0.228336 0.113069
0.308629 0.23534 0.120058
0.352239 0.242405 0.127123
0.0468299 0.243183 0.0853132
0.0809033 0.251911 0.0940414
0.119066 0.2598 0.10193
0.158953 0.267475 0.109606
0.200046 0.275059 0.117205
0.242115 0.282643 0.124773
0.284977 0.290227 0.132357
0.328542 0.297841 0.139971
0.372747 0.305501 0.147631
0.0635386 0.303624 0.102037
0.0982986 0.313039 0.111452
0.137118 0.321584 0.119982
0.177646 0.329885 0.128298
0.219348 0.338094 0.136507
0.262013 0.346258 0.144671
0.305455 0.354421 0.152834
0.349584 0.3626 0.161013
0.394324 0.370809 0.169223
0.0817578 0.366537 0.120241
0.117113 0.376562 0.130266
0.156527 0.385687 0.139391
0.19762 0.394568 0.148272
0.239887 0.403326 0.157031
0.28307 0.412039 0.165728
0.327047 0.420722 0.174426
0.371679 0.429404 0.183108
0.416922 0.438117 0.191821
0.10132 0.431647 0.139803
0.137224 0.442222 0.150378
0.177157 0.451881 0.160037
0.218784 0.46128 0.169436
0.261555 0.470542 0.178698
0.305241 0.479744 0.1879
0.349691 0.488914 0.19707
0.394812 0.498085 0.206241
0.440513 0.507256 0.215412
0 0.00102235 0.0725414
0.0234073 0.00260929 0.0741131
0.0553597 0.00427253 0.0757916
0.089662 0.00636301 0.0778821
0.125643 0.00883497 0.0803388
0.162936 0.0116426 0.0831617
0.201358 0.014786 0.0862898
0.240726 0.018204 0.0897231
0.280964 0.0218967 0.0934157
0.00109865 0.0373083 0.0771496
0.030869 0.0417487 0.0815747
0.0650492 0.045655 0.085481
0.101228 0.0496071 0.0894331
0.138827 0.0536965 0.0935378
0.177584 0.057969 0.0977951
0.217304 0.0624094 0.102251
0.257877 0.0670329 0.106874
0.299214 0.0718395 0.111666
0.00949111 0.0825971 0.0855421
0.0408179 0.0885786 0.0915236
0.0763867 0.0938888 0.0968185
0.113832 0.0991073 0.102052
0.152605 0.104372 0.107301
0.192432 0.109712 0.112657
0.233173 0.115175 0.118105
0.274693 0.120745 0.12369
0.31693 0.126452 0.129381
0.020676 0.133227 0.0967269
0.0531319 0.140352 0.103853
0.0897688 0.1467 0.110201
0.128206 0.152911 0.116411
0.167895 0.159106 0.122606
0.208621 0.165331 0.128832
0.250187 0.171618 0.135119
0.292515 0.177996 0.141497
0.3355 0.184451 0.147951
0.0341039 0.187869 0.110155
0.0674754 0.195895 0.118181
0.104967 0.203113 0.125399
0.144228 0.210147 0.132433
0.18471 0.217121 0.139406
0.226169 0.224094 0.14638
0.268452 0.231113 0.153399
0.311467 0.238178 0.160464
0.355138 0.245304 0.16759
0.0494087 0.245777 0.12546
0.0835584 0.254582 0.134264
0.121782 0.262531 0.142214
0.161746 0.270268 0.149966
0.202914 0.277928 0.15761
0.245029 0.285557 0.165255
0.287953 0.293202 0.1729
0.331594 0.300877 0.180575
0.375845 0.308598 0.188296
0.0663615 0.306447 0.142412
0.101183 0.315923 0.151888
0.140063 0.324529 0.160494
0.180652 0.332891 0.168856
0.222416 0.341161 0.177127
0.265126 0.349386 0.185351
0.308629 0.357595 0.193561
0.352804 0.365835 0.201801
0.397604 0.37409 0.210056
0.0847791 0.369574 0.16083
0.120195 0.379644 0.170901
0.159655 0.38883 0.180087
0.200809 0.397757 0.189029
0.243137 0.406577 0.197833
0.286381 0.415335 0.206592
0.330388 0.424063 0.215335
0.375082 0.432807 0.224079
0.420371 0.441566 0.232837
0.104524 0.434867 0.180575
0.14049 0.445487 0.191196
0.180484 0.455207 0.200916
0.222156 0.464652 0.210361
0.264973 0.47396 0.219684
0.308705 0.483207 0.228931
0.353201 0.492424 0.238148
0.398367 0.50164 0.247349
0.444114 0.510857 0.256565
0 0.000839246 0.113283
0.0236667 0.0028687 0.115312
0.0559243 0.00485237 0.117281
0.0904707 0.00717174 0.1196
0.12665 0.00984207 0.122271
0.164126 0.0128328 0.125261
0.202701 0.0161135 0.128557
0.242206 0.0196841 0.132113
0.282551 0.0234989 0.135927
0.00198367 0.0381933 0.118959
0.0319371 0.0428168 0.123583
0.0662852 0.046891 0.127642
0.102617 0.0509957 0.131746
0.140352 0.0552224 0.135973
0.179217 0.0596017 0.140368
0.219059 0.0641642 0.144915
0.259739 0.0688945 0.149645
0.301183 0.0737926 0.154543
0.0109255 0.0840314 0.127886
0.0423743 0.0901503 0.134005
0.0780804 0.0955673 0.139422
0.115633 0.100893 0.144762
0.154498 0.106264 0.150118
0.19443 0.111711 0.155566
0.235248 0.11725 0.16112
0.27686 0.122911 0.166781
0.319188 0.128695 0.172564
0.0225071 0.135058 0.139483
0.0550698 0.14229 0.1467
0.0917983 0.14873 0.153155
0.130312 0.155032 0.159457
0.170108 0.161303 0.165728
0.210895 0.16762 0.17203
0.252537 0.173983 0.178408
0.294942 0.180423 0.184848
0.338003 0.186969 0.191379
0.0362554 0.190021 0.153216
0.0697032 0.198138 0.161334
0.107286 0.205432 0.168643
0.146609 0.212543 0.175738
0.187167 0.219577 0.182788
0.228702 0.226627 0.189837
0.271061 0.233707 0.196918
0.314137 0.240833 0.204044
0.357855 0.24802 0.211231
0.0518196 0.248188 0.168795
0.0860456 0.257053 0.177676
0.124346 0.26508 0.185702
0.16437 0.272892 0.1935
0.2056 0.280613 0.201221
0.247776 0.288304 0.208927
0.290761 0.29601 0.216632
0.334447 0.303746 0.224369
0.378759 0.311528 0.232136
0.0690013 0.309087 0.185977
0.103883 0.318639 0.195514
0.142824 0.327306 0.204181
0.183474 0.335729 0.212604
0.225299 0.344045 0.220935
0.26807 0.352331 0.229206
0.31162 0.360601 0.237476
0.355856 0.368887 0.245762
0.400702 0.377203 0.254078
0.0876326 0.372412 0.204608
0.12311 0.382559 0.21474
0.162631 0.391791 0.223972
0.20383 0.400778 0.232959
0.246204 0.409644 0.241825
0.289494 0.418448 0.250645
0.333562 0.427237 0.259419
0.378302 0.436027 0.268208
0.423651 0.444831 0.277028
0.107561 0.437903 0.224537
0.143572 0.448569 0.235218
0.183627 0.458335 0.244984
0.225345 0.467842 0.254475
0.268208 0.477211 0.263844
0.312001 0.486503 0.273136
0.356542 0.495766 0.282399
0.40174 0.505013 0.291646
0.447532 0.514275 0.300908
0 0.000701915 0.156481
0.0239109 0.00311284 0.158892
0.0564431 0.00537118 0.161151
0.0912184 0.00791943 0.163699
0.127581 0.0107729 0.166552
0.165225 0.0139315 0.169711
0.203937 0.0173648 0.173144
0.24358 0.0210574 0.176837
0.284062 0.0249943 0.180789
0.0027924 0.0390173 0.163119
0.032929 0.0438087 0.167926
0.0674449 0.0480354 0.172152
0.103899 0.0522774 0.176394
0.141772 0.0566415 0.180743
0.180758 0.0611429 0.18526
0.220706 0.0658122 0.189914
0.261494 0.0706493 0.194751
0.303029 0.075639 0.199756
0.0122683 0.0853742 0.17258
0.0438392 0.0916152 0.178836
0.0796521 0.0971542 0.18436
0.117311 0.102586 0.189792
0.156283 0.108049 0.19527
0.196307 0.113588 0.200809
0.237232 0.119219 0.206439
0.27892 0.124971 0.212177
0.321324 0.130831 0.218051
0.0242313 0.136782 0.184558
0.0568856 0.144106 0.191882
0.0937057 0.150652 0.198413
0.132326 0.157031 0.204807
0.172183 0.163394 0.21117
0.213062 0.169787 0.217548
0.25478 0.176226 0.224002
0.297261 0.182742 0.230518
0.340398 0.189349 0.237125
0.0382849 0.19205 0.198611
0.0718242 0.200244 0.206806
0.109468 0.20763 0.214176
0.148882 0.214801 0.221363
0.189502 0.221927 0.228489
0.231113 0.229038 0.235599
0.273533 0.236179 0.242741
0.31667 0.243381 0.249943
0.360464 0.250629 0.257191
0.0541238 0.250477 0.21445
0.0884108 0.259419 0.223392
0.126772 0.267521 0.231479
0.166873 0.275395 0.239353
0.208164 0.283177 0.247135
0.250401 0.290929 0.254902
0.293446 0.298695 0.262669
0.337194 0.306493 0.270451
0.381567 0.314321 0.278294
0.0715343 0.31162 0.231861
0.106477 0.321218 0.241459
0.14548 0.329946 0.250187
0.186175 0.33843 0.258671
0.228077 0.346807 0.267048
0.270893 0.355138 0.27538
0.314504 0.36347 0.283711
0.358785 0.371817 0.292042
0.403677 0.380179 0.300404
0.0903639 0.375143 0.250675
0.125887 0.385336 0.260868
0.165469 0.394629 0.270176
0.206729 0.403677 0.27921
0.249149 0.412589 0.288121
0.2925 0.421454 0.296986
0.336614 0.430289 0.305821
0.381399 0.439124 0.314656
0.42678 0.447974 0.323507
0.110475 0.440818 0.270802
0.146548 0.451545 0.281529
0.186633 0.461357 0.291341
0.228397 0.470909 0.300893
0.271321 0.480308 0.310307
0.31516 0.489662 0.319646
0.359747 0.49897 0.328954
0.40499 0.508263 0.338247
0.450828 0.517571 0.347555
0 0.000595102 0.201663
0.0241398 0.00334173 0.20441
0.0569314 0.00585946 0.206928
0.0919051 0.00860609 0.209674
0.12845 0.0116426 0.212726
0.166247 0.0149538 0.216037
0.205112 0.0185397 0.219608
0.244892 0.0223545 0.223438
0.285481 0.0264134 0.227497
0.00355535 0.0397803 0.209171
0.033875 0.0447395 0.214145
0.0685283 0.0491188 0.218524
0.105119 0.0534981 0.222904
0.143114 0.0579843 0.227375
0.182223 0.0626078 0.231998
0.222278 0.0673838 0.236774
0.263157 0.0723125 0.241703
0.304784 0.077409 0.246799
0.0135348 0.0866407 0.219135
0.0452277 0.0930037 0.225498
0.0811627 0.0986496 0.231144
0.118914 0.104189 0.236698
0.157992 0.109758 0.242252
0.198108 0.115389 0.247883
0.239109 0.121111 0.253605
0.280888 0.12694 0.259434
0.323369 0.132891 0.265385
0.0258793 0.13843 0.231495
0.0586404 0.145846 0.238911
0.0955367 0.152483 0.245533
0.134234 0.158953 0.252003
0.174182 0.165393 0.258457
0.215137 0.171862 0.264912
0.256931 0.178378 0.271443
0.299474 0.18497 0.278019
0.342687 0.191638 0.284703
0.040238 0.194003 0.245838
0.0738537 0.202274 0.254124
0.111574 0.209735 0.26157
0.151049 0.216983 0.268833
0.19176 0.22417 0.27602
0.233433 0.231357 0.283207
0.275914 0.238575 0.29041
0.319127 0.245823 0.297673
0.362966 0.253147 0.304982
0.0563211 0.252689 0.261936
0.0906844 0.261707 0.270954
0.129122 0.269856 0.279118
0.169268 0.27779 0.287053
0.210636 0.285649 0.294896
0.252934 0.293462 0.302708
0.29604 0.301289 0.310536
0.339849 0.309133 0.318395
0.384268 0.317037 0.326284
0.0739605 0.314046 0.279576
0.108965 0.32372 0.289235
0.148028 0.332494 0.298024
0.1888 0.341039 0.306569
0.230732 0.349477 0.315007
0.27361 0.35787 0.3234
0.317281 0.366247 0.331777
0.361608 0.37464 0.340169
0.406561 0.383062 0.348577
0.0929885 0.377783 0.298604
0.128573 0.388022 0.308843
0.1682 0.397375 0.318196
0.209522 0.40647 0.327291
0.252003 0.415442 0.336263
0.295399 0.424353 0.345174
0.339559 0.433234 0.354055
0.38439 0.442115 0.362936
0.429831 0.451026 0.371847
0.113298 0.443626 0.318898
0.149401 0.454414 0.329686
0.189548 0.464271 0.339544
0.231373 0.473869 0.349142
0.274342 0.48333 0.358602
0.318212 0.492714 0.367987
0.362844 0.502068 0.37734
0.408148 0.511421 0.386694
0.454032 0.52076 0.396033
0 0.000503548 0.248493
0.0243687 0.00357061 0.251545
0.0573892 0.00631724 0.254292
0.0925765 0.00927749 0.257252
0.12929 0.0124819 0.260456
0.167239 0.0159457 0.26392
0.206241 0.0196536 0.267643
0.246128 0.0236057 0.27158
0.286839 0.0277867 0.275761
0.00428778 0.0404974 0.256794
0.0347601 0.0456397 0.261936
0.0695659 0.0501717 0.266468
0.106294 0.0546731 0.27097
0.144411 0.0592813 0.275578
0.183627 0.0640116 0.280308
0.223789 0.0688945 0.285191
0.264775 0.07393 0.290227
0.306493 0.0791028 0.295415
0.0147555 0.0878614 0.267262
0.0465705 0.0943465 0.273747
0.0825971 0.100099 0.2795
0.12047 0.105745 0.285145
0.15964 0.111406 0.290806
0.199847 0.117128 0.296529
0.24094 0.122927 0.302342
0.282795 0.128847 0.308248
0.325353 0.134859 0.314275
0.0274662 0.140017 0.279973
0.0603037 0.147524 0.28748
0.0973068 0.154238 0.294209
0.13608 0.1608 0.300771
0.17612 0.16733 0.307286
0.217151 0.173861 0.313832
0.259022 0.180468 0.320424
0.30164 0.187121 0.327092
0.344915 0.193866 0.333822
0.0421149 0.19588 0.294621
0.0758068 0.204242 0.302983
0.113619 0.211765 0.310506
0.15317 0.219089 0.317845
0.193927 0.226352 0.325109
0.235676 0.2336 0.332357
0.278233 0.240879 0.339635
0.321492 0.248203 0.346944
0.365408 0.255573 0.35433
0.0584573 0.25481 0.310979
0.0928817 0.263905 0.320058
0.131395 0.272129 0.328283
0.171603 0.280125 0.336294
0.213031 0.288045 0.344198
0.25539 0.295918 0.352071
0.298558 0.303807 0.35996
0.342412 0.311711 0.367864
0.386892 0.319661 0.375814
0.0763256 0.316411 0.328832
0.111391 0.326131 0.338567
0.150515 0.334981 0.347402
0.191333 0.343587 0.356008
0.233326 0.352071 0.364492
0.276265 0.360525 0.372946
0.319982 0.368948 0.381384
0.36437 0.377386 0.389822
0.409369 0.385855 0.398291
0.095552 0.380331 0.348058
0.131182 0.390631 0.358358
0.170871 0.400046 0.367773
0.212238 0.409186 0.376913
0.254765 0.418204 0.385931
0.298207 0.427176 0.394903
0.342428 0.436103 0.40383
0.38732 0.445045 0.412772
0.432792 0.453986 0.421714
0.11603 0.446372 0.368551
0.152193 0.457191 0.37937
0.192386 0.467109 0.389288
0.234257 0.476753 0.398932
0.277272 0.486259 0.408438
0.321202 0.495705 0.417884
0.365881 0.505104 0.427283
0.411215 0.514488 0.436667
0.457145 0.523888 0.446052
0 0.000457771 0.296742
0.0245975 0.0037995 0.300069
0.057847 0.00677501 0.303044
0.0932174 0.00991836 0.306188
0.130098 0.0132906 0.309575
0.1682 0.016907 0.313176
0.207324 0.0207523 0.317021
0.247349 0.0248112 0.321096
0.288167 0.029099 0.325383
0.0049897 0.0411994 0.305806
0.0356298 0.0464942 0.311101
0.070573 0.0511635 0.31577
0.107424 0.0558022 0.320409
0.145663 0.0605325 0.325139
0.184985 0.0653697 0.329976
0.225254 0.0703593 0.334951
0.266331 0.0754864 0.340093
0.308141 0.080766 0.345357
0.0159304 0.0890364 0.316747
0.0478523 0.0956283 0.323339
0.0840009 0.101488 0.329198
0.121965 0.10724 0.334951
0.161227 0.112993 0.340703
0.201526 0.118807 0.346517
0.242695 0.124697 0.352407
0.284642 0.130694 0.358404
0.327276 0.136797 0.364492
0.0289921 0.141543 0.329809
0.0619364 0.149157 0.337423
0.0990311 0.155962 0.344228
0.137881 0.1626 0.350866
0.177996 0.169207 0.357473
0.219104 0.175814 0.36408
0.261051 0.182483 0.370748
0.303731 0.189212 0.377478
0.347066 0.196033 0.384298
0.043946 0.197711 0.344762
0.0777142 0.206149 0.353201
0.115602 0.213748 0.3608
0.155215 0.221149 0.3682
0.196048 0.228473 0.375525
0.237858 0.235798 0.382849
0.280476 0.243137 0.390188
0.323812 0.250507 0.397559
0.367773 0.257954 0.405005
0.0605325 0.256901 0.361349
0.0950332 0.266056 0.370504
0.133593 0.274342 0.378805
0.173892 0.282399 0.386862
0.215366 0.290379 0.394842
0.257786 0.298314 0.402777
0.301015 0.306264 0.410712
0.34493 0.314214 0.418677
0.389456 0.322225 0.426688
0.0786145 0.3187 0.379431
0.113741 0.328496 0.389227
0.152926 0.337392 0.398123
0.193805 0.346059 0.40679
0.235859 0.354604 0.415335
0.278843 0.363104 0.423835
0.322606 0.371588 0.432319
0.367056 0.380072 0.440803
0.4121 0.388602 0.449332
0.0980392 0.382834 0.398856
0.133745 0.393194 0.409216
0.17348 0.40264 0.418677
0.214893 0.411841 0.427878
0.257481 0.42092 0.436942
0.300969 0.429923 0.44596
0.345235 0.438911 0.454932
0.390173 0.447883 0.46392
0.435691 0.456886 0.472908
0.1187 0.449042 0.419516
0.154925 0.459922 0.430396
0.195163 0.469886 0.44036
0.237079 0.479576 0.450065
0.28014 0.489128 0.459617
0.324117 0.498619 0.469093
0.368841 0.508064 0.478538
0.414221 0.517494 0.487968
0.460182 0.526925 0.497414
0 0.000442512 0.346273
0.0248264 0.00402838 0.349859
0.0583047 0.00721752 0.353033
0.093843 0.010544 0.356359
0.130877 0.0140688 0.359899
0.169116 0.0178225 0.363653
0.208377 0.0218051 0.36762
0.248524 0.0259861 0.371817
0.289448 0.030396 0.376211
0.00567636 0.0419013 0.356039
0.0364691 0.0473335 0.361486
0.0715496 0.0521401 0.366278
0.108537 0.0569162 0.371054
0.146883 0.0617533 0.375891
0.186313 0.0666972 0.380835
0.226673 0.0717784 0.385916
0.267857 0.076997 0.39115
0.309743 0.0823682 0.396506
0.0170748 0.0901808 0.367422
0.0491188 0.0968948 0.374136
0.085359 0.102861 0.380102
0.12343 0.108705 0.385946
0.162783 0.114549 0.391791
0.203159 0.120439 0.397696
0.244419 0.126421 0.403662
0.286442 0.132494 0.409735
0.329152 0.138674 0.415915
0.0304875 0.143038 0.38085
0.0635233 0.150729 0.38854
0.100694 0.157626 0.395438
0.139635 0.164355 0.402152
0.179828 0.171038 0.408835
0.221012 0.177722 0.415534
0.26302 0.184466 0.422263
0.305776 0.191272 0.429068
0.349187 0.198138 0.43595
0.045716 0.199481 0.396078
0.0795758 0.207996 0.404593
0.117525 0.215671 0.412268
0.157214 0.223148 0.41973
0.198123 0.230549 0.427131
0.239994 0.237934 0.434516
0.282673 0.245335 0.441917
0.32607 0.252781 0.449363
0.370108 0.260273 0.456855
0.062562 0.258915 0.412924
0.0971237 0.268147 0.422141
0.13576 0.276509 0.430503
0.176104 0.284627 0.438621
0.217655 0.292668 0.446662
0.260136 0.300664 0.454658
0.30341 0.308659 0.462654
0.347387 0.31667 0.47068
0.391974 0.324727 0.478737
0.0808576 0.320943 0.43122
0.116045 0.3308 0.441062
0.155291 0.339757 0.450034
0.196231 0.34847 0.458747
0.238331 0.357076 0.467353
0.281376 0.365637 0.475898
0.325185 0.374166 0.484443
0.36968 0.382712 0.492988
0.414786 0.391272 0.501549
0.100481 0.385275 0.450843
0.136233 0.395682 0.46125
0.176028 0.405188 0.470756
0.217487 0.41445 0.480018
0.260121 0.42356 0.489128
0.30367 0.432624 0.498192
0.347982 0.441657 0.507225
0.392966 0.45069 0.516258
0.438529 0.459724 0.525292
0.121324 0.451667 0.471687
0.157595 0.462593 0.482612
0.197879 0.472602 0.492622
0.239841 0.482338 0.502358
0.282948 0.491951 0.511971
0.32697 0.501472 0.521492
0.37174 0.510964 0.530983
0.417166 0.520439 0.540459
0.463172 0.529915 0.549935
