luts/DARK.BLUE.cube
TITLE "Generated by Resolve"
LUT_3D_SIZE 9
0 0.01561 0.0695201
0.00560006 0.0289006 0.108629
0.197589 0.0174105 0.142138
0.472343 0 0.127321
0.664912 0 0.10428
0.856703 0 0.0779736
0.934096 0 0.0508583
0.934096 0 0.02121
0.934096 0 0.00714122
0 0.10898 0.103975
0 0.129366 0.131868
0.143816 0.127108 0.136172
0.421149 0.0919356 0.101472
0.632013 0.0616617 0.0732891
0.830335 0.03093 0.0459297
0.934096 0.00877394 0.0226139
0.934096 0 0.00920119
0.934096 0 0.00521859
0 0.25568 0.103624
0 0.262654 0.153048
0.10988 0.268681 0.142229
0.345357 0.251148 0.0714885
0.570901 0.221942 0.025864
0.773404 0.190478 0.00529488
0.934096 0.154711 0
0.934096 0.120699 0
0.934096 0.109483 0
0 0.414145 0.0310979
0 0.411185 0.0852369
0.0896315 0.40589 0.0973526
0.30605 0.394781 0.0361334
0.518074 0.371984 0.000549325
0.720989 0.342077 0
0.926436 0.306127 0
0.934096 0.268589 0
0.934096 0.256733 0
0 0.568154 0
0 0.57203 0.000885023
0.0340734 0.561746 0.00866712
0.26659 0.541985 0
0.471733 0.519036 0
0.673106 0.489738 0
0.895613 0.453483 0
0.934096 0.414847 0
0.934096 0.401282 0
0 0.731121 0
0 0.737575 0
0.00285344 0.732631 0
0.216541 0.708598 0
0.424475 0.682338 0
0.628183 0.651316 0
0.849638 0.611399 0
0.934096 0.56907 0
0.934096 0.552728 0
0 0.881621 0
0 0.891096 0
0 0.890257 0
0.172503 0.867292 0
0.383825 0.840574 0
0.589441 0.810117 0
0.809628 0.770153 0
0.934096 0.725933 0
0.934096 0.706279 0
0 1 0
0 1 0
0 1 0
0.13872 1 0
0.351614 0.992905 0
0.5552 0.963348 0
0.776471 0.923583 0
0.934096 0.879469 0
0.934096 0.857404 0
0 1 0
0 1 0
0 1 0
0.120134 1 0
0.333333 1 0
0.532448 1 0
0.753262 1 0
0.934096 1 0
0.934096 1 0
0 0.00834669 0.240269
0.00779736 0.0223697 0.254948
0.191516 0.0108644 0.301442
0.462455 0 0.305791
0.658869 0 0.283696
0.853895 0 0.254932
0.934096 0 0.222934
0.934096 0 0.18732
0.934096 0 0.172198
0 0.108949 0.239963
0 0.129152 0.239658
0.129061 0.127993 0.272343
0.396384 0.0916609 0.274861
0.62211 0.0569162 0.252857
0.825422 0.0251926 0.223743
0.934096 0.00444038 0.190723
0.934096 0 0.159304
0.934096 0 0.149126
0 0.254261 0.244938
0 0.260609 0.270054
0.0958877 0.268833 0.283604
0.307698 0.253697 0.253605
0.547768 0.220233 0.20734
0.7664 0.184558 0.169146
0.934096 0.147448 0.134539
0.934096 0.11107 0.103136
0.934096 0.100313 0.0941787
0 0.407385 0.206409
0 0.401312 0.25417
0.0954452 0.395071 0.283024
0.281224 0.389822 0.246509
0.490517 0.368994 0.180346
0.711345 0.336294 0.124193
0.923949 0.298787 0.0861524
0.934096 0.259693 0.0525826
0.934096 0.247669 0.0431678
0 0.560494 0.151049
0 0.561456 0.171298
0.04654 0.544579 0.206516
0.262928 0.52845 0.189059
0.457511 0.510704 0.134218
0.66479 0.48278 0.0821851
0.891524 0.446601 0.0431067
0.934096 0.4065 0.0155032
0.934096 0.393011 0.00846876
0 0.723339 0.109255
0 0.729656 0.110307
0.00195315 0.723033 0.111162
0.212482 0.697948 0.097261
0.417426 0.673121 0.0697795
0.622049 0.643244 0.0376287
0.845396 0.60354 0.0138247
0.934096 0.561013 0
0.934096 0.545022 0
0 0.875608 0.0843214
0 0.884184 0.076112
0 0.882597 0.0700389
0.164645 0.859632 0.0496681
0.375738 0.832822 0.026688
0.583139 0.802472 0.0131075
0.805447 0.763149 0.000335698
0.934096 0.718944 0
0.934096 0.699779 0
0 1 0.078584
0 1 0.0666056
0 1 0.049546
0.127764 1 0.0242924
0.341375 0.988296 0.00802625
0.547646 0.958404 0.00230411
0.771588 0.919127 0
0.934096 0.874815 0
0.934096 0.853223 0
0 1 0.0779889
0 1 0.071397
0 1 0.052491
0.107057 1 0.0217594
0.320699 1 0
0.522805 1 0
0.747219 1 0
0.934096 1 0
0.934096 1 0
0 0 0.4271
0.0163729 0.0132601 0.418357
0.202258 0.00270085 0.449332
0.460121 0 0.456245
0.655756 0 0.435187
0.852399 0 0.405539
0.934096 0 0.370687
0.934096 0 0.330739
0.934096 0 0.314794
0 0.107805 0.395605
0 0.126192 0.369284
0.132982 0.125322 0.391409
0.385962 0.0911269 0.414298
0.615015 0.0543984 0.40267
0.821958 0.0229496 0.374075
0.934096 0.000976577 0.338598
0.934096 0 0.302403
0.934096 0 0.291798
0 0.256397 0.379736
0 0.263493 0.366995
0.0925002 0.271794 0.372335
0.28574 0.258183 0.378912
0.521584 0.223514 0.357107
0.759426 0.181811 0.321263
0.934096 0.142962 0.284703
0.934096 0.104936 0.248081
0.934096 0.094316 0.238193
0 0.405844 0.352468
0 0.399649 0.374823
0.104402 0.39115 0.399512
0.265232 0.390173 0.389227
0.456245 0.372366 0.345647
0.695506 0.335668 0.284306
0.922332 0.294621 0.238041
0.934096 0.254353 0.199435
0.934096 0.242451 0.188632
0 0.556344 0.306615
0 0.555917 0.325277
0.0648661 0.532815 0.365011
0.268376 0.518181 0.369528
0.440208 0.506142 0.324681
0.649805 0.480644 0.254337
0.887068 0.44271 0.19707
0.934096 0.401648 0.156756
0.934096 0.388571 0.144488
0 0.718837 0.265217
0 0.72488 0.26743
0.00317388 0.714534 0.275151
0.222324 0.68542 0.279255
0.416983 0.663493 0.253178
0.617014 0.637537 0.205203
0.842115 0.598703 0.157366
0.934096 0.555962 0.117617
0.934096 0.540612 0.103914
0 0.87187 0.236622
0 0.88014 0.231144
0 0.877913 0.226368
0.162402 0.853544 0.208057
0.372335 0.827176 0.186069
0.579995 0.797406 0.157885
0.80296 0.758312 0.122133
0.934096 0.713878 0.0845808
0.934096 0.695506 0.0699474
0 1 0.225223
0 1 0.213794
0 1 0.199756
0.122347 1 0.176349
0.335851 0.983886 0.15227
0.543786 0.954314 0.126452
0.768765 0.915282 0.0935683
0.934096 0.870924 0.0587015
0.934096 0.850019 0.0433509
0 1 0.220813
0 1 0.213672
0 1 0.193606
0.0969711 1 0.162112
0.310979 1 0.134478
0.515572 1 0.108263
0.742092 1 0.0770733
0.934096 1 0.0455482
0.934096 0.998962 0.0301671
0 0 0.611582
0.0248569 0.00361639 0.597192
0.218006 0 0.60235
0.46157 0 0.597436
0.65362 0 0.576288
0.851301 0 0.547463
0.934096 0 0.51136
0.934096 0 0.468605
0.934096 0 0.452522
0 0.105577 0.567407
0 0.120439 0.527596
0.147601 0.118486 0.526497
0.389746 0.0868849 0.548394
0.611017 0.0519722 0.542168
0.819348 0.0213016 0.51519
0.934096 0 0.479545
0.934096 0 0.439734
0.934096 0 0.428809
0 0.258366 0.526619
0 0.265995 0.487572
0.0997635 0.271412 0.467079
0.281407 0.259602 0.484916
0.504295 0.22649 0.486336
0.751644 0.180896 0.462684
0.934096 0.139925 0.426505
0.934096 0.10074 0.387213
0.934096 0.0902571 0.377111
0 0.405219 0.49398
0 0.402197 0.489342
0.109285 0.392218 0.483574
0.256107 0.393515 0.489784
0.428656 0.378149 0.473487
0.670695 0.33994 0.431235
0.920913 0.292317 0.381567
0.934096 0.250355 0.340703
0.934096 0.239109 0.329747
0 0.553491 0.451865
0 0.553628 0.46244
0.0778058 0.527306 0.486015
0.277821 0.51252 0.500542
0.425635 0.505272 0.478447
0.623865 0.483299 0.420401
0.87657 0.441764 0.346868
0.934096 0.398428 0.299275
0.934096 0.385718 0.287053
0 0.715297 0.410834
0 0.721508 0.413504
0.0071107 0.706432 0.425284
0.244465 0.670512 0.445838
0.425315 0.651453 0.434073
0.60911 0.6318 0.385077
0.834501 0.595804 0.312215
0.934096 0.55227 0.261204
0.934096 0.537743 0.246906
0 0.868635 0.380728
0 0.877302 0.377218
0 0.873701 0.373251
0.166674 0.846418 0.361334
0.377661 0.818448 0.347173
0.580743 0.790585 0.317998
0.80061 0.753964 0.271504
0.934096 0.709789 0.227619
0.934096 0.692378 0.212024
0 1 0.365209
0 1 0.355398
0 1 0.344076
0.119463 1 0.321813
0.332845 0.979644 0.298283
0.542 0.950088 0.272389
0.767178 0.911177 0.237339
0.934096 0.86714 0.198718
0.934096 0.847227 0.181613
0 1 0.357733
0 1 0.350408
0 1 0.330938
0.0906996 1 0.30161
0.305119 1 0.274968
0.511711 1 0.248631
0.739635 1 0.214771
0.933654 1 0.17821
0.934096 0.995712 0.159808
0 0 0.769726
0.0281224 0 0.767391
0.227939 0 0.755825
0.463294 0 0.738354
0.652033 0 0.715541
0.850065 0 0.686061
0.934096 0 0.649653
0.934096 0 0.606485
0.934096 0 0.590723
0 0.102586 0.732952
0 0.112337 0.712367
0.167727 0.106264 0.691081
0.403616 0.0788586 0.693568
0.610513 0.0487984 0.682597
0.817136 0.018616 0.656275
0.934096 0 0.621302
0.934096 0 0.581048
0.934096 0 0.570245
0 0.257725 0.682261
0 0.265629 0.646174
0.107927 0.266819 0.600656
0.294438 0.255009 0.604379
0.503456 0.22504 0.614496
0.746487 0.179568 0.604623
0.934096 0.137392 0.572
0.934096 0.0972915 0.53257
0.934096 0.0872511 0.522591
0 0.403922 0.640436
0 0.405554 0.624018
0.101396 0.396201 0.583291
0.259663 0.395712 0.57319
0.416953 0.38201 0.579416
0.648844 0.345098 0.565972
0.920012 0.291676 0.528756
0.934096 0.247227 0.486915
0.934096 0.236606 0.476341
0 0.550759 0.599664
0 0.553735 0.601617
0.0763409 0.528496 0.594476
0.29041 0.510414 0.597971
0.416312 0.507347 0.593851
0.597284 0.489326 0.563241
0.852338 0.445441 0.502495
0.934096 0.396002 0.445945
0.934096 0.383841 0.433463
0 0.711879 0.559655
0 0.718456 0.561257
0.00985733 0.701503 0.566247
0.268238 0.659373 0.583658
0.439918 0.64123 0.586053
0.600656 0.627344 0.557031
0.813336 0.596902 0.48484
0.934096 0.550393 0.411063
0.934096 0.536126 0.3944
0 0.865354 0.527932
0 0.874678 0.525277
0 0.869795 0.520775
0.180102 0.836744 0.517205
0.398169 0.804196 0.518563
0.589929 0.778714 0.499229
0.795895 0.748547 0.441413
0.934096 0.706737 0.377203
0.934096 0.69015 0.358648
0 1 0.50811
0 1 0.499794
0 1 0.489906
0.118456 1 0.468193
0.334035 0.97467 0.447837
0.54461 0.944076 0.424994
0.767315 0.906386 0.3879
0.934096 0.863432 0.343206
0.934096 0.8448 0.324834
0 1 0.496513
0 1 0.489204
0 1 0.471351
0.0871748 1 0.443885
0.302022 1 0.418097
0.510414 1 0.39144
0.738643 1 0.356619
0.933257 1 0.31751
0.934096 0.990463 0.297642
0 0 0.912886
0.0268711 0 0.916686
0.230365 0 0.903151
0.463096 0 0.880583
0.650156 0 0.856794
0.847974 0 0.825986
0.934096 0 0.787717
0.934096 0 0.742184
0.934096 0 0.72723
0 0.100435 0.879408
0 0.10721 0.879606
0.180591 0.0961318 0.860334
0.413611 0.071809 0.843198
0.610895 0.0451209 0.824735
0.815213 0.0149691 0.796292
0.934096 0 0.760159
0.934096 0 0.718532
0.934096 0 0.708385
0 0.256092 0.828794
0 0.263035 0.819181
0.114427 0.258625 0.769955
0.319234 0.244205 0.749844
0.519783 0.216754 0.752529
0.747662 0.176211 0.743343
0.934096 0.13492 0.712764
0.934096 0.0943923 0.674144
0.934096 0.0851453 0.665003
0 0.401831 0.783764
0 0.407355 0.776638
0.0868544 0.398184 0.718074
0.272663 0.392615 0.68191
0.426123 0.380179 0.684031
0.642969 0.346334 0.687846
0.914763 0.291402 0.668803
0.934096 0.244556 0.631632
0.934096 0.234638 0.622232
0 0.548287 0.741543
0 0.553658 0.743008
0.0574502 0.533974 0.712337
0.289921 0.514199 0.680034
0.415351 0.511391 0.674922
0.58117 0.495354 0.671778
0.823423 0.452674 0.642832
0.934096 0.395544 0.594858
0.934096 0.383383 0.583261
0 0.708736 0.702388
0 0.715984 0.704677
0.0055848 0.70071 0.698955
0.279561 0.65597 0.692927
0.456733 0.63563 0.696513
0.596292 0.626764 0.687572
0.783352 0.602808 0.643748
0.934096 0.553262 0.571801
0.934096 0.538079 0.552758
0 0.86186 0.670787
0 0.871824 0.670359
0 0.866667 0.665171
0.196185 0.827726 0.661158
0.427573 0.789715 0.668757
0.608286 0.764828 0.6654
0.788663 0.74287 0.625925
0.934096 0.705837 0.550271
0.934096 0.69041 0.525322
0 1 0.649012
0 1 0.644221
0 1 0.635889
0.119463 0.998535 0.61677
0.344274 0.966171 0.60441
0.561685 0.931487 0.594659
0.774319 0.895979 0.56553
0.934096 0.858488 0.509117
0.934096 0.842084 0.486152
0 1 0.634684
0 1 0.63006
0 1 0.616114
0.0851453 1 0.591974
0.300587 1 0.568246
0.512123 1 0.544182
0.740749 1 0.512398
0.934005 1 0.471
0.934096 0.98471 0.450309
0 0 0.970108
0.0250858 0 0.970108
0.229801 0 0.970108
0.461692 0 0.970108
0.647608 0 0.970108
0.844465 0 0.957366
0.934096 0 0.920531
0.934096 0 0.873304
0.934096 0 0.859373
0 0.0990921 0.970108
0 0.105409 0.970108
0.182589 0.0920729 0.970001
0.41619 0.0679637 0.964828
0.609567 0.0429847 0.954635
0.813428 0.0115969 0.931517
0.934096 0 0.894026
0.934096 0 0.851148
0.934096 0 0.841794
0 0.254246 0.962539
0 0.26099 0.961517
0.116625 0.250996 0.943816
0.341527 0.231571 0.91339
0.53901 0.206912 0.899855
0.752316 0.17203 0.880919
0.934096 0.132815 0.848585
0.934096 0.0923781 0.809857
0.934096 0.0838331 0.801678
0 0.39971 0.920073
0 0.406668 0.923186
0.0698405 0.397543 0.882033
0.284535 0.385092 0.826505
0.450309 0.371237 0.811765
0.65713 0.339864 0.813153
0.915343 0.289296 0.802106
0.934096 0.242359 0.76817
0.934096 0.233234 0.759976
0 0.54609 0.878126
0 0.553063 0.88249
0.0320134 0.539651 0.852125
0.27953 0.517937 0.790463
0.427741 0.510567 0.766217
0.585321 0.49659 0.765911
0.809995 0.457038 0.760754
0.934096 0.396674 0.730678
0.934096 0.384909 0.721553
0 0.705516 0.839048
0 0.713985 0.843732
0 0.703151 0.833036
0.270298 0.660746 0.796887
0.463767 0.637598 0.779293
0.596811 0.62977 0.776776
0.763012 0.610132 0.759777
0.934096 0.561929 0.714122
0.934096 0.546807 0.699351
0 0.858213 0.807157
0 0.869581 0.809781
0 0.864378 0.803906
0.199512 0.825132 0.787991
0.446906 0.782803 0.784146
0.627436 0.756573 0.78529
0.785306 0.74052 0.768292
0.934096 0.710918 0.712581
0.934096 0.6972 0.691096
0 1 0.783703
0 1 0.782925
0 1 0.77525
0.12076 0.994949 0.755795
0.360754 0.956954 0.745907
0.591348 0.915862 0.746059
0.793118 0.881758 0.73463
0.934096 0.852522 0.686275
0.934096 0.839689 0.662181
0 1 0.767712
0 1 0.765789
0 1 0.753857
0.0846723 1 0.731533
0.301991 1 0.709484
0.522316 1 0.691554
0.754635 1 0.671992
0.934096 0.989807 0.634424
0.934096 0.976074 0.612421
0 0 0.970108
0.0236515 0 0.970108
0.228977 0 0.970108
0.459495 0 0.970108
0.643778 0 0.970108
0.839231 0 0.970108
0.934096 0 0.970108
0.934096 0 0.96791
0.934096 0 0.964324
0 0.0990463 0.970108
0 0.104845 0.970108
0.181674 0.0909438 0.970108
0.415076 0.0667124 0.970108
0.607569 0.0419776 0.970108
0.811399 0.0111086 0.970108
0.934096 0.000259403 0.970108
0.934096 0 0.966812
0.934096 0 0.960708
0 0.253574 0.970108
0 0.260258 0.970108
0.116579 0.248173 0.970108
0.350072 0.225315 0.970108
0.547417 0.201068 0.970108
0.755444 0.169039 0.970108
0.934096 0.13106 0.96495
0.934096 0.0912947 0.932708
0.934096 0.0838788 0.925612
0 0.398352 0.970108
0 0.405737 0.970108
0.0603342 0.395575 0.970108
0.292027 0.377325 0.96669
0.475166 0.359747 0.948898
0.679789 0.329534 0.940414
0.92018 0.285084 0.926146
0.934096 0.240787 0.892454
0.934096 0.232502 0.885344
0 0.544335 0.970108
0 0.552316 0.970108
0.0104677 0.54229 0.970108
0.265126 0.519493 0.924453
0.437079 0.506859 0.882216
0.604532 0.490883 0.867597
0.817868 0.45478 0.86743
0.934096 0.397223 0.851179
0.934096 0.386175 0.844556
0 0.702953 0.955703
0 0.712825 0.965469
0 0.704555 0.959197
0.245579 0.668269 0.910201
0.453925 0.643214 0.86833
0.605386 0.631876 0.846067
0.760235 0.614862 0.843931
0.934096 0.569528 0.825315
0.934096 0.555856 0.816907
0 0.855406 0.929351
0 0.867872 0.936034
0 0.863111 0.930312
0.186816 0.828443 0.904585
0.444984 0.785077 0.879881
0.639872 0.75552 0.868315
0.786969 0.741665 0.864042
0.933288 0.718318 0.832364
0.934096 0.707347 0.819303
0 1 0.905699
0 1 0.909255
0 1 0.902754
0.120363 0.992981 0.882155
0.368734 0.952758 0.866606
0.614313 0.90605 0.862226
0.814984 0.871412 0.859724
0.934096 0.84892 0.832639
0.934096 0.839414 0.81622
0 1 0.890028
0 1 0.891554
0 1 0.88217
0.0850233 1 0.860502
0.305043 1 0.839048
0.541558 1 0.825788
0.78349 1 0.81912
0.934096 0.973907 0.796155
0.934096 0.963485 0.777996
0 0 0.970108
0.0234684 0 0.970108
0.226963 0 0.970108
0.455146 0 0.970108
0.637736 0 0.970108
0.832105 0 0.970108
0.934096 0 0.970108
0.934096 0 0.970108
0.934096 0 0.970108
0 0.0999924 0.970108
0 0.105684 0.970108
0.180392 0.0910353 0.970108
0.412848 0.0667124 0.970108
0.604425 0.0424811 0.970108
0.808072 0.0115663 0.970108
0.934096 0.00109865 0.970108
0.934096 0 0.970108
0.934096 0 0.970108
0 0.253422 0.970108
0 0.260136 0.970108
0.116335 0.247166 0.970108
0.351202 0.223468 0.970108
0.548806 0.199252 0.970108
0.756374 0.167712 0.970108
0.934096 0.130648 0.970108
0.934096 0.0914778 0.970108
0.934096 0.0845502 0.970108
0 0.397147 0.970108
0 0.405356 0.970108
0.0578164 0.394583 0.970108
0.294759 0.372335 0.970108
0.490578 0.350591 0.970108
0.697139 0.320867 0.970108
0.922652 0.281743 0.970108
0.934096 0.239704 0.970108
0.934096 0.232334 0.970108
0 0.542885 0.970108
0 0.551751 0.970108
0.00735485 0.542428 0.970108
0.251041 0.519173 0.970108
0.44271 0.501015 0.970108
0.627237 0.481086 0.966354
0.840146 0.446448 0.964248
0.934096 0.395178 0.958907
0.934096 0.385336 0.95584
0 0.700664 0.970108
0 0.711955 0.970108
0 0.704601 0.970108
0.217792 0.67483 0.970108
0.436866 0.647959 0.963729
0.612314 0.630945 0.940429
0.774029 0.612802 0.92723
0.934096 0.571572 0.921889
0.934096 0.559731 0.917708
0 0.853178 0.970108
0 0.86659 0.970108
0 0.862028 0.970108
0.169375 0.83299 0.970108
0.424475 0.79263 0.967865
0.637476 0.760555 0.945129
0.793896 0.745037 0.927504
0.931823 0.725017 0.91902
0.934096 0.715785 0.912566
0 1 0.970108
0 1 0.970108
0 1 0.970108
0.118334 0.992599 0.970108
0.361913 0.954772 0.970108
0.621836 0.905211 0.956161
0.833463 0.86688 0.948226
0.934096 0.848386 0.937163
0.934096 0.841688 0.927321
0 1 0.970108
0 1 0.970108
0 1 0.969772
0.0854963 1 0.966186
0.306127 1 0.957885
0.556237 1 0.940932
0.812177 0.993637 0.93431
0.934096 0.959869 0.924681
0.934096 0.951782 0.914519
