luts/DARK.BLUE.cube
TITLE "Generated by Resolve"
LUT_3D_SIZE 33
0 0.01561 0.0695201
0 0.0168612 0.0700084
0 0.0206149 0.0784161
0 0.0257572 0.0938582
0.00560006 0.0289006 0.108629
0.0383917 0.0294804 0.12137
0.0811322 0.0275883 0.131594
0.133562 0.0234836 0.13872
0.197589 0.0174105 0.142138
0.270253 0.00996414 0.141741
0.343359 0.00248722 0.138262
0.410086 0 0.133181
0.472343 0 0.127321
0.528359 0 0.121401
0.578607 0 0.115511
0.623102 0 0.109895
0.664912 0 0.10428
0.707378 0 0.0984054
0.753292 0 0.0920577
0.804562 0 0.085008
0.856703 0 0.0779736
0.908171 0 0.0710307
0.934096 0 0.0644694
0.934096 0 0.0580758
0.934096 0 0.0508583
0.934096 0 0.0433814
0.934096 0 0.035935
0.934096 0 0.0285344
0.934096 0 0.02121
0.934096 0 0.0137636
0.934096 0 0.00927749
0.934096 0 0.00808728
0.934096 0 0.00714122
0 0.0157015 0.0780957
0 0.0169528 0.0786297
0 0.0209354 0.0871901
0 0.0264439 0.102647
0.00808728 0.0305943 0.116762
0.0411688 0.0318608 0.128832
0.0842451 0.0303044 0.138384
0.136858 0.0260166 0.14519
0.201785 0.0191958 0.14876
0.275059 0.0107729 0.14847
0.348775 0.00227359 0.145113
0.415625 0 0.140017
0.478187 0 0.133913
0.533776 0 0.12784
0.583566 0 0.121935
0.627436 0 0.116258
0.66923 0 0.110506
0.711696 0 0.104616
0.758526 0 0.098085
0.8103 0 0.0910048
0.862791 0 0.0839551
0.911284 0 0.0770428
0.934096 0 0.0704967
0.934096 0 0.0640269
0.934096 0 0.0569162
0.934096 0 0.0496223
0.934096 0 0.0423133
0.934096 0 0.0349432
0.934096 0 0.0273289
0.934096 0 0.0198672
0.934096 0 0.0160983
0.934096 0 0.0150301
0.934096 0 0.0140688
0 0.0418097 0.0843824
0 0.0438239 0.0839857
0 0.0504768 0.0913252
0 0.0568704 0.104952
0.00450141 0.0602731 0.118135
0.0302434 0.0614328 0.128695
0.0711376 0.0599832 0.136721
0.121172 0.0560769 0.141695
0.184314 0.0489204 0.143954
0.25713 0.0394446 0.142748
0.332174 0.02916 0.13872
0.401465 0.0213626 0.13286
0.465812 0.0150912 0.126741
0.523705 0.00967422 0.120668
0.574807 0.0049897 0.114809
0.620066 0.00115969 0.109239
0.661952 0 0.103716
0.704952 0 0.0979629
0.7523 0 0.0914778
0.804868 0 0.0843366
0.857633 0 0.0774395
0.906981 0 0.0703136
0.934096 0 0.0636301
0.934096 0 0.0570535
0.934096 0 0.0504921
0.934096 0 0.0439765
0.934096 0 0.0374151
0.934096 0 0.0306249
0.934096 0 0.0247654
0.934096 0 0.0195621
0.934096 0 0.0171817
0.934096 0 0.0164797
0.934096 0 0.0159304
0 0.0749065 0.0936141
0 0.0773785 0.0939498
0 0.0848402 0.100511
0 0.0915847 0.11133
0.0015259 0.0957504 0.12224
0.0183871 0.0972915 0.130526
0.0564431 0.0968643 0.135988
0.102998 0.0939193 0.138521
0.162387 0.0882124 0.138201
0.232288 0.0796979 0.1346
0.306554 0.0698863 0.128328
0.377218 0.0598154 0.12108
0.443915 0.0505074 0.11339
0.504829 0.0420691 0.106523
0.558114 0.0345159 0.100252
0.605493 0.0278935 0.0943465
0.647486 0.0229343 0.0886244
0.690608 0.0187076 0.0830549
0.738354 0.0142214 0.076524
0.791302 0.00941482 0.0692302
0.844541 0.00488289 0.0618448
0.896696 0.00106813 0.0544289
0.931441 0 0.0472725
0.934096 0 0.0403906
0.934096 0 0.0343786
0.934096 0 0.0293584
0.934096 0 0.0244297
0.934096 0 0.0194705
0.934096 0 0.0157473
0.934096 0 0.0126345
0.934096 0 0.0115816
0.934096 0 0.0111696
0.934096 0 0.0108034
0 0.10898 0.103975
0 0.111513 0.106554
0 0.118135 0.115023
0 0.124636 0.124071
0 0.129366 0.131868
0.0111391 0.132143 0.137072
0.0455482 0.132677 0.139483
0.0886397 0.131212 0.139452
0.143816 0.127108 0.136172
0.209949 0.120043 0.129747
0.282261 0.111223 0.120699
0.352758 0.101549 0.111055
0.421149 0.0919356 0.101472
0.484321 0.0831922 0.0931258
0.539605 0.0755627 0.0857862
0.588937 0.0682841 0.0792859
0.632013 0.0616617 0.0732891
0.675334 0.0549935 0.0673228
0.723156 0.0476081 0.0607767
0.776623 0.0392767 0.0534371
0.830335 0.03093 0.0459297
0.884077 0.0230564 0.03888
0.924468 0.0169985 0.0329747
0.934096 0.0128939 0.0272374
0.934096 0.00877394 0.0226139
0.934096 0.00514229 0.0188602
0.934096 0.00173953 0.0154726
0.934096 0 0.0122225
0.934096 0 0.00920119
0.934096 0 0.00628672
0.934096 0 0.00543221
0.934096 0 0.00526436
0.934096 0 0.00521859
0 0.143862 0.111452
0 0.14612 0.116564
0 0.151537 0.128054
0 0.156771 0.138155
0 0.161746 0.144533
0.00857557 0.165484 0.146563
0.0384375 0.167193 0.146014
0.0785534 0.166796 0.143282
0.129992 0.164126 0.137331
0.192065 0.158663 0.128038
0.261753 0.150958 0.116121
0.330449 0.14226 0.103883
0.398611 0.133135 0.0918441
0.463584 0.123857 0.0812848
0.521202 0.116213 0.0724498
0.571984 0.108736 0.0650492
0.616571 0.101946 0.0587625
0.660395 0.0950027 0.052491
0.7084 0.0876936 0.0458228
0.762066 0.0793011 0.0390173
0.816129 0.0708629 0.0328832
0.87039 0.0623178 0.0271
0.916274 0.0536202 0.022385
0.934096 0.0453956 0.0180514
0.934096 0.0373388 0.0140078
0.934096 0.0292973 0.0105898
0.934096 0.021561 0.00735485
0.934096 0.0155795 0.00463874
0.934096 0.0117037 0.00271611
0.934096 0.00834669 0.00108339
0.934096 0.0074464 0.000595102
0.934096 0.00704967 0.000564584
0.934096 0.00674449 0.000564584
0 0.17998 0.114534
0 0.181796 0.121386
0 0.18613 0.13492
0 0.190021 0.146349
0 0.194171 0.153674
0.00759899 0.198093 0.155428
0.0347295 0.200595 0.153017
0.0722972 0.201205 0.148165
0.120287 0.199802 0.139925
0.178332 0.195819 0.128191
0.244862 0.189334 0.113481
0.31136 0.181643 0.0986496
0.378134 0.173388 0.0841688
0.443244 0.164431 0.0714275
0.503014 0.156359 0.0608835
0.555184 0.148959 0.0522316
0.601663 0.142107 0.0451514
0.645411 0.135088 0.039292
0.693538 0.127764 0.0335546
0.747539 0.119295 0.0280003
0.801816 0.110918 0.0227512
0.856535 0.102098 0.0179904
0.908263 0.0935531 0.0134737
0.934096 0.0847334 0.00933852
0.934096 0.0763409 0.00553903
0.934096 0.0679789 0.00299077
0.934096 0.0599222 0.00134279
0.934096 0.052018 0
0.934096 0.0440833 0
0.934096 0.0365454 0
0.934096 0.0343786 0
0.934096 0.0337682 0
0.934096 0.0332189 0
0 0.217243 0.112139
0 0.218509 0.120394
0 0.222156 0.135683
0 0.224826 0.147662
0 0.227771 0.156146
0.00714122 0.231006 0.159472
0.0329442 0.233555 0.157519
0.0687266 0.234913 0.151934
0.11397 0.234501 0.142214
0.168429 0.231891 0.128649
0.231342 0.226871 0.111696
0.295567 0.220325 0.0943618
0.360357 0.212619 0.07776
0.424521 0.204471 0.0626841
0.485206 0.196521 0.050309
0.538613 0.188861 0.0412604
0.586313 0.181964 0.0345006
0.630793 0.175189 0.0289464
0.679103 0.167681 0.0237888
0.733043 0.159274 0.0186313
0.787518 0.150637 0.0137789
0.84242 0.141894 0.00915541
0.897505 0.133043 0.00502022
0.930907 0.124178 0.00222782
0.934096 0.115373 0.000335698
0.934096 0.106874 0
0.934096 0.0983444 0
0.934096 0.0903487 0
0.934096 0.0823682 0
0.934096 0.0745861 0
0.934096 0.0723125 0
0.934096 0.0718547 0
0.934096 0.0713054 0
0 0.25568 0.103624
0 0.256062 0.113252
0 0.25922 0.130556
0 0.261097 0.143572
0 0.262654 0.153048
0.00636301 0.265049 0.157961
0.0311131 0.267155 0.157519
0.066392 0.268727 0.152438
0.10988 0.268681 0.142229
0.161517 0.267201 0.127626
0.221103 0.263264 0.109148
0.282902 0.257649 0.0899672
0.345357 0.251148 0.0714885
0.408103 0.243397 0.0547036
0.468254 0.236133 0.0415045
0.522545 0.228962 0.0325322
0.570901 0.221942 0.025864
0.616495 0.215091 0.0201877
0.664759 0.207568 0.0149081
0.718837 0.199145 0.00972
0.773404 0.190478 0.00529488
0.828428 0.181689 0.00207523
0.883818 0.172778 0.000274662
0.923995 0.163745 0
0.934096 0.154711 0
0.934096 0.14583 0
0.934096 0.137194 0
0.934096 0.12874 0
0.934096 0.120699 0
0.934096 0.11281 0
0.934096 0.110643 0
0.934096 0.110033 0
0.934096 0.109483 0
0 0.294865 0.0894179
0 0.294118 0.0997787
0 0.296437 0.119387
0 0.297551 0.134127
0 0.298421 0.144808
0.00476081 0.29955 0.151034
0.0277714 0.300984 0.1523
0.0637675 0.302037 0.148226
0.106554 0.302571 0.138659
0.156405 0.301534 0.123857
0.213428 0.298665 0.104417
0.273274 0.294102 0.0839246
0.333135 0.288121 0.0644541
0.393881 0.28127 0.0468299
0.452903 0.274403 0.0342718
0.507866 0.26746 0.0250095
0.556237 0.260945 0.0180056
0.603143 0.253986 0.0120546
0.65098 0.246723 0.00671397
0.705119 0.238285 0.00230411
0.759686 0.229648 0.00047303
0.814817 0.220859 0
0.87039 0.211887 0
0.917037 0.20264 0
0.934096 0.193576 0
0.934096 0.184375 0
0.934096 0.175662 0
0.934096 0.166964 0
0.934096 0.158434 0
0.934096 0.150729 0
0.934096 0.14847 0
0.934096 0.147707 0
0.934096 0.147173 0
0 0.334462 0.0718242
0 0.332876 0.080415
0 0.334386 0.101732
0 0.334966 0.118547
0 0.334844 0.130968
0.00228885 0.334859 0.13872
0.0220645 0.335515 0.141466
0.0595865 0.336248 0.138643
0.102693 0.336156 0.130312
0.151965 0.335195 0.115984
0.207248 0.333013 0.0966049
0.265232 0.32932 0.075761
0.323064 0.324102 0.0559548
0.381704 0.318273 0.0395514
0.439368 0.311589 0.0274815
0.494179 0.304952 0.0179446
0.54287 0.298497 0.0107881
0.589822 0.291905 0.00505074
0.637827 0.284596 0.00120546
0.691859 0.276371 0
0.746456 0.267781 0
0.801526 0.259144 0
0.857237 0.250004 0
0.909834 0.240986 0
0.934096 0.231556 0
0.934096 0.222171 0
0.934096 0.213245 0
0.934096 0.204501 0
0.934096 0.195621 0
0.934096 0.187625 0
0.934096 0.18526 0
0.934096 0.184802 0
0.934096 0.184268 0
0 0.374365 0.0513313
0 0.372183 0.0574655
0 0.372946 0.0784924
0 0.373327 0.0968948
0 0.372488 0.110948
0 0.371466 0.120455
0.0151369 0.371084 0.124636
0.0531014 0.370718 0.123629
0.0974289 0.370504 0.116594
0.146746 0.369451 0.103212
0.201114 0.367498 0.0849775
0.258381 0.364019 0.0645609
0.314183 0.359518 0.0463417
0.371237 0.35404 0.0321813
0.42739 0.348013 0.0204013
0.481422 0.341848 0.0110475
0.530175 0.335363 0.00445563
0.576883 0.329122 0.000686656
0.625208 0.321981 0
0.678859 0.313863 0
0.733471 0.30515 0
0.788556 0.296407 0
0.844251 0.287419 0
0.90013 0.278065 0
0.932128 0.268879 0
0.934096 0.25948 0
0.934096 0.250217 0
0.934096 0.241291 0
0.934096 0.232288 0
0.934096 0.22417 0
0.934096 0.221683 0
0.934096 0.221073 0
0.934096 0.220554 0
0 0.414145 0.0310979
0 0.411521 0.0355535
0 0.411414 0.052018
0 0.412345 0.0704051
0 0.411185 0.0852369
0 0.409491 0.095964
0.00955215 0.408118 0.101915
0.0433509 0.407019 0.102235
0.0896315 0.40589 0.0973526
0.139986 0.404364 0.085832
0.194293 0.402441 0.0689708
0.251301 0.398962 0.0508278
0.30605 0.394781 0.0361334
0.361334 0.389761 0.023682
0.416312 0.3841 0.0127413
0.469505 0.377966 0.00460822
0.518074 0.371984 0.000549325
0.564538 0.365896 0
0.613016 0.358938 0
0.666438 0.350744 0
0.720989 0.342077 0
0.775982 0.333501 0
0.831708 0.324361 0
0.887877 0.315312 0
0.926436 0.306127 0
0.934096 0.296529 0
0.934096 0.287053 0
0.934096 0.27776 0
0.934096 0.268589 0
0.934096 0.260639 0
0.934096 0.257862 0
0.934096 0.257252 0
0.934096 0.256733 0
0 0.45275 0.0133211
0 0.450721 0.0161593
0 0.449607 0.0278935
0 0.451469 0.0438239
0 0.45034 0.0568704
0 0.448554 0.0675822
0.00433356 0.446342 0.0744335
0.0308385 0.444266 0.0765087
0.0791333 0.442405 0.0729229
0.13106 0.44033 0.0638132
0.186099 0.437675 0.0510719
0.243305 0.434211 0.0374456
0.297475 0.430274 0.0256199
0.351812 0.425483 0.0145418
0.405646 0.419913 0.00537118
0.457832 0.414115 0.000595102
0.506539 0.408301 0
0.552804 0.402258 0
0.60148 0.395468 0
0.654185 0.387427 0
0.708553 0.379004 0
0.763546 0.370306 0
0.81915 0.361517 0
0.875395 0.352193 0
0.919951 0.342855 0
0.934096 0.333394 0
0.934096 0.323842 0
0.934096 0.314366 0
0.934096 0.305043 0
0.934096 0.296666 0
0.934096 0.293828 0
0.934096 0.293202 0
0.934096 0.292836 0
0 0.490547 0.00109865
0 0.488762 0.00164797
0 0.487877 0.00834669
0 0.490791 0.020676
0 0.490074 0.031754
0 0.488365 0.0404517
0.000350958 0.485588 0.0466621
0.0178225 0.482902 0.0490425
0.0660105 0.479835 0.0480354
0.119722 0.477226 0.0425116
0.176043 0.473823 0.0339666
0.23415 0.470039 0.0238956
0.288212 0.465873 0.0142519
0.341878 0.461067 0.00538643
0.394812 0.455787 0.000686656
0.446403 0.450187 0
0.495033 0.444633 0
0.541222 0.43859 0
0.589853 0.431769 0
0.642481 0.42385 0
0.696666 0.415641 0
0.751522 0.407141 0
0.807141 0.398093 0
0.863294 0.389075 0
0.912963 0.379599 0
0.934096 0.370138 0
0.934096 0.360403 0
0.934096 0.350958 0
0.934096 0.341497 0
0.934096 0.332998 0
0.934096 0.329824 0
0.934096 0.32932 0
0.934096 0.328817 0
0 0.52903 0
0 0.52784 0
0 0.52668 0.000411994
0 0.530007 0.00325017
0 0.531228 0.0113832
0 0.529732 0.0183566
0 0.526802 0.0236057
0.00970474 0.523476 0.0265354
0.0506447 0.520134 0.0265507
0.10605 0.516442 0.0236973
0.163989 0.512398 0.0181582
0.223178 0.507851 0.0105135
0.277928 0.502983 0.00326543
0.331243 0.498024 0.000427253
0.383871 0.492622 0
0.434958 0.486671 0
0.483482 0.480858 0
0.529671 0.474907 0
0.577966 0.468376 0
0.630762 0.460349 0
0.68484 0.45211 0
0.739528 0.443732 0
0.795026 0.434806 0
0.851179 0.425666 0
0.905196 0.416297 0
0.934096 0.40679 0
0.934096 0.397162 0
0.934096 0.387488 0
0.934096 0.37789 0
0.934096 0.369116 0
0.934096 0.366049 0
0.934096 0.36524 0
0.934096 0.364721 0
0 0.568154 0
0 0.567071 0
0 0.566262 0
0 0.569711 0
0 0.57203 0.000885023
0 0.571374 0.00250248
0 0.568948 0.00540169
0.00386053 0.565606 0.00788891
0.0340734 0.561746 0.00866712
0.0909438 0.557366 0.007187
0.150103 0.55259 0.00396735
0.21062 0.547356 0.00154116
0.26659 0.541985 0
0.319951 0.536568 0
0.372534 0.530632 0
0.423514 0.524865 0
0.471733 0.519036 0
0.518105 0.513115 0
0.566217 0.506142 0
0.619181 0.498299 0
0.673106 0.489738 0
0.727764 0.480812 0
0.783185 0.471855 0
0.839292 0.462776 0
0.895613 0.453483 0
0.932387 0.444038 0
0.934096 0.434256 0
0.934096 0.424628 0
0.934096 0.414847 0
0.934096 0.405936 0
0.934096 0.402625 0
0.934096 0.401785 0
0.934096 0.401282 0
0 0.608515 0
0 0.607645 0
0 0.606928 0
0 0.61062 0
0 0.613748 0
0 0.613779 0
0 0.611872 0
6.10361e-05 0.609018 0.000335698
0.0190433 0.604776 0.000534066
0.0756085 0.599756 0.00030518
0.135485 0.594553 0
0.19704 0.588357 0
0.254093 0.582483 0
0.307897 0.576715 0
0.360479 0.570581 0
0.411429 0.564523 0
0.459617 0.558648 0
0.506432 0.552316 0
0.554437 0.545556 0
0.607736 0.537667 0
0.661463 0.529183 0
0.715999 0.52018 0
0.771374 0.510857 0
0.827405 0.501427 0
0.884047 0.491753 0
0.92665 0.481926 0
0.934096 0.47216 0
0.934096 0.462242 0
0.934096 0.452628 0
0.934096 0.443641 0
0.934096 0.43975 0
0.934096 0.439033 0
0.934096 0.438514 0
0 0.650523 0
0 0.649592 0
0 0.648859 0
0 0.652308 0
0 0.656519 0
0 0.656947 0
0 0.655451 0
0 0.652857 0
0.0112459 0.64889 0
0.0603952 0.643885 0
0.12108 0.638086 0
0.183215 0.631434 0
0.241382 0.624842 0
0.295567 0.618372 0
0.348379 0.612222 0
0.39942 0.605631 0
0.447761 0.599145 0
0.494697 0.59292 0
0.542916 0.585702 0
0.59646 0.577829 0
0.65005 0.569024 0
0.704448 0.560021 0
0.759701 0.550622 0
0.815671 0.54107 0
0.87216 0.531487 0
0.919493 0.521538 0
0.934096 0.511498 0
0.934096 0.50132 0
0.934096 0.490883 0
0.934096 0.481605 0
0.934096 0.477348 0
0.934096 0.4766 0
0.934096 0.476081 0
0 0.691691 0
0 0.690761 0
0 0.69041 0
0 0.693477 0
0 0.698024 0
0 0.698909 0
0 0.6981 0
0 0.695552 0
0.0062562 0.691661 0
0.0462348 0.686687 0
0.107103 0.680812 0
0.169436 0.674479 0
0.228702 0.667567 0
0.283177 0.661051 0
0.336202 0.65449 0
0.387503 0.647791 0
0.435813 0.641352 0
0.483177 0.634699 0
0.53135 0.627695 0
0.58497 0.619318 0
0.639017 0.609964 0
0.693294 0.600641 0
0.748455 0.590951 0
0.804303 0.581308 0
0.860822 0.571176 0
0.911849 0.561212 0
0.934096 0.550988 0
0.934096 0.540795 0
0.934096 0.530068 0
0.934096 0.520714 0
0.934096 0.516045 0
0.934096 0.515114 0
0.934096 0.514565 0
0 0.731121 0
0 0.73048 0
0 0.729976 0
0 0.73312 0
0 0.737575 0
0 0.739223 0
0 0.738537 0
0 0.736202 0
0.00285344 0.732631 0
0.033402 0.727718 0
0.0942397 0.721889 0
0.15668 0.715633 0
0.216541 0.708598 0
0.271244 0.702205 0
0.324575 0.695415 0
0.375906 0.688884 0
0.424475 0.682338 0
0.471839 0.675715 0
0.520424 0.668772 0
0.573678 0.660426 0
0.628183 0.651316 0
0.682414 0.641855 0
0.737438 0.631998 0
0.793179 0.622019 0
0.849638 0.611399 0
0.903548 0.600946 0
0.934096 0.590356 0
0.934096 0.579782 0
0.934096 0.56907 0
0.934096 0.559228 0
0.934096 0.554101 0
0.934096 0.553262 0
0.934096 0.552728 0
0 0.769512 0
0 0.769268 0
0 0.768826 0
0 0.77171 0
0 0.776562 0
0 0.778317 0
0 0.777951 0
0 0.775921 0
0.000595102 0.772625 0
0.0213169 0.76791 0
0.0821241 0.762005 0
0.144579 0.755611 0
0.204791 0.748882 0
0.259998 0.742138 0
0.313558 0.735409 0
0.364965 0.728695 0
0.41384 0.722148 0
0.461112 0.71545 0
0.50988 0.708553 0
0.562982 0.700572 0
0.618128 0.691096 0
0.672145 0.68191 0
0.727062 0.672053 0
0.782956 0.661921 0
0.839307 0.651499 0
0.895079 0.640864 0
0.934096 0.63006 0
0.934096 0.61886 0
0.934096 0.60766 0
0.934096 0.597177 0
0.934096 0.591714 0
0.934096 0.590814 0
0.934096 0.59028 0
0 0.807431 0
0 0.807157 0
0 0.807385 0
0 0.81033 0
0 0.815045 0
0 0.817288 0
0 0.817197 0
0 0.815412 0
0 0.8121 0
0.010956 0.807523 0
0.0703746 0.801907 0
0.132845 0.795331 0
0.193698 0.788495 0
0.249302 0.782025 0
0.302754 0.77496 0
0.354345 0.768429 0
0.403449 0.761852 0
0.450568 0.755306 0
0.499397 0.74844 0
0.552697 0.740078 0
0.608484 0.731289 0
0.662333 0.721614 0
0.717128 0.71191 0
0.772686 0.701915 0
0.828977 0.691402 0
0.885664 0.68072 0
0.933593 0.669902 0
0.934096 0.658732 0
0.934096 0.647532 0
0.934096 0.636698 0
0.934096 0.630396 0
0.934096 0.629419 0
0.934096 0.628824 0
0 0.844907 0
0 0.844633 0
0 0.845029 0
0 0.848432 0
0 0.85333 0
0 0.855787 0
0 0.855955 0
0 0.854337 0
0 0.851331 0
0.00619516 0.847028 0
0.0593118 0.841535 0
0.121721 0.834852 0
0.182849 0.828168 0
0.238743 0.821515 0
0.292271 0.814954 0
0.344213 0.807904 0
0.393332 0.801419 0
0.440406 0.794781 0
0.489387 0.787839 0
0.542306 0.780026 0
0.599023 0.770748 0
0.65272 0.76141 0
0.707454 0.751659 0
0.762966 0.741421 0
0.819242 0.730892 0
0.875975 0.720195 0
0.929046 0.709194 0
0.934096 0.698116 0
0.934096 0.686793 0
0.934096 0.675898 0
0.934096 0.669215 0
0.934096 0.668254 0
0.934096 0.667659 0
0 0.881621 0
0 0.881392 0
0 0.882002 0
0 0.885969 0
0 0.891096 0
0 0.893828 0
0 0.894133 0
0 0.892989 0
0 0.890257 0
0.00268559 0.885817 0
0.0489052 0.880339 0
0.111116 0.874052 0
0.172503 0.867292 0
0.228824 0.860639 0
0.282567 0.853941 0
0.334432 0.847211 0
0.383825 0.840574 0
0.431098 0.833875 0
0.479698 0.827161 0
0.532769 0.819318 0
0.589441 0.810117 0
0.643503 0.800626 0
0.698116 0.790814 0
0.753506 0.780667 0
0.809628 0.770153 0
0.866331 0.759411 0
0.92253 0.748409 0
0.934096 0.737301 0
0.934096 0.725933 0
0.934096 0.714946 0
0.934096 0.707881 0
0.934096 0.706874 0
0.934096 0.706279 0
0 0.918044 0
0 0.917845 0
0 0.91899 0
0 0.923049 0
0 0.928359 0
0 0.93138 0
0 0.93225 0
0 0.930892 0
0 0.928512 0
0.000122072 0.924331 0
0.0392462 0.919173 0
0.101381 0.912932 0
0.162966 0.90631 0
0.219684 0.899687 0
0.273411 0.892851 0
0.325261 0.886152 0
0.374823 0.879499 0
0.422004 0.872862 0
0.470405 0.86598 0
0.523186 0.858137 0
0.580026 0.849088 0
0.634638 0.839536 0
0.689219 0.829679 0
0.744518 0.819608 0
0.80058 0.808942 0
0.857221 0.798199 0
0.914397 0.787182 0
0.934096 0.776104 0
0.934096 0.764706 0
0.934096 0.753491 0
0.934096 0.746059 0
0.934096 0.744976 0
0.934096 0.744396 0
0 0.954269 0
0 0.953857 0
0 0.955108 0
0 0.959564 0
0 0.965042 0
0 0.968246 0
0 0.969192 0
0 0.968261 0
0 0.966003 0
0 0.962234 0
0.0305791 0.957244 0
0.0924392 0.951247 0
0.154009 0.944579 0
0.211063 0.937926 0
0.264622 0.931228 0
0.316594 0.924437 0
0.366339 0.917754 0
0.413474 0.911192 0
0.461677 0.904341 0
0.514427 0.896559 0
0.571023 0.887617 0
0.626139 0.878019 0
0.68069 0.868147 0
0.735958 0.857816 0
0.791913 0.847486 0
0.848493 0.836789 0
0.905638 0.825788 0
0.933425 0.814664 0
0.934096 0.80322 0
0.934096 0.791836 0
0.934096 0.784054 0
0.934096 0.78294 0
0.934096 0.782361 0
0 0.990311 0
0 0.989975 0
0 0.991211 0
0 0.995834 0
0 1 0
0 1 0
0 1 0
0 1 0
0 1 0
