luts/Dark Green.cube
TITLE "Generated by Resolve"
LUT_3D_SIZE 33
0 0.00143435 0.00390631
0.00221256 0.00148013 0.00395209
0.00848402 0.0015259 0.00399786
0.0153201 0.0016022 0.00407416
0.0225376 0.00172427 0.00419623
0.0300298 0.00190738 0.00436408
0.0377508 0.002121 0.00457771
0.0456703 0.00238041 0.00483711
0.0537575 0.00267033 0.00514229
0.0619974 0.00300603 0.00547799
0.0703746 0.0033875 0.00584421
0.0788891 0.00378424 0.00624094
0.0875257 0.00422675 0.00668345
0.0962539 0.00468452 0.00715648
0.105104 0.00518807 0.00764477
0.114031 0.00570687 0.00816358
0.123064 0.0062562 0.0087129
0.132174 0.00683604 0.00929274
0.141375 0.00743114 0.00988785
0.150652 0.00805676 0.0105135
0.159991 0.00869764 0.0111696
0.169421 0.00936904 0.011841
0.178912 0.010071 0.0125277
0.188464 0.0107729 0.0132448
0.198093 0.0115206 0.0139773
0.207767 0.0122683 0.014725
0.217517 0.0130465 0.0155032
0.227314 0.0138399 0.0162966
0.237171 0.0146487 0.0171054
0.247089 0.0154726 0.0179446
0.257053 0.0163272 0.0187839
0.267063 0.0171969 0.0196536
0.277134 0.0180819 0.0205386
0 0.00801099 0.00352483
0.00233463 0.00856031 0.00407416
0.00900282 0.00900282 0.00451667
0.0161746 0.00939956 0.00491341
0.0236667 0.00981155 0.0053254
0.0314031 0.0102235 0.00575265
0.039353 0.0106661 0.00619516
0.0474861 0.0111391 0.00665293
0.0557565 0.0116274 0.00714122
0.0641794 0.0121462 0.00766003
0.0727398 0.0126802 0.00819409
0.0814069 0.0132448 0.00875868
0.0901808 0.0138247 0.00935378
0.0990616 0.014435 0.00994888
0.108034 0.0150607 0.0105898
0.117113 0.0157168 0.0112459
0.126253 0.0163882 0.0119173
0.135485 0.0170901 0.012604
0.144808 0.0178073 0.0133211
0.154192 0.0185397 0.0140536
0.163638 0.0192874 0.0148165
0.173175 0.0200656 0.0155947
0.182757 0.0208591 0.0163882
0.192416 0.0216678 0.0171969
0.202136 0.0225071 0.0180209
0.211902 0.0233463 0.0188754
0.221744 0.0242161 0.0197299
0.231632 0.0250858 0.0206149
0.241581 0.0259861 0.0215152
0.251575 0.0269017 0.0224308
0.261616 0.0278325 0.0233616
0.271717 0.0287785 0.0243076
0.281865 0.0297398 0.0252689
0 0.016144 0.00386053
0.00294499 0.016968 0.00468452
0.00984207 0.0176394 0.00535592
0.0172274 0.018265 0.00598154
0.0249332 0.0188754 0.0065919
0.0328527 0.0194858 0.00720226
0.0409857 0.0201114 0.00781262
0.0492714 0.020737 0.0084535
0.0577096 0.0213779 0.00909438
0.0662852 0.022034 0.00975052
0.0749676 0.0227207 0.0104372
0.083772 0.0234073 0.0111238
0.0926833 0.0241245 0.011841
0.101686 0.0248569 0.0125734
0.110765 0.0256046 0.0133211
0.119951 0.0263676 0.0140841
0.129213 0.0271611 0.0148623
0.138552 0.0279545 0.015671
0.147967 0.0287785 0.016495
0.157458 0.0296025 0.017319
0.16701 0.030457 0.0181735
0.176623 0.0313268 0.0190433
0.186313 0.0322118 0.0199283
0.196048 0.0331121 0.0208286
0.205859 0.0340276 0.0217441
0.215717 0.0349584 0.0226749
0.225635 0.0359045 0.023621
0.235599 0.0368658 0.0245823
0.245624 0.0378424 0.0255589
0.255695 0.0388342 0.0265507
0.265827 0.0398413 0.0275578
0.27599 0.0408637 0.0285801
0.286213 0.0419013 0.0296178
0 0.0252232 0.00463874
0.00392157 0.0262303 0.0056611
0.0110018 0.0271 0.00653086
0.0185702 0.0278935 0.00732433
0.0264286 0.0286564 0.00808728
0.0345006 0.0294194 0.00885023
0.042771 0.0301823 0.00961318
0.051194 0.0309606 0.0103761
0.0597696 0.0317235 0.0111543
0.0684672 0.032517 0.0119326
0.0772717 0.0333104 0.0127413
0.0861982 0.0341344 0.01355
0.0952163 0.0349584 0.014374
0.104326 0.0357977 0.0152132
0.113527 0.0366369 0.0160678
0.122805 0.0375067 0.0169375
0.132158 0.0383917 0.0178225
0.141604 0.039292 0.0187076
0.15111 0.0402075 0.0196231
0.160678 0.0411231 0.0205539
0.170321 0.0420691 0.0214847
0.180026 0.0430152 0.022446
0.189792 0.0439918 0.0234073
0.199619 0.0449683 0.0243992
0.209506 0.0459754 0.025391
0.21944 0.0469825 0.0263981
0.229435 0.0480049 0.0274205
0.239475 0.0490425 0.0284581
0.249577 0.0500954 0.0295109
0.259724 0.0511482 0.0305791
0.269917 0.0522316 0.0316625
0.280156 0.0533303 0.0327459
0.29044 0.0544289 0.0338445
0 0.0350042 0.00578317
0.00521859 0.0361791 0.00695811
0.0124514 0.0371862 0.00798047
0.0201572 0.038117 0.00891127
0.0281529 0.0390326 0.00981155
0.0363622 0.0399176 0.0106966
0.0447547 0.0408026 0.0115816
0.0532998 0.0416876 0.0124819
0.0619821 0.0425727 0.0133669
0.0707866 0.043473 0.0142672
0.0797131 0.0443885 0.0151675
0.0887312 0.045304 0.016083
0.0978408 0.0462196 0.0170138
0.107057 0.0471656 0.0179446
0.11635 0.0481117 0.0188907
0.125719 0.049073 0.019852
0.135164 0.0500343 0.0208286
0.144686 0.0510262 0.0218051
0.154284 0.052018 0.0228122
0.163943 0.0530251 0.0238193
0.173663 0.0540475 0.0248417
0.183459 0.0550851 0.025864
0.193301 0.0561379 0.0269169
0.203204 0.0571908 0.0279698
0.213153 0.0582589 0.0290532
0.223178 0.0593423 0.0301366
0.233234 0.060441 0.03122
0.243351 0.0615549 0.0323339
0.253513 0.0626688 0.0334478
0.263737 0.063798 0.0345922
0.273991 0.0649424 0.0357366
0.284291 0.0661021 0.0368811
0.294652 0.0672618 0.038056
0.000228885 0.0453498 0.00723278
0.00680552 0.0466621 0.00852979
0.0141604 0.0478065 0.00967422
0.0219883 0.0488594 0.0107271
0.0300908 0.0498817 0.0117494
0.038407 0.0508888 0.0127565
0.0469215 0.0518807 0.0137484
0.0555734 0.0528725 0.0147402
0.0643473 0.0538643 0.0157321
0.0732586 0.0548562 0.0167391
0.0822766 0.0558633 0.017731
0.0913863 0.0568704 0.0187381
0.100603 0.0578927 0.0197604
0.109895 0.0589151 0.0207828
0.11928 0.0599527 0.0218204
0.128725 0.0609903 0.0228733
0.138262 0.0620432 0.0239261
0.147875 0.0631113 0.024979
0.157534 0.0641794 0.0260624
0.167269 0.0652781 0.0271458
0.177081 0.0663767 0.0282444
0.186938 0.0674754 0.0293584
0.196857 0.0686046 0.0304723
0.206821 0.0697337 0.0316014
0.216861 0.0708629 0.0327459
0.226932 0.0720226 0.0338903
0.237064 0.0731823 0.0350652
0.247257 0.0743572 0.0362402
0.257481 0.0755474 0.0374151
0.267765 0.0767376 0.0386206
0.27808 0.0779431 0.039826
0.288457 0.0791638 0.0410468
0.298863 0.0803998 0.0422675
0.00192264 0.056199 0.00892653
0.00862135 0.0576181 0.0103456
0.016083 0.0588693 0.0115969
0.0240177 0.060029 0.0127718
0.0322271 0.0611582 0.0138857
0.04065 0.0622568 0.0149996
0.0492561 0.0633555 0.0160983
0.0579995 0.0644388 0.0171817
0.0668803 0.0655375 0.018265
0.0758831 0.0666209 0.0193484
0.0849775 0.0677043 0.0204471
0.0941787 0.0688029 0.0215305
0.103471 0.0699016 0.0226444
0.112856 0.0710155 0.023743
0.122316 0.0721294 0.0248569
0.131853 0.0732433 0.0259861
0.141466 0.0743877 0.0271153
0.151141 0.0755169 0.0282597
0.160876 0.0766766 0.0294041
0.170687 0.077821 0.0305638
0.18056 0.078996 0.0317235
0.190494 0.0801709 0.0329137
0.200473 0.0813611 0.0340887
0.210513 0.0825513 0.0352941
0.220615 0.083772 0.0364996
0.230762 0.0849775 0.0377203
0.240955 0.0862135 0.038941
0.251194 0.0874495 0.040177
0.261494 0.0887007 0.0414282
0.271824 0.0899519 0.0426795
0.282216 0.0912184 0.043946
0.292638 0.0925002 0.0452277
0.303105 0.0937819 0.0465095
0.00386053 0.0674601 0.0108644
0.0106508 0.068986 0.0123903
0.0182193 0.0703441 0.0137331
0.0262455 0.0715953 0.0149996
0.0345617 0.0728161 0.0162203
0.0430762 0.0740215 0.0174105
0.0517586 0.0751965 0.0186007
0.0605936 0.0763714 0.0197757
0.0695659 0.0775464 0.0209506
0.078645 0.0787213 0.0221103
0.0878309 0.0798962 0.0232853
0.0971084 0.0810712 0.0244602
0.106477 0.0822461 0.0256352
0.115938 0.0834211 0.0268254
0.12546 0.0846113 0.0280156
0.135073 0.0858167 0.0292058
0.144762 0.0870222 0.0304112
0.154513 0.0882277 0.0316167
0.164324 0.0894484 0.0328374
0.174197 0.0906691 0.0340734
0.184131 0.0919051 0.0353094
0.194125 0.0931411 0.0365454
0.204181 0.0943923 0.0377966
0.214282 0.0956588 0.0390631
0.224445 0.0969253 0.0403296
0.234653 0.0982071 0.0416114
0.244907 0.0994888 0.0428931
0.255207 0.100786 0.0441901
0.265553 0.102098 0.0455024
0.275959 0.10341 0.0468147
0.286397 0.104738 0.0481422
0.29688 0.106065 0.0494698
0.307408 0.107408 0.0508125
0.0059968 0.079118 0.0130007
0.0128786 0.0807355 0.0146181
0.0205539 0.0821698 0.0160678
0.0286717 0.0835279 0.0174105
0.0370642 0.0848249 0.0187228
0.045655 0.0861067 0.0200046
0.0544289 0.0873732 0.0212711
0.0633402 0.0886397 0.0225223
0.0723888 0.0898909 0.0237736
0.0815442 0.0911269 0.0250248
0.0908064 0.0923781 0.026276
0.10016 0.0936294 0.027512
0.109606 0.0948806 0.0287633
0.119127 0.0961318 0.0300298
0.12874 0.0973983 0.031281
0.138415 0.0986648 0.0325475
0.148165 0.0999313 0.033814
0.157977 0.101198 0.0350958
0.167849 0.102495 0.0363775
0.177798 0.103777 0.0376745
0.187793 0.105074 0.0389715
0.197848 0.106386 0.0402686
0.207965 0.107698 0.0415808
0.218128 0.10901 0.0429084
0.228351 0.110338 0.0442359
0.238605 0.111681 0.0455634
0.24892 0.113024 0.0469215
0.259281 0.114382 0.0482643
0.269688 0.11574 0.0496376
0.28014 0.117113 0.0509957
0.290639 0.118486 0.0523842
0.301183 0.119875 0.0537728
0.311757 0.121279 0.0551614
0.00833143 0.0911116 0.0153353
0.0153048 0.0928206 0.0170443
0.0230564 0.0943465 0.0185702
0.0312505 0.0957809 0.0200046
0.0397192 0.0971542 0.0213931
0.0484016 0.0985275 0.0227512
0.0572518 0.099855 0.024094
0.0662394 0.101198 0.0254215
0.0753643 0.10251 0.0267491
0.0845808 0.103838 0.0280613
0.0939193 0.10515 0.0293736
0.103349 0.106477 0.0307012
0.112856 0.10779 0.0320134
0.122454 0.109117 0.033341
0.132113 0.110445 0.0346685
0.141863 0.111772 0.035996
0.151675 0.1131 0.0373236
0.161547 0.114443 0.0386664
0.171496 0.115785 0.0400092
0.181491 0.117144 0.0413672
0.191546 0.118502 0.0427253
0.201663 0.11986 0.0440833
0.211841 0.121233 0.0454566
0.222065 0.122606 0.0468299
0.232334 0.123995 0.0482185
0.242649 0.125383 0.0496071
0.253025 0.126787 0.0510109
0.263432 0.128191 0.0524147
0.273899 0.12961 0.0538338
0.284398 0.131029 0.0552529
0.294957 0.132464 0.0566873
0.305547 0.133898 0.0581369
0.316167 0.135348 0.0595712
0.0108492 0.103426 0.0178531
0.0178988 0.105211 0.0196384
0.0257267 0.106813 0.0212406
0.0339971 0.108324 0.0227512
0.0425422 0.109789 0.0242161
0.0513008 0.111223 0.0256352
0.0602121 0.112627 0.0270542
0.069276 0.114031 0.0284581
0.0784619 0.115419 0.0298466
0.0877546 0.116808 0.0312352
0.0971542 0.118196 0.0326238
0.106645 0.119585 0.0339971
0.116228 0.120958 0.0353857
0.125887 0.122347 0.0367742
0.135607 0.123735 0.0381628
0.145418 0.125124 0.0395514
0.155291 0.126528 0.04094
0.165225 0.127916 0.0423438
0.175235 0.12932 0.0437476
0.18529 0.130739 0.0451514
0.195407 0.132143 0.0465705
0.20557 0.133562 0.0479896
0.215793 0.134997 0.049424
0.226078 0.136431 0.0508583
0.236408 0.137865 0.0522927
0.246784 0.139315 0.0537423
0.257206 0.140764 0.0551919
0.267674 0.142229 0.0566567
0.278187 0.143694 0.0581216
0.288731 0.145159 0.0595865
0.299336 0.146639 0.0610666
0.309972 0.148135 0.062562
0.320653 0.14963 0.0640574
0.0135348 0.11603 0.0205386
0.0206607 0.117891 0.022385
0.0285496 0.11957 0.0240635
0.0368963 0.121157 0.0256504
0.0455177 0.122683 0.0271763
0.0543374 0.124178 0.028687
0.0633249 0.125658 0.0301671
0.0724498 0.127138 0.031632
0.0816968 0.128588 0.0330816
0.0910658 0.130037 0.0345312
0.100526 0.131487 0.0359808
0.110079 0.132937 0.0374304
0.119707 0.134371 0.03888
0.129427 0.135821 0.0403143
0.139223 0.13727 0.0417639
0.149081 0.13872 0.0432136
0.159014 0.140169 0.0446632
0.169009 0.141619 0.046128
0.179065 0.143084 0.0475776
0.189181 0.144549 0.0490425
0.199344 0.146014 0.0505226
0.209567 0.147494 0.0519875
0.219852 0.148974 0.0534676
0.230182 0.150454 0.0549477
0.240558 0.151949 0.0564431
0.25098 0.153445 0.0579385
0.261463 0.154955 0.0594492
0.271977 0.156466 0.0609598
0.282536 0.157977 0.0624704
0.293141 0.159503 0.0639963
0.303792 0.161028 0.0655222
0.314473 0.16257 0.0670634
0.3252 0.164111 0.0686046
0.0163729 0.128923 0.0233768
0.0235599 0.130846 0.0252995
0.0315251 0.132601 0.027039
0.0399481 0.134249 0.028687
0.0486305 0.135836 0.0302892
0.0575113 0.137407 0.0318608
0.0665599 0.138949 0.033402
0.0757458 0.140475 0.0349279
0.085069 0.142 0.0364538
0.0944839 0.143511 0.0379644
0.104005 0.145022 0.0394598
0.113619 0.146517 0.0409705
0.123308 0.148028 0.0424659
0.133089 0.149523 0.0439765
0.142931 0.151034 0.0454719
0.15285 0.152529 0.0469825
0.162829 0.15404 0.0484932
0.172885 0.15555 0.0500038
0.182986 0.157061 0.0515145
0.193164 0.158587 0.0530251
0.203387 0.160098 0.054551
0.213657 0.161624 0.0560769
0.223987 0.163165 0.0576028
0.234363 0.164691 0.059144
0.2448 0.166232 0.0606851
0.255268 0.167788 0.0622263
0.265797 0.169329 0.0637827
0.276356 0.170886 0.0653391
0.286961 0.172457 0.0669108
0.297627 0.174029 0.0684825
0.308309 0.175601 0.0700542
0.319051 0.177188 0.0716411
0.329824 0.178775 0.073228
0.0193637 0.142061 0.0263676
0.0266117 0.14406 0.0283513
0.0346532 0.145876 0.0301671
0.043122 0.147585 0.0318761
0.0518654 0.149233 0.0335241
0.0608225 0.150866 0.0351568
0.0699321 0.152468 0.036759
0.0791791 0.154055 0.0383459
0.0885481 0.155642 0.0399329
0.098024 0.157214 0.0415045
0.107607 0.15877 0.043061
0.117266 0.160327 0.0446174
0.127016 0.161883 0.0461891
0.136843 0.163439 0.0477455
0.146746 0.165011 0.0493019
0.156725 0.166567 0.0508583
0.166766 0.168124 0.0524147
0.176867 0.16968 0.0539712
0.187015 0.171252 0.0555428
0.197238 0.172808 0.0571145
0.207507 0.17438 0.0586862
0.217838 0.175967 0.0602579
0.228214 0.177539 0.0618296
0.238651 0.179126 0.0634165
0.249119 0.180713 0.0650034
0.259648 0.182315 0.0666056
0.270207 0.183902 0.0682078
0.280827 0.185519 0.06981
0.291478 0.187121 0.0714122
0.302174 0.188739 0.0730297
0.312917 0.190356 0.0746471
0.32369 0.191989 0.0762798
0.334508 0.193622 0.0779126
0.0224918 0.155459 0.0294957
0.0298161 0.157519 0.0315404
0.0379034 0.15938 0.0334173
0.0464332 0.161151 0.0351873
0.0552377 0.162875 0.0368963
0.0642405 0.164553 0.0385901
0.0734112 0.166217 0.0402533
0.0827192 0.167865 0.0419013
0.0921492 0.169497 0.043534
0.101686 0.171115 0.0451514
0.111315 0.172732 0.0467689
0.121035 0.17435 0.0483864
0.130831 0.175967 0.0500038
0.140719 0.177569 0.051606
0.150668 0.179187 0.0532235
0.160693 0.180789 0.0548257
0.170779 0.182406 0.0564431
0.180926 0.184009 0.0580453
0.191135 0.185626 0.0596628
0.201404 0.187243 0.0612802
0.211734 0.188861 0.0628977
0.22211 0.190494 0.0645151
0.232532 0.192111 0.0661479
0.243 0.193744 0.0677806
0.253529 0.195377 0.0694133
0.264088 0.197024 0.0710613
0.274708 0.198657 0.072694
0.285359 0.20032 0.074342
0.296071 0.201968 0.0760052
0.306798 0.203632 0.0776684
0.317586 0.205295 0.0793317
0.328405 0.206958 0.0809949
0.339269 0.208637 0.0826734
0.0257572 0.16907 0.0327611
0.0331273 0.171191 0.0348669
0.0412757 0.173114 0.0367895
0.0498817 0.174945 0.0386206
0.058732 0.176715 0.0404059
0.0677958 0.178454 0.0421454
0.0770275 0.180179 0.0438544
0.0863813 0.181872 0.0455634
0.0958572 0.183566 0.0472419
0.10544 0.185245 0.0489204
0.115129 0.186908 0.0505989
0.124895 0.188571 0.0522621
0.134752 0.190234 0.0539254
0.144686 0.191897 0.0555734
0.154696 0.193561 0.0572366
0.164767 0.195209 0.0588998
0.174899 0.196872 0.0605478
0.185092 0.198535 0.062211
0.195361 0.200198 0.0638743
0.205676 0.201862 0.0655375
0.216037 0.203525 0.0672007
0.226459 0.205188 0.0688792
0.236927 0.206867 0.0705425
0.247456 0.208545 0.072221
0.258015 0.210224 0.0738994
0.268635 0.211902 0.0755932
0.279286 0.213596 0.0772717
0.289982 0.21529 0.0789654
0.300725 0.216983 0.0806592
0.311513 0.218692 0.0823682
0.322332 0.220386 0.0840772
0.333196 0.22211 0.0857862
0.344091 0.223819 0.0874952
0.0291447 0.18291 0.0361486
0.0365759 0.185077 0.0383154
0.0447852 0.18706 0.0402991
0.0534371 0.188952 0.0421759
0.0623484 0.190784 0.044007
0.071458 0.192569 0.0458076
0.0807355 0.194339 0.0475776
0.0901503 0.196094 0.0493324
0.0996872 0.197833 0.0510719
0.109316 0.199557 0.0527962
0.119051 0.201282 0.0545205
0.128878 0.202991 0.0562295
0.138781 0.2047 0.0579385
0.14876 0.206409 0.0596475
0.158816 0.208118 0.0613565
0.168933 0.209827 0.0630655
0.17911 0.211536 0.0647593
0.189349 0.213245 0.0664683
0.199664 0.214939 0.0681773
0.210025 0.216648 0.0698863
0.220432 0.218372 0.0715953
0.2309 0.220081 0.0733196
0.241413 0.22179 0.0750286
0.251972 0.223514 0.0767529
0.262592 0.225238 0.0784772
0.273243 0.226963 0.0802014
0.28394 0.228687 0.0819257
0.294682 0.230426 0.0836652
0.30547 0.232166 0.0854047
0.316289 0.233906 0.0871443
0.327153 0.23566 0.0888991
0.338064 0.237415 0.0906539
0.349004 0.23917 0.0924086
0.0326696 0.196963 0.0396582
0.0401465 0.199191 0.041886
0.0484169 0.201221 0.0439307
0.0571145 0.203159 0.0458534
0.0660716 0.205035 0.0477455
0.0752422 0.206882 0.0495918
0.0845655 0.208698 0.0514076
0.0940261 0.210498 0.0532082
0.103609 0.212284 0.0549935
0.113298 0.214069 0.0567636
0.123079 0.215839 0.0585336
0.132952 0.217594 0.0603037
0.142901 0.219348 0.0620584
0.152926 0.221103 0.0638132
0.163027 0.222858 0.065568
0.17319 0.224613 0.0673228
0.183413 0.226368 0.0690776
0.193698 0.228122 0.0708171
0.204059 0.229862 0.0725719
0.21445 0.231617 0.0743267
0.224918 0.233371 0.0760815
0.235416 0.235126 0.0778363
0.245975 0.236896 0.0795911
0.25658 0.238651 0.0813611
0.267231 0.240421 0.0831311
0.277928 0.242191 0.0848859
0.28867 0.243961 0.086656
0.299458 0.245731 0.0884413
0.310277 0.247517 0.0902113
0.321141 0.249302 0.0919966
0.332052 0.251087 0.0937819
0.342992 0.252872 0.0955825
0.353979 0.254673 0.0973831
0.0363012 0.2112 0.0433051
0.0438392 0.213489 0.0455787
0.0521553 0.215564 0.0476692
0.0608988 0.217548 0.0496529
0.0699168 0.219486 0.0515755
0.0791333 0.221378 0.0534676
0.0885023 0.223239 0.0553445
0.0980087 0.225101 0.0571908
0.107637 0.226932 0.0590219
0.117372 0.228748 0.060853
0.127199 0.230564 0.0626688
0.137118 0.23238 0.0644694
0.147112 0.23418 0.0662699
0.157183 0.235981 0.0680705
0.16733 0.237781 0.0698711
0.177539 0.239582 0.0716716
0.187808 0.241367 0.0734722
0.198138 0.243168 0.0752575
0.20853 0.244953 0.0770581
0.218982 0.246754 0.0788434
0.22948 0.248554 0.0806439
0.240024 0.250355 0.0824445
0.250629 0.252155 0.0842451
0.261265 0.253956 0.0860456
0.271962 0.255756 0.0878462
0.282704 0.257572 0.089662
0.293477 0.259373 0.0914778
0.304311 0.261189 0.0932937
0.315175 0.263005 0.0951095
0.32607 0.264836 0.0969253
0.337011 0.266667 0.0987564
0.347997 0.268482 0.100587
0.359014 0.270329 0.102419
0.0400549 0.22565 0.0470588
0.0476387 0.22797 0.0493782
0.0560006 0.230106 0.0515145
0.0647898 0.232136 0.0535439
0.0738537 0.234119 0.0555276
0.0831159 0.236057 0.0574655
0.092546 0.23798 0.0593729
0.102098 0.239872 0.0612802
0.111772 0.241749 0.0631571
0.121553 0.243626 0.0650187
0.131426 0.245487 0.0668803
0.14139 0.247333 0.0687419
0.151431 0.24918 0.0705882
0.161532 0.251026 0.0724346
0.171725 0.252872 0.0742657
0.181979 0.254704 0.076112
0.192294 0.256535 0.0779431
0.20267 0.258381 0.0797894
0.213092 0.260212 0.0816205
0.22359 0.262043 0.0834516
0.234119 0.26389 0.0852979
0.244709 0.265721 0.087129
0.25536 0.267567 0.0889754
0.266041 0.269413 0.0908217
0.276768 0.27126 0.092668
0.287541 0.273106 0.0945144
0.298375 0.274952 0.0963607
0.309224 0.276799 0.0982071
0.320134 0.27866 0.100069
0.331075 0.280522 0.10193
0.342046 0.282383 0.103792
0.353079 0.28426 0.105653
0.364126 0.286122 0.10753
0.0439155 0.240269 0.0509194
0.051545 0.242649 0.0532845
0.0599527 0.244831 0.0554665
0.0688029 0.246906 0.0575418
0.0779126 0.24892 0.0595712
0.0872206 0.250919 0.0615549
0.0966812 0.252872 0.0635233
0.106279 0.25481 0.0654612
0.115999 0.256748 0.0673838
0.125826 0.258656 0.0692912
0.135744 0.260563 0.0711986
0.145739 0.262455 0.0730907
0.155825 0.264347 0.0749828
0.165988 0.266224 0.0768749
0.176211 0.268116 0.0787518
0.186496 0.269993 0.0806287
0.196857 0.27187 0.0825208
0.207279 0.273747 0.0843977
0.217746 0.275624 0.0862745
0.228275 0.277501 0.0881514
0.238849 0.279377 0.0900282
0.249485 0.281254 0.0919051
0.260166 0.283131 0.0937819
0.270893 0.285023 0.0956588
0.281651 0.2869 0.0975509
0.29247 0.288792 0.0994278
0.303334 0.290669 0.10132
0.314229 0.292561 0.103212
0.32517 0.294453 0.105104
0.336141 0.296361 0.106996
0.347158 0.298253 0.108904
0.358221 0.30016 0.110811
0.369314 0.302068 0.112703
0.0478828 0.25507 0.0548867
0.0555581 0.257496 0.0572976
0.0640116 0.259724 0.0595254
0.0729076 0.261845 0.0616464
0.082063 0.263905 0.0637217
0.0914015 0.265934 0.0657511
0.100923 0.267948 0.0677501
0.110567 0.269932 0.0697337
0.120317 0.271901 0.0717021
0.13019 0.273854 0.0736706
0.140139 0.275792 0.0756085
0.150195 0.277729 0.0775464
0.160311 0.279667 0.0794842
0.17052 0.28159 0.0814069
0.180789 0.283513 0.0833295
0.191119 0.285435 0.0852522
0.201511 0.287358 0.0871595
0.211963 0.289265 0.0890822
0.222477 0.291188 0.0910048
0.233051 0.293111 0.0929122
0.243656 0.295018 0.0948348
0.254322 0.296941 0.0967422
0.265049 0.298848 0.0986648
0.275807 0.300771 0.100587
0.28661 0.302693 0.10251
0.297475 0.304616 0.104433
0.308354 0.306538 0.106355
0.319295 0.308476 0.108278
0.330266 0.310399 0.110216
0.341283 0.312337 0.112139
0.352346 0.314275 0.114076
0.363424 0.316213 0.116014
0.374563 0.318151 0.117952
0.051957 0.270039 0.0589456
0.059678 0.272511 0.0614176
0.0681773 0.274784 0.0636912
0.0771038 0.276951 0.0658579
0.086305 0.279057 0.0679637
0.0957046 0.281132 0.0700389
0.105257 0.283177 0.0720836
0.114931 0.285206 0.0741131
0.124743 0.287221 0.0761273
0.134646 0.289204 0.0781262
0.14464 0.291203 0.0801099
0.154726 0.293172 0.0820783
0.164889 0.29514 0.084062
0.175128 0.297108 0.0860151
0.185443 0.299077 0.0879835
0.195804 0.30103 0.0899367
0.206241 0.302998 0.0919051
0.216739 0.304952 0.0938582
0.227283 0.306905 0.0958114
0.237888 0.308858 0.0977646
0.248554 0.310811 0.0997177
0.259251 0.312764 0.101671
0.270008 0.314717 0.103624
0.280812 0.31667 0.105577
0.291646 0.318624 0.107546
0.302541 0.320592 0.109499
0.313466 0.322545 0.111452
0.324437 0.324514 0.11342
0.335454 0.326482 0.115389
0.346502 0.32845 0.117357
0.35758 0.330419 0.119326
0.368704 0.332387 0.121294
0.379873 0.334371 0.123278
0.0561227 0.285176 0.0631266
0.0638895 0.287694 0.0656291
0.0724346 0.289998 0.0679484
0.0814069 0.29221 0.0701457
0.0906386 0.294362 0.0723125
0.100084 0.296483 0.0744182
0.109667 0.298573 0.0765087
0.119402 0.300633 0.078584
0.129244 0.302678 0.0806287
0.139193 0.304723 0.0826581
0.149233 0.306752 0.0846876
0.15935 0.308766 0.0867018
0.169558 0.31078 0.088716
0.179828 0.312779 0.0907301
0.190173 0.314778 0.0927291
0.200595 0.316777 0.094728
0.211063 0.318776 0.0967117
0.221592 0.32076 0.0987106
0.232181 0.322759 0.100694
0.242817 0.324742 0.102693
0.253513 0.326741 0.104677
0.264256 0.328725 0.106676
0.275044 0.330724 0.108659
0.285878 0.332708 0.110658
0.296757 0.334707 0.112642
0.307683 0.33669 0.114641
0.318639 0.338689 0.11664
0.329656 0.340688 0.118639
0.340703 0.342687 0.120638
0.351781 0.344686 0.122637
0.362905 0.3467 0.124636
0.37406 0.348699 0.12665
0.38526 0.350713 0.128664
0.0603952 0.300481 0.0673991
0.0682078 0.303029 0.0699321
0.0767834 0.305379 0.0722972
0.0858015 0.307637 0.0745403
0.095079 0.309819 0.0767376
0.104555 0.311986 0.0788891
0.114183 0.314107 0.0810254
0.123949 0.316213 0.0831311
0.133837 0.318303 0.0852216
0.143816 0.320378 0.0872969
0.153903 0.322438 0.0893568
0.164065 0.324498 0.0914168
0.174304 0.326543 0.0934615
0.184619 0.328588 0.0955062
0.194995 0.330632 0.0975509
0.205447 0.332662 0.0995804
0.215961 0.334691 0.10161
0.22652 0.336721 0.103639
0.23714 0.33875 0.105669
0.247822 0.34078 0.107698
0.258549 0.342809 0.109712
0.269322 0.344839 0.111742
0.280156 0.346853 0.113771
0.29102 0.348882 0.115801
0.30193 0.350912 0.11783
0.312901 0.352941 0.11986
0.323888 0.354971 0.121889
0.334936 0.357 0.123919
0.346014 0.35903 0.125948
0.357137 0.361074 0.127993
0.368292 0.363104 0.130022
0.379477 0.365148 0.132067
0.390707 0.367193 0.134112
0.0647593 0.315938 0.0717479
0.0726024 0.318517 0.074342
0.0812238 0.320912 0.0767376
0.0902876 0.323201 0.0790265
0.0995956 0.325444 0.0812695
0.109117 0.327626 0.0834516
0.118791 0.329793 0.0856184
0.128588 0.331945 0.0877699
0.138506 0.334066 0.0898909
0.148531 0.336187 0.0920119
0.158648 0.338293 0.0941176
0.168856 0.340383 0.0962081
0.179126 0.342473 0.0982986
0.189487 0.344549 0.100374
0.199893 0.346624 0.102449
0.210376 0.348699 0.104509
0.220935 0.350759 0.106584
0.231525 0.352819 0.108644
0.242191 0.354879 0.110704
0.252903 0.356954 0.112779
0.263661 0.359014 0.114839
0.274479 0.361074 0.116899
