luts/Dark green BMP4K.cube
TITLE "Generated by Resolve"
LUT_3D_SIZE 5
0.0334936 0.0341955 0.0341955
0.0875105 0.0559396 0.0441291
0.438346 0.118227 0.062562
0.833951 0.27361 0.138918
0.911803 0.434806 0.169207
0.0500038 0.130556 0.0894026
0.0933242 0.154955 0.091249
0.527993 0.22031 0.0850996
0.862959 0.344076 0.15079
0.911894 0.437308 0.169512
0.0814679 0.399832 0.224216
0.0876326 0.390936 0.180026
0.30016 0.523842 0.185214
0.821805 0.514015 0.167285
0.916075 0.631174 0.199268
0.170077 0.739406 0.465614
0.167376 0.729397 0.352056
0.248615 0.749798 0.23946
0.678157 0.859907 0.306645
0.920134 0.844877 0.264057
0.219104 0.919295 0.719692
0.219104 0.919295 0.657694
0.244251 0.926711 0.431983
0.558099 0.944503 0.360403
0.821607 0.949096 0.38558
0.036759 0.0618296 0.0707256
0.0640421 0.0777447 0.0851606
0.354208 0.194812 0.145296
0.827787 0.314961 0.141863
0.911818 0.435248 0.169268
0.0362097 0.168368 0.200855
0.116701 0.147982 0.149981
0.547295 0.2159 0.107424
0.840955 0.29189 0.141817
0.911696 0.426337 0.168093
0.0722515 0.360082 0.394675
0.0990768 0.469368 0.363775
0.378943 0.507164 0.220295
0.862989 0.54139 0.17734
0.916167 0.634318 0.199832
0.168826 0.734478 0.730678
0.177722 0.767666 0.643961
0.254871 0.75848 0.373312
0.705745 0.841154 0.343267
0.920668 0.782162 0.227359
0.219104 0.919295 0.904112
0.219104 0.919295 0.836133
0.219104 0.919295 0.646464
0.583535 0.952514 0.455222
0.839673 0.953689 0.437034
0.0351873 0.137087 0.170443
0.0393683 0.214801 0.261753
0.140841 0.33547 0.273808
0.712871 0.419623 0.22974
0.948394 0.598596 0.526879
0.07364 0.360403 0.466239
0.0755322 0.366735 0.490074
0.213275 0.378943 0.332647
0.743099 0.454902 0.304051
0.947372 0.594934 0.511955
0.112978 0.51487 0.647913
0.105486 0.487831 0.592233
0.422309 0.517388 0.52781
0.844236 0.59707 0.552285
0.940932 0.584268 0.412238
0.138628 0.613458 0.741283
0.148775 0.655421 0.725902
0.181521 0.781765 0.742382
0.752071 0.82826 0.555917
0.941619 0.788647 0.352041
0.191684 0.812085 0.911879
0.204471 0.862287 0.916854
0.219104 0.919295 0.8692
0.635172 0.963912 0.660273
0.873716 0.963348 0.572946
0.0682689 0.340642 0.415869
0.121233 0.549722 0.639353
0.133684 0.600641 0.634424
0.609339 0.60763 0.599649
0.953185 0.661784 0.674525
0.142855 0.628504 0.766735
0.141772 0.622827 0.778408
0.134844 0.601556 0.692668
0.637385 0.599603 0.641443
0.954269 0.666865 0.707057
0.161746 0.698604 0.834562
0.150454 0.656611 0.796277
0.152377 0.663417 0.806912
0.72369 0.652796 0.781384
0.96434 0.723812 0.803479
0.183276 0.77879 0.910658
0.177707 0.758404 0.885039
0.178622 0.757809 0.857588
0.777401 0.813764 0.846693
0.976196 0.834165 0.845518
0.186954 0.793011 0.914336
0.190173 0.805905 0.914794
0.19884 0.840162 0.916075
0.516396 0.9552 0.933349
0.946929 0.978241 0.781918
0.156252 0.682994 0.760281
0.185428 0.791089 0.860807
0.191409 0.812146 0.895598
0.475914 0.793042 0.923812
0.952377 0.758801 0.916671
0.191302 0.810987 0.907469
0.190463 0.807065 0.914809
0.187198 0.794644 0.905608
0.503899 0.781567 0.932845
0.953841 0.752453 0.919814
0.186572 0.791531 0.914229
0.185016 0.785397 0.914076
0.18349 0.779293 0.913802
0.537835 0.770428 0.951446
0.95697 0.756802 0.938674
0.184527 0.78349 0.914
0.185962 0.788937 0.914199
0.1906 0.80763 0.914824
0.651835 0.82623 0.960815
0.976486 0.825818 0.954253
0.187243 0.794217 0.914382
0.190326 0.806439 0.914839
0.197269 0.833967 0.915831
0.722118 0.889891 0.957656
0.971847 0.977218 0.947768
