luts/DARK.BLUE.cube
TITLE "Generated by Resolve"
LUT_3D_SIZE 5
0 0.01561 0.0695201
0.197589 0.0174105 0.142138
0.664912 0 0.10428
0.934096 0 0.0508583
0.934096 0 0.00714122
0 0.25568 0.103624
0.10988 0.268681 0.142229
0.570901 0.221942 0.025864
0.934096 0.154711 0
0.934096 0.109483 0
0 0.568154 0
0.0340734 0.561746 0.00866712
0.471733 0.519036 0
0.895613 0.453483 0
0.934096 0.401282 0
0 0.881621 0
0 0.890257 0
0.383825 0.840574 0
0.809628 0.770153 0
0.934096 0.706279 0
0 1 0
0 1 0
0.333333 1 0
0.753262 1 0
0.934096 1 0
0 0 0.4271
0.202258 0.00270085 0.449332
0.655756 0 0.435187
0.934096 0 0.370687
0.934096 0 0.314794
0 0.256397 0.379736
0.0925002 0.271794 0.372335
0.521584 0.223514 0.357107
0.934096 0.142962 0.284703
0.934096 0.094316 0.238193
0 0.556344 0.306615
0.0648661 0.532815 0.365011
0.440208 0.506142 0.324681
0.887068 0.44271 0.19707
0.934096 0.388571 0.144488
0 0.87187 0.236622
0 0.877913 0.226368
0.372335 0.827176 0.186069
0.80296 0.758312 0.122133
0.934096 0.695506 0.0699474
0 1 0.220813
0 1 0.193606
0.310979 1 0.134478
0.742092 1 0.0770733
0.934096 0.998962 0.0301671
0 0 0.769726
0.227939 0 0.755825
0.652033 0 0.715541
0.934096 0 0.649653
0.934096 0 0.590723
0 0.257725 0.682261
0.107927 0.266819 0.600656
0.503456 0.22504 0.614496
0.934096 0.137392 0.572
0.934096 0.0872511 0.522591
0 0.550759 0.599664
0.0763409 0.528496 0.594476
0.416312 0.507347 0.593851
0.852338 0.445441 0.502495
0.934096 0.383841 0.433463
0 0.865354 0.527932
0 0.869795 0.520775
0.398169 0.804196 0.518563
0.795895 0.748547 0.441413
0.934096 0.69015 0.358648
0 1 0.496513
0 1 0.471351
0.302022 1 0.418097
0.738643 1 0.356619
0.934096 0.990463 0.297642
0 0 0.970108
0.229801 0 0.970108
0.647608 0 0.970108
0.934096 0 0.920531
0.934096 0 0.859373
0 0.254246 0.962539
0.116625 0.250996 0.943816
0.53901 0.206912 0.899855
0.934096 0.132815 0.848585
0.934096 0.0838331 0.801678
0 0.54609 0.878126
0.0320134 0.539651 0.852125
0.427741 0.510567 0.766217
0.809995 0.457038 0.760754
0.934096 0.384909 0.721553
0 0.858213 0.807157
0 0.864378 0.803906
0.446906 0.782803 0.784146
0.785306 0.74052 0.768292
0.934096 0.6972 0.691096
0 1 0.767712
0 1 0.753857
0.301991 1 0.709484
0.754635 1 0.671992
0.934096 0.976074 0.612421
0 0 0.970108
0.226963 0 0.970108
0.637736 0 0.970108
0.934096 0 0.970108
0.934096 0 0.970108
0 0.253422 0.970108
0.116335 0.247166 0.970108
0.548806 0.199252 0.970108
0.934096 0.130648 0.970108
0.934096 0.0845502 0.970108
0 0.542885 0.970108
0.00735485 0.542428 0.970108
0.44271 0.501015 0.970108
0.840146 0.446448 0.964248
0.934096 0.385336 0.95584
0 0.853178 0.970108
0 0.862028 0.970108
0.424475 0.79263 0.967865
0.793896 0.745037 0.927504
0.934096 0.715785 0.912566
0 1 0.970108
0 1 0.969772
0.306127 1 0.957885
0.812177 0.993637 0.93431
0.934096 0.951782 0.914519
