luts/darkies.cube
TITLE "Generated by Resolve"
LUT_3D_SIZE 9
0.101427 0.0595102 0.0437629
0.104891 0.0617533 0.0477302
0.108705 0.0642405 0.0519417
0.116945 0.0702373 0.0620432
0.1346 0.0822309 0.0827039
0.165652 0.0997635 0.112413
0.210712 0.127626 0.157336
0.271885 0.166506 0.218982
0.352773 0.217441 0.300206
0.105943 0.0663615 0.0523995
0.109422 0.0685283 0.0561074
0.113024 0.0710918 0.0604715
0.120592 0.0766766 0.070161
0.138964 0.0878614 0.0902419
0.170382 0.106294 0.120241
0.215656 0.134798 0.165728
0.277134 0.174151 0.227695
0.358343 0.225422 0.309804
0.11133 0.074403 0.062562
0.114473 0.0765087 0.0662089
0.117494 0.0787518 0.0700999
0.125231 0.084062 0.0795758
0.144198 0.0948501 0.0985275
0.175952 0.114534 0.129793
0.221546 0.143725 0.176089
0.283345 0.183429 0.238651
0.365377 0.235523 0.321843
0.122576 0.0918898 0.0860304
0.125505 0.0938888 0.0893873
0.129 0.0963455 0.0931106
0.137987 0.102113 0.101686
0.157809 0.114855 0.121553
0.190082 0.135851 0.154543
0.236439 0.166232 0.201907
0.298894 0.207431 0.266056
0.382605 0.261051 0.352331
0.146593 0.130312 0.128832
0.149844 0.132479 0.132265
0.153903 0.135256 0.136538
0.163455 0.141665 0.146349
0.184131 0.155871 0.168139
0.217426 0.178424 0.202701
0.264652 0.210666 0.252216
0.329229 0.2542 0.320363
0.416876 0.311589 0.414343
0.184695 0.19292 0.198276
0.188403 0.195499 0.202167
0.192386 0.198383 0.206561
0.20238 0.205615 0.217304
0.224018 0.22092 0.240436
0.258366 0.245609 0.277714
0.307713 0.280995 0.331868
0.375708 0.329351 0.408728
0.475624 0.390143 0.54905
0.237095 0.284871 0.298161
0.240818 0.287678 0.302251
0.245197 0.291096 0.307515
0.255604 0.299229 0.319493
0.278401 0.316869 0.345892
0.314458 0.34519 0.388907
0.366995 0.386236 0.458701
0.441108 0.445136 0.597574
0.600885 0.569558 0.738262
0.303227 0.419821 0.44683
0.306798 0.423255 0.453223
0.311055 0.427329 0.461158
0.321096 0.437766 0.480766
0.340932 0.462119 0.528023
0.375921 0.512505 0.60737
0.450095 0.605524 0.7028
0.588418 0.700359 0.796094
0.716854 0.775143 0.885573
0.402426 0.710414 0.739178
0.408896 0.716228 0.746349
0.416678 0.723064 0.754437
0.433799 0.737102 0.77174
0.471916 0.763561 0.804654
0.539315 0.794873 0.845502
0.635981 0.830869 0.895109
0.725231 0.880552 0.964691
0.811765 0.945876 1
0.1028 0.0608225 0.0508888
0.106096 0.0631113 0.0546426
0.109758 0.0655375 0.0587625
0.117845 0.071458 0.0686656
0.135729 0.0834363 0.0889296
0.166766 0.100908 0.118639
0.212161 0.129 0.164294
0.273259 0.168017 0.2262
0.354086 0.218845 0.307942
0.107271 0.0676432 0.0593881
0.11043 0.0698863 0.0629587
0.113939 0.072221 0.0668498
0.121508 0.0778668 0.0766308
0.140078 0.0888991 0.0959487
0.171298 0.107485 0.126589
0.216983 0.136248 0.172595
0.278386 0.175738 0.235019
0.359915 0.227039 0.3178
0.112444 0.0756847 0.0692607
0.11548 0.0776989 0.0726635
0.118608 0.0799268 0.0767681
0.126375 0.0851453 0.0859083
0.145403 0.0961013 0.104433
0.177188 0.115785 0.1364
0.222873 0.145205 0.183017
0.284611 0.185 0.245838
0.366735 0.237125 0.329946
0.123583 0.0930953 0.0920882
0.126589 0.09514 0.0952316
0.130068 0.0973983 0.0985428
0.138979 0.103243 0.107576
0.159045 0.116228 0.128267
0.191379 0.137316 0.161349
0.237705 0.167681 0.20885
0.300465 0.208988 0.273777
0.384161 0.26273 0.360861
0.147616 0.131548 0.135225
0.15111 0.133898 0.138933
0.15494 0.136507 0.142992
0.164523 0.143114 0.153079
0.185412 0.157366 0.175021
0.218555 0.179767 0.209628
0.266026 0.212284 0.259693
0.330694 0.255909 0.328481
0.418524 0.313344 0.42417
0.186084 0.194446 0.205478
0.189395 0.196902 0.209094
0.193683 0.199969 0.213519
0.2038 0.207172 0.224643
0.225315 0.222553 0.247807
0.259663 0.247242 0.285374
0.308965 0.282521 0.340002
0.377127 0.330907 0.418173
0.477378 0.39147 0.56553
0.238392 0.286625 0.306081
0.2421 0.289372 0.310292
0.246525 0.292882 0.315312
0.256794 0.300908 0.32752
0.27953 0.318517 0.354116
0.315847 0.347112 0.397986
0.36817 0.388006 0.471778
0.442725 0.447532 0.613413
0.604349 0.574411 0.748226
0.303975 0.421592 0.459083
0.307607 0.425269 0.466239
0.31194 0.429282 0.474311
0.321767 0.439857 0.495644
0.341466 0.4645 0.544472
0.377203 0.51635 0.622614
0.453376 0.610376 0.714
0.591638 0.703029 0.804868
0.718807 0.77734 0.893965
0.405524 0.714137 0.750225
0.411765 0.719921 0.756909
0.419211 0.726329 0.764813
0.436316 0.740185 0.781521
0.474556 0.766079 0.813565
0.542184 0.796826 0.853605
0.638712 0.832731 0.90338
0.726848 0.882536 0.973205
0.813046 0.94786 1
0.104189 0.0625315 0.0594797
0.107378 0.0645914 0.0628367
0.111208 0.0671702 0.0671244
0.119112 0.0729992 0.076936
0.137209 0.0848707 0.0959793
0.168276 0.102464 0.12668
0.213779 0.130785 0.172671
0.2748 0.169726 0.234882
0.356115 0.220798 0.317845
0.108721 0.0692912 0.0675822
0.111635 0.0713054 0.071046
0.115389 0.0737469 0.0751812
0.122789 0.0793927 0.0846571
0.141421 0.0902724 0.103105
0.172885 0.109163 0.134615
0.218616 0.138033 0.181216
0.280034 0.177386 0.244099
0.36173 0.229068 0.327871
0.113802 0.0772412 0.0773785
0.116518 0.079118 0.0805982
0.119814 0.0814069 0.0846418
0.12781 0.0864271 0.09337
0.146883 0.0976577 0.112367
0.178683 0.11751 0.144778
0.224475 0.146792 0.191501
0.286305 0.186938 0.2551
0.368582 0.238987 0.340047
0.12488 0.0946212 0.09897
0.127947 0.0966964 0.102266
0.131472 0.0989548 0.106004
0.140429 0.104875 0.115541
0.160586 0.117952 0.136355
0.192966 0.139116 0.169863
0.2392 0.169604 0.217792
0.302022 0.210758 0.283146
0.386038 0.264561 0.371572
0.149111 0.133333 0.143496
0.152621 0.135698 0.147189
0.156466 0.138308 0.151354
0.166049 0.14493 0.161532
0.186938 0.158984 0.183429
0.22002 0.18172 0.21857
0.267659 0.214023 0.269032
0.33228 0.257786 0.338552
0.420157 0.315343 0.436332
0.187549 0.196277 0.214054
0.190967 0.198856 0.217975
0.195239 0.201923 0.222629
0.205219 0.208957 0.233326
0.226719 0.224537 0.256962
0.261173 0.24918 0.294896
0.310643 0.284688 0.350408
0.378851 0.333196 0.430472
0.479713 0.393484 0.586908
0.239948 0.288563 0.31577
0.243626 0.291585 0.320302
0.248081 0.29482 0.325307
0.258564 0.30309 0.337713
0.281163 0.320806 0.364767
0.317479 0.349203 0.409171
0.369268 0.390097 0.488502
0.44535 0.451102 0.632471
0.608423 0.580255 0.760281
0.305119 0.424002 0.475517
0.308644 0.42739 0.482811
0.312795 0.431754 0.491936
0.322347 0.442176 0.514824
0.341695 0.467308 0.565118
0.379355 0.521294 0.640467
0.45713 0.615869 0.727169
0.595605 0.7066 0.815793
0.720684 0.779904 0.904112
0.408637 0.718547 0.762966
0.415229 0.724269 0.769726
0.422263 0.730236 0.776822
0.439246 0.74406 0.793439
0.477775 0.769116 0.824308
0.545754 0.799435 0.863951
0.641703 0.834882 0.91313
0.728756 0.884886 0.983383
0.814817 0.950439 1
0.108217 0.0669108 0.0817578
0.11133 0.0691386 0.0850538
0.114778 0.0714885 0.0886397
0.122225 0.0772259 0.0970626
0.141024 0.0884565 0.116945
0.172396 0.106813 0.149386
0.218112 0.135531 0.19646
0.279347 0.174746 0.260166
0.361059 0.226108 0.345846
0.112428 0.0735485 0.0892195
0.115419 0.0756542 0.0921035
0.118425 0.0779431 0.095613
0.12636 0.0833295 0.104555
0.145449 0.0941024 0.124743
0.17702 0.113634 0.157733
0.222934 0.14284 0.205203
0.284535 0.182498 0.269566
0.366659 0.234363 0.356237
0.117159 0.081239 0.097612
0.119753 0.0829786 0.100725
0.122896 0.0850996 0.104585
0.131289 0.0899367 0.113832
0.150881 0.1019 0.134386
0.182895 0.122103 0.167941
0.228687 0.15172 0.215579
0.290883 0.19205 0.280949
0.373587 0.244404 0.369024
0.128389 0.0987564 0.120516
0.131594 0.100893 0.123903
0.135149 0.103258 0.127886
0.144442 0.109255 0.137865
0.16466 0.12256 0.159335
0.197192 0.143923 0.193606
0.243732 0.174594 0.242588
0.306661 0.216037 0.309865
0.39118 0.270146 0.402045
0.153079 0.138079 0.166644
0.156725 0.140444 0.170382
0.160494 0.143099 0.17467
0.170138 0.149798 0.185092
0.191119 0.163943 0.207462
0.22446 0.186801 0.243381
0.272129 0.219364 0.295323
0.337118 0.263371 0.367468
0.425193 0.320546 0.477958
0.191775 0.201572 0.238865
0.195102 0.204074 0.242786
0.199496 0.20705 0.247456
0.209415 0.214237 0.258549
0.23093 0.229816 0.282643
0.265553 0.254765 0.321981
0.315267 0.290471 0.379751
0.383322 0.338811 0.470481
0.487205 0.399191 0.639918
0.244175 0.294408 0.343771
0.24799 0.297414 0.348302
0.252262 0.30071 0.353613
0.262776 0.309041 0.366598
0.285496 0.326879 0.394751
0.321706 0.355352 0.443824
0.372717 0.395407 0.543313
0.452827 0.461769 0.677852
0.618799 0.59559 0.792065
0.307424 0.430014 0.52813
0.31075 0.433494 0.536858
0.314809 0.438102 0.546868
0.323842 0.44921 0.570993
0.34435 0.476921 0.618402
0.385489 0.53637 0.681941
0.468025 0.631617 0.762341
0.606455 0.71545 0.845197
0.726604 0.787305 0.932631
0.417685 0.729976 0.796857
0.423621 0.735073 0.802701
0.430625 0.740688 0.809522
0.447562 0.753719 0.824948
0.486213 0.776959 0.853513
0.556069 0.806104 0.891752
0.649729 0.841199 0.941375
0.733944 0.891402 1
0.819547 0.957427 1
0.114244 0.0739757 0.115816
0.116869 0.0760204 0.119326
0.120134 0.0783856 0.123369
0.128191 0.0838331 0.13312
0.147402 0.0945754 0.153948
0.179324 0.114229 0.1879
0.225086 0.143267 0.23653
0.287022 0.183047 0.303273
0.369009 0.234607 0.394217
0.117968 0.080293 0.123827
0.120516 0.0821546 0.127214
0.123873 0.0843366 0.13135
0.132418 0.0891737 0.140902
0.151812 0.100908 0.162203
0.184115 0.121172 0.196521
0.229953 0.150698 0.245396
0.291951 0.190692 0.312856
0.374807 0.243 0.405447
0.122133 0.0870069 0.133242
0.125078 0.0887465 0.13669
0.12871 0.0909743 0.140902
0.137697 0.0964981 0.150958
0.157458 0.108934 0.172335
0.189639 0.129671 0.206836
0.236042 0.159808 0.256733
0.298375 0.200351 0.324895
0.381598 0.253117 0.419455
0.134554 0.105898 0.157748
0.137697 0.107927 0.161227
0.141634 0.110536 0.165606
0.151095 0.116716 0.175982
0.171298 0.130114 0.198032
0.204196 0.151751 0.233509
0.250828 0.182788 0.284611
0.314199 0.224552 0.35555
0.399191 0.278935 0.460197
0.159777 0.145892 0.205798
0.163119 0.148272 0.209476
0.167224 0.151064 0.213886
0.176898 0.157671 0.224811
0.198077 0.172244 0.248127
0.231418 0.195132 0.285466
0.279316 0.22797 0.340063
0.34464 0.272343 0.417762
0.432197 0.327916 0.566949
0.198459 0.210056 0.280705
0.201953 0.212512 0.284764
0.206134 0.215686 0.289616
0.216312 0.22298 0.301488
0.238056 0.238712 0.327123
0.272694 0.263676 0.368734
0.322423 0.299779 0.432273
0.389181 0.346548 0.557427
0.502495 0.411063 0.705928
0.250828 0.303853 0.391867
0.254658 0.306859 0.39707
0.258946 0.310246 0.402579
0.269612 0.318654 0.41706
0.292027 0.336461 0.451072
0.327199 0.36408 0.522667
0.378058 0.404395 0.633921
0.467491 0.481483 0.737575
0.63592 0.61944 0.841581
0.310307 0.440711 0.618067
0.313283 0.444862 0.625162
0.317357 0.449958 0.6336
0.326894 0.462531 0.650996
0.350423 0.496574 0.685817
0.396887 0.562753 0.739635
0.485679 0.655222 0.81532
0.621805 0.728817 0.891127
0.735866 0.799039 0.979431
0.43125 0.746944 0.848554
0.437415 0.751797 0.854063
0.44416 0.756954 0.860258
0.461158 0.768551 0.873945
0.501289 0.789685 0.900389
0.572259 0.816709 0.937331
0.661906 0.851637 0.987259
0.74255 0.902098 1
0.827329 0.968795 1
0.121416 0.0831311 0.16788
0.124376 0.0847944 0.171359
0.127855 0.0869764 0.175601
0.136767 0.0919661 0.185794
0.156466 0.104021 0.207736
0.188617 0.124468 0.243275
0.234882 0.154208 0.294987
0.297002 0.194232 0.366964
0.379248 0.245716 0.477501
0.125368 0.0885328 0.175875
0.128283 0.0902266 0.179568
0.132036 0.092546 0.18378
0.14107 0.0982223 0.19408
0.161044 0.110765 0.216464
0.193301 0.131594 0.252399
0.23975 0.161746 0.304662
0.302159 0.202182 0.377722
0.384497 0.253529 0.495094
0.130404 0.0958267 0.186191
0.133333 0.0977951 0.189654
0.137224 0.100298 0.193927
0.146365 0.106218 0.204547
0.166659 0.119219 0.227115
0.199313 0.140383 0.263508
0.245655 0.170794 0.316381
0.308644 0.211902 0.391043
0.390997 0.263401 0.518715
0.143359 0.115908 0.211795
0.146532 0.118151 0.215518
0.150637 0.120821 0.220096
0.160006 0.127001 0.230762
0.180743 0.140856 0.254261
0.213764 0.16286 0.29192
0.260822 0.194202 0.346853
0.324514 0.236332 0.425711
0.407324 0.288029 0.580438
0.168826 0.156817 0.262196
0.172396 0.159289 0.266285
0.176379 0.162005 0.270954
0.186297 0.168856 0.282429
0.207324 0.183429 0.307332
0.241169 0.206729 0.347768
0.28925 0.239979 0.407752
0.353429 0.283162 0.516228
0.443778 0.338766 0.679042
0.207614 0.22179 0.342321
0.211215 0.224414 0.347036
0.215366 0.22739 0.352071
0.22562 0.234821 0.365072
0.24741 0.250721 0.393118
0.282216 0.276051 0.441657
0.330327 0.310399 0.539956
0.398032 0.358389 0.672648
0.529427 0.433616 0.783108
0.259297 0.316228 0.475731
0.262699 0.318975 0.482963
0.266987 0.322347 0.492485
0.277043 0.330175 0.516472
0.298497 0.347082 0.569543
0.333928 0.375357 0.646464
0.389532 0.421775 0.722789
0.490745 0.515145 0.811322
0.656489 0.648829 0.906249
0.316258 0.460685 0.70573
0.320302 0.466011 0.710933
0.324727 0.472404 0.716625
0.336385 0.489387 0.730907
0.363424 0.529519 0.761349
0.416526 0.600565 0.814404
0.513451 0.68423 0.885847
0.642481 0.746151 0.955093
0.748196 0.814969 1
0.449012 0.768277 0.916213
0.454871 0.772 0.921065
0.461891 0.776379 0.926329
0.480674 0.786511 0.939315
0.522942 0.805493 0.964233
0.594659 0.83061 1
0.676982 0.866011 1
0.754055 0.91722 1
0.837308 0.984024 1
0.131579 0.0936904 0.237675
0.134951 0.0957198 0.241718
0.138506 0.0980392 0.246052
0.147906 0.103914 0.257023
0.168139 0.11696 0.281025
0.200793 0.137896 0.319844
0.247135 0.167956 0.376822
0.309056 0.207797 0.465644
0.388907 0.256184 0.635126
0.135866 0.100053 0.246464
0.139223 0.102205 0.250492
0.142855 0.104601 0.255024
0.152331 0.110658 0.266163
0.172824 0.123903 0.290303
0.205341 0.145068 0.329473
0.252018 0.175601 0.387625
0.313985 0.215503 0.482048
0.394446 0.264561 0.651682
0.141268 0.108125 0.25745
0.144488 0.110369 0.261433
0.148486 0.112795 0.266117
0.157931 0.119051 0.277424
0.178424 0.132418 0.301778
0.211078 0.154086 0.341634
0.257939 0.184771 0.400931
0.319677 0.224781 0.504524
0.40177 0.27512 0.669993
0.154665 0.129152 0.285206
0.157977 0.131319 0.289235
0.161944 0.134142 0.294057
0.171633 0.140536 0.305898
0.192432 0.154543 0.331487
0.22565 0.176867 0.373159
0.27274 0.208408 0.437278
0.334096 0.24799 0.565316
0.42121 0.302251 0.710048
0.180255 0.170794 0.340261
0.184009 0.173266 0.344762
0.1879 0.176074 0.349798
0.197772 0.183017 0.362585
0.219135 0.197696 0.390692
0.252827 0.221134 0.43859
0.299184 0.252567 0.534676
0.363165 0.29543 0.66833
0.465705 0.356954 0.774899
0.218875 0.236408 0.431724
0.222553 0.239078 0.43769
0.226505 0.242054 0.444511
0.236515 0.249287 0.463386
0.257328 0.264256 0.509544
0.290318 0.287861 0.59205
0.339834 0.323964 0.684688
0.414252 0.377981 0.771084
0.567742 0.470939 0.874907
0.266331 0.328771 0.633234
0.269932 0.331609 0.640681
0.274418 0.335256 0.64889
0.285008 0.343725 0.667094
0.30837 0.363043 0.702022
0.347509 0.395209 0.750744
0.407889 0.451423 0.814557
0.525185 0.561639 0.89958
0.678096 0.679591 0.988861
0.329091 0.496788 0.794354
0.333593 0.503334 0.799191
0.338628 0.511208 0.804517
0.35317 0.531762 0.819516
0.385199 0.577813 0.851713
0.445106 0.64715 0.906172
0.545113 0.712596 0.970275
0.664927 0.767697 1
0.763287 0.834577 1
0.472038 0.791348 1
0.478874 0.794766 1
0.486213 0.798611 1
0.505913 0.807568 1
0.550988 0.824079 1
0.620584 0.848249 1
0.694987 0.884535 1
0.7682 0.936446 1
0.850584 1 1
0.144808 0.108339 0.330694
0.148104 0.11046 0.335012
0.152071 0.112993 0.340108
0.161517 0.119203 0.352621
0.181979 0.132448 0.379675
0.214511 0.153719 0.425666
0.259281 0.18233 0.514534
0.319051 0.219837 0.651911
0.406958 0.275044 0.763287
0.149157 0.115175 0.34052
0.15256 0.117189 0.344991
0.156481 0.119905 0.350179
0.165988 0.126223 0.36286
0.186557 0.13962 0.39057
0.219257 0.161044 0.438178
0.2636 0.189548 0.534157
0.324239 0.227955 0.66688
0.413458 0.284016 0.774166
0.154498 0.123461 0.352941
0.157946 0.125734 0.357336
0.16199 0.128466 0.362737
0.171435 0.134676 0.37554
0.192218 0.148486 0.404105
0.224826 0.169863 0.455985
0.268956 0.198306 0.559365
0.330831 0.238056 0.684169
0.42182 0.295384 0.787472
0.167987 0.145052 0.384405
0.171511 0.147433 0.389502
0.175479 0.150057 0.394858
0.185168 0.156695 0.408606
0.205997 0.170535 0.440574
0.237659 0.191684 0.507912
0.282383 0.220676 0.618906
0.347601 0.263981 0.721798
0.444846 0.323995 0.819242
0.1935 0.187076 0.453666
0.196719 0.189319 0.460365
0.200656 0.192172 0.468666
0.210117 0.198459 0.489464
0.23003 0.212085 0.540429
0.261982 0.233707 0.620859
0.310567 0.267674 0.703212
0.381109 0.316686 0.78648
0.499245 0.382589 0.877638
0.22768 0.249714 0.611673
0.23093 0.25214 0.619806
0.235233 0.255192 0.629175
0.245106 0.262425 0.649622
0.267094 0.278843 0.686687
0.303609 0.30631 0.736339
0.357565 0.346975 0.798657
0.439658 0.40676 0.875883
0.615183 0.524804 0.985397
0.280552 0.35021 0.760494
0.284474 0.353445 0.765148
0.289372 0.357488 0.771023
0.300526 0.366918 0.784237
0.325597 0.38793 0.812268
0.366903 0.424933 0.855711
0.436759 0.499901 0.921904
0.565744 0.61593 1
0.700496 0.710674 1
0.352041 0.551888 0.899351
0.357351 0.559853 0.905074
0.363775 0.568826 0.911452
0.380194 0.591241 0.928161
0.417777 0.636652 0.964202
0.482063 0.692393 1
0.581567 0.740444 1
0.688899 0.792569 1
0.78088 0.858137 1
0.502174 0.816281 1
0.509529 0.819257 1
0.517968 0.822477 1
0.539422 0.829938 1
0.585061 0.84506 1
0.649271 0.8692 1
0.714458 0.907362 1
0.785672 0.96054 1
0.866545 1 1
0.159136 0.12491 0.466789
0.162142 0.126925 0.473533
0.166064 0.129427 0.482033
0.175128 0.135119 0.504829
0.194141 0.147082 0.556848
0.224948 0.166827 0.634455
0.27187 0.197635 0.711604
0.338216 0.241474 0.792279
0.433433 0.300542 0.88397
0.163149 0.131624 0.483055
0.166232 0.133547 0.490867
0.170077 0.135988 0.500664
0.178973 0.141741 0.524529
0.198062 0.153826 0.577234
0.229374 0.174166 0.650599
0.276951 0.205753 0.723644
0.343999 0.250324 0.803113
0.441505 0.310063 0.894087
0.167697 0.139544 0.505318
0.171099 0.141573 0.514229
0.17464 0.143938 0.524025
0.183536 0.149722 0.548592
0.202991 0.162097 0.601038
0.234836 0.183261 0.668116
0.283162 0.215564 0.737697
0.35108 0.261021 0.815778
0.45185 0.321538 0.906416
0.179492 0.159747 0.566003
0.182467 0.161776 0.574746
0.186496 0.164294 0.585153
0.195651 0.170428 0.608988
0.215717 0.183993 0.653315
0.249561 0.20705 0.707576
0.299092 0.241047 0.771359
0.369238 0.288853 0.84715
0.47985 0.351675 0.937285
0.202869 0.200855 0.665858
0.206622 0.203357 0.672465
0.210559 0.206241 0.679301
0.220645 0.213504 0.695048
0.242786 0.229129 0.726574
0.278416 0.25481 0.772457
0.330755 0.292287 0.831586
0.405432 0.345006 0.906447
0.551797 0.42417 1
0.242954 0.27071 0.766461
0.246754 0.273793 0.771282
0.251164 0.277134 0.776806
0.262242 0.285542 0.790066
0.285679 0.303746 0.817609
0.324239 0.333227 0.859754
0.381079 0.377401 0.918654
0.483864 0.453666 1
0.658869 0.588983 1
0.300587 0.379767 0.881132
0.304921 0.383474 0.885893
0.309758 0.38764 0.891005
0.321752 0.398367 0.904051
0.348302 0.422965 0.932631
0.395377 0.474372 0.980133
0.47837 0.568276 1
0.608133 0.665522 1
0.724468 0.743404 1
0.387228 0.622202 1
0.39353 0.629847 1
0.400107 0.638163 1
0.418112 0.657252 1
0.456657 0.692073 1
0.523354 0.730129 1
0.620432 0.769512 1
0.712932 0.820829 1
0.80061 0.88574 1
0.540673 0.841993 1
0.548516 0.844617 1
0.557397 0.847456 1
0.579065 0.854459 1
0.622003 0.869215 1
0.676722 0.895018 1
0.736004 0.934691 1
0.805051 0.988693 1
0.88539 1 1
