luts/Dark place 01.cube
TITLE "Generated by Resolve"
LUT_3D_SIZE 9
0 0 0
0 0 0
0 0 0
0 0 0
0.0256046 0 0
0.105425 0 0
0.183993 0 0
0.259083 0 0
0.326329 0 0
0 0 0
0 0 0
0 0 0
0 0 0
0.0715953 0 0
0.151156 0 0
0.229984 0 0
0.305074 0 0
0.37232 0 0
0 0 0
0 0 0
0 0 0
0.0369268 0 0
0.117403 0 0
0.196963 0 0
0.275792 0 0
0.350881 0.0120851 0
0.418051 0.0275731 0
0 0.0327459 0
0 0.0446784 0
0.00195315 0.0563821 0
0.0827344 0.0682231 0
0.16321 0.0801556 0
0.242756 0.0920272 0
0.321584 0.104417 0
0.396689 0.117815 0
0.463676 0.133135 0
0 0.138476 0
0 0.150256 0
0.0477607 0.162127 0
0.128542 0.173968 0
0.208881 0.185763 0
0.288563 0.197757 0
0.367391 0.210147 0
0.442451 0.223514 0
0.509483 0.238865 0
0 0.24416 0
0.0128328 0.256001 0
0.0935683 0.267857 0
0.17435 0.279698 0
0.254566 0.291386 0
0.334371 0.303502 0
0.413199 0.315892 0.00991836
0.488121 0.329122 0.0230869
0.555276 0.34461 0.0384985
0 0.349767 0
0.0586404 0.36173 0
0.139376 0.373602 0.00633249
0.220157 0.385443 0.0181277
0.300374 0.397131 0.0297551
0.380179 0.409232 0.0418097
0.459007 0.421622 0.0541238
0.533852 0.434791 0.067216
0.601083 0.45034 0.0827039
0.0243229 0.455436 0.0267643
0.104433 0.467475 0.0387274
0.185168 0.479332 0.0505379
0.265705 0.490944 0.062089
0.346166 0.502861 0.0739605
0.425986 0.514977 0.0860151
0.504814 0.527367 0.0983291
0.579644 0.54052 0.111421
0.646891 0.556085 0.126909
0.0703288 0.561105 0.0711376
0.150439 0.573144 0.0831159
0.231174 0.585 0.0949264
0.311696 0.596597 0.106462
0.392172 0.60853 0.118334
0.471977 0.620645 0.130388
0.550759 0.63299 0.142687
0.62565 0.646189 0.15581
0.692882 0.661753 0.171283
0 0 0
0 0 0
0 0 0
0 0 0
0.0316777 0 0
0.111284 0 0
0.190051 0 0
0.265156 0 0
0.33228 0 0
0 0 0
0 0 0
0 0 0
0 0 0
0.0776684 0 0
0.157214 0 0
0.236042 0 0
0.311147 0 0
0.378134 0 0
0 0 0
0 0 0
0 0 0
0.0429999 0 0
0.123476 0 0
0.203021 0 0
0.281849 0.00454719 0
0.356954 0.0179599 0
0.423926 0.0332647 0
0 0.0386206 0
0 0.0504005 0
0.00801099 0.0622568 0
0.0888075 0.0741131 0
0.169009 0.0857862 0
0.248829 0.0979019 0
0.327642 0.110292 0
0.402747 0.12369 0
0.469734 0.13901 0.0144656
0 0.14435 0
0 0.15613 0
0.0538186 0.168002 0
0.134615 0.179843 0
0.214817 0.191531 0.00572213
0.294636 0.203647 0.0177768
0.373465 0.216022 0.0301061
0.448447 0.229328 0.0433356
0.515541 0.244739 0.0586709
0 0.249973 0.0028687
0.0188907 0.261875 0.0146944
0.0996262 0.273732 0.0265049
0.180392 0.285557 0.0382696
0.260624 0.297261 0.0499275
0.340444 0.309377 0.0619821
0.419257 0.321767 0.0743114
0.494102 0.33492 0.0873884
0.561349 0.350484 0.102876
0 0.355581 0.0469368
0.0646982 0.367605 0.0589151
0.145434 0.379477 0.0707103
0.226047 0.39115 0.0823377
0.306432 0.403006 0.0941329
0.386252 0.415122 0.106188
0.464988 0.427436 0.118441
0.53991 0.44065 0.131609
0.607156 0.45623 0.147082
0.030396 0.461326 0.0911421
0.110506 0.47335 0.10312
0.191241 0.485206 0.114916
0.271763 0.496803 0.126467
0.352239 0.508736 0.138338
0.432044 0.520851 0.150393
0.510658 0.533028 0.162509
0.585718 0.546395 0.175814
0.652949 0.561959 0.191287
0.0763867 0.566995 0.135531
0.156497 0.579019 0.147494
0.237232 0.590875 0.159304
0.317754 0.602472 0.17084
0.39823 0.614404 0.182712
0.47805 0.62652 0.194781
0.556603 0.638666 0.206851
0.631708 0.652064 0.220188
0.698955 0.667628 0.235676
0 0 0
0 0 0
0 0 0
0 0 0
0.0377356 0 0
0.117296 0 0
0.196109 0 0
0.271214 0 0
0.338277 0 0
0 0 0
0 0 0
0 0 0
0.00325017 0 0
0.0836347 0 0
0.163272 0 0
0.2421 0 0
0.317205 0 0
0.384176 0 0
0 0 0
0 0 0
0 0 0
0.0490578 0 0
0.12929 0 0
0.209079 0 0
0.287907 0.0104219 0.00610361
0.36286 0.0236973 0.0193027
0.429999 0.0391394 0.0346838
0 0.0443427 0
0 0.0562753 0
0.0140688 0.0681315 0.00251774
0.0948653 0.0799878 0.014313
0.175067 0.0916609 0.0259251
0.254887 0.103777 0.037995
0.333715 0.116167 0.050309
0.40856 0.12932 0.0634012
0.475792 0.144884 0.0788891
0 0.149981 0.0229496
0 0.162005 0.0349126
0.0598764 0.173877 0.0467231
0.140673 0.185718 0.0585184
0.220874 0.197406 0.0701457
0.300694 0.209522 0.0822003
0.379522 0.221897 0.0945144
0.454353 0.235065 0.107607
0.521599 0.250629 0.123095
0 0.255726 0.067155
0.0249485 0.26775 0.079118
0.105684 0.279606 0.0909285
0.186221 0.291203 0.102464
0.266682 0.303136 0.114351
0.346502 0.315251 0.126406
0.425315 0.327642 0.13872
0.50016 0.340795 0.151812
0.567407 0.356359 0.1673
0 0.361456 0.11136
0.0707561 0.37348 0.123323
0.151492 0.385351 0.135134
0.232029 0.396948 0.14667
0.31249 0.408881 0.158556
0.392309 0.420996 0.170611
0.470985 0.433249 0.182803
0.545968 0.44654 0.196017
0.613214 0.462104 0.211505
0.0364538 0.467201 0.155566
0.116564 0.479225 0.167529
0.197238 0.491035 0.179278
0.277821 0.502678 0.190875
0.358297 0.514611 0.202762
0.438117 0.526726 0.214817
0.51667 0.538872 0.226886
0.591775 0.55227 0.240223
0.659022 0.567834 0.255711
0.0824445 0.572869 0.199954
0.162554 0.584894 0.211917
0.243091 0.596567 0.223529
0.323827 0.608347 0.235264
0.404288 0.620279 0.247135
0.484001 0.632303 0.259098
0.562676 0.644541 0.271275
0.637766 0.657938 0.284611
0.705013 0.673503 0.300099
0 0 0
0 0 0
0 0 0
0 0 0
0.0437629 0 0
0.123323 0 0
0.202152 0 0
0.277256 0 0
0.344228 0 0.010956
0 0 0
0 0 0
0 0 0
0.00929274 0 0
0.0894942 0 0.00238041
0.169314 0 0.014435
0.248142 0 0.0267643
0.323171 0 0.0400397
0.390219 0 0.0553292
0 0 0
0 0 0.011368
0 0 0.0231785
0.0551003 0 0.0349584
0.135302 0 0.0465858
0.215122 0.00389105 0.0586404
0.29395 0.0162661 0.0709697
0.368841 0.0294804 0.0841077
0.436027 0.0449989 0.0995346
0 0.0501259 0.0436408
0 0.0621195 0.0555734
0.0201114 0.073991 0.0673838
0.100771 0.0857099 0.0790417
0.181109 0.0975204 0.0907912
0.260929 0.109636 0.102846
0.339742 0.122011 0.115175
0.414588 0.135164 0.128267
0.481834 0.150729 0.14374
0 0.15584 0.0878157
0 0.167865 0.0997787
0.065919 0.179721 0.111589
0.146441 0.191318 0.123125
0.226917 0.20325 0.134997
0.306737 0.215366 0.147066
0.385382 0.227588 0.159213
0.460395 0.240909 0.172473
0.527642 0.256474 0.187945
0 0.26157 0.132021
0.0309911 0.273594 0.143984
0.111727 0.285466 0.155795
0.192248 0.297063 0.16733
0.272725 0.308995 0.179202
0.352529 0.321111 0.191257
0.431098 0.333242 0.203342
0.506203 0.346639 0.216678
0.573449 0.362219 0.232166
0 0.367315 0.176226
0.0767987 0.379339 0.18819
0.157534 0.391196 0.2
0.238056 0.402792 0.211536
0.318532 0.414725 0.223407
0.398337 0.426841 0.235477
0.476905 0.438972 0.247547
0.55201 0.452384 0.260884
0.619257 0.467948 0.276371
0.0424964 0.473045 0.220432
0.122591 0.485069 0.232395
0.203067 0.496681 0.243946
0.283864 0.508537 0.255741
0.364324 0.52047 0.267613
0.444114 0.532555 0.279652
0.522713 0.544717 0.291752
0.597803 0.558129 0.305089
0.665049 0.573693 0.320577
0.0884871 0.578714 0.264805
0.168597 0.590753 0.276783
0.249073 0.60235 0.288334
0.329854 0.614206 0.30013
0.41033 0.626139 0.312001
0.489967 0.638086 0.323903
0.568704 0.650385 0.336141
0.643809 0.663798 0.349477
0.710979 0.679286 0.364889
0 0 0
0 0 0
0 0 0.000564584
0 0 0.0123445
0.049485 0 0.0239872
0.12929 0 0.0360266
0.208118 0 0.0483558
0.282979 0 0.0614633
0.35021 0 0.076936
0 0 0.0211643
0 0 0.0331273
0 0 0.0449378
0.015259 0 0.056733
0.0954757 0 0.0683604
0.17528 0 0.080415
0.254108 0 0.0927291
0.328954 0 0.105821
0.396185 0 0.121309
0 0 0.0653697
0 0 0.0773327
0 0 0.0891432
0.0610208 0 0.100893
0.141283 0 0.112566
0.221088 0.00967422 0.12462
0.299916 0.0220645 0.13695
0.374762 0.0352178 0.150042
0.441993 0.050782 0.165515
0 0.0558785 0.109575
0 0.0679026 0.121538
0.0260777 0.0797742 0.133349
0.1066 0.091371 0.144884
0.187076 0.103304 0.156771
0.266896 0.115419 0.168826
0.345617 0.127703 0.181064
0.420554 0.140963 0.194247
0.4878 0.156527 0.20972
0 0.161624 0.15378
0 0.173648 0.165759
0.07187 0.185489 0.177539
0.152407 0.197101 0.189105
0.232883 0.209033 0.200977
0.312703 0.221149 0.213031
0.391287 0.23331 0.225132
0.466361 0.246693 0.238453
0.533608 0.262257 0.253925
0 0.267353 0.197986
0.0369573 0.279393 0.209964
0.11754 0.291096 0.221607
0.198215 0.302846 0.23331
0.278691 0.314778 0.245182
0.358511 0.326894 0.257237
0.437064 0.339025 0.269306
0.512169 0.352438 0.282658
0.579416 0.368002 0.298131
0.00265507 0.373098 0.242191
0.0827649 0.385122 0.25417
0.163241 0.396735 0.265721
0.244022 0.408576 0.277516
0.324498 0.420508 0.289387
0.404105 0.432425 0.301244
0.482872 0.44477 0.313527
0.557977 0.458167 0.326863
0.625223 0.473732 0.342336
0.0484627 0.478828 0.286397
0.128573 0.490867 0.298375
0.209049 0.50248 0.309926
0.28983 0.514321 0.321721
0.370306 0.526253 0.333593
0.449851 0.538125 0.345403
0.528679 0.5505 0.357733
0.603784 0.563912 0.371069
0.671016 0.579477 0.386542
0.0944533 0.584512 0.330785
0.174548 0.596521 0.342748
0.255039 0.608148 0.354314
0.335821 0.619989 0.36611
0.416297 0.631922 0.377981
0.495857 0.643793 0.389792
0.57467 0.656168 0.402106
0.649775 0.669581 0.415457
0.716747 0.684886 0.430686
0 0 0.0450904
0 0 0.0569772
0 0 0.0687877
0 0 0.0804913
0.055314 0 0.0922103
0.135134 0 0.104265
0.213962 0 0.116594
0.288792 0 0.129671
0.356039 0 0.145159
0 0 0.0893873
0 0 0.10135
0 0 0.113161
0.0208591 0 0.124727
0.101305 0 0.136584
0.181109 0 0.148638
0.259937 0 0.160967
0.334783 0 0.17406
0.402029 0 0.189532
0 0 0.133593
0 0 0.145571
0 0 0.157366
0.0666361 0 0.168917
0.147112 0.00321965 0.180789
0.226917 0.0153353 0.192844
0.305486 0.0274815 0.204929
0.380591 0.0408789 0.218265
0.447837 0.0564431 0.233738
0 0.0615396 0.177798
0 0.073579 0.189776
0.0319219 0.0854353 0.201572
0.112444 0.0970321 0.213123
0.19292 0.108965 0.224994
0.272725 0.12108 0.237049
0.351293 0.133211 0.249134
0.426398 0.146624 0.26247
0.493629 0.162188 0.277943
0 0.167285 0.222004
0 0.179309 0.233982
0.0776379 0.191089 0.245701
0.158251 0.202762 0.257328
0.238727 0.214694 0.2692
0.318532 0.22681 0.281254
0.397101 0.238956 0.293339
0.472206 0.252354 0.306676
0.539437 0.267918 0.322148
0 0.273014 0.266209
0.0427863 0.285054 0.278187
0.123262 0.296666 0.289738
0.204059 0.308507 0.301534
0.28452 0.320439 0.313405
0.364218 0.332433 0.325338
0.442908 0.344686 0.337545
0.517998 0.358099 0.350881
0.585214 0.373632 0.366323
0.00848402 0.378759 0.310414
0.0885481 0.390738 0.322347
0.16907 0.402396 0.333944
0.249866 0.414237 0.345739
0.330327 0.426184 0.35761
0.409888 0.438041 0.369421
0.488716 0.450431 0.38175
0.563806 0.463828 0.395087
0.630869 0.479225 0.410391
0.0542916 0.484504 0.354635
0.134218 0.496345 0.366415
0.214878 0.508141 0.378149
0.295659 0.519982 0.389944
0.376135 0.531914 0.401816
0.455695 0.543786 0.413626
0.534508 0.556161 0.425956
0.609613 0.569574 0.439292
0.6766 0.584878 0.45452
0.100298 0.590173 0.399008
0.180133 0.601938 0.410727
0.260868 0.613809 0.422538
0.341665 0.62565 0.434333
0.421897 0.637354 0.445975
0.501686 0.649454 0.458015
0.580514 0.66183 0.470329
0.655604 0.675242 0.48368
0.722591 0.690547 0.498909
0 0 0.114534
0 0 0.126513
0 0 0.138308
0 0 0.149966
0.0610819 0 0.16173
0.140887 0 0.173785
0.219654 0 0.186053
0.29456 0 0.199207
0.361791 0 0.214679
0 0 0.158923
0 0 0.170886
0 0 0.182696
0.0265965 0 0.194232
0.107057 0 0.206119
0.186877 0 0.218158
0.265507 0 0.230304
0.340536 0 0.24358
0.407782 0 0.259068
0 0 0.203128
0 0 0.215091
0 0 0.226795
0.0724041 0 0.238437
0.152865 0.00881971 0.250324
0.232685 0.0209201 0.262379
0.311254 0.0330663 0.274449
0.386343 0.0464637 0.287785
0.45359 0.0620279 0.303273
0 0.0671244 0.247333
0 0.0791638 0.259297
0.0374151 0.0907759 0.270863
0.118196 0.102617 0.282643
0.198672 0.114549 0.29453
0.278492 0.126665 0.306584
0.357046 0.138796 0.318654
0.432151 0.152209 0.331991
0.499397 0.167773 0.347478
0 0.172869 0.291539
0.00274662 0.184894 0.303502
0.0832227 0.196506 0.315068
0.164004 0.208362 0.326848
0.24448 0.220295 0.338735
0.324025 0.232151 0.35053
0.402853 0.244541 0.36286
0.477958 0.257954 0.376211
0.545205 0.273503 0.391684
0 0.278614 0.335744
0.0485542 0.290639 0.347707
0.12903 0.302251 0.359274
0.209812 0.314092 0.371054
0.290288 0.326024 0.38294
0.369833 0.337896 0.394736
0.448661 0.350271 0.407065
0.523766 0.363684 0.420417
0.590906 0.379156 0.435798
0.0142519 0.384344 0.37995
0.0942397 0.396262 0.391806
0.174838 0.40798 0.403479
0.255619 0.419837 0.415259
0.33608 0.431754 0.427131
0.415641 0.443626 0.438956
0.494469 0.456016 0.45127
0.569574 0.469429 0.464622
0.636545 0.484733 0.47985
0.0600443 0.490089 0.424155
0.13991 0.501869 0.435874
0.22063 0.513726 0.447684
0.301427 0.525567 0.459464
0.381735 0.537346 0.471199
0.461448 0.549371 0.483162
0.540276 0.561761 0.495476
0.615305 0.575097 0.508751
0.682353 0.590478 0.524056
0.105959 0.595682 0.468467
0.185901 0.607538 0.480262
0.266636 0.619394 0.492073
0.347417 0.631235 0.503853
0.427634 0.642924 0.51548
0.507439 0.655039 0.527535
0.586267 0.66743 0.539864
0.661158 0.680629 0.553002
0.728344 0.696147 0.568429
0 0 0.183108
0 0 0.195087
0 0 0.206882
0 0 0.218433
0.0668956 0 0.230304
0.1467 0 0.242359
0.225269 0 0.254444
0.300374 0 0.267781
0.36762 0 0.283253
0 0 0.227481
0 0 0.23946
0 0 0.251225
0.0324102 0 0.262806
0.112886 0 0.274678
0.192691 0 0.286732
0.27126 0 0.298817
0.346349 0 0.312154
0.413596 0 0.327626
0 0 0.271702
0 0 0.283665
0 0 0.295293
0.0782177 0.00251774 0.307012
0.158694 0.0144503 0.318898
0.238407 0.0264897 0.330861
0.317067 0.0387121 0.343023
0.392157 0.0521096 0.356359
0.459403 0.0676738 0.371847
0 0.0727703 0.315908
0 0.0848096 0.327871
0.0432288 0.0964065 0.339422
0.12401 0.108263 0.351217
0.204486 0.120195 0.363104
0.284077 0.132082 0.374929
0.36286 0.144442 0.387228
0.437964 0.157855 0.400565
0.505074 0.173281 0.415915
0 0.178515 0.360113
0.00840772 0.190402 0.371939
0.0890364 0.202152 0.383627
0.169818 0.213993 0.395422
0.250294 0.22594 0.407309
0.329854 0.237797 0.419104
0.408667 0.250187 0.431434
0.483772 0.263584 0.44477
0.550759 0.278904 0.459998
0 0.284245 0.404318
0.0541085 0.296025 0.416037
0.134844 0.307897 0.427848
0.215625 0.319738 0.439628
0.296101 0.33167 0.451514
0.375647 0.343526 0.46331
0.454475 0.355917 0.475639
0.52958 0.369329 0.488975
0.596567 0.384634 0.504204
0.0200656 0.38999 0.448524
0.0999161 0.40177 0.460243
0.180652 0.413626 0.472053
0.261433 0.425467 0.483833
0.34165 0.437156 0.49546
0.421454 0.449271 0.507515
0.500282 0.461662 0.519844
0.575387 0.475059 0.533181
0.642359 0.490379 0.548409
0.0658579 0.49572 0.492729
0.145724 0.5075 0.504448
0.226459 0.519371 0.516258
0.30724 0.531212 0.528038
0.387457 0.542901 0.539666
0.467262 0.555016 0.55172
0.54609 0.567391 0.56405
0.621057 0.580682 0.577264
0.688167 0.596124 0.592615
0.111711 0.601251 0.536965
0.191714 0.613169 0.548836
0.27245 0.62504 0.560647
0.353185 0.636835 0.572381
0.433448 0.648569 0.584054
0.513252 0.660685 0.596109
0.592081 0.67306 0.608438
0.666926 0.686229 0.62153
0.734157 0.701793 0.637003
0 0 0.249287
0 0 0.26125
0 0 0.272847
0 0 0.284596
0.0728466 0 0.296483
0.152667 0 0.308537
0.23122 0 0.320607
0.306325 0 0.333944
0.373571 0 0.349432
0 0 0.29366
0 0 0.305638
0 0 0.317189
0.0383612 0 0.328984
0.118837 0 0.340856
0.198642 0 0.352895
0.277211 0 0.364981
0.352316 0 0.378317
0.419562 0 0.393805
0 0 0.337865
0 0 0.349844
0.0033875 0 0.361395
0.0841688 0.00830091 0.37319
0.164645 0.0202335 0.385061
0.24419 0.0320897 0.396872
0.323018 0.04448 0.409201
0.398123 0.0578927 0.422538
0.465309 0.0733959 0.437964
0 0.0785534 0.382071
0 0.0905165 0.393973
0.0491798 0.10219 0.4056
0.129976 0.114046 0.417395
0.210452 0.125978 0.429267
0.289998 0.137835 0.441077
0.368826 0.150225 0.453407
0.443915 0.163622 0.466743
0.510964 0.179004 0.482033
0 0.184283 0.426276
0.014313 0.196109 0.438041
0.0949874 0.207935 0.449805
0.175784 0.219776 0.461601
0.256138 0.231601 0.473365
0.335805 0.24358 0.485283
0.414633 0.255955 0.497612
0.489723 0.269368 0.510948
0.55671 0.284672 0.526177
0 0.290028 0.470481
0.0600595 0.301808 0.4822
0.140795 0.313664 0.494011
0.221592 0.325521 0.505806
0.301793 0.337194 0.517433
0.381613 0.34931 0.529488
0.460441 0.3617 0.541817
0.535363 0.374945 0.554986
0.602518 0.390417 0.570382
0.0258335 0.39559 0.514519
0.105867 0.407538 0.526421
0.186603 0.419409 0.538216
0.267384 0.43125 0.550011
0.347601 0.442939 0.561639
0.42742 0.455055 0.573693
0.506249 0.46743 0.586023
0.581079 0.480598 0.599115
0.648325 0.496162 0.614588
0.0715648 0.501259 0.558648
0.151675 0.513283 0.570626
0.23241 0.525139 0.582422
0.313191 0.536995 0.594217
0.393408 0.548669 0.605844
0.473228 0.560784 0.617899
0.552041 0.573175 0.630228
0.626886 0.586328 0.64332
0.694133 0.601892 0.658793
0.117556 0.606928 0.603037
0.197665 0.618952 0.615
0.278401 0.630808 0.62681
0.358923 0.642405 0.638346
0.439399 0.654337 0.650233
0.519219 0.666453 0.662287
0.598016 0.678828 0.674586
0.672877 0.691997 0.687694
0.739605 0.707057 0.702678
