luts/Dark green BMP4K.cube
TITLE "Generated by Resolve"
LUT_3D_SIZE 9
0.0334936 0.0341955 0.0341955
0.0495308 0.0410773 0.0369879
0.0875105 0.0559396 0.0441291
0.186252 0.0856794 0.046128
0.438346 0.118227 0.062562
0.710399 0.183841 0.110521
0.833951 0.27361 0.138918
0.910643 0.366537 0.160952
0.911803 0.434806 0.169207
0.0378882 0.0485695 0.0409552
0.049012 0.0523384 0.0420996
0.107256 0.0740368 0.0509957
0.251286 0.108659 0.0398566
0.518807 0.139361 0.0762798
0.737713 0.182605 0.115068
0.843198 0.262486 0.139559
0.91075 0.362646 0.16054
0.911757 0.430472 0.168612
0.0500038 0.130556 0.0894026
0.0620279 0.135744 0.0827192
0.0933242 0.154955 0.091249
0.230732 0.162875 0.0746166
0.527993 0.22031 0.0850996
0.749767 0.28629 0.125994
0.862959 0.344076 0.15079
0.911421 0.410254 0.16611
0.911894 0.437308 0.169512
0.0459449 0.24239 0.150744
0.0505379 0.241611 0.139498
0.0792554 0.250706 0.125933
0.143877 0.301823 0.12314
0.397482 0.348348 0.119615
0.715892 0.351034 0.128344
0.862898 0.441703 0.162631
0.91371 0.532998 0.183154
0.914397 0.564569 0.188113
0.0814679 0.399832 0.224216
0.0803388 0.395209 0.207156
0.0876326 0.390936 0.180026
0.134112 0.422538 0.166964
0.30016 0.523842 0.185214
0.603418 0.606348 0.212726
0.821805 0.514015 0.167285
0.914885 0.585641 0.191546
0.916075 0.631174 0.199268
0.128786 0.583932 0.328328
0.127489 0.578958 0.302525
0.122988 0.561822 0.246311
0.152438 0.57499 0.216724
0.261769 0.633524 0.20705
0.515084 0.726635 0.243748
0.751583 0.779263 0.278996
0.892943 0.681239 0.20528
0.917922 0.695308 0.210834
0.170077 0.739406 0.465614
0.169726 0.738094 0.440269
0.167376 0.729397 0.352056
0.167834 0.722911 0.282811
0.248615 0.749798 0.23946
0.449012 0.804974 0.263462
0.678157 0.859907 0.306645
0.827893 0.89836 0.350378
0.920134 0.844877 0.264057
0.200351 0.850584 0.610834
0.200504 0.851087 0.598016
0.200778 0.852262 0.516777
0.200015 0.849378 0.398123
0.268559 0.866056 0.308095
0.421057 0.884978 0.307057
0.610361 0.936797 0.346944
0.751766 0.946822 0.369329
0.870008 0.94995 0.389059
0.219104 0.919295 0.719692
0.219104 0.919295 0.719051
0.219104 0.919295 0.657694
0.219104 0.919295 0.542107
0.244251 0.926711 0.431983
0.398428 0.942672 0.350088
0.558099 0.944503 0.360403
0.701259 0.947097 0.376135
0.821607 0.949096 0.38558
0.0348821 0.0424353 0.0451057
0.0432136 0.0463569 0.0487221
0.0783551 0.0607767 0.0567941
0.186526 0.0903487 0.0589914
0.43856 0.125322 0.0631571
0.710109 0.201389 0.111788
0.837034 0.276631 0.139696
0.910857 0.368872 0.161196
0.911803 0.434806 0.169207
0.0352789 0.0505837 0.0524453
0.0460059 0.0542763 0.0552529
0.107469 0.078996 0.0659495
0.254108 0.111315 0.043183
0.509163 0.148836 0.0755627
0.726726 0.190661 0.113756
0.836744 0.27129 0.139193
0.910765 0.364446 0.160739
0.911788 0.433753 0.169055
0.0374456 0.122286 0.120912
0.061799 0.129305 0.10898
0.127123 0.147616 0.102983
0.297108 0.162936 0.0587625
0.563546 0.229084 0.091249
0.745754 0.271 0.123796
0.84863 0.310887 0.144961
0.910872 0.371176 0.161501
0.911589 0.419974 0.167285
0.0497749 0.266758 0.233005
0.0508888 0.273075 0.200076
0.0770581 0.246632 0.146258
0.185306 0.295613 0.13254
0.476631 0.286503 0.0905776
0.755917 0.365637 0.136172
0.870771 0.447745 0.164614
0.913466 0.521523 0.181399
0.914168 0.553155 0.186313
0.0986343 0.467597 0.375967
0.0943008 0.450492 0.320546
0.0834669 0.407919 0.229725
0.1458 0.418235 0.180377
0.345434 0.512779 0.191455
0.655787 0.524102 0.161791
0.85005 0.518807 0.171984
0.915221 0.598032 0.193637
0.916106 0.631662 0.199359
0.142092 0.63444 0.510613
0.140597 0.628702 0.473274
0.13193 0.595865 0.343114
0.14435 0.576104 0.257618
0.285985 0.623301 0.220859
0.551537 0.716381 0.249989
0.771557 0.757092 0.259022
0.909712 0.670054 0.205325
0.917983 0.697475 0.211246
0.176104 0.761639 0.634363
0.175753 0.760403 0.609934
0.17261 0.748775 0.487892
0.168658 0.734051 0.36379
0.266545 0.752361 0.268742
0.473777 0.797284 0.277958
0.697749 0.851972 0.31426
0.841505 0.885222 0.351278
0.92137 0.805798 0.237842
0.202396 0.858183 0.739635
0.202487 0.858518 0.72842
0.202274 0.857725 0.639002
0.20145 0.854734 0.511421
0.252979 0.863325 0.385534
0.438407 0.881636 0.334127
0.62269 0.927153 0.361196
0.763195 0.948547 0.386084
0.885451 0.951003 0.399023
0.219104 0.919295 0.809689
0.219104 0.919295 0.809079
0.219104 0.919295 0.748745
0.219104 0.919295 0.643702
0.219257 0.919356 0.526528
0.406058 0.946303 0.392035
0.569238 0.947707 0.394965
0.710307 0.949371 0.401114
0.829129 0.950713 0.402426
0.036759 0.0618296 0.0707256
0.0411688 0.0762951 0.0884871
0.0640421 0.0777447 0.0851606
0.143084 0.116091 0.10988
0.354208 0.194812 0.145296
0.672892 0.268788 0.135958
0.827787 0.314961 0.141863
0.910994 0.38024 0.162509
0.911818 0.435248 0.169268
0.0352789 0.0880598 0.101274
0.0422827 0.0948959 0.111101
0.0793927 0.103487 0.112993
0.194583 0.149599 0.136507
0.441871 0.21297 0.144335
0.703593 0.272786 0.132265
0.83534 0.311055 0.142733
0.910903 0.376852 0.162112
0.911818 0.435523 0.169299
0.0362097 0.168368 0.200855
0.0543984 0.144594 0.158373
0.116701 0.147982 0.149981
0.285069 0.180591 0.144106
0.547295 0.2159 0.107424
0.737575 0.250095 0.120485
0.840955 0.29189 0.141817
0.910552 0.359533 0.160159
0.911696 0.426337 0.168093
0.0423896 0.230228 0.266682
0.0437018 0.234318 0.243656
0.101488 0.26479 0.233417
0.263691 0.290517 0.160327
0.5458 0.304051 0.11989
0.756329 0.384756 0.13875
0.855009 0.444465 0.161807
0.91281 0.488472 0.176532
0.913466 0.521141 0.181353
0.0722515 0.360082 0.394675
0.0838178 0.408972 0.399832
0.0990768 0.469368 0.363775
0.138155 0.431907 0.250919
0.378943 0.507164 0.220295
0.699092 0.477409 0.147356
0.862989 0.54139 0.17734
0.915572 0.61149 0.195926
0.916167 0.634318 0.199832
0.123232 0.561959 0.572473
0.134661 0.606241 0.579736
0.143313 0.638956 0.506172
0.13521 0.608301 0.380835
0.294667 0.627283 0.272847
0.571099 0.705791 0.279271
0.789532 0.70753 0.231266
0.916274 0.670695 0.206226
0.91809 0.701411 0.211948
0.168826 0.734478 0.730678
0.173846 0.753307 0.734783
0.177722 0.767666 0.643961
0.174655 0.756268 0.51693
0.254871 0.75848 0.373312
0.490486 0.791363 0.326711
0.705745 0.841154 0.343267
0.854948 0.86952 0.366384
0.920668 0.782162 0.227359
0.201205 0.853758 0.839323
0.203204 0.861082 0.837964
0.204044 0.864134 0.760021
0.203372 0.861677 0.651438
0.207507 0.858366 0.525979
0.452216 0.88333 0.395315
0.63061 0.914916 0.403021
0.774838 0.950011 0.420218
0.902663 0.953231 0.421942
0.219104 0.919295 0.904112
0.219104 0.919295 0.903624
0.219104 0.919295 0.836133
0.219104 0.919295 0.747539
0.219104 0.919295 0.646464
0.400763 0.947158 0.497154
0.583535 0.952514 0.455222
0.719936 0.953338 0.449821
0.839673 0.953689 0.437034
0.0369268 0.0957198 0.115221
0.0356756 0.121447 0.149691
0.0507515 0.131991 0.15523
0.102739 0.165911 0.172656
0.278065 0.226062 0.18349
0.563851 0.332433 0.233967
0.775464 0.404044 0.254002
0.90547 0.458778 0.256657
0.927428 0.506416 0.261173
0.0351873 0.148165 0.183688
0.0347295 0.159884 0.203037
0.0424506 0.177935 0.210956
0.112322 0.208911 0.213184
0.324773 0.251637 0.199695
0.587015 0.343175 0.241566
0.787381 0.408255 0.254276
0.911147 0.461234 0.256748
0.926284 0.501808 0.251682
0.0465248 0.248295 0.31371
0.0436866 0.236713 0.290669
0.0656748 0.225177 0.274449
0.132036 0.247639 0.263859
0.388647 0.283513 0.240803
0.637766 0.360571 0.267124
0.814694 0.40856 0.255619
0.92108 0.462867 0.254322
0.923095 0.490822 0.228
0.0687572 0.341558 0.430381
0.0638743 0.322484 0.395804
0.0722515 0.29601 0.342641
0.200763 0.295872 0.304128
0.489479 0.342 0.305852
0.730892 0.375097 0.278386
0.848646 0.406668 0.24033
0.919036 0.446555 0.208484
0.914809 0.476143 0.18529
0.0813001 0.392706 0.486503
0.0777905 0.380163 0.452522
0.0804456 0.393652 0.42359
0.213504 0.472175 0.439155
0.465873 0.509651 0.321569
0.738018 0.512917 0.288914
0.864057 0.581262 0.268101
0.925795 0.62681 0.248997
0.921126 0.636103 0.22269
0.101442 0.473014 0.563622
0.108553 0.502235 0.5691
0.129397 0.585977 0.585229
0.147982 0.656596 0.573449
0.282063 0.648402 0.432792
0.598138 0.702892 0.374792
0.821302 0.665522 0.243381
0.921202 0.694484 0.224033
0.918441 0.711437 0.213886
0.144305 0.638056 0.717754
0.149828 0.659953 0.722454
0.171221 0.743389 0.738643
0.180224 0.776913 0.689143
0.188067 0.766155 0.568887
0.50515 0.79144 0.439872
0.715892 0.831937 0.424414
0.869963 0.834882 0.357855
0.920439 0.773236 0.225605
0.180804 0.774838 0.83415
0.182452 0.781216 0.836072
0.200534 0.851041 0.843961
0.205402 0.869154 0.783627
0.204532 0.865843 0.682994
0.446464 0.886885 0.531411
0.642512 0.90428 0.493706
0.78616 0.942718 0.482582
0.925612 0.956832 0.465278
0.206668 0.870878 0.916915
0.206714 0.871061 0.916945
0.219074 0.919203 0.918074
0.219104 0.919295 0.846204
0.219104 0.919295 0.765499
0.333989 0.940597 0.654444
0.612863 0.958206 0.536339
0.734218 0.958694 0.525582
0.855436 0.957794 0.49099
0.0351873 0.137087 0.170443
0.03505 0.178363 0.228199
0.0393683 0.214801 0.261753
0.0514382 0.273884 0.29044
0.140841 0.33547 0.273808
0.493187 0.35584 0.203952
0.712871 0.419623 0.22974
0.862562 0.529763 0.411704
0.948394 0.598596 0.526879
0.0451667 0.241016 0.318013
0.0503243 0.262776 0.352926
0.0566567 0.292592 0.358282
0.0635843 0.325689 0.343771
0.169894 0.360296 0.28867
0.504372 0.360815 0.216388
0.722622 0.427634 0.240772
0.869718 0.537133 0.428397
0.948455 0.599466 0.527977
0.07364 0.360403 0.466239
0.0728008 0.357198 0.458869
0.0755322 0.366735 0.490074
0.0740063 0.365682 0.423117
0.213275 0.378943 0.332647
0.533837 0.377966 0.2701
0.743099 0.454902 0.304051
0.88484 0.555032 0.476265
0.947372 0.594934 0.511955
0.0975204 0.455161 0.578943
0.0910048 0.430106 0.542947
0.0859388 0.41091 0.510445
0.0991226 0.411276 0.513283
0.281682 0.418784 0.44184
0.601785 0.440101 0.386404
0.789212 0.517632 0.456977
0.918486 0.564981 0.48716
0.943877 0.58024 0.458732
0.112978 0.51487 0.647913
0.108736 0.499168 0.622461
0.105486 0.487831 0.592233
0.107759 0.484367 0.558846
0.422309 0.517388 0.52781
0.676829 0.570184 0.559426
0.844236 0.59707 0.552285
0.942 0.596292 0.495949
0.940932 0.584268 0.412238
0.1243 0.55845 0.693309
0.121828 0.549752 0.673609
0.119783 0.544152 0.636088
0.12694 0.574029 0.62324
0.338125 0.666621 0.64622
0.676585 0.69926 0.554025
0.850462 0.704723 0.531792
0.948272 0.734981 0.492332
0.945708 0.730907 0.436286
0.138628 0.613458 0.741283
0.138293 0.612909 0.729107
0.148775 0.655421 0.725902
0.166201 0.7234 0.748302
0.181521 0.781765 0.742382
0.523613 0.80148 0.615747
0.752071 0.82826 0.555917
0.9149 0.795163 0.39971
0.941619 0.788647 0.352041
0.165209 0.713848 0.820996
0.167376 0.72224 0.823499
0.181857 0.778866 0.837964
0.197024 0.837522 0.849332
0.206699 0.873838 0.816129
0.347814 0.886809 0.719524
0.67892 0.899901 0.604074
0.804517 0.928664 0.572076
0.942168 0.922835 0.482612
0.191684 0.812085 0.911879
0.191653 0.811963 0.911849
0.204471 0.862287 0.916854
0.218738 0.917876 0.919249
0.219104 0.919295 0.8692
0.232776 0.922332 0.785672
0.635172 0.963912 0.660273
0.756481 0.96527 0.628901
0.873716 0.963348 0.572946
0.0379034 0.20528 0.26038
0.0509346 0.267094 0.341527
0.0741741 0.365011 0.440681
0.0893568 0.430137 0.444785
0.102632 0.458824 0.401373
0.358724 0.487312 0.323827
0.672053 0.47303 0.299168
0.834943 0.538064 0.408118
0.956588 0.649409 0.654749
0.0833753 0.398444 0.524681
0.0902876 0.425544 0.561669
0.0956893 0.450187 0.541238
0.0991226 0.467964 0.492271
0.109285 0.470542 0.429725
0.372274 0.489723 0.339712
0.676036 0.477745 0.319905
0.84004 0.543725 0.428244
0.957092 0.652964 0.663386
0.108415 0.49691 0.6336
0.1084 0.496757 0.635126
0.108888 0.4972 0.654673
0.105165 0.487251 0.582498
0.126406 0.477821 0.489097
0.415 0.495781 0.397131
0.685786 0.495979 0.390707
0.853132 0.560586 0.489845
0.957855 0.659159 0.682475
0.122515 0.55108 0.693339
0.116838 0.529458 0.668513
0.113878 0.518166 0.653468
0.11577 0.52398 0.680034
0.173495 0.517342 0.619013
0.490806 0.520531 0.542428
0.730831 0.535286 0.507134
0.878523 0.61004 0.61117
0.959518 0.677028 0.719524
0.139605 0.615549 0.760571
0.134539 0.596826 0.739452
0.128756 0.57583 0.706722
0.12845 0.575631 0.691417
0.217334 0.595468 0.719615
0.558465 0.586786 0.677028
0.785077 0.626474 0.654887
0.911467 0.685237 0.722728
0.960754 0.695018 0.703593
0.152667 0.664836 0.804913
0.149554 0.6533 0.792309
0.145373 0.638651 0.766842
0.146242 0.643153 0.753567
0.253025 0.661418 0.749508
0.624582 0.697414 0.740871
0.822034 0.735805 0.743557
0.945342 0.751202 0.739513
0.961303 0.730022 0.685512
0.1626 0.7019 0.835981
0.160784 0.695445 0.82797
0.157473 0.684504 0.801999
0.158389 0.689632 0.784741
0.171359 0.713054 0.776257
0.486076 0.805753 0.788281
0.814771 0.819623 0.710414
0.948165 0.815518 0.679927
0.961517 0.817761 0.648371
0.173068 0.741176 0.868299
0.172656 0.739818 0.864973
0.172076 0.739544 0.840665
0.179492 0.76907 0.841428
0.191852 0.816907 0.854368
0.235508 0.872496 0.845548
0.710506 0.90042 0.746838
0.845884 0.917708 0.687434
0.956085 0.871458 0.508751
0.184283 0.783093 0.905257
0.184298 0.783123 0.905333
0.192004 0.813245 0.912917
0.202274 0.853635 0.916609
0.216144 0.907835 0.918837
0.219333 0.919371 0.892912
0.568872 0.959747 0.806256
0.789273 0.972183 0.729992
0.902358 0.970031 0.674281
0.0682689 0.340642 0.415869
0.0891585 0.424857 0.5066
0.121233 0.549722 0.639353
0.130877 0.588907 0.64155
0.133684 0.600641 0.634424
0.270024 0.606455 0.622156
0.609339 0.60763 0.599649
0.819837 0.624826 0.613672
0.953185 0.661784 0.674525
0.128679 0.574701 0.715373
0.134127 0.595346 0.736187
0.136995 0.60853 0.718059
0.137469 0.612436 0.689113
0.134859 0.604288 0.652369
0.280568 0.607691 0.635401
0.616693 0.607889 0.611887
0.82295 0.625986 0.62324
0.953094 0.66273 0.681483
0.142855 0.628504 0.766735
0.14255 0.626963 0.76968
0.141772 0.622827 0.778408
0.13843 0.612222 0.745159
0.134844 0.601556 0.692668
0.309422 0.605997 0.673289
0.637385 0.599603 0.641443
0.829679 0.624994 0.64593
0.954269 0.666865 0.707057
0.148852 0.65066 0.790677
0.144488 0.63386 0.778775
0.142718 0.627008 0.776074
0.142123 0.623423 0.787991
0.139528 0.615 0.764309
0.362402 0.615366 0.74374
0.672236 0.599359 0.702876
0.845121 0.632074 0.69189
0.959701 0.684184 0.754437
0.161746 0.698604 0.834562
0.156664 0.679561 0.819333
0.150454 0.656611 0.796277
0.150179 0.656046 0.790738
0.152377 0.663417 0.806912
0.435615 0.663233 0.813794
0.72369 0.652796 0.781384
0.870375 0.678935 0.758251
0.96434 0.723812 0.803479
0.175647 0.750378 0.88191
0.172274 0.73785 0.870573
0.166217 0.715694 0.845182
0.163851 0.707652 0.827924
0.168994 0.710674 0.817533
0.46743 0.733608 0.844678
0.764385 0.736889 0.829129
0.897429 0.755642 0.812924
0.970062 0.779156 0.840208
0.183276 0.77879 0.910658
0.182101 0.774411 0.906386
0.177707 0.758404 0.885039
0.176333 0.754131 0.869978
0.178622 0.757809 0.857588
0.491936 0.77998 0.860914
0.777401 0.813764 0.846693
0.91545 0.831617 0.846326
0.976196 0.834165 0.845518
0.184634 0.783764 0.914
0.184726 0.784176 0.914
0.185016 0.785672 0.909728
0.184466 0.78439 0.897459
0.185595 0.789929 0.883955
0.347372 0.816434 0.885145
0.697398 0.887892 0.874617
0.898177 0.901488 0.811154
0.974044 0.8934 0.784207
0.186954 0.793011 0.914336
0.186954 0.793011 0.914336
0.190173 0.805905 0.914794
0.193301 0.818158 0.915206
0.19884 0.840162 0.916075
0.209918 0.880247 0.917906
0.516396 0.9552 0.933349
0.822599 0.979294 0.841611
0.946929 0.978241 0.781918
0.113695 0.522271 0.587488
0.13109 0.58822 0.665751
0.156573 0.683665 0.767269
0.171618 0.740047 0.814267
0.171725 0.740047 0.818357
0.195026 0.730526 0.815564
0.537331 0.723659 0.831037
0.804913 0.70193 0.821027
0.954055 0.723186 0.824826
0.166766 0.719402 0.827848
0.1729 0.742565 0.844083
0.174929 0.750988 0.84065
0.173724 0.747066 0.831113
0.170947 0.73666 0.82153
0.198077 0.729915 0.820172
0.543328 0.722576 0.83505
0.806577 0.70071 0.823697
0.953948 0.722118 0.826658
0.174121 0.746395 0.856001
0.173541 0.74377 0.859586
0.172824 0.740566 0.864912
0.170962 0.733867 0.854261
0.168292 0.724895 0.836271
0.209552 0.724041 0.83331
0.56553 0.716716 0.84625
0.811856 0.695979 0.832517
0.954162 0.718624 0.83212
0.175097 0.749249 0.868315
0.17232 0.738537 0.865049
0.170397 0.730617 0.866224
0.169024 0.724483 0.872374
0.166934 0.716793 0.865522
0.221836 0.718929 0.856718
0.596658 0.712978 0.865675
0.821973 0.695323 0.848615
0.95581 0.718349 0.843214
0.181552 0.77261 0.899168
0.177722 0.758068 0.888975
0.172671 0.739147 0.873915
0.172198 0.737148 0.873381
0.171832 0.734951 0.882506
0.244358 0.734722 0.889357
0.629618 0.731975 0.89395
0.835828 0.719097 0.87219
0.96022 0.737072 0.861692
0.185031 0.785473 0.914092
0.184863 0.78468 0.91397
0.181643 0.772549 0.905974
0.178851 0.762371 0.891096
0.179263 0.764385 0.888045
0.260441 0.772045 0.906584
0.670222 0.770474 0.920516
0.859831 0.766613 0.899458
0.968658 0.775876 0.883726
0.184512 0.783429 0.914
0.184588 0.783642 0.914
0.185931 0.788846 0.914183
0.18793 0.796872 0.914443
0.188006 0.797345 0.913054
0.321019 0.806241 0.920485
0.694835 0.821225 0.930663
0.878645 0.823865 0.917403
0.976303 0.828809 0.906264
0.184771 0.78439 0.914
0.184848 0.78468 0.914015
0.186847 0.792554 0.914305
0.189578 0.803525 0.914702
0.192828 0.816159 0.91519
0.383719 0.835523 0.94226
0.730617 0.857893 0.944259
0.879942 0.892256 0.917113
0.983246 0.903868 0.920424
0.187198 0.793912 0.914351
0.187198 0.793912 0.914351
0.190265 0.806241 0.914794
0.193668 0.819577 0.915282
0.197238 0.833844 0.915816
0.303624 0.856352 0.935149
0.66508 0.887083 0.95639
0.848066 0.964828 0.944961
0.972885 0.986572 0.889418
0.156252 0.682994 0.760281
0.169055 0.730541 0.806134
0.185428 0.791089 0.860807
0.19382 0.821897 0.8916
0.191409 0.812146 0.895598
0.188708 0.801221 0.898375
0.475914 0.793042 0.923812
0.7897 0.783993 0.927855
0.952377 0.758801 0.916671
0.19205 0.814878 0.8916
0.195453 0.827512 0.902998
0.195087 0.826246 0.900649
0.193011 0.818433 0.896727
0.190326 0.807843 0.895949
0.188006 0.798398 0.899062
0.48304 0.790768 0.925872
0.792767 0.78175 0.928725
0.952117 0.757382 0.917144
0.191302 0.810987 0.907469
0.190936 0.808972 0.912505
0.190463 0.807065 0.914809
0.189349 0.802716 0.912779
0.187198 0.794644 0.905608
0.185611 0.788388 0.90457
0.503899 0.781567 0.932845
0.796689 0.775036 0.932799
0.953841 0.752453 0.919814
0.188846 0.800671 0.913298
0.187945 0.796918 0.914473
0.186206 0.790021 0.914199
0.184802 0.784436 0.914015
0.183307 0.778546 0.913802
0.182391 0.774929 0.913588
0.527733 0.769482 0.943877
0.803037 0.767376 0.940795
0.954284 0.748028 0.926863
0.186572 0.791531 0.914229
0.185992 0.789151 0.914199
0.185016 0.785397 0.914076
0.18471 0.784176 0.914
0.18349 0.779293 0.913802
0.18204 0.773602 0.913634
0.537835 0.770428 0.951446
0.813046 0.771618 0.952132
0.95697 0.756802 0.938674
0.185046 0.785519 0.914092
0.184894 0.784802 0.914015
0.185122 0.785687 0.914092
0.18613 0.789746 0.914199
0.187625 0.795666 0.914427
0.193637 0.795727 0.915892
0.590372 0.788357 0.955474
0.837537 0.792737 0.961395
0.964111 0.782345 0.948928
0.184527 0.78349 0.914
0.184634 0.783749 0.914
0.185962 0.788937 0.914199
0.188159 0.797772 0.914488
0.1906 0.80763 0.914824
0.216312 0.818341 0.920378
0.651835 0.82623 0.960815
0.864637 0.833036 0.963516
0.976486 0.825818 0.954253
0.184848 0.784665 0.914
0.184894 0.784863 0.914031
0.18706 0.793423 0.914351
0.189975 0.805066 0.914748
0.193164 0.817655 0.915221
0.414633 0.837491 0.944808
0.717388 0.862593 0.962432
0.866926 0.896391 0.960403
0.978866 0.897047 0.957198
0.187243 0.794217 0.914382
0.187243 0.794217 0.914382
0.190326 0.806439 0.914839
0.193729 0.819806 0.915312
0.197269 0.833967 0.915831
0.391669 0.858167 0.943603
0.722118 0.889891 0.957656
0.872572 0.934051 0.953918
0.971847 0.977218 0.947768
