luts/Dark green BMP4K.cube
TITLE "Generated by Resolve"
LUT_3D_SIZE 33
0.0334936 0.0341955 0.0341955
0.0371862 0.0357214 0.0347601
0.0408026 0.0372015 0.0353094
0.0446937 0.03888 0.035996
0.0495308 0.0410773 0.0369879
0.0559243 0.0437781 0.0382696
0.0648814 0.0472114 0.0400854
0.0754864 0.0512856 0.0420539
0.0875105 0.0559396 0.0441291
0.10341 0.0620737 0.0465553
0.124987 0.0697185 0.0493477
0.152102 0.0779431 0.050309
0.186252 0.0856794 0.046128
0.230335 0.0923018 0.0385901
0.286778 0.0961471 0.0406195
0.358907 0.105608 0.0504616
0.438346 0.118227 0.062562
0.520211 0.129488 0.0757763
0.59649 0.139452 0.0886091
0.660212 0.158083 0.100328
0.710399 0.183841 0.110521
0.750698 0.209232 0.119234
0.783001 0.232868 0.126619
0.809888 0.253956 0.133043
0.833951 0.27361 0.138918
0.857069 0.295598 0.144915
0.881254 0.318288 0.151125
0.904997 0.34313 0.157519
0.910643 0.366537 0.160952
0.911147 0.390066 0.163638
0.911528 0.41503 0.166629
0.911757 0.431662 0.16878
0.911803 0.434806 0.169207
0.0343938 0.0372015 0.0355383
0.0373846 0.0381781 0.0358282
0.0404517 0.0391546 0.0361028
0.0439765 0.0403906 0.0365606
0.0489967 0.0422522 0.0373388
0.055436 0.0447547 0.038468
0.0642557 0.0483558 0.0403143
0.0757763 0.0529793 0.0426032
0.0905623 0.0586862 0.0452277
0.109865 0.0655222 0.0479438
0.134844 0.0733196 0.0500496
0.165759 0.0812695 0.0489967
0.203571 0.0890974 0.0420844
0.250843 0.0952468 0.0377966
0.311879 0.100511 0.0440223
0.382406 0.11133 0.0540627
0.459892 0.123522 0.0661936
0.537331 0.134325 0.0787823
0.609049 0.143587 0.0909438
0.669123 0.159182 0.101869
0.71696 0.181735 0.111467
0.75491 0.206348 0.119707
0.785336 0.229541 0.126741
0.810651 0.25211 0.132998
0.834363 0.273869 0.13901
0.857603 0.295033 0.14493
0.881346 0.319265 0.151232
0.905211 0.342733 0.157519
0.910765 0.367453 0.161059
0.911147 0.390661 0.163699
0.911528 0.415534 0.16669
0.911757 0.431693 0.168795
0.911803 0.434806 0.169207
0.0352636 0.0401007 0.0368505
0.0375982 0.0406043 0.0368963
0.0401007 0.0410925 0.0369116
0.0433356 0.0419013 0.0371252
0.0485389 0.0435035 0.0377203
0.0555428 0.0460212 0.038819
0.0653544 0.0504005 0.04094
0.0785687 0.0559548 0.0437781
0.0958724 0.0623178 0.0467689
0.118441 0.0695048 0.0493935
0.146334 0.0777447 0.050721
0.180026 0.0861524 0.0480659
0.221088 0.0931258 0.0398871
0.272663 0.0972152 0.0396277
0.334279 0.103456 0.0470283
0.405493 0.114565 0.0575723
0.480629 0.124743 0.0693828
0.554437 0.133989 0.0813916
0.621088 0.144869 0.0929732
0.677043 0.162081 0.10338
0.722026 0.184543 0.112505
0.758175 0.20734 0.120317
0.787167 0.22916 0.127031
0.812039 0.251041 0.133165
0.835554 0.273259 0.139132
0.858961 0.295125 0.145159
0.882734 0.319356 0.151446
0.905791 0.343801 0.157717
0.910826 0.368017 0.16112
0.911177 0.392065 0.163897
0.911543 0.416571 0.166842
0.911772 0.431891 0.168826
0.911803 0.434806 0.169207
0.0362707 0.0433967 0.0383917
0.0381933 0.0437018 0.0383612
0.0403449 0.0441138 0.0383764
0.0435035 0.0449531 0.0386053
0.0487984 0.0465248 0.0391394
0.0565652 0.0491951 0.040238
0.0677501 0.0533303 0.0420691
0.0821241 0.0595407 0.045182
0.10132 0.0674449 0.0485695
0.126329 0.0767071 0.0519112
0.157321 0.0856031 0.0523079
0.194202 0.0923018 0.0460365
0.237949 0.0978561 0.0387579
0.291783 0.100832 0.0416419
0.355947 0.108293 0.0502785
0.42678 0.118364 0.060914
0.500099 0.127886 0.0725567
0.569986 0.137224 0.0841382
0.633341 0.147616 0.0951705
0.68629 0.163561 0.105028
0.728618 0.183795 0.113588
0.762646 0.205188 0.120928
0.790356 0.226108 0.127337
0.814969 0.247791 0.133394
0.83827 0.270008 0.139315
0.861326 0.292851 0.145357
0.885008 0.317327 0.151659
0.906233 0.342947 0.157687
0.910826 0.366842 0.160983
0.911177 0.391592 0.163836
0.911559 0.41677 0.166903
0.911757 0.431159 0.168734
0.911803 0.433921 0.16907
0.0378882 0.0485695 0.0409552
0.0396429 0.0493019 0.0412299
0.0416571 0.0500801 0.0415045
0.0446784 0.0511177 0.0417945
0.049012 0.0523384 0.0420996
0.0583963 0.0541695 0.0425422
0.0705882 0.0587778 0.0445258
0.0862287 0.0653697 0.0472877
0.107256 0.0740368 0.0509957
0.133715 0.0842451 0.0538949
0.166339 0.0948959 0.0532235
0.204929 0.103532 0.0460365
0.251286 0.108659 0.0398566
0.307988 0.113161 0.0446784
0.374197 0.12076 0.0537118
0.446265 0.130037 0.0646372
0.518807 0.139361 0.0762798
0.586374 0.148684 0.0875868
0.646479 0.158984 0.098085
0.696895 0.16965 0.10724
0.737713 0.182605 0.115068
0.769345 0.201175 0.121828
0.796094 0.220706 0.127947
0.820325 0.240558 0.133776
0.843198 0.262486 0.139559
0.865827 0.286122 0.145525
0.889387 0.311589 0.151843
0.906981 0.33753 0.157305
0.91075 0.362646 0.16054
0.911116 0.388022 0.163424
0.911513 0.413931 0.166537
0.911727 0.427802 0.168276
0.911757 0.430472 0.168612
0.0407568 0.058793 0.0462348
0.0423743 0.0597696 0.0465095
0.0443122 0.0607156 0.0466468
0.0473945 0.0626383 0.0476387
0.0519417 0.0656138 0.0493324
0.059678 0.0695354 0.0515297
0.070634 0.0715343 0.0510872
0.0856184 0.077409 0.0536049
0.107195 0.0813458 0.0538949
0.135744 0.0913252 0.0564431
0.169986 0.102464 0.0546578
0.210559 0.112795 0.0471199
0.258762 0.121736 0.0420844
0.317037 0.130724 0.0473487
0.383673 0.143694 0.057084
0.456901 0.154726 0.0683146
0.530648 0.163531 0.0800031
0.598352 0.172519 0.09131
0.656794 0.182025 0.101457
0.705242 0.190997 0.110155
0.744106 0.200427 0.117449
0.775952 0.210437 0.123659
0.803098 0.223072 0.129335
0.827359 0.237903 0.134783
0.849912 0.258152 0.140352
0.872282 0.281483 0.146212
0.895445 0.306722 0.152392
0.908186 0.331746 0.156939
0.910674 0.357092 0.15993
0.911025 0.383291 0.16289
0.911421 0.409354 0.165988
0.91162 0.421317 0.167437
0.911635 0.423514 0.167712
0.0453803 0.0764172 0.0560616
0.0467689 0.0778973 0.0559701
0.0485695 0.0794537 0.0556954
0.051667 0.0811017 0.0564126
0.0562905 0.0843061 0.0579538
0.0629129 0.089128 0.060441
0.0718242 0.0946822 0.062974
0.0841382 0.101167 0.0667124
0.101717 0.103853 0.0660258
0.129061 0.106645 0.0648966
0.163836 0.112718 0.061738
0.207752 0.121294 0.0532692
0.259205 0.131991 0.0446937
0.320363 0.144869 0.0492103
0.389975 0.161181 0.059678
0.463035 0.177188 0.0712902
0.535409 0.191104 0.0831769
0.603021 0.201404 0.0944839
0.661646 0.210208 0.10454
0.709377 0.218524 0.113039
0.748302 0.227207 0.120241
0.78056 0.236789 0.126528
0.807935 0.247807 0.132219
0.832395 0.260624 0.13753
0.855711 0.275471 0.142855
0.87895 0.292393 0.148318
0.901747 0.312276 0.153994
0.90956 0.332128 0.157214
0.910643 0.355459 0.159762
0.910979 0.380484 0.162554
0.91136 0.40528 0.165469
0.911482 0.413809 0.166506
0.911482 0.414908 0.166613
0.0491951 0.102113 0.0713817
0.0502174 0.103975 0.0710613
0.0522011 0.105608 0.0699626
0.0555123 0.106859 0.0682841
0.0603647 0.108629 0.0686961
0.0653391 0.111269 0.0702525
0.0724804 0.117052 0.0724804
0.0822766 0.124559 0.0767681
0.0964065 0.133089 0.0827802
0.119173 0.13817 0.0845502
0.153109 0.138781 0.0806134
0.196002 0.136065 0.0681926
0.2495 0.141741 0.0545052
0.313054 0.154971 0.0508583
0.387137 0.172702 0.0605478
0.46424 0.191546 0.0729076
0.537423 0.208896 0.0852674
0.603326 0.224323 0.0967117
0.660578 0.237476 0.106905
0.708873 0.248981 0.115709
0.749874 0.258762 0.123308
0.783185 0.268742 0.129824
0.811399 0.279576 0.135622
0.836255 0.29218 0.14107
0.860136 0.306401 0.146471
0.884077 0.322438 0.152026
0.905379 0.340719 0.157366
0.910582 0.358007 0.160021
0.910918 0.37554 0.16199
0.911192 0.394461 0.164202
0.911452 0.411368 0.166217
0.911513 0.415274 0.16669
0.911513 0.414633 0.166598
0.0500038 0.130556 0.0894026
0.0510567 0.132189 0.0888075
0.0529488 0.133654 0.0870832
0.0560616 0.134798 0.0848402
0.0620279 0.135744 0.0827192
0.0679179 0.137819 0.0831617
0.0738537 0.1411 0.0847181
0.0817884 0.146609 0.0871138
0.0933242 0.154955 0.091249
0.111254 0.165164 0.096788
0.13959 0.174289 0.100893
0.181765 0.173831 0.0935988
0.230732 0.162875 0.0746166
0.292638 0.16553 0.057023
0.368215 0.181765 0.0597696
0.449042 0.200763 0.0719005
0.527993 0.22031 0.0850996
0.598077 0.238956 0.0974289
0.658488 0.25594 0.108446
0.708553 0.271962 0.117922
0.749767 0.28629 0.125994
0.783673 0.300298 0.132982
0.812482 0.314824 0.139284
0.838209 0.329335 0.145113
0.862959 0.344076 0.15079
0.887938 0.359808 0.156542
0.906874 0.377386 0.161532
0.911162 0.393622 0.164111
0.911421 0.410254 0.16611
0.911696 0.426963 0.168185
0.911879 0.437552 0.169558
0.911894 0.438697 0.169696
0.911894 0.437308 0.169512
0.0487068 0.158175 0.105699
0.0497902 0.159396 0.105089
0.0518807 0.160739 0.103563
0.055024 0.161822 0.101411
0.0612192 0.162661 0.0982528
0.0684672 0.163989 0.0966659
0.0746471 0.166384 0.0970779
0.0811627 0.169986 0.0982986
0.090425 0.176654 0.0999924
0.10428 0.18703 0.102953
0.125566 0.199756 0.108095
0.159487 0.214832 0.113695
0.213718 0.217884 0.101671
0.265003 0.196368 0.0793469
0.33463 0.194644 0.0641489
0.417899 0.209216 0.0694591
0.503822 0.228779 0.0826886
0.583246 0.249348 0.096376
0.650965 0.270008 0.108827
0.706477 0.289494 0.119463
0.749645 0.307195 0.128222
0.783993 0.324971 0.135698
0.813046 0.342138 0.142367
0.839292 0.359564 0.148638
0.864546 0.378042 0.154849
0.890059 0.397894 0.161242
0.90779 0.41738 0.1664
0.911818 0.434653 0.169177
0.912108 0.450813 0.171313
0.912383 0.466453 0.173434
0.91252 0.472816 0.174304
0.912505 0.472404 0.174258
0.912474 0.4701 0.173953
0.0460975 0.185061 0.121538
0.047303 0.185794 0.120775
0.0497444 0.186648 0.119051
0.0532235 0.18735 0.116747
0.0597543 0.187961 0.113191
0.0679484 0.188632 0.110063
0.074876 0.190494 0.10901
0.0809339 0.193622 0.109392
0.0884565 0.197894 0.109789
0.0987869 0.207568 0.109773
0.114443 0.221363 0.110384
0.139254 0.236728 0.11342
0.179248 0.254292 0.11873
0.241535 0.263935 0.112047
0.301045 0.236286 0.0885634
0.376776 0.227634 0.0732128
0.467567 0.239261 0.0794995
0.555505 0.259129 0.0935988
0.633188 0.280781 0.107408
0.696269 0.302449 0.119387
0.745418 0.323308 0.129381
0.783108 0.344106 0.137758
0.813901 0.363668 0.145006
0.840146 0.383413 0.151568
0.86511 0.404883 0.158175
0.890654 0.426993 0.164935
0.90837 0.448157 0.170397
0.912413 0.467842 0.173617
0.912795 0.487297 0.176364
0.91313 0.504341 0.178836
0.913268 0.511559 0.179889
0.913283 0.512093 0.17998
0.913222 0.509865 0.179675
0.0450141 0.211795 0.137133
0.0454719 0.212039 0.136202
0.047013 0.212284 0.133944
0.0500801 0.212833 0.131258
0.0560159 0.213367 0.127077
0.0641642 0.214664 0.122789
0.0719768 0.216312 0.119722
0.0779431 0.219226 0.118593
0.0841993 0.223026 0.118013
0.0924086 0.230228 0.116838
0.103899 0.243198 0.113909
0.124407 0.259083 0.114015
0.157275 0.276631 0.118914
0.205035 0.297032 0.127764
0.27158 0.313741 0.133181
0.343465 0.285176 0.103273
0.423789 0.267857 0.0836805
0.517876 0.274067 0.0906386
0.6047 0.292973 0.104784
0.677241 0.315099 0.118044
0.73431 0.337041 0.129335
0.777066 0.359228 0.138643
0.810864 0.380636 0.146593
0.839399 0.402823 0.153872
0.865751 0.425681 0.160937
0.89192 0.448173 0.167895
0.90898 0.470848 0.17351
0.912902 0.492973 0.177172
0.913359 0.514839 0.180407
0.91371 0.532982 0.183154
0.913863 0.540383 0.184283
0.913939 0.543114 0.18471
0.913954 0.544549 0.184939
0.0459449 0.24239 0.150744
0.046067 0.242206 0.149676
0.0464942 0.241764 0.146731
0.0473182 0.241611 0.143908
0.0505379 0.241611 0.139498
0.0573281 0.242283 0.134356
0.0659037 0.244022 0.129702
0.0729534 0.246677 0.127031
0.0792554 0.250706 0.125933
0.0869764 0.255741 0.12462
0.0976883 0.266423 0.122133
0.114061 0.282994 0.119142
0.143877 0.301823 0.12314
0.185519 0.323125 0.132067
0.240101 0.346609 0.142611
0.313329 0.367468 0.150271
0.397482 0.348348 0.119615
0.475837 0.317174 0.0975967
0.565408 0.314931 0.10277
0.65008 0.330098 0.116091
0.715892 0.351034 0.128344
0.765728 0.373587 0.13872
0.803769 0.395819 0.147417
0.835019 0.418357 0.15523
0.862898 0.441703 0.162631
0.890272 0.465858 0.170047
0.908888 0.489677 0.176135
0.913268 0.511696 0.179904
0.91371 0.532998 0.183154
0.914153 0.552087 0.186145
0.914305 0.559792 0.187381
0.914366 0.562219 0.187762
0.914397 0.564569 0.188113
0.0513008 0.275288 0.164874
0.0512703 0.275105 0.164004
0.0511788 0.274418 0.160586
0.0511482 0.273838 0.157336
0.0515297 0.273014 0.153017
0.0545052 0.272557 0.147539
0.0618448 0.273869 0.142382
0.0700999 0.276585 0.138293
0.0774548 0.280674 0.136324
0.0856489 0.286168 0.135119
0.0961013 0.293843 0.133471
0.111406 0.309102 0.131044
0.136019 0.329412 0.131136
0.173098 0.351553 0.137667
0.221286 0.376013 0.147494
0.282902 0.402319 0.158511
0.361105 0.425406 0.168505
0.451087 0.41561 0.140948
0.528206 0.373159 0.114687
0.611872 0.361013 0.11603
0.689158 0.370809 0.127214
0.748302 0.388998 0.138186
0.792584 0.41059 0.147707
0.827039 0.433371 0.156039
0.85716 0.457023 0.163867
0.885771 0.480629 0.17145
0.907576 0.503639 0.17792
0.913512 0.526482 0.182132
0.914076 0.548959 0.185641
0.914549 0.569619 0.188952
0.914763 0.579049 0.190478
0.914824 0.581842 0.190921
0.914885 0.583978 0.191272
0.0601968 0.312901 0.182605
0.0601968 0.312886 0.181949
0.0598917 0.311604 0.177447
0.059678 0.310796 0.173816
0.0593881 0.30959 0.1691
0.059266 0.307668 0.163073
0.0631113 0.307744 0.157794
0.0719615 0.31043 0.152667
0.0806134 0.314794 0.149523
0.0889754 0.320272 0.148043
0.0991073 0.32726 0.146502
0.112459 0.338903 0.144289
0.131716 0.358724 0.140993
0.164431 0.381903 0.144411
0.208865 0.406897 0.153262
0.264042 0.433738 0.163653
0.332769 0.46128 0.174884
0.414664 0.484977 0.185382
0.503975 0.48333 0.166308
0.580697 0.435447 0.13518
0.655604 0.411399 0.12987
0.723995 0.415427 0.138521
0.776699 0.428473 0.14786
0.816175 0.448508 0.156527
0.8486 0.471229 0.164584
0.878431 0.494652 0.172381
0.904723 0.518334 0.17966
0.913481 0.540246 0.184222
0.914351 0.560983 0.187564
0.914839 0.58201 0.190967
0.915129 0.593942 0.192935
0.915221 0.59762 0.193561
0.915251 0.599222 0.19382
0.0702373 0.354559 0.202258
0.0702983 0.354788 0.202243
0.0699626 0.353338 0.197238
0.0696727 0.352132 0.192599
0.0693828 0.350896 0.187594
0.0686656 0.348058 0.180453
0.0693828 0.346563 0.174395
0.0748608 0.347906 0.1691
0.0842298 0.351873 0.16434
0.0934462 0.35758 0.1617
0.103212 0.364233 0.159838
0.115129 0.372412 0.157366
0.131853 0.388922 0.154116
0.159091 0.412558 0.153399
0.199756 0.438025 0.159426
0.251316 0.465202 0.169238
0.314061 0.49308 0.180026
0.387884 0.521065 0.191302
0.471107 0.543954 0.20174
0.55494 0.547402 0.189639
0.629221 0.500313 0.155825
0.696574 0.464149 0.144152
0.754696 0.461311 0.149722
0.800824 0.470756 0.157595
0.83714 0.487022 0.165225
0.868925 0.508125 0.172992
0.898787 0.531563 0.180819
0.912398 0.553246 0.186069
0.914641 0.573526 0.189578
0.915145 0.594156 0.192996
0.915511 0.609094 0.195514
0.915633 0.614008 0.196323
0.915648 0.61529 0.196536
0.0814679 0.399832 0.224216
0.0815137 0.4 0.224537
0.0810559 0.398169 0.218647
0.0806287 0.39646 0.213062
0.0803388 0.395209 0.207156
0.0795911 0.392325 0.199329
0.0787976 0.388998 0.191287
0.0803693 0.388266 0.185611
0.0876326 0.390936 0.180026
0.0977798 0.396246 0.175692
0.107973 0.402975 0.173068
0.11957 0.410773 0.170382
0.134112 0.422538 0.166964
0.156329 0.443397 0.163409
0.192889 0.468971 0.166323
0.241825 0.49604 0.17499
0.30016 0.523842 0.185214
0.368856 0.551553 0.196109
0.446601 0.578561 0.207248
0.527108 0.599481 0.216999
0.603418 0.606348 0.212726
0.673121 0.565377 0.177523
0.732174 0.518486 0.15816
0.781384 0.506798 0.160632
0.821805 0.514015 0.167285
0.856657 0.526192 0.17406
0.888777 0.544747 0.18146
0.90956 0.565499 0.18761
0.914885 0.585641 0.191546
0.915419 0.605371 0.194858
0.915877 0.623194 0.19791
0.91606 0.63003 0.199084
0.916075 0.631174 0.199268
0.0932784 0.446479 0.247532
0.0933089 0.446601 0.247776
0.0928817 0.444923 0.241901
0.0923629 0.442908 0.235203
0.0919356 0.44123 0.228275
0.0912947 0.438666 0.219883
0.0900893 0.434012 0.209445
0.0896773 0.431403 0.201938
0.0925765 0.431785 0.19617
0.101564 0.435813 0.190448
0.112856 0.44242 0.186282
0.124376 0.449775 0.183154
0.138018 0.458808 0.179278
0.156176 0.47538 0.174487
0.187701 0.499352 0.174304
0.233768 0.525673 0.180896
0.288823 0.553094 0.190326
0.35346 0.580636 0.200778
0.426261 0.607279 0.211627
0.504509 0.63209 0.222385
0.580041 0.650126 0.231373
0.647044 0.657389 0.232807
0.709453 0.625711 0.196887
0.760296 0.57435 0.172366
0.803403 0.553796 0.171557
0.841154 0.556725 0.176867
0.875227 0.566278 0.183047
0.903975 0.580346 0.189242
0.914672 0.597589 0.1935
0.915709 0.616342 0.196735
0.916197 0.635493 0.200046
0.916487 0.645518 0.201801
0.916533 0.647517 0.202152
0.105165 0.493034 0.272404
0.105257 0.493385 0.272892
0.104891 0.491936 0.267323
0.104341 0.48983 0.259327
0.103777 0.487648 0.250889
0.103166 0.485283 0.241993
0.101762 0.479866 0.228962
0.10074 0.475883 0.219059
0.100832 0.474372 0.212131
0.105943 0.476081 0.20589
0.117418 0.481971 0.199863
0.129427 0.489204 0.195834
0.142733 0.497612 0.191775
0.158862 0.509071 0.186511
0.184756 0.528832 0.183291
0.226413 0.554376 0.187121
0.27924 0.58085 0.195529
0.339925 0.607492 0.205188
0.408225 0.633631 0.215656
0.482582 0.658289 0.226307
0.559106 0.680674 0.236683
0.628443 0.696162 0.245136
0.686717 0.702953 0.249729
0.738811 0.681041 0.216007
0.78201 0.630945 0.187259
0.82298 0.601495 0.182879
0.859663 0.598642 0.186419
0.893584 0.605295 0.191989
0.912154 0.614893 0.196033
0.915984 0.628244 0.198795
0.916472 0.645609 0.201831
0.916838 0.65951 0.204303
0.916991 0.664134 0.205142
0.117144 0.5393 0.299809
0.117174 0.539422 0.300084
0.116808 0.538094 0.29482
0.116197 0.53576 0.285481
0.115633 0.533471 0.275257
0.115129 0.531472 0.265995
0.113664 0.525887 0.250584
0.112413 0.520989 0.237827
0.111635 0.518074 0.228519
0.11281 0.51754 0.221668
0.120684 0.520958 0.214847
0.134249 0.52842 0.208698
0.147692 0.536416 0.204059
0.163027 0.545327 0.198413
0.184527 0.560098 0.192905
0.220386 0.582223 0.193851
0.270115 0.607507 0.20116
0.327596 0.633158 0.209842
0.392477 0.658595 0.219623
0.462776 0.68249 0.229892
0.536187 0.704402 0.240269
0.60824 0.723735 0.250324
0.671016 0.737301 0.25864
0.721675 0.743618 0.264622
0.763851 0.730755 0.237415
0.801953 0.687297 0.205417
0.840681 0.649866 0.194827
0.877485 0.640192 0.195987
0.906111 0.643 0.200061
0.916228 0.648249 0.202274
0.916808 0.657877 0.204044
0.91722 0.672404 0.206638
0.917449 0.67982 0.207996
0.128786 0.583932 0.328328
0.128832 0.5841 0.328786
0.128664 0.583459 0.324804
0.128099 0.581308 0.314321
0.127489 0.578958 0.302525
0.126772 0.576226 0.290852
0.125475 0.571313 0.275212
0.124071 0.565835 0.258564
0.122988 0.561822 0.246311
0.122515 0.559915 0.237583
0.12578 0.560662 0.23032
0.137972 0.56669 0.222629
0.152438 0.57499 0.216724
0.167651 0.583246 0.210742
0.186007 0.593439 0.203845
0.216236 0.610147 0.201617
0.261769 0.633524 0.20705
0.316121 0.657725 0.214908
0.377554 0.682048 0.223819
0.444648 0.705196 0.233524
0.515084 0.726635 0.243748
0.58529 0.745632 0.254032
0.65185 0.762417 0.264195
0.707866 0.773831 0.272679
0.751583 0.779263 0.278996
0.786862 0.774273 0.26424
0.821057 0.742 0.228977
0.855573 0.701289 0.208331
0.892943 0.681239 0.20528
0.913954 0.678676 0.207385
0.917479 0.68098 0.208209
0.917693 0.68806 0.209506
0.917922 0.695308 0.210834
0.139986 0.626596 0.359915
0.140032 0.626749 0.360479
0.13994 0.626383 0.357809
0.139513 0.624659 0.346242
0.138918 0.622431 0.332998
0.138277 0.62005 0.319524
0.137194 0.61593 0.302876
0.13576 0.610483 0.283146
0.134539 0.605768 0.267018
0.133806 0.60296 0.255604
0.134188 0.602304 0.247089
0.140627 0.604654 0.238926
0.156466 0.612726 0.230274
0.172152 0.620691 0.223377
0.189456 0.629419 0.215808
0.214694 0.640803 0.210636
0.254856 0.659159 0.213275
0.305852 0.681895 0.22034
0.36405 0.704646 0.228519
0.428 0.726787 0.237629
0.496269 0.747402 0.247456
0.564248 0.765576 0.257618
0.629709 0.781842 0.268147
0.689265 0.795773 0.278538
0.738415 0.805829 0.287633
0.77673 0.810925 0.294591
0.809003 0.811612 0.296483
0.835782 0.789807 0.256123
0.866865 0.750744 0.223011
0.901335 0.723491 0.215885
0.91696 0.714046 0.214145
0.918456 0.713115 0.214145
0.918547 0.716136 0.214694
0.150637 0.666728 0.393668
0.150668 0.666865 0.394263
0.150637 0.666712 0.393591
0.150256 0.665324 0.380774
0.149783 0.663447 0.365972
0.149371 0.66183 0.351034
0.148653 0.659113 0.334768
0.147234 0.653864 0.31165
0.145968 0.649058 0.291691
0.145022 0.645502 0.276097
0.144533 0.643549 0.264851
0.1467 0.643915 0.255863
0.158679 0.649287 0.24596
0.176532 0.657832 0.236652
0.193713 0.66598 0.228687
0.215564 0.67393 0.22118
0.249958 0.686351 0.220493
0.297993 0.705806 0.226368
0.352468 0.726955 0.233768
0.412955 0.7476 0.242344
0.478233 0.767056 0.25185
0.544427 0.784726 0.261967
0.60885 0.800153 0.272465
0.66743 0.81326 0.283024
0.719554 0.825162 0.293751
0.763668 0.835004 0.304067
0.798123 0.840375 0.312139
0.827161 0.842405 0.318746
0.850843 0.830274 0.291676
0.879744 0.797284 0.248631
0.907637 0.766049 0.228428
0.918593 0.748333 0.220874
0.919463 0.744656 0.220096
0.160723 0.704326 0.428397
0.160754 0.704448 0.429007
0.160769 0.704524 0.429419
0.16051 0.703655 0.417426
0.160159 0.702296 0.40177
0.159792 0.701015 0.385061
0.159319 0.699245 0.368353
0.15819 0.694942 0.343984
0.157015 0.690578 0.319707
0.156024 0.686915 0.300053
0.155383 0.684398 0.285054
0.155337 0.68336 0.27422
0.160998 0.685527 0.26389
0.180026 0.693858 0.251377
0.198032 0.701625 0.241993
0.218402 0.709239 0.233234
0.248127 0.717281 0.229267
0.291295 0.730449 0.233295
0.343023 0.749386 0.239796
0.40058 0.768246 0.247822
0.462898 0.786465 0.257252
0.52636 0.803052 0.26743
0.588647 0.817777 0.27805
0.646693 0.830793 0.288762
0.698604 0.842634 0.299611
0.743572 0.853193 0.310445
0.782605 0.862776 0.321508
0.814649 0.86894 0.330846
0.842649 0.871489 0.338293
0.868055 0.866972 0.332448
0.892943 0.841718 0.283726
0.913329 0.805737 0.241489
0.920241 0.782742 0.229221
0.170077 0.739406 0.465614
0.170092 0.739467 0.466011
0.170108 0.739559 0.466636
0.170001 0.739132 0.456703
0.169726 0.738094 0.440269
0.169436 0.736965 0.421576
0.169223 0.736171 0.404929
0.16846 0.733364 0.380041
0.167376 0.729397 0.352056
0.166506 0.726177 0.327947
0.16585 0.723552 0.308995
0.165438 0.722057 0.294591
0.167834 0.722911 0.282811
0.182071 0.728283 0.268589
0.202365 0.736156 0.256184
0.222095 0.743404 0.246052
0.248615 0.749798 0.23946
0.288014 0.757473 0.241779
0.33576 0.771679 0.24715
0.390188 0.788525 0.254475
0.449012 0.804974 0.263462
0.509575 0.820615 0.27364
0.569909 0.835111 0.284596
0.627207 0.848096 0.295735
0.678157 0.859907 0.306645
0.723339 0.870832 0.317525
0.762234 0.880949 0.32842
0.796887 0.890654 0.339712
0.827893 0.89836 0.350378
0.856138 0.902113 0.358968
0.884398 0.901595 0.364279
0.907195 0.882979 0.320577
0.920134 0.844877 0.264057
0.178576 0.770916 0.502449
0.178607 0.770993 0.503059
0.178622 0.771069 0.503685
0.178531 0.770733 0.495811
0.178454 0.770504 0.478965
0.178317 0.769879 0.459861
0.178241 0.769589 0.442374
0.177783 0.767926 0.418524
0.176959 0.764889 0.387747
0.176272 0.762249 0.360189
0.175677 0.760052 0.33666
0.17525 0.758587 0.318776
0.175586 0.758328 0.304723
0.182666 0.760616 0.291005
0.206363 0.768627 0.272877
0.226658 0.775494 0.261265
0.251606 0.781781 0.252628
0.287617 0.786435 0.25211
0.331106 0.794491 0.256382
0.38265 0.808789 0.262867
0.438468 0.823972 0.271382
0.496162 0.838697 0.281376
0.553826 0.852842 0.292348
0.609186 0.866194 0.303853
0.658991 0.878294 0.315114
0.703441 0.889509 0.32604
0.742779 0.900038 0.336736
0.777066 0.910262 0.347372
0.808194 0.920485 0.358404
0.839002 0.929732 0.369909
0.868849 0.934218 0.379263
0.899519 0.934218 0.386206
0.926711 0.922148 0.373007
0.186343 0.799298 0.53933
0.186358 0.799359 0.539925
0.186358 0.79939 0.540322
0.186343 0.799329 0.535775
0.186282 0.799161 0.519402
0.186343 0.799298 0.500084
0.186328 0.799329 0.481544
0.186114 0.798566 0.459876
0.18558 0.796551 0.428672
0.185 0.794491 0.397589
0.184573 0.792905 0.371176
0.184222 0.791653 0.348775
0.184115 0.79115 0.331243
0.186862 0.79205 0.316289
0.207614 0.798169 0.295689
0.231922 0.805112 0.278782
0.255802 0.810864 0.26804
0.289326 0.815549 0.264393
0.331121 0.820127 0.267933
0.377371 0.829404 0.273335
0.429847 0.843015 0.281071
0.485222 0.857282 0.290776
0.540215 0.87126 0.301686
0.592737 0.884779 0.313176
