luts/Dark Green.cube
TITLE "Generated by Resolve"
LUT_3D_SIZE 5
0 0.00143435 0.00390631
0.0537575 0.00267033 0.00514229
0.123064 0.0062562 0.0087129
0.198093 0.0115206 0.0139773
0.277134 0.0180819 0.0205386
0.0059968 0.079118 0.0130007
0.0723888 0.0898909 0.0237736
0.148165 0.0999313 0.033814
0.228351 0.110338 0.0442359
0.311757 0.121279 0.0551614
0.0291447 0.18291 0.0361486
0.0996872 0.197833 0.0510719
0.17911 0.211536 0.0647593
0.262592 0.225238 0.0784772
0.349004 0.23917 0.0924086
0.0603952 0.300481 0.0673991
0.133837 0.318303 0.0852216
0.215961 0.334691 0.10161
0.30193 0.350912 0.11783
0.390707 0.367193 0.134112
0.0977646 0.428092 0.104768
0.17351 0.448218 0.124895
0.257801 0.466789 0.14345
0.345846 0.485069 0.16173
0.436576 0.503304 0.179965
0 0.00102235 0.0725414
0.0553597 0.00427253 0.0757916
0.125643 0.00883497 0.0803388
0.201358 0.014786 0.0862898
0.280964 0.0218967 0.0934157
0.00949111 0.0825971 0.0855421
0.0763867 0.0938888 0.0968185
0.152605 0.104372 0.107301
0.233173 0.115175 0.118105
0.31693 0.126452 0.129381
0.0341039 0.187869 0.110155
0.104967 0.203113 0.125399
0.18471 0.217121 0.139406
0.268452 0.231113 0.153399
0.355138 0.245304 0.16759
0.0663615 0.306447 0.142412
0.140063 0.324529 0.160494
0.222416 0.341161 0.177127
0.308629 0.357595 0.193561
0.397604 0.37409 0.210056
0.104524 0.434867 0.180575
0.180484 0.455207 0.200916
0.264973 0.47396 0.219684
0.353201 0.492424 0.238148
0.444114 0.510857 0.256565
0 0.000701915 0.156481
0.0564431 0.00537118 0.161151
0.127581 0.0107729 0.166552
0.203937 0.0173648 0.173144
0.284062 0.0249943 0.180789
0.0122683 0.0853742 0.17258
0.0796521 0.0971542 0.18436
0.156283 0.108049 0.19527
0.237232 0.119219 0.206439
0.321324 0.130831 0.218051
0.0382849 0.19205 0.198611
0.109468 0.20763 0.214176
0.189502 0.221927 0.228489
0.273533 0.236179 0.242741
0.360464 0.250629 0.257191
0.0715343 0.31162 0.231861
0.14548 0.329946 0.250187
0.228077 0.346807 0.267048
0.314504 0.36347 0.283711
0.403677 0.380179 0.300404
0.110475 0.440818 0.270802
0.186633 0.461357 0.291341
0.271321 0.480308 0.310307
0.359747 0.49897 0.328954
0.450828 0.517571 0.347555
0 0.000503548 0.248493
0.0573892 0.00631724 0.254292
0.12929 0.0124819 0.260456
0.206241 0.0196536 0.267643
0.286839 0.0277867 0.275761
0.0147555 0.0878614 0.267262
0.0825971 0.100099 0.2795
0.15964 0.111406 0.290806
0.24094 0.122927 0.302342
0.325353 0.134859 0.314275
0.0421149 0.19588 0.294621
0.113619 0.211765 0.310506
0.193927 0.226352 0.325109
0.278233 0.240879 0.339635
0.365408 0.255573 0.35433
0.0763256 0.316411 0.328832
0.150515 0.334981 0.347402
0.233326 0.352071 0.364492
0.319982 0.368948 0.381384
0.409369 0.385855 0.398291
0.11603 0.446372 0.368551
0.192386 0.467109 0.389288
0.277272 0.486259 0.408438
0.365881 0.505104 0.427283
0.457145 0.523888 0.446052
0 0.000442512 0.346273
0.0583047 0.00721752 0.353033
0.130877 0.0140688 0.359899
0.208377 0.0218051 0.36762
0.289448 0.030396 0.376211
0.0170748 0.0901808 0.367422
0.085359 0.102861 0.380102
0.162783 0.114549 0.391791
0.244419 0.126421 0.403662
0.329152 0.138674 0.415915
0.045716 0.199481 0.396078
0.117525 0.215671 0.412268
0.198123 0.230549 0.427131
0.282673 0.245335 0.441917
0.370108 0.260273 0.456855
0.0808576 0.320943 0.43122
0.155291 0.339757 0.450034
0.238331 0.357076 0.467353
0.325185 0.374166 0.484443
0.414786 0.391272 0.501549
0.121324 0.451667 0.471687
0.197879 0.472602 0.492622
0.282948 0.491951 0.511971
0.37174 0.510964 0.530983
0.463172 0.529915 0.549935
