luts/Dark place 01.cube
TITLE "Generated by Resolve"
LUT_3D_SIZE 33
0 0 0
0 0 0
0 0 0
0 0 0
0 0 0
0 0 0
0 0 0
0 0 0
0 0 0
0 0 0
0 0 0
0 0 0
0 0 0
0 0 0
0 0 0
0.00563058 0 0
0.0256046 0 0
0.0455634 0 0
0.0654612 0 0
0.0853132 0 0
0.105425 0 0
0.125216 0 0
0.144869 0 0
0.164477 0 0
0.183993 0 0
0.20354 0 0
0.222904 0 0
0.241413 0 0
0.259083 0 0
0.276188 0 0
0.292927 0 0
0.309712 0 0
0.326329 0 0
0 0 0
0 0 0
0 0 0
0 0 0
0 0 0
0 0 0
0 0 0
0 0 0
0 0 0
0 0 0
0 0 0
0 0 0
0 0 0
0 0 0
0 0 0
0.0171969 0 0
0.0372015 0 0
0.057145 0 0
0.0770886 0 0
0.0971542 0 0
0.117006 0 0
0.136797 0 0
0.156466 0 0
0.176059 0 0
0.195666 0 0
0.215274 0 0
0.234485 0 0
0.252995 0 0
0.270665 0 0
0.28777 0 0
0.304646 0 0
0.321386 0 0
0.337911 0 0
0 0 0
0 0 0
0 0 0
0 0 0
0 0 0
0 0 0
0 0 0
0 0 0
0 0 0
0 0 0
0 0 0
0 0 0
0 0 0
0 0 0
0.00857557 0 0
0.0285954 0 0
0.0486 0 0
0.0685588 0 0
0.0887007 0 0
0.108553 0 0
0.128405 0 0
0.148196 0 0
0.167865 0 0
0.187716 0 0
0.207233 0 0
0.226673 0 0
0.245884 0 0
0.264393 0 0
0.282139 0 0
0.299428 0 0
0.316167 0 0
0.332784 0 0
0.34931 0 0
0 0 0
0 0 0
0 0 0
0 0 0
0 0 0
0 0 0
0 0 0
0 0 0
0 0 0
0 0 0
0 0 0
0 0 0
0 0 0
0 0 0
0.0199741 0 0
0.0399939 0 0
0.0602579 0 0
0.0802014 0 0
0.100099 0 0
0.119951 0 0
0.139803 0 0
0.159594 0 0
0.179522 0 0
0.199115 0 0
0.218631 0 0
0.238071 0 0
0.257282 0 0
0.275837 0 0
0.293721 0 0
0.310826 0 0
0.327565 0 0
0.344182 0 0
0.360708 0 0
0 0 0
0 0 0
0 0 0
0 0 0
0 0 0
0 0 0
0 0 0
0 0 0
0 0 0
0 0 0
0 0 0
0 0 0
0 0 0
0.0112612 0 0
0.0313268 0 0
0.0515908 0 0
0.0715953 0 0
0.0915541 0 0
0.111452 0 0
0.131304 0 0
0.151156 0 0
0.171191 0 0
0.19086 0 0
0.210452 0 0
0.229984 0 0
0.249409 0 0
0.268894 0 0
0.287404 0 0
0.305074 0 0
0.322179 0 0
0.338918 0 0
0.35555 0 0
0.37232 0 0
0 0 0
0 0 0
0 0 0
0 0 0
0 0 0
0 0 0
0 0 0
0 0 0
0 0 0
0 0 0
0 0 0
0 0 0
0.00247196 0 0
0.0227817 0 0
0.0429389 0 0
0.0629587 0 0
0.082948 0 0
0.102907 0 0
0.122805 0 0
0.14287 0 0
0.162768 0 0
0.182544 0 0
0.202213 0 0
0.221805 0 0
0.241337 0 0
0.261021 0 0
0.280247 0 0
0.298756 0 0
0.316426 0 0
0.333532 0 0
0.350271 0 0
0.367147 0 0
0.383673 0 0
0 0 0
0 0 0
0 0 0
0 0 0
0 0 0
0 0 0
0 0 0
0 0 0
0 0 0
0 0 0
0 0 0
0 0 0
0.014023 0 0
0.0342718 0 0
0.0543374 0 0
0.0743572 0 0
0.0943465 0 0
0.114305 0 0
0.134401 0 0
0.154314 0 0
0.174166 0 0
0.193942 0 0
0.213611 0 0
0.233204 0 0
0.252995 0 0
0.272419 0 0
0.291646 0 0
0.310155 0 0
0.327825 0 0
0.345159 0 0
0.361929 0 0
0.378546 0 0
0.395071 0 0
0 0 0
0 0 0
0 0 0
0 0 0
0 0 0
0 0 0
0 0 0
0 0 0
0 0 0
0 0 0
0 0 0
0.00537118 0 0
0.0255283 0 0
0.0456703 0 0
0.0657206 0 0
0.0857557 0 0
0.105867 0 0
0.125963 0 0
0.145861 0 0
0.165713 0 0
0.185565 0 0
0.205341 0 0
0.225177 0 0
0.244862 0 0
0.264393 0 0
0.283818 0 0
0.303044 0 0
0.321553 0 0
0.339437 0 0
0.356588 0 0
0.373327 0 0
0.389944 0 0
0.40647 0.00102235 0
0 0 0
0 0 0
0 0 0
0 0 0
0 0 0
0 0 0
0 0 0
0 0 0
0 0 0
0 0 0
0 0 0
0.0167697 0 0
0.0369268 0 0
0.0570687 0 0
0.0771191 0 0
0.0972457 0 0
0.117403 0 0
0.137362 0 0
0.157259 0 0
0.177111 0 0
0.196963 0 0
0.216892 0 0
0.236667 0 0
0.25626 0 0
0.275792 0 0
0.295216 0.00175479 0
0.314443 0.00491341 0
0.333211 0.00851453 0
0.350881 0.0120851 0
0.367987 0.0158083 0
0.384726 0.0196384 0
0.401343 0.0234989 0
0.418051 0.0275731 0
0 0 0
0 0 0
0 0 0
0 0 0
0 0 0
0 0 0
0 0 0
0 0 0
0 0 0
0 0 0
0.00805676 0 0
0.0281682 0 0
0.0483253 0 0
0.0684672 0 0
0.0887922 0 0
0.108812 0 0
0.128801 0.000793469 0
0.14876 0.00373846 0
0.168658 0.00669871 0
0.188586 0.00975052 0
0.208621 0.0129091 0
0.228397 0.0158999 0
0.248066 0.0189212 0
0.267659 0.021973 0
0.287175 0.0250401 0
0.306737 0.0282444 0
0.326101 0.0315251 0
0.34461 0.0348821 0
0.36228 0.0384527 0
0.379385 0.0421759 0
0.396124 0.0460059 0
0.412909 0.0500343 0
0.429526 0.0540169 0
0 0 0
0 0 0
0 0 0
0 0 0
0 0 0
0 0 0
0 0 0
0 0.000732433 0
0 0.00363165 0
0 0.00653086 0
0.0194553 0.00943008 0
0.0395666 0.0123293 0
0.0597391 0.0152285 0
0.0801251 0.0183719 0
0.100175 0.0212863 0
0.120211 0.0242161 0
0.1402 0.0271611 0
0.160159 0.0301061 0
0.180102 0.0331121 0
0.200168 0.0363012 0
0.22002 0.0392767 0
0.239796 0.0422675 0
0.259464 0.0452888 0
0.279057 0.0483406 0
0.29868 0.0514992 0
0.318288 0.0547494 0
0.337499 0.0578927 0
0.356008 0.0612497 0
0.373678 0.0648203 0
0.390784 0.0685435 0
0.407782 0.0726329 0
0.424399 0.0764935 0
0.440925 0.0803845 0
0 0.00630198 0
0 0.00936904 0
0 0.0122988 0
0 0.0152285 0
0 0.0181277 0
0 0.0210422 0
0 0.0241703 0
0 0.0271 0
0 0.0299992 0
0.0107271 0.0328985 0
0.0308537 0.0357977 0
0.0509651 0.0386969 0
0.0713817 0.0418402 0
0.0915236 0.0447395 0
0.111574 0.0476539 0
0.131609 0.0505837 0
0.151598 0.0535286 0
0.171817 0.0567178 0
0.191714 0.0596933 0
0.211566 0.0626688 0
0.231418 0.0656443 0
0.251194 0.0686351 0
0.270893 0.0716869 0
0.290715 0.0749523 0
0.310246 0.0780194 0
0.329671 0.081117 0
0.348898 0.0842603 0
0.367407 0.0876173 0
0.385153 0.091249 0
0.402441 0.0951553 0
0.419181 0.0990005 0
0.435798 0.102861 0
0.452323 0.106752 0
0 0.0327459 0
0 0.0357519 0
0 0.0386816 0
0 0.0416114 0
0 0.0446784 0
0 0.0476692 0
0 0.0505684 0
0 0.0534829 0
0.00195315 0.0563821 0
0.0220798 0.0592813 0
0.0424201 0.0623941 0
0.0625772 0.0653391 0
0.0827344 0.0682231 0
0.102876 0.0711223 0
0.122927 0.0740368 0
0.142962 0.0769665 0
0.16321 0.0801556 0
0.183154 0.0831159 0
0.203067 0.0860761 0
0.222919 0.0890516 0
0.242756 0.0920272 0
0.262547 0.0950179 0
0.282475 0.0982986 0
0.302068 0.101335 0
0.321584 0.104417 0
0.341024 0.1075 0
0.36025 0.110643 0
0.37879 0.114046 0
0.396689 0.117815 0
0.413794 0.121553 0
0.430533 0.125383 0
0.44715 0.129244 0
0.463676 0.133135 0
0 0.0591287 0
0 0.0621347 0
0 0.0650797 0
0 0.0681468 0
0 0.0711528 0
0 0.074052 0
0 0.0769665 0
0 0.0798657 0
0.0133059 0.0827649 0
0.0336309 0.0858625 0
0.0538186 0.0888228 0
0.07393 0.091722 0
0.0940871 0.0946059 0
0.114229 0.0975052 0
0.134279 0.100435 0
0.154574 0.103609 0
0.174563 0.106554 0
0.194507 0.109499 0
0.21442 0.112459 0
0.234272 0.115434 0
0.254353 0.118639 0
0.274159 0.12166 0
0.293828 0.124681 0
0.31342 0.127733 0
0.332937 0.1308 0
0.352377 0.133883 0
0.371862 0.137285 0
0.390356 0.140627 0
0.408042 0.144198 0
0.425147 0.147936 0
0.441886 0.151766 0
0.458518 0.155642 0
0.475288 0.159762 0
0 0.0854963 0
0 0.0885023 0
0 0.0916915 0
0 0.0946212 0
0 0.0975204 0
0 0.10042 0
0 0.103334 0
0.00469978 0.106355 0
0.0249638 0.109392 0
0.0450904 0.112276 0
0.0652171 0.11519 0
0.0853285 0.11809 0
0.105486 0.120974 0
0.125795 0.124041 0
0.145937 0.127047 0
0.165972 0.129976 0
0.185962 0.132921 0
0.205905 0.135866 0
0.225818 0.138827 0
0.245884 0.142016 0
0.265766 0.145022 0
0.285557 0.148028 0
0.305226 0.151049 0
0.324819 0.154101 0
0.344335 0.157168 0
0.364034 0.16051 0
0.383261 0.163653 0
0.401755 0.166995 0
0.41944 0.170565 0
0.436545 0.174304 0
0.453269 0.178134 0
0.470161 0.182239 0
0.486686 0.18613 0
0 0.11191 0
0 0.115114 0
0 0.118059 0
0 0.120989 0
0 0.123888 0
0 0.126787 0
0 0.129793 0
0.0162356 0.132845 0
0.0363622 0.13576 0
0.0564889 0.138643 0
0.0766155 0.141558 0
0.0967269 0.144457 0
0.117037 0.147494 0
0.137285 0.1505 0
0.157336 0.153414 0
0.177371 0.156344 0
0.19736 0.159289 0
0.217304 0.162234 0
0.237476 0.165438 0
0.257328 0.168414 0
0.277165 0.171389 0
0.296956 0.174395 0
0.316625 0.177417 0
0.336416 0.180652 0
0.355993 0.18378 0
0.375433 0.186877 0
0.394659 0.190021 0
0.413153 0.193362 0
0.430838 0.196933 0
0.448173 0.2009 0
0.464942 0.204746 0
0.481559 0.208606 0
0.498085 0.212497 0
0 0.138476 0
0 0.141482 0
0 0.144427 0
0 0.147356 0
0 0.150256 0
0 0.153414 0
0.0075227 0.156313 0
0.0276341 0.159213 0
0.0477607 0.162127 0
0.0678874 0.165011 0
0.0880903 0.168002 0
0.108385 0.171069 0
0.128542 0.173968 0
0.148684 0.176867 0
0.168734 0.179782 0
0.188769 0.182712 0
0.208881 0.185763 0
0.228962 0.188846 0
0.248875 0.191806 0
0.268727 0.194781 0
0.288563 0.197757 0
0.308354 0.200763 0
0.328191 0.203952 0
0.347875 0.20708 0
0.367391 0.210147 0
0.386831 0.213245 0
0.406058 0.216388 0
0.424552 0.21973 0
0.442451 0.223514 0
0.459602 0.227283 0
0.476341 0.231113 0
0.492958 0.234974 0
0.509483 0.238865 0
0 0.164843 0
0 0.167849 0
0 0.170794 0
0 0.173724 0
0 0.176883 0
0 0.179782 0
0.0189212 0.182681 0
0.0390326 0.18558 0
0.0591592 0.188495 0
0.0793317 0.19144 0
0.0996719 0.194537 0
0.119783 0.197436 0
0.13994 0.200336 0
0.160082 0.203235 0
0.180133 0.206149 0
0.200259 0.209171 0
0.220417 0.212268 0
0.24036 0.215213 0
0.260273 0.218173 0
0.280125 0.221149 0
0.299962 0.224125 0
0.320012 0.227375 0
0.339681 0.230411 0
0.359274 0.233448 0
0.37879 0.236515 0
0.39823 0.239612 0
0.417594 0.242893 0
0.43621 0.246357 0
0.453895 0.249928 0
0.471 0.253651 0
0.487724 0.257481 0
0.504356 0.261341 0.00141909
0.521065 0.265415 0.00546273
0 0.191211 0
0 0.194217 0
0 0.197162 0
0 0.200336 0
0 0.20325 0
0.0102083 0.206149 0
0.0303197 0.209049 0
0.0504311 0.211948 0
0.0708171 0.215106 0
0.0909438 0.218006 0
0.11107 0.220905 0
0.131182 0.223804 0
0.151339 0.226703 0
0.171511 0.229633 0
0.191791 0.232761 0
0.211826 0.235691 0
0.231815 0.238636 0
0.251759 0.241581 0
0.271672 0.244541 0
0.2916 0.247593 0
0.31162 0.250751 0
0.331411 0.253742 0
0.35108 0.256779 0
0.370672 0.259815 0
0.390188 0.262882 0
0.409751 0.266087 0
0.429114 0.269368 0
0.447608 0.272725 0
0.465293 0.276295 0.00105287
0.482399 0.280018 0.00476081
0.499123 0.283848 0.00857557
0.515923 0.287877 0.0125734
0.53254 0.291859 0.0165408
0 0.217578 0
0 0.220798 0
0 0.223774 0
0 0.226703 0
0.00148013 0.229618 0
0.0216068 0.232517 0
0.0417182 0.235416 0
0.062089 0.238575 0
0.0822156 0.241474 0
0.102342 0.244373 0
0.122469 0.247272 0
0.14258 0.250172 0
0.162753 0.253071 0
0.183139 0.256214 0
0.203189 0.259129 0
0.223224 0.262058 0
0.243214 0.265003 0
0.263157 0.267948 0
0.283116 0.27097 0
0.303181 0.274144 0
0.323018 0.277119 0
0.342809 0.28011 0
0.362478 0.283146 0
0.382071 0.286183 0
0.401846 0.289509 0
0.421286 0.292592 0.00204471
0.440513 0.295735 0.00517281
0.459007 0.299092 0.00849927
0.476692 0.302663 0.0120546
0.493889 0.306477 0.0158541
0.510781 0.310475 0.0198215
0.527413 0.314336 0.0236667
0.543938 0.318227 0.0275425
0 0.24416 0
0 0.247227 0
0 0.250156 0
0 0.253086 0
0.0128328 0.256001 0
0.0329595 0.2589 0
0.053315 0.262058 0
0.0734417 0.264958 0
0.0935683 0.267857 0
0.113695 0.270756 0
0.133822 0.273655 0
0.154177 0.276799 0
0.17435 0.279698 0
0.194491 0.282597 0
0.214542 0.285527 0
0.234577 0.288457 0
0.254566 0.291386 0
0.274769 0.294591 0
0.294667 0.297551 0
0.314534 0.300526 0
0.334371 0.303502 0
0.354162 0.306493 0.000579843
0.373861 0.309545 0.00361639
0.393683 0.312825 0.00686656
0.413199 0.315892 0.00991836
0.432639 0.318975 0.0130007
0.45185 0.322118 0.0161288
0.470359 0.325475 0.0194553
0.488121 0.329122 0.0230869
0.505394 0.333028 0.026978
0.522133 0.336858 0.0307774
0.53875 0.340719 0.0346227
0.555276 0.34461 0.0384985
0 0.270604 0
0 0.27361 0
0 0.276555 0
0.00407416 0.279469 0
0.0243534 0.282551 0
0.0445716 0.285527 0
0.0646677 0.288441 0
0.0847944 0.291341 0
0.104921 0.29424 0
0.125048 0.297139 0
0.145388 0.300252 0
0.165545 0.303197 0
0.185702 0.306081 0
0.205844 0.308995 0
0.225895 0.31191 0
0.245914 0.314839 0
0.266178 0.318029 0
0.286122 0.320974 0
0.30602 0.323934 0.00262455
0.325872 0.326909 0.00560006
0.345724 0.329885 0.00856031
0.365515 0.332891 0.0115358
0.385443 0.336156 0.0148013
0.405035 0.339208 0.0178225
0.424552 0.342275 0.0208743
0.443992 0.345357 0.0239567
0.463203 0.348516 0.0270848
0.481971 0.352102 0.0306706
0.499657 0.355688 0.034226
0.516747 0.359411 0.0379339
0.533486 0.363241 0.0417334
0.550103 0.367102 0.0455787
0.566674 0.371038 0.0495003
0 0.296971 0
0 0.299977 0
0 0.302922 0
0.0156252 0.305989 0
0.0358434 0.308995 0
0.0559701 0.311894 0
0.0760662 0.314809 0
0.0961929 0.317708 0
0.11632 0.320607 0
0.136706 0.323766 0
0.156817 0.326665 0
0.176944 0.329564 0
0.197101 0.332464 0
0.217243 0.335363 0
0.237491 0.33846 0.00184634
0.257572 0.341451 0.00482185
0.277577 0.344396 0.00775158
0.29752 0.347341 0.0106813
0.317418 0.350301 0.0136263
0.33727 0.353277 0.0165866
0.357366 0.356481 0.019791
0.377172 0.359503 0.0227817
0.396841 0.362524 0.025803
0.416434 0.365576 0.0288243
0.43595 0.368643 0.0318761
0.45539 0.371725 0.0349584
0.474861 0.375128 0.0383307
0.49337 0.37847 0.0416724
0.511055 0.382055 0.0452277
0.528145 0.385779 0.0489357
0.544884 0.389609 0.0527352
0.561532 0.3935 0.056611
0.578286 0.397604 0.0607004
0 0.323339 0
0 0.326421 0
0.00709544 0.329534 0
0.0271305 0.332464 0
0.0472419 0.335363 0
0.0673686 0.338262 0
0.0874647 0.341176 0
0.107713 0.344198 0
0.127977 0.347234 0
0.148104 0.350134 0
0.168215 0.353033 0.00109865
0.188342 0.355932 0.00399786
0.208499 0.358816 0.00686656
0.228809 0.361898 0.00991836
0.248951 0.364889 0.0129091
0.268971 0.367819 0.0158236
0.288975 0.370764 0.0187533
0.308919 0.373709 0.0216831
0.328817 0.376669 0.0246281
0.348898 0.379858 0.0278019
0.36878 0.382864 0.030808
0.388571 0.38587 0.0337835
0.40824 0.388891 0.0368048
0.427832 0.391943 0.039826
0.447349 0.39501 0.0428779
0.467048 0.398352 0.0462043
0.486259 0.401495 0.0493324
0.504768 0.404837 0.0526741
0.522454 0.408423 0.0562142
0.539544 0.412146 0.0599222
0.556542 0.41622 0.0639963
0.573159 0.420081 0.0678264
0.589685 0.423972 0.0717021
0 0.349767 0
0 0.352956 0
0.0184939 0.355901 0
0.038529 0.358831 0
0.0586404 0.36173 0
0.0787671 0.36463 0
0.09897 0.367636 0.000411994
0.119249 0.370687 0.00344854
0.139376 0.373602 0.00633249
0.159487 0.376501 0.00921645
0.179614 0.3794 0.0121004
0.199741 0.3823 0.0149996
0.220157 0.385443 0.0181277
0.240299 0.388342 0.0210117
0.260349 0.391257 0.0239109
0.280369 0.394186 0.0268254
0.300374 0.397131 0.0297551
0.32047 0.400214 0.0328222
0.340475 0.403281 0.035874
0.360327 0.406256 0.0388495
0.380179 0.409232 0.0418097
0.399969 0.412238 0.0447852
0.419638 0.415259 0.0477913
0.439429 0.418494 0.0510109
0.459007 0.421622 0.0541238
0.478447 0.42472 0.0572061
0.497658 0.427863 0.0603342
0.516167 0.431205 0.0636606
0.533852 0.434791 0.067216
0.551186 0.438743 0.0711681
0.567941 0.442588 0.0749828
0.584573 0.446464 0.0788281
0.601083 0.45034 0.0827039
0 0.376318 0
0.0099031 0.379324 0
0.0298924 0.382269 0
0.0499275 0.385199 0.00263981
0.0700694 0.388128 0.00555428
0.090425 0.391257 0.00866712
0.110521 0.394156 0.0115511
0.130648 0.397055 0.0144503
0.150774 0.399969 0.0173342
0.170886 0.402869 0.0202182
0.191104 0.405844 0.0231785
0.211398 0.408927 0.0262455
0.231556 0.41181 0.0291142
0.251698 0.41471 0.0320134
0.271748 0.417624 0.0349126
0.291768 0.420554 0.0378271
0.311894 0.423621 0.0408789
0.331975 0.426688 0.0439307
0.351873 0.429648 0.0468757
0.371725 0.432624 0.0498512
0.391577 0.435599 0.0528115
0.411368 0.438605 0.055787
0.431205 0.441794 0.0589609
0.450889 0.444923 0.0620737
0.470405 0.44799 0.0651255
0.489845 0.451087 0.0682078
0.509056 0.454231 0.0713359
0.527565 0.457572 0.0746624
0.54551 0.461402 0.0784772
0.5626 0.465126 0.0821851
0.579339 0.468956 0.0859846
0.595972 0.472831 0.0898299
0.612482 0.476707 0.0937057
0.00158694 0.402686 0.00480659
0.0213016 0.405692 0.00779736
0.0412909 0.408637 0.0107271
0.061326 0.411582 0.0136416
0.0816968 0.414725 0.0167697
0.101823 0.417624 0.0196689
0.12192 0.420523 0.0225528
0.142046 0.423423 0.025452
0.162173 0.426337 0.028336
0.182345 0.429282 0.031281
0.20267 0.43238 0.0343481
0.222797 0.435294 0.0372473
0.242954 0.438178 0.040116
0.263081 0.441077 0.0430152
0.283146 0.443992 0.0459144
0.303426 0.447166 0.049073
0.32343 0.450111 0.0520027
0.343374 0.453056 0.0549325
0.363272 0.456016 0.0578775
0.383124 0.458991 0.0608377
0.403082 0.462074 0.0639048
0.423026 0.465217 0.0670329
0.442695 0.468254 0.0700542
0.462287 0.47129 0.0730755
0.481804 0.474357 0.0761273
0.501244 0.477455 0.0792096
0.520607 0.480735 0.082475
0.539223 0.484199 0.0859236
0.556909 0.48777 0.0894789
0.573999 0.491493 0.0931868
0.590738 0.495323 0.0969863
0.60737 0.499199 0.100832
0.624079 0.503273 0.104891
0.0129854 0.429053 0.0158083
0.0327001 0.432059 0.0187991
0.0529488 0.435248 0.0219577
0.0729839 0.438178 0.0248875
0.0930953 0.441093 0.0277714
0.113222 0.443992 0.0306554
0.133318 0.446891 0.0335546
0.153445 0.44979 0.0364385
0.173831 0.452949 0.0395819
