luts/Dark place 01.cube
TITLE "Generated by Resolve"
LUT_3D_SIZE 5
0 0 0
0 0 0
0.0256046 0 0
0.183993 0 0
0.326329 0 0
0 0 0
0 0 0
0.117403 0 0
0.275792 0 0
0.418051 0.0275731 0
0 0.138476 0
0.0477607 0.162127 0
0.208881 0.185763 0
0.367391 0.210147 0
0.509483 0.238865 0
0 0.349767 0
0.139376 0.373602 0.00633249
0.300374 0.397131 0.0297551
0.459007 0.421622 0.0541238
0.601083 0.45034 0.0827039
0.0703288 0.561105 0.0711376
0.231174 0.585 0.0949264
0.392172 0.60853 0.118334
0.550759 0.63299 0.142687
0.692882 0.661753 0.171283
0 0 0
0 0 0
0.0377356 0 0
0.196109 0 0
0.338277 0 0
0 0 0
0 0 0
0.12929 0 0
0.287907 0.0104219 0.00610361
0.429999 0.0391394 0.0346838
0 0.149981 0.0229496
0.0598764 0.173877 0.0467231
0.220874 0.197406 0.0701457
0.379522 0.221897 0.0945144
0.521599 0.250629 0.123095
0 0.361456 0.11136
0.151492 0.385351 0.135134
0.31249 0.408881 0.158556
0.470985 0.433249 0.182803
0.613214 0.462104 0.211505
0.0824445 0.572869 0.199954
0.243091 0.596567 0.223529
0.404288 0.620279 0.247135
0.562676 0.644541 0.271275
0.705013 0.673503 0.300099
0 0 0
0 0 0.000564584
0.049485 0 0.0239872
0.208118 0 0.0483558
0.35021 0 0.076936
0 0 0.0653697
0 0 0.0891432
0.141283 0 0.112566
0.299916 0.0220645 0.13695
0.441993 0.050782 0.165515
0 0.161624 0.15378
0.07187 0.185489 0.177539
0.232883 0.209033 0.200977
0.391287 0.23331 0.225132
0.533608 0.262257 0.253925
0.00265507 0.373098 0.242191
0.163241 0.396735 0.265721
0.324498 0.420508 0.289387
0.482872 0.44477 0.313527
0.625223 0.473732 0.342336
0.0944533 0.584512 0.330785
0.255039 0.608148 0.354314
0.416297 0.631922 0.377981
0.57467 0.656168 0.402106
0.716747 0.684886 0.430686
0 0 0.114534
0 0 0.138308
0.0610819 0 0.16173
0.219654 0 0.186053
0.361791 0 0.214679
0 0 0.203128
0 0 0.226795
0.152865 0.00881971 0.250324
0.311254 0.0330663 0.274449
0.45359 0.0620279 0.303273
0 0.172869 0.291539
0.0832227 0.196506 0.315068
0.24448 0.220295 0.338735
0.402853 0.244541 0.36286
0.545205 0.273503 0.391684
0.0142519 0.384344 0.37995
0.174838 0.40798 0.403479
0.33608 0.431754 0.427131
0.494469 0.456016 0.45127
0.636545 0.484733 0.47985
0.105959 0.595682 0.468467
0.266636 0.619394 0.492073
0.427634 0.642924 0.51548
0.586267 0.66743 0.539864
0.728344 0.696147 0.568429
0 0 0.249287
0 0 0.272847
0.0728466 0 0.296483
0.23122 0 0.320607
0.373571 0 0.349432
0 0 0.337865
0.0033875 0 0.361395
0.164645 0.0202335 0.385061
0.323018 0.04448 0.409201
0.465309 0.0733959 0.437964
0 0.184283 0.426276
0.0949874 0.207935 0.449805
0.256138 0.231601 0.473365
0.414633 0.255955 0.497612
0.55671 0.284672 0.526177
0.0258335 0.39559 0.514519
0.186603 0.419409 0.538216
0.347601 0.442939 0.561639
0.506249 0.46743 0.586023
0.648325 0.496162 0.614588
0.117556 0.606928 0.603037
0.278401 0.630808 0.62681
0.439399 0.654337 0.650233
0.598016 0.678828 0.674586
0.739605 0.707057 0.702678
