luts/DEEN STUDIO (Canon).cube
TITLE "Generated by Resolve"
LUT_3D_SIZE 33
0.000366217 0.0178531 0.00737011
0.000366217 0.0180819 0.00901808
0.000366217 0.0181735 0.00941482
0.00627146 0.0176242 0.00900282
0.00737011 0.0172274 0.00865187
0.00852979 0.0166934 0.00833143
0.00961318 0.0160983 0.00808728
0.0174411 0.015671 0.00796521
0.0327001 0.0163882 0.00859083
0.0560769 0.0191958 0.0122377
0.0809796 0.0236057 0.0163577
0.111574 0.0289921 0.0204471
0.148653 0.0352483 0.0257572
0.191791 0.0432898 0.0320592
0.240558 0.0537728 0.0396887
0.293263 0.0672923 0.0508431
0.347875 0.0841535 0.065156
0.400214 0.102312 0.0787213
0.451667 0.119844 0.0912184
0.506279 0.138613 0.103929
0.56437 0.158175 0.117876
0.624338 0.179629 0.132494
0.683085 0.199344 0.14725
0.742885 0.22005 0.162875
0.802441 0.241581 0.179461
0.855573 0.262104 0.195148
0.910124 0.283528 0.211002
0.96582 0.305409 0.227665
1 0.326207 0.243442
1 0.344244 0.256367
1 0.359335 0.267292
1 0.374868 0.277867
1 0.390188 0.288594
0.000579843 0.0280308 0.0130617
0.000564584 0.027985 0.0136568
0.00784314 0.0269932 0.0129397
0.0135195 0.0267491 0.0128786
0.0140078 0.026688 0.0128176
0.0143893 0.0265049 0.012726
0.0150149 0.0262303 0.0125277
0.0199435 0.0259251 0.0124056
0.031754 0.0255589 0.0125887
0.0528725 0.0256504 0.0128328
0.0813611 0.0288548 0.0167391
0.112779 0.0340887 0.0215152
0.146761 0.0395361 0.0264744
0.187243 0.0464485 0.0319371
0.233417 0.055314 0.0390936
0.284306 0.0670329 0.0487831
0.340749 0.0834363 0.0634928
0.400504 0.103609 0.0787518
0.457527 0.122744 0.0925154
0.511391 0.141192 0.105257
0.565713 0.159335 0.118151
0.622827 0.179614 0.132021
0.6804 0.198978 0.146517
0.740169 0.219394 0.162005
0.799954 0.240879 0.178607
0.852979 0.261326 0.194125
0.906676 0.282231 0.209735
0.961837 0.303975 0.226261
1 0.325124 0.242374
1 0.343999 0.256062
1 0.359243 0.267094
1 0.374472 0.27744
1 0.389548 0.288014
0.000686656 0.0338598 0.0161898
0.000686656 0.0335851 0.0163424
0.014435 0.0326085 0.015671
0.0172274 0.0323644 0.0155337
0.0175784 0.0323491 0.0155337
0.0178683 0.0323186 0.0155795
0.0184329 0.0323186 0.0156405
0.0225376 0.0322271 0.015671
0.032639 0.032166 0.0157015
0.0510262 0.0322118 0.0163577
0.0792859 0.0337682 0.0178683
0.114061 0.0382544 0.0222629
0.148028 0.0433661 0.0272679
0.185733 0.0496071 0.0322423
0.229892 0.0570687 0.0385901
0.278386 0.067628 0.0475929
0.330968 0.0821546 0.0611734
0.391852 0.102113 0.0768444
0.45684 0.123461 0.0923323
0.518044 0.144076 0.106737
0.573083 0.162478 0.119615
0.626642 0.181399 0.132815
0.681163 0.199603 0.146761
0.738766 0.219318 0.161593
0.798108 0.240436 0.177996
0.851011 0.260807 0.193469
0.903838 0.281437 0.209018
0.957778 0.302647 0.225025
1 0.32398 0.241306
1 0.343832 0.255818
1 0.359823 0.267445
1 0.374777 0.277684
1 0.389303 0.287755
0.000747692 0.0364385 0.0173953
0.000732433 0.0362249 0.0175784
0.0161593 0.0349279 0.016495
0.0184176 0.0348669 0.0165255
0.0186618 0.0348669 0.0165713
0.0188907 0.0348821 0.0166323
0.0195163 0.0350042 0.0168612
0.0238346 0.0352026 0.0172427
0.0333715 0.0354467 0.0175937
0.0502327 0.0355688 0.0177157
0.0775921 0.03682 0.0190433
0.113313 0.0401312 0.0224765
0.148531 0.0451972 0.027451
0.185626 0.0511635 0.0325322
0.228656 0.0582742 0.0386358
0.276204 0.0682689 0.0472267
0.325811 0.0816205 0.059968
0.382422 0.0999008 0.0747845
0.446632 0.120714 0.0901045
0.514839 0.143465 0.106004
0.578424 0.164706 0.120851
0.635599 0.184741 0.135119
0.688182 0.202319 0.148577
0.742412 0.220783 0.16257
0.798596 0.240787 0.178119
0.85008 0.260609 0.193164
0.90219 0.280964 0.208698
0.954025 0.301274 0.223789
1 0.321965 0.239353
1 0.342596 0.25478
1 0.360189 0.267659
1 0.37583 0.278401
1 0.389838 0.288273
0.000747692 0.0368505 0.0175174
0.000747692 0.0368658 0.0178225
0.0166781 0.0356909 0.0168154
0.0187839 0.0356756 0.0169223
0.0190127 0.0357061 0.0169528
0.0192874 0.0356909 0.0170138
0.0199283 0.0357977 0.0171817
0.0242008 0.0360571 0.0176547
0.0336004 0.0364843 0.0182803
0.0497902 0.0366064 0.0181888
0.0767681 0.0377356 0.0197147
0.112551 0.0408637 0.0226749
0.148272 0.0456855 0.0274052
0.185504 0.0515297 0.0326085
0.228046 0.0586252 0.0386053
0.275486 0.068452 0.0470893
0.324727 0.0815442 0.059678
0.378744 0.0990616 0.0740826
0.436896 0.117769 0.088014
0.50016 0.138872 0.102525
0.56585 0.160586 0.11812
0.631067 0.183215 0.133822
0.694957 0.2047 0.150286
0.757916 0.226032 0.166598
0.810712 0.245624 0.181827
0.855558 0.262715 0.195087
0.902296 0.281025 0.208698
0.952163 0.300572 0.223209
1 0.320409 0.23798
1 0.340475 0.252949
1 0.359121 0.266819
1 0.37641 0.278798
1 0.391165 0.289342
0.000793469 0.0384375 0.0178531
0.00077821 0.0384833 0.018616
0.0176699 0.0374456 0.0177462
0.0200198 0.037583 0.0179904
0.0203555 0.0376135 0.0180819
0.0205997 0.037644 0.0181125
0.0212253 0.0377356 0.0183413
0.0252232 0.037995 0.0187686
0.0344091 0.0386969 0.019501
0.0492866 0.0392462 0.0197299
0.0724346 0.0408179 0.0208286
0.105043 0.0432441 0.0234989
0.142153 0.0473335 0.027451
0.182498 0.0526741 0.0324712
0.226566 0.0597391 0.0386206
0.274281 0.0693065 0.0469673
0.323491 0.0821088 0.0594797
0.377386 0.0993973 0.0738537
0.434455 0.117647 0.0876326
0.495018 0.137575 0.101442
0.55816 0.15819 0.116472
0.623148 0.18088 0.13193
0.688167 0.202686 0.148516
0.757076 0.225986 0.166339
0.819516 0.249287 0.184436
0.868238 0.267765 0.19852
0.910002 0.284184 0.210773
0.953414 0.301213 0.22359
1 0.3196 0.237263
1 0.338903 0.25156
1 0.357153 0.26511
1 0.375036 0.277821
1 0.391562 0.289693
0.000885023 0.0434424 0.0204166
0.000869764 0.0427253 0.0201724
0.0191653 0.0419318 0.0195773
0.0222934 0.0420844 0.0196536
0.022797 0.0422675 0.0198062
0.0230411 0.042359 0.0199435
0.0235904 0.0424659 0.0201114
0.026978 0.0425269 0.0202487
0.0351415 0.0430457 0.0211185
0.0496986 0.044007 0.0219577
0.0707866 0.0455329 0.0227817
0.102342 0.047776 0.0248264
0.140871 0.0514382 0.0285496
0.181567 0.0563058 0.0331121
0.225299 0.062623 0.0392309
0.272206 0.0715801 0.046952
0.32137 0.0838636 0.0593118
0.375265 0.100587 0.0735332
0.432486 0.118395 0.0872206
0.492348 0.137987 0.101045
0.553292 0.157626 0.115557
0.615457 0.179309 0.130388
0.678553 0.200031 0.146059
0.746319 0.22295 0.163394
0.814069 0.247578 0.182681
0.87013 0.26894 0.199054
0.915801 0.286885 0.212726
0.957198 0.303014 0.224765
1 0.319936 0.237247
1 0.338567 0.251072
1 0.355596 0.263584
1 0.372778 0.2757
1 0.389853 0.288151
0.00105287 0.0516518 0.0246433
0.0138094 0.0498207 0.0230259
0.0231174 0.0494545 0.0228275
0.0257572 0.0494087 0.0230411
0.0263676 0.0494698 0.0231174
0.0267338 0.049546 0.023209
0.0271305 0.0496834 0.0233768
0.0297704 0.0500343 0.0238499
0.0372473 0.0504921 0.0246128
0.0507057 0.0511177 0.0251774
0.0697032 0.0525521 0.0261234
0.098085 0.0547341 0.0271611
0.137209 0.0584878 0.0301518
0.180117 0.0625925 0.0346685
0.223758 0.0681926 0.039826
0.269703 0.0757 0.047364
0.318288 0.087541 0.0594644
0.372061 0.103182 0.0730907
0.429664 0.120439 0.0869154
0.489937 0.13959 0.100984
0.550729 0.15874 0.115114
0.611429 0.179599 0.129625
0.671809 0.199268 0.144503
0.736187 0.220829 0.160952
0.805402 0.245396 0.180209
0.865522 0.268116 0.19765
0.915633 0.287572 0.212619
0.958221 0.30399 0.224918
1 0.320348 0.237156
1 0.338521 0.250675
1 0.355291 0.262852
1 0.371878 0.274617
1 0.387915 0.28574
0.0121767 0.0609751 0.0285649
0.0269474 0.0604257 0.0282292
0.0300298 0.0606546 0.028336
0.0312047 0.0608072 0.028336
0.0314641 0.0607004 0.0283207
0.0317235 0.0604105 0.0282902
0.0318303 0.0602274 0.0282292
0.0339055 0.0602731 0.0284276
0.0400244 0.0606088 0.0289464
0.0527657 0.0612039 0.0294347
0.0698863 0.0621805 0.0301823
0.0950637 0.0645762 0.0312047
0.131228 0.0680247 0.0332647
0.175448 0.0717327 0.0370031
0.221836 0.0766613 0.0416876
0.26775 0.0835889 0.0490578
0.314794 0.0941634 0.0601816
0.368215 0.108278 0.0734722
0.42594 0.124468 0.0869459
0.486503 0.142931 0.100679
0.547372 0.161532 0.114839
0.608225 0.181842 0.129305
0.668055 0.200763 0.143954
0.730434 0.221103 0.159625
0.798795 0.244709 0.178256
0.860121 0.267735 0.196292
0.912734 0.287739 0.211551
0.95668 0.304631 0.224384
0.999435 0.320882 0.236728
1 0.338811 0.250141
1 0.355459 0.262394
1 0.371878 0.274037
1 0.387259 0.284489
0.0290227 0.0737774 0.0341192
0.0353552 0.0733959 0.0339666
0.0371099 0.07364 0.0341039
0.0378271 0.0741436 0.0343328
0.0381781 0.0746929 0.034638
0.0387884 0.0751354 0.0348821
0.0390631 0.0753338 0.0350347
0.0401007 0.0749981 0.0348669
0.0454261 0.0743877 0.0345617
0.0560922 0.0739452 0.0347143
0.0715038 0.0747234 0.035874
0.094377 0.0766308 0.0368658
0.125338 0.0798657 0.0379034
0.167056 0.0842908 0.0404364
0.215854 0.0892958 0.0449378
0.264836 0.0959335 0.0516365
0.312657 0.105196 0.0625315
0.364553 0.116899 0.0745251
0.421103 0.131853 0.0875105
0.481849 0.148867 0.100984
0.542916 0.166537 0.114763
0.604059 0.185641 0.129015
0.664363 0.204364 0.143709
0.725078 0.223407 0.158862
0.789776 0.244587 0.175998
0.847089 0.265522 0.192691
0.900465 0.285481 0.208225
0.949554 0.304082 0.222492
0.996124 0.321508 0.23592
1 0.339666 0.249622
1 0.356237 0.261967
1 0.372595 0.273533
1 0.387747 0.284062
0.0407874 0.0901503 0.0413519
0.0450141 0.0897078 0.0411383
0.0464027 0.0896162 0.0410925
0.046891 0.0898756 0.0411994
0.0472725 0.0906081 0.0415351
0.0477607 0.0918288 0.0420844
0.0482795 0.0929427 0.0426032
0.0493019 0.0933089 0.0428016
0.052903 0.0924849 0.0424506
0.0615091 0.091249 0.0421759
0.074464 0.0911116 0.0428626
0.0952773 0.0922866 0.043534
0.122499 0.0947585 0.0450141
0.159091 0.0997177 0.0466926
0.204807 0.104936 0.0494392
0.256657 0.111635 0.0557717
0.309148 0.121019 0.066392
0.362173 0.131716 0.0776989
0.417731 0.144457 0.089601
0.476585 0.158724 0.101976
0.537591 0.175204 0.11519
0.599268 0.192935 0.129335
0.660258 0.210727 0.144045
0.720653 0.228428 0.158785
0.785306 0.248524 0.175677
0.842481 0.268879 0.192081
0.897978 0.288746 0.208026
0.948577 0.307515 0.2224
0.995483 0.324605 0.236133
1 0.341894 0.249317
1 0.358099 0.26154
1 0.374197 0.273091
1 0.389136 0.283742
0.053193 0.111055 0.0513008
0.0556649 0.110582 0.0510719
0.0564126 0.110307 0.0509346
0.0565499 0.110277 0.0509499
0.0565957 0.11046 0.0509804
0.0568093 0.111269 0.0511482
0.0577554 0.112963 0.0520485
0.0591897 0.114504 0.0528267
0.0619516 0.114458 0.0528267
0.0682231 0.112917 0.0521859
0.0799573 0.111986 0.0520485
0.0986191 0.112398 0.0528878
0.123003 0.114305 0.0542916
0.15491 0.118151 0.0552987
0.195102 0.124025 0.0575265
0.243214 0.131273 0.0616922
0.297856 0.140673 0.0717632
0.356832 0.151751 0.0825513
0.415274 0.162951 0.0936141
0.473518 0.175616 0.104936
0.532784 0.18938 0.117159
0.593317 0.2047 0.130587
0.654368 0.220859 0.144869
0.71516 0.237369 0.159472
0.779156 0.255756 0.175509
0.836927 0.274769 0.191959
0.892989 0.294148 0.20766
0.946822 0.313054 0.222721
0.995468 0.330541 0.236789
1 0.346548 0.249744
1 0.362051 0.261555
1 0.377127 0.272877
1 0.392081 0.283452
0.0657969 0.136309 0.062623
0.0673381 0.135866 0.0623789
0.0678111 0.135561 0.0622568
0.0678874 0.135363 0.0621653
0.0677958 0.135241 0.0621347
0.0679179 0.13547 0.0621958
0.0685893 0.136843 0.0628061
0.0699931 0.139376 0.0639506
0.0725719 0.140703 0.0645151
0.0780499 0.139422 0.0641031
0.0880598 0.13785 0.0639963
0.103227 0.137636 0.0648051
0.124865 0.138964 0.0655222
0.153506 0.141497 0.0665904
0.190249 0.147692 0.0683909
0.23267 0.154574 0.0718547
0.282521 0.163516 0.0788586
0.342702 0.174273 0.0886397
0.40708 0.186664 0.0992447
0.469825 0.198566 0.109987
0.529885 0.210498 0.121508
0.589487 0.22327 0.134234
0.64918 0.236759 0.147356
0.709102 0.251286 0.161105
0.773693 0.267918 0.176944
0.830961 0.284779 0.192462
0.886137 0.302358 0.207431
0.94197 0.321157 0.223011
0.994018 0.338796 0.237476
1 0.355016 0.250965
1 0.3691 0.262257
1 0.383322 0.273167
1 0.397421 0.283726
0.0798962 0.169162 0.0776684
0.0809949 0.168368 0.0772412
0.0812695 0.167956 0.0770428
0.0812695 0.16762 0.0768749
0.0811627 0.16733 0.0767681
0.0811322 0.167254 0.0767376
0.0814374 0.16788 0.076997
0.0826276 0.169268 0.0775921
0.0846571 0.170413 0.0780194
0.0891737 0.169833 0.0774701
0.0973068 0.168856 0.0768292
0.110674 0.168505 0.0768749
0.130648 0.169482 0.0790723
0.155581 0.171481 0.0815137
0.187411 0.175219 0.0840772
0.227543 0.183032 0.0857862
0.271931 0.190661 0.0902266
0.326055 0.199969 0.0963455
0.389853 0.211826 0.105653
0.457298 0.224887 0.11632
0.52517 0.238087 0.128344
0.589288 0.250645 0.140688
0.648295 0.26157 0.152834
0.705287 0.272358 0.165438
0.767559 0.28571 0.179568
0.825498 0.30074 0.194522
0.879881 0.316121 0.209049
0.934295 0.332662 0.223453
0.988418 0.34992 0.238178
1 0.366873 0.252308
1 0.380728 0.263798
1 0.393576 0.274296
1 0.406287 0.284428
0.0959182 0.208377 0.0958114
0.0962692 0.206485 0.0948501
0.0962081 0.205554 0.094377
0.0961166 0.205005 0.0941329
0.0959945 0.204715 0.0939956
0.0958877 0.204517 0.0939193
0.0961166 0.204822 0.0940719
0.0970779 0.206317 0.0947433
0.0991379 0.208118 0.0955062
0.102358 0.20824 0.0954147
0.109407 0.20676 0.0943313
0.121065 0.205615 0.0933547
0.138399 0.205768 0.09308
0.161776 0.207004 0.0950027
0.190936 0.209506 0.0986648
0.224628 0.214313 0.104341
0.267475 0.222797 0.10544
0.317159 0.231586 0.108919
0.374365 0.241398 0.114992
0.438788 0.253193 0.12398
0.508339 0.266529 0.135409
0.577798 0.279896 0.147951
0.641611 0.290944 0.159976
0.699855 0.300282 0.171435
0.762722 0.311299 0.184878
0.820676 0.323598 0.198749
0.874342 0.336416 0.212329
0.92752 0.350576 0.22591
0.980591 0.365545 0.239551
1 0.381979 0.253498
1 0.39646 0.265751
1 0.409339 0.276524
1 0.420798 0.286641
0.115724 0.254688 0.117266
0.11487 0.251347 0.115389
0.114229 0.249119 0.114427
0.113771 0.247791 0.113848
0.113497 0.247105 0.113512
0.113313 0.246769 0.11339
0.11342 0.246799 0.11339
0.11429 0.247791 0.113848
0.116136 0.249592 0.114427
0.119615 0.25069 0.114748
0.125154 0.250019 0.114199
0.13431 0.248417 0.112993
0.149279 0.247471 0.111894
0.170428 0.2477 0.111009
0.197787 0.249241 0.112993
0.230198 0.252247 0.117174
0.267918 0.257771 0.122652
0.314961 0.267018 0.125383
0.36762 0.276463 0.129107
0.426215 0.286488 0.135348
0.490257 0.297871 0.144274
0.558892 0.310765 0.155596
0.62678 0.323125 0.167895
0.689418 0.332723 0.179309
0.754147 0.342626 0.191669
0.815274 0.353246 0.204959
0.8692 0.364126 0.217868
0.922026 0.376104 0.23032
0.973983 0.3888 0.243198
1 0.402304 0.255909
1 0.416205 0.268177
1 0.429572 0.279423
1 0.441382 0.289967
0.138811 0.30695 0.142763
0.138247 0.304707 0.141375
0.136934 0.300969 0.139452
0.13579 0.297978 0.138155
0.134661 0.295811 0.137041
0.133974 0.294759 0.13637
0.133867 0.294347 0.136187
0.134401 0.294713 0.136324
0.136507 0.296269 0.13727
0.139422 0.298222 0.137987
0.144823 0.298924 0.137881
0.152789 0.29781 0.136904
0.165042 0.296101 0.135393
0.183276 0.29546 0.134035
0.208148 0.295796 0.132845
0.238727 0.297398 0.134157
0.273793 0.300298 0.138796
0.317342 0.306615 0.145113
0.36817 0.316915 0.147951
0.422889 0.327108 0.152163
0.480476 0.336645 0.158114
0.544106 0.347753 0.166995
0.610391 0.359777 0.177584
0.675578 0.370291 0.189059
0.743145 0.380529 0.201266
0.807965 0.390112 0.213718
0.86334 0.39968 0.226032
0.916838 0.409644 0.237934
0.969009 0.420005 0.249653
1 0.43093 0.261463
1 0.442176 0.272297
1 0.454093 0.283055
1 0.466087 0.293843
0.163607 0.358129 0.168795
0.164691 0.359792 0.169436
0.16463 0.359243 0.169207
0.163317 0.356588 0.167834
0.161318 0.35259 0.165698
0.159609 0.34902 0.163851
0.158938 0.34728 0.163027
0.15906 0.347036 0.16286
0.160159 0.347463 0.163043
0.162661 0.348852 0.163561
0.167681 0.350835 0.164294
0.175326 0.351675 0.164202
0.186114 0.350484 0.162829
0.201221 0.348653 0.160769
0.222232 0.348104 0.158999
0.249729 0.348867 0.157763
0.283314 0.350179 0.156298
0.323095 0.353002 0.162799
0.371496 0.360327 0.171481
0.425315 0.371542 0.173831
0.480766 0.382666 0.177279
0.538643 0.392737 0.182971
0.59997 0.403372 0.191806
0.662394 0.413672 0.201328
0.729961 0.423972 0.213107
0.798154 0.433906 0.225193
0.856931 0.443107 0.237201
0.911406 0.45214 0.248493
0.963851 0.460746 0.259236
1 0.469703 0.269749
1 0.47892 0.279957
1 0.487785 0.289708
1 0.497704 0.299489
0.190066 0.409918 0.195346
0.191852 0.413046 0.196963
0.193469 0.415991 0.198535
0.193835 0.416693 0.198856
0.192462 0.414008 0.197482
0.190021 0.409186 0.194919
0.188205 0.405371 0.192798
0.187655 0.403479 0.191699
0.18822 0.403449 0.191684
0.189914 0.4038 0.191791
0.193652 0.404898 0.191989
0.200473 0.406821 0.192721
0.210712 0.407965 0.192523
0.22443 0.407309 0.191089
0.242313 0.405722 0.188632
0.265675 0.405295 0.186664
0.295171 0.405463 0.184665
0.333242 0.407324 0.185229
0.378531 0.41117 0.190875
0.430472 0.418784 0.200687
0.484932 0.431083 0.201297
0.541192 0.442618 0.204242
0.59942 0.453819 0.210422
0.658473 0.464408 0.21828
0.722896 0.474784 0.228626
0.790616 0.484565 0.239567
0.851133 0.493278 0.251209
0.905928 0.501579 0.262043
0.958785 0.509071 0.27187
1 0.516365 0.281163
1 0.524193 0.290593
1 0.531106 0.299382
1 0.53814 0.308003
0.220615 0.466758 0.224872
0.221134 0.467445 0.225208
0.222522 0.469947 0.226505
0.224094 0.472892 0.228107
0.224262 0.473198 0.22829
0.222522 0.469932 0.226505
0.220264 0.465751 0.224186
0.21944 0.463279 0.223072
0.21976 0.46273 0.222843
0.220768 0.462608 0.222721
0.223377 0.462547 0.222324
0.228641 0.46334 0.222187
0.237476 0.465232 0.222507
0.250446 0.46685 0.2224
0.266819 0.467124 0.220981
0.287602 0.46659 0.218692
0.312154 0.465766 0.2159
0.346303 0.466194 0.213794
0.389395 0.468269 0.214313
0.439124 0.472831 0.220829
0.492607 0.48101 0.22916
0.546639 0.494011 0.231174
0.602564 0.50605 0.233829
0.660121 0.518273 0.238773
0.721553 0.529351 0.246967
0.786954 0.539895 0.257328
0.847639 0.548531 0.267689
0.902098 0.556237 0.278096
0.954757 0.563699 0.287572
1 0.569696 0.296391
1 0.575967 0.304387
1 0.581476 0.312078
1 0.586892 0.319799
0.253513 0.526833 0.257176
0.253254 0.526024 0.256764
0.2533 0.526131 0.256809
0.254124 0.52755 0.257557
0.254841 0.528847 0.258274
0.25449 0.528267 0.257939
0.253193 0.52578 0.256611
0.252232 0.5234 0.255177
0.252171 0.52256 0.254612
0.252995 0.522271 0.254398
0.255085 0.522011 0.254078
0.258946 0.521874 0.253712
0.265583 0.522499 0.253483
0.276707 0.524254 0.253666
0.292195 0.526436 0.253269
0.312215 0.528054 0.252155
0.334554 0.527916 0.249363
0.365164 0.527611 0.246509
0.404456 0.528481 0.244205
0.450919 0.53109 0.246036
0.502922 0.535485 0.251423
0.555962 0.543847 0.259388
0.608301 0.557244 0.261799
0.662989 0.570199 0.264012
0.72253 0.583444 0.268589
0.788144 0.595834 0.276234
0.848676 0.605173 0.286168
0.902312 0.613092 0.295933
0.954223 0.62063 0.305104
1 0.626307 0.313146
1 0.631418 0.320455
1 0.635538 0.327092
1 0.639811 0.334112
0.288258 0.588571 0.290837
0.287877 0.587594 0.290333
0.287388 0.58674 0.289906
0.287282 0.586557 0.289799
0.28751 0.586969 0.290028
0.287694 0.587335 0.290211
0.287327 0.586572 0.289799
0.286671 0.585031 0.28896
0.286595 0.584085 0.288441
0.287312 0.583581 0.288121
0.28896 0.583322 0.2878
0.292134 0.583032 0.287358
0.297154 0.582803 0.286763
0.305562 0.583246 0.286152
0.318471 0.584802 0.285573
0.336873 0.587625 0.2851
0.359335 0.590097 0.283421
0.38761 0.591119 0.280781
0.424613 0.592004 0.27863
0.468223 0.593256 0.277211
0.516518 0.59556 0.279011
0.568551 0.599847 0.283253
0.619318 0.607843 0.290547
0.668956 0.621012 0.293568
0.724117 0.634897 0.294957
0.78883 0.650004 0.299779
0.85182 0.662654 0.305913
0.905379 0.670741 0.314809
0.955474 0.67837 0.32343
1 0.684535 0.331456
1 0.689403 0.337896
1 0.693004 0.344244
1 0.696132 0.350332
0.324285 0.650904 0.325841
0.32343 0.649409 0.325185
0.32282 0.648417 0.324636
0.322301 0.647761 0.324163
0.322225 0.647669 0.324071
0.322408 0.647883 0.324254
0.322362 0.647715 0.324132
0.32192 0.646784 0.323537
0.321798 0.645823 0.323018
0.322271 0.645243 0.322606
0.323598 0.6448 0.322225
0.326268 0.644495 0.321752
0.330495 0.644221 0.321172
0.337377 0.643961 0.320302
0.347738 0.644327 0.319326
0.363073 0.645747 0.318059
0.384085 0.64889 0.316762
0.411215 0.651804 0.314885
0.447639 0.653925 0.313008
0.489311 0.655589 0.311513
0.534096 0.657069 0.310216
0.583108 0.659602 0.312291
0.632486 0.663752 0.315999
0.680186 0.671153 0.32137
0.729717 0.684504 0.325414
0.789654 0.699977 0.327062
0.851835 0.714626 0.330404
0.9093 0.727306 0.335943
0.959289 0.736095 0.342779
1 0.742336 0.350195
1 0.747448 0.356252
1 0.750622 0.361669
1 0.753307 0.367758
0.364355 0.717678 0.362676
0.363134 0.715557 0.361593
0.36231 0.714275 0.360891
0.36173 0.713237 0.360342
0.361456 0.712642 0.360037
0.361501 0.712764 0.360098
0.361715 0.713024 0.36022
0.361578 0.712566 0.35996
0.361395 0.711574 0.359426
0.361334 0.710658 0.35877
0.362234 0.709941 0.358175
0.364355 0.709438 0.357626
0.368048 0.708965 0.356909
0.373739 0.708629 0.356054
0.382376 0.708415 0.354864
0.395209 0.708797 0.353414
0.412589 0.710231 0.351583
0.437125 0.713237 0.349844
0.472847 0.716548 0.348745
0.512535 0.718761 0.347463
0.554284 0.719905 0.345449
0.600549 0.72195 0.344411
0.647501 0.724681 0.347829
0.693324 0.728542 0.351034
0.739925 0.735042 0.35462
0.793973 0.749538 0.359136
0.852216 0.764904 0.359762
0.909346 0.779446 0.362203
0.962112 0.792828 0.365942
1 0.802289 0.370901
1 0.80766 0.376638
1 0.810132 0.38117
1 0.812161 0.386343
0.408347 0.787518 0.401877
0.406622 0.784802 0.400305
0.405646 0.78323 0.399405
0.40502 0.782086 0.39881
0.404501 0.781125 0.398352
0.404318 0.780789 0.398199
0.404517 0.781018 0.398291
0.404746 0.781201 0.398367
0.404883 0.781003 0.398245
0.405249 0.780728 0.398062
0.406165 0.780362 0.397742
0.407736 0.77966 0.396963
0.410391 0.778424 0.39585
0.414847 0.777432 0.394659
0.422446 0.776913 0.393286
0.433097 0.776898 0.391775
0.448081 0.777462 0.389425
0.469154 0.778653 0.387015
0.50161 0.781353 0.385931
0.539117 0.783886 0.385092
0.578027 0.78584 0.383795
0.621118 0.787793 0.382147
0.665827 0.790204 0.382742
0.708629 0.792676 0.387671
0.752773 0.795758 0.390692
0.802701 0.802686 0.39295
0.856046 0.816815 0.395209
0.909773 0.833112 0.395895
0.961379 0.84831 0.396994
1 0.86186 0.400244
1 0.871458 0.404181
1 0.873991 0.409094
1 0.875044 0.413062
0.452155 0.855787 0.440742
0.449714 0.852262 0.438575
0.448218 0.849897 0.437201
0.447303 0.848295 0.436255
0.446799 0.847257 0.43566
0.446464 0.846616 0.43537
0.446418 0.846403 0.435248
0.446723 0.846693 0.435386
0.447074 0.846952 0.435477
0.447517 0.846799 0.43537
0.448478 0.846738 0.435172
0.450477 0.846891 0.434897
0.453361 0.84651 0.434226
0.456886 0.845029 0.432624
0.462715 0.843503 0.430762
0.471763 0.842725 0.428717
0.484489 0.842786 0.426581
0.504143 0.84329 0.424567
0.531792 0.844373 0.422629
0.566354 0.846372 0.421637
0.602777 0.848402 0.420508
0.642466 0.850324 0.419303
0.683818 0.852216 0.418921
0.72459 0.854078 0.421576
0.765743 0.856077 0.427024
0.812131 0.859495 0.430213
0.859953 0.866026 0.430426
0.910964 0.880354 0.43064
0.95935 0.896147 0.435691
1 0.90985 0.439323
1 0.921019 0.443259
1 0.924025 0.448722
1 0.925689 0.452567
0.492592 0.915816 0.474281
0.490715 0.912932 0.472755
0.488579 0.91014 0.471168
0.487205 0.90808 0.470024
0.486686 0.906905 0.469368
0.486168 0.90602 0.468833
0.485847 0.905501 0.468513
0.485908 0.905379 0.468421
0.486458 0.905806 0.468666
0.487129 0.906126 0.468788
0.488014 0.906065 0.46865
0.489845 0.906279 0.468498
0.492714 0.906493 0.468177
0.496422 0.90576 0.467079
0.501213 0.904433 0.465187
0.508904 0.90341 0.463157
0.520088 0.902968 0.460777
0.538567 0.903227 0.459068
0.563424 0.903899 0.457176
0.594125 0.905028 0.455772
0.627344 0.90663 0.454688
0.663691 0.908537 0.453956
0.702113 0.910506 0.453712
0.740566 0.911986 0.454429
0.779324 0.913542 0.458183
0.82266 0.915831 0.463523
0.867353 0.919432 0.46508
0.912123 0.924117 0.464439
0.958007 0.938018 0.467628
1 0.951888 0.473289
1 0.960769 0.47866
1 0.963287 0.482628
1 0.965286 0.48632
0.528038 0.96846 0.50428
0.526848 0.966705 0.503288
0.524941 0.964004 0.50161
0.523461 0.961654 0.500328
0.522484 0.959991 0.49955
0.521965 0.959045 0.499016
0.521599 0.958389 0.498619
0.521447 0.957946 0.498344
0.521782 0.958007 0.498329
