luts/DEEN STUDIO (Canon).cube
TITLE "Generated by Resolve"
LUT_3D_SIZE 5
0.000366217 0.0178531 0.00737011
0.0327001 0.0163882 0.00859083
0.347875 0.0841535 0.065156
0.802441 0.241581 0.179461
1 0.390188 0.288594
0.0121767 0.0609751 0.0285649
0.0400244 0.0606088 0.0289464
0.314794 0.0941634 0.0601816
0.798795 0.244709 0.178256
1 0.387259 0.284489
0.138811 0.30695 0.142763
0.136507 0.296269 0.13727
0.273793 0.300298 0.138796
0.743145 0.380529 0.201266
1 0.466087 0.293843
0.408347 0.787518 0.401877
0.404883 0.781003 0.398245
0.448081 0.777462 0.389425
0.752773 0.795758 0.390692
1 0.875044 0.413062
0.70486 1 0.625437
0.701473 1 0.622553
0.731014 1 0.621241
0.909438 1 0.613962
1 1 0.634668
0.000701915 0.0300298 0.0537118
0.0359808 0.029221 0.0544747
0.337896 0.0815442 0.0700542
0.802258 0.241718 0.181903
1 0.390707 0.293904
0.00128176 0.0650187 0.0511788
0.0391241 0.062974 0.051545
0.315557 0.09308 0.0660563
0.791074 0.241535 0.179034
1 0.387686 0.290074
0.136812 0.303365 0.142901
0.136339 0.296788 0.140963
0.271122 0.298161 0.144671
0.742367 0.375525 0.200366
1 0.464134 0.298253
0.405722 0.783566 0.400351
0.402228 0.777081 0.39704
0.445121 0.775128 0.390311
0.74876 0.792096 0.391424
1 0.869642 0.410391
0.703288 1 0.62504
0.699306 1 0.621988
0.727169 1 0.620905
0.905821 1 0.615091
1 1 0.636912
0.0870069 0.137774 0.258671
0.0908217 0.138872 0.260822
0.324407 0.14049 0.257694
0.803784 0.258762 0.27512
1 0.396414 0.331044
0.0853437 0.141329 0.252338
0.0887007 0.140932 0.251896
0.309957 0.140307 0.247135
0.795193 0.257099 0.268055
1 0.39202 0.322164
0.149493 0.317159 0.254841
0.151415 0.314 0.252735
0.26743 0.306386 0.248768
0.752636 0.370596 0.256123
1 0.457252 0.317586
0.405875 0.786542 0.431006
0.403052 0.78172 0.429892
0.437522 0.775662 0.42771
0.737804 0.785138 0.428138
1 0.865904 0.431571
0.703243 1 0.641337
0.698512 1 0.638468
0.722057 1 0.640253
0.901579 1 0.641047
1 1 0.672084
0.285878 0.41648 0.667033
0.28748 0.417823 0.668956
0.352132 0.410178 0.669383
0.788235 0.422522 0.663951
1 0.499916 0.667857
0.28275 0.41297 0.66067
0.28304 0.41207 0.659434
0.341924 0.403342 0.657633
0.771649 0.412329 0.646097
1 0.491173 0.655131
0.28925 0.466712 0.644572
0.288411 0.463111 0.640955
0.325597 0.455039 0.634302
0.737545 0.446647 0.618692
1 0.520836 0.644221
0.426917 0.81709 0.690044
0.423285 0.809445 0.683742
0.435508 0.801114 0.676402
0.692195 0.775006 0.64184
1 0.856626 0.677256
0.704738 1 0.786526
0.700374 1 0.782345
0.712032 1 0.787625
0.887984 1 0.791455
1 1 0.82475
0.507637 0.689235 1
0.508705 0.689891 1
0.535836 0.690578 1
0.841459 0.688029 1
1 0.737041 1
0.50486 0.686534 1
0.504311 0.685588 1
0.526848 0.684901 1
0.824033 0.678904 1
1 0.727123 1
0.506905 0.705089 1
0.50515 0.702342 1
0.521218 0.700282 1
0.793011 0.690562 1
1 0.731914 1
0.574929 0.914458 1
0.571862 0.908034 1
0.578363 0.902831 1
0.728542 0.882353 1
1 0.890166 1
0.739025 1 1
0.733761 1 1
0.733364 1 1
0.840085 1 1
1 1 1
