luts/DEEN STUDIO (Canon).cube
TITLE "Generated by Resolve"
LUT_3D_SIZE 9
0.000366217 0.0178531 0.00737011
0.00737011 0.0172274 0.00865187
0.0327001 0.0163882 0.00859083
0.148653 0.0352483 0.0257572
0.347875 0.0841535 0.065156
0.56437 0.158175 0.117876
0.802441 0.241581 0.179461
1 0.326207 0.243442
1 0.390188 0.288594
0.000747692 0.0368505 0.0175174
0.0190127 0.0357061 0.0169528
0.0336004 0.0364843 0.0182803
0.148272 0.0456855 0.0274052
0.324727 0.0815442 0.059678
0.56585 0.160586 0.11812
0.810712 0.245624 0.181827
1 0.320409 0.23798
1 0.391165 0.289342
0.0121767 0.0609751 0.0285649
0.0314641 0.0607004 0.0283207
0.0400244 0.0606088 0.0289464
0.131228 0.0680247 0.0332647
0.314794 0.0941634 0.0601816
0.547372 0.161532 0.114839
0.798795 0.244709 0.178256
0.999435 0.320882 0.236728
1 0.387259 0.284489
0.0657969 0.136309 0.062623
0.0677958 0.135241 0.0621347
0.0725719 0.140703 0.0645151
0.124865 0.138964 0.0655222
0.282521 0.163516 0.0788586
0.529885 0.210498 0.121508
0.773693 0.267918 0.176944
0.994018 0.338796 0.237476
1 0.397421 0.283726
0.138811 0.30695 0.142763
0.134661 0.295811 0.137041
0.136507 0.296269 0.13727
0.165042 0.296101 0.135393
0.273793 0.300298 0.138796
0.480476 0.336645 0.158114
0.743145 0.380529 0.201266
0.969009 0.420005 0.249653
1 0.466087 0.293843
0.253513 0.526833 0.257176
0.254841 0.528847 0.258274
0.252171 0.52256 0.254612
0.265583 0.522499 0.253483
0.334554 0.527916 0.249363
0.502922 0.535485 0.251423
0.72253 0.583444 0.268589
0.954223 0.62063 0.305104
1 0.639811 0.334112
0.408347 0.787518 0.401877
0.404501 0.781125 0.398352
0.404883 0.781003 0.398245
0.410391 0.778424 0.39585
0.448081 0.777462 0.389425
0.578027 0.78584 0.383795
0.752773 0.795758 0.390692
0.961379 0.84831 0.396994
1 0.875044 0.413062
0.564736 1 0.530434
0.559274 1 0.526741
0.557748 1 0.525307
0.565393 1 0.525811
0.593576 1 0.521965
0.680888 1 0.517464
0.820233 1 0.516167
0.974823 1 0.518547
1 1 0.534737
0.70486 1 0.625437
0.702998 1 0.624079
0.701473 1 0.622553
0.705409 1 0.621607
0.731014 1 0.621241
0.799313 1 0.619837
0.909438 1 0.613962
1 1 0.625513
1 1 0.634668
0.00047303 0.0213626 0.0324254
0.0130465 0.0201724 0.0306096
0.0343481 0.0213169 0.0312963
0.148943 0.0357824 0.0333257
0.341207 0.0820325 0.0645304
0.563455 0.157946 0.118853
0.802304 0.241718 0.181415
1 0.324361 0.244144
1 0.390524 0.291524
0.000762951 0.0383612 0.0308385
0.0204776 0.0371405 0.0301976
0.0339208 0.0371862 0.0311284
0.141299 0.0455634 0.0328527
0.325124 0.0813458 0.0606851
0.567239 0.161044 0.120012
0.798016 0.240833 0.180163
1 0.320943 0.240879
1 0.389563 0.290639
0.00128176 0.0633097 0.0349432
0.0316625 0.0611734 0.0327764
0.0395819 0.0610513 0.0370184
0.133349 0.0675975 0.0367132
0.314824 0.0933852 0.0610208
0.547555 0.161364 0.116091
0.794842 0.243259 0.179614
0.995499 0.31957 0.238361
1 0.387396 0.287602
0.0653697 0.136904 0.0644083
0.0679942 0.135515 0.06421
0.0713207 0.137881 0.0656138
0.124193 0.138476 0.0699168
0.284993 0.163394 0.0802625
0.52781 0.208164 0.121996
0.774136 0.267353 0.179019
0.991379 0.337346 0.239658
1 0.397116 0.286656
0.137896 0.305455 0.142138
0.133928 0.294728 0.137072
0.136568 0.296956 0.138476
0.162554 0.293736 0.136004
0.272251 0.298955 0.140856
0.480568 0.335866 0.158831
0.740276 0.376532 0.200214
0.969116 0.418509 0.250904
1 0.465415 0.296132
0.253117 0.52604 0.256992
0.255451 0.529976 0.259052
0.251392 0.521172 0.254292
0.264912 0.522301 0.254093
0.33138 0.52433 0.248981
0.50042 0.533364 0.252064
0.721111 0.581735 0.268879
0.952499 0.617136 0.304112
1 0.637491 0.334401
0.406485 0.784695 0.400397
0.403738 0.780041 0.397925
0.403372 0.778698 0.397238
0.408865 0.77641 0.3953
0.446479 0.776043 0.389517
0.576425 0.784344 0.383948
0.750713 0.793942 0.39057
0.960845 0.847181 0.397406
1 0.871885 0.411231
0.563821 1 0.529976
0.558343 1 0.526345
0.556481 1 0.524865
0.563348 1 0.524987
0.591669 1 0.52163
0.678553 1 0.517494
0.817197 1 0.516274
0.973266 1 0.518791
1 1 0.534966
0.70396 1 0.625025
0.70219 1 0.623728
0.700221 1 0.622019
0.70428 1 0.621363
0.729107 1 0.620859
0.797314 1 0.61976
0.907439 1 0.61416
1 1 0.626184
1 1 0.635462
0.000701915 0.0300298 0.0537118
0.022446 0.0282292 0.0527199
0.0359808 0.029221 0.0544747
0.149264 0.0390021 0.0527047
0.337896 0.0815442 0.0700542
0.563684 0.158114 0.119783
0.802258 0.241718 0.181903
1 0.322911 0.24419
1 0.390707 0.293904
0.000869764 0.0417792 0.0519875
0.0253758 0.0400854 0.0510719
0.0348516 0.040589 0.0519417
0.140841 0.0468757 0.050248
0.325185 0.0816205 0.066804
0.567895 0.161242 0.120836
0.796139 0.240101 0.180133
1 0.321798 0.242969
1 0.38883 0.292226
0.00128176 0.0650187 0.0511788
0.0330968 0.0628824 0.0493782
0.0391241 0.062974 0.051545
0.134142 0.0673228 0.0496529
0.315557 0.09308 0.0660563
0.547845 0.161135 0.11667
0.791074 0.241535 0.179034
0.995209 0.319631 0.239902
1 0.387686 0.290074
0.0652934 0.138445 0.0708934
0.0687419 0.13669 0.0708171
0.0714427 0.138445 0.0721904
0.124071 0.138766 0.0778668
0.288273 0.163516 0.0843366
0.526329 0.206088 0.121706
0.775753 0.267124 0.180056
0.987671 0.33521 0.240192
1 0.396963 0.288975
0.136812 0.303365 0.142901
0.133883 0.294728 0.139361
0.136339 0.296788 0.140963
0.161425 0.293172 0.139406
0.271122 0.298161 0.144671
0.480385 0.334844 0.160937
0.742367 0.375525 0.200366
0.969726 0.417166 0.251789
1 0.464134 0.298253
0.252964 0.525963 0.257862
0.255619 0.530373 0.260105
0.250919 0.520653 0.255177
0.2645 0.522637 0.255726
0.328023 0.521218 0.249653
0.498543 0.531868 0.254017
0.718181 0.579004 0.269474
0.952422 0.615381 0.303883
1 0.635676 0.334752
0.405722 0.783566 0.400351
0.40325 0.779446 0.398047
0.402228 0.777081 0.39704
0.407691 0.775174 0.395605
0.445121 0.775128 0.390311
0.574746 0.78294 0.384817
0.74876 0.792096 0.391424
0.959426 0.845197 0.398154
1 0.869642 0.410391
0.562295 1 0.529473
0.557717 1 0.52639
0.555764 1 0.524987
0.560784 1 0.524498
0.589883 1 0.521965
0.676539 1 0.518212
0.814832 1 0.517052
0.971939 1 0.519783
1 1 0.535988
0.703288 1 0.62504
0.70161 1 0.623758
0.699306 1 0.621988
0.70367 1 0.621683
0.727169 1 0.620905
0.795392 1 0.620172
0.905821 1 0.615091
1 1 0.627527
1 1 0.636912
0.0388952 0.0614176 0.123568
0.0480964 0.0620432 0.12604
0.0527352 0.0619669 0.126207
0.144366 0.0632639 0.127535
0.336294 0.090486 0.122744
0.564172 0.161547 0.145083
0.803449 0.243595 0.192401
1 0.324269 0.248066
1 0.391272 0.296056
0.0372625 0.0647593 0.121111
0.0470436 0.0642863 0.121248
0.051545 0.0651865 0.1234
0.140139 0.0657054 0.124269
0.326986 0.0898604 0.117082
0.560647 0.161471 0.143389
0.795377 0.240848 0.188815
1 0.320699 0.244343
1 0.389105 0.294118
0.0382544 0.0789654 0.121279
0.0488136 0.0770581 0.118288
0.0521706 0.0776226 0.119219
0.13257 0.0768902 0.119524
0.316548 0.0978866 0.112734
0.547677 0.162722 0.138415
0.795682 0.244083 0.189181
0.996063 0.320089 0.242649
1 0.389166 0.293446
0.068452 0.146807 0.118425
0.0733349 0.146242 0.117861
0.0763104 0.149264 0.120378
0.123598 0.144366 0.120272
0.292699 0.16228 0.116121
0.527825 0.204593 0.138705
0.776593 0.266163 0.186023
0.986893 0.334081 0.241917
1 0.396796 0.291188
0.135653 0.302235 0.161959
0.136034 0.298756 0.160754
0.136095 0.297429 0.161883
0.159991 0.295598 0.163897
0.269108 0.298543 0.169131
0.486412 0.335927 0.17734
0.751919 0.375158 0.207324
0.974319 0.416327 0.254032
1 0.458701 0.298573
0.253819 0.528786 0.267414
0.25745 0.534524 0.270726
0.250965 0.522255 0.264805
0.26334 0.52372 0.266712
0.323125 0.5187 0.261158
0.494163 0.529595 0.265538
0.714412 0.575753 0.279225
0.954849 0.613153 0.306981
1 0.632395 0.334813
0.405707 0.784054 0.405341
0.402914 0.779293 0.402625
0.401541 0.776577 0.401541
0.406363 0.774777 0.400977
0.442191 0.774289 0.396918
0.570779 0.781155 0.392386
0.7458 0.789914 0.399054
0.956161 0.841611 0.405005
1 0.867475 0.41297
0.5626 1 0.532967
0.557458 1 0.529747
0.555673 1 0.528572
0.559472 1 0.528191
0.587472 1 0.526452
0.673411 1 0.524071
0.81091 1 0.523842
0.970428 1 0.527611
1 1 0.54432
0.703273 1 0.628016
0.700359 1 0.626062
0.698726 1 0.624796
0.70251 1 0.624704
0.725002 1 0.62443
0.792447 1 0.624964
0.903853 1 0.620981
1 1 0.635096
1 1 0.645563
0.0870069 0.137774 0.258671
0.0895705 0.138399 0.259922
0.0908217 0.138872 0.260822
0.138643 0.137026 0.264286
0.324407 0.14049 0.257694
0.564584 0.186816 0.254459
0.803784 0.258762 0.27512
1 0.333043 0.303502
1 0.396414 0.331044
0.0857862 0.137316 0.255451
0.0880293 0.136873 0.25507
0.0907149 0.140078 0.260563
0.134234 0.135348 0.258488
0.317174 0.137957 0.251621
0.557122 0.184009 0.248844
0.795193 0.25478 0.267552
1 0.329198 0.295888
1 0.3935 0.32639
0.0853437 0.141329 0.252338
0.0876631 0.140459 0.251316
0.0887007 0.140932 0.251896
0.130358 0.138659 0.253407
0.309957 0.140307 0.247135
0.549599 0.184283 0.243061
0.795193 0.257099 0.268055
0.995758 0.327138 0.290227
1 0.39202 0.322164
0.0995041 0.183352 0.244495
0.105592 0.18674 0.249546
0.103105 0.182254 0.243473
0.13109 0.180224 0.242069
0.28957 0.177981 0.23711
0.529137 0.213458 0.233097
0.776089 0.272709 0.254231
0.987518 0.338903 0.284138
1 0.399039 0.317067
0.149493 0.317159 0.254841
0.150805 0.314519 0.252811
0.151415 0.314 0.252735
0.164065 0.311635 0.251011
0.26743 0.306386 0.248768
0.500221 0.33637 0.243381
0.752636 0.370596 0.256123
0.976928 0.415106 0.286839
1 0.457252 0.317586
0.258762 0.543252 0.319203
0.25449 0.533227 0.312932
0.252995 0.530175 0.312428
0.259281 0.526421 0.313787
0.315877 0.520684 0.31107
0.483848 0.527398 0.311513
0.712581 0.57351 0.320089
0.96083 0.610117 0.332616
1 0.629801 0.350118
0.405875 0.786542 0.431006
0.40293 0.781567 0.428458
0.403052 0.78172 0.429892
0.403586 0.775097 0.428138
0.437522 0.775662 0.42771
0.554025 0.773938 0.421759
0.737804 0.785138 0.428138
0.952819 0.838163 0.434394
1 0.865904 0.431571
0.561196 1 0.549004
0.557671 1 0.546899
0.555673 1 0.545907
0.558068 1 0.546563
0.583459 1 0.546517
0.666178 1 0.545449
0.806256 1 0.548562
0.968093 1 0.554238
1 1 0.573083
0.703243 1 0.641337
0.701122 1 0.640024
0.698512 1 0.638468
0.701396 1 0.639185
0.722057 1 0.640253
0.788937 1 0.642603
0.901579 1 0.641047
1 1 0.660136
1 1 0.672084
0.181277 0.268116 0.454185
0.18558 0.271809 0.460426
0.184405 0.269505 0.45684
0.20119 0.268421 0.457816
0.299565 0.262776 0.45919
0.55523 0.271122 0.446784
0.796567 0.317327 0.457267
1 0.377646 0.478386
1 0.427893 0.484825
0.179706 0.26656 0.451286
0.17995 0.265354 0.449577
0.180911 0.266224 0.450874
0.197269 0.264607 0.451072
0.294026 0.258045 0.451957
0.54931 0.267536 0.44152
0.789334 0.312001 0.448768
0.9953 0.372366 0.468956
1 0.424933 0.478965
0.177935 0.266331 0.447318
0.178058 0.264683 0.44506
0.17879 0.265034 0.445563
0.196551 0.26598 0.450065
0.288457 0.256397 0.445884
0.539437 0.262776 0.429679
0.782681 0.30808 0.440757
0.989364 0.368505 0.46006
1 0.420325 0.467506
0.177295 0.282017 0.437339
0.17792 0.28014 0.435157
0.17821 0.280171 0.43508
0.191485 0.278294 0.434409
0.276616 0.27013 0.432013
0.524834 0.272526 0.418433
0.770459 0.31519 0.428229
0.986755 0.378119 0.457679
1 0.423301 0.45565
0.205249 0.365988 0.429831
0.20502 0.36321 0.426932
0.208774 0.368002 0.433265
0.212314 0.362646 0.427115
0.271916 0.352239 0.41677
0.492866 0.347173 0.402609
0.746929 0.383948 0.417151
0.97583 0.433524 0.440635
1 0.470863 0.447593
0.270604 0.558053 0.458732
0.269352 0.553964 0.454871
0.269001 0.552056 0.453391
0.271321 0.549981 0.451804
0.310613 0.541436 0.442679
0.463691 0.532662 0.428122
0.719768 0.573175 0.435981
0.967758 0.608286 0.447379
1 0.630289 0.453681
0.405798 0.7944 0.516014
0.405768 0.793484 0.516472
0.403037 0.788403 0.513481
0.401495 0.782193 0.511757
0.425132 0.77467 0.510079
0.529076 0.769436 0.503548
0.720775 0.77734 0.505211
0.944106 0.829602 0.524575
1 0.864942 0.510979
0.563775 1 0.605646
0.560052 1 0.602869
0.557717 1 0.601984
0.558099 1 0.603632
0.577157 1 0.605081
0.654078 1 0.605783
0.793194 1 0.608408
0.959869 1 0.616968
1 1 0.640284
0.703716 1 0.68629
0.700847 1 0.684199
0.698299 1 0.682887
0.699657 1 0.684901
0.718074 1 0.68751
0.784192 1 0.691829
0.897917 1 0.693523
1 1 0.717449
1 1 0.733196
0.285878 0.41648 0.667033
0.286458 0.416526 0.667124
0.28748 0.417823 0.668956
0.295674 0.417746 0.670069
0.352132 0.410178 0.669383
0.542245 0.397894 0.669093
0.788235 0.422522 0.663951
0.981826 0.465858 0.662684
1 0.499916 0.667857
0.284153 0.414176 0.663508
0.284489 0.413504 0.662898
0.286381 0.416281 0.66656
0.292821 0.413977 0.664515
0.346105 0.405997 0.662898
0.532067 0.393698 0.661936
0.778454 0.416236 0.652369
0.974746 0.459983 0.653773
1 0.495079 0.661402
0.28275 0.41297 0.66067
0.28278 0.411841 0.659175
0.28304 0.41207 0.659434
0.289937 0.411444 0.659586
0.341924 0.403342 0.657633
0.522866 0.390494 0.655726
0.771649 0.412329 0.646097
0.968917 0.455238 0.645747
1 0.491173 0.655131
0.279545 0.419028 0.65333
0.279408 0.417578 0.651484
0.279377 0.417166 0.650904
0.284871 0.416144 0.650324
0.333959 0.407736 0.647562
0.506706 0.393515 0.646677
0.760174 0.412238 0.638834
0.962295 0.454276 0.637583
1 0.490074 0.646891
0.28925 0.466712 0.644572
0.288533 0.46392 0.641794
0.288411 0.463111 0.640955
0.291386 0.461936 0.639994
0.325597 0.455039 0.634302
0.476402 0.438468 0.632547
0.737545 0.446647 0.618692
0.953338 0.487114 0.631693
1 0.520836 0.644221
0.34226 0.606546 0.652277
0.340764 0.602533 0.648676
0.340291 0.600671 0.647105
0.341802 0.600046 0.646876
0.362264 0.592569 0.639796
0.460731 0.576638 0.623926
0.699046 0.575174 0.611353
0.945235 0.614313 0.642725
1 0.650431 0.663523
0.426917 0.81709 0.690044
0.42446 0.812268 0.685878
0.423285 0.809445 0.683742
0.422614 0.80734 0.682216
0.435508 0.801114 0.676402
0.507591 0.784329 0.657221
0.692195 0.775006 0.64184
0.933288 0.817075 0.661234
1 0.856626 0.677256
0.573037 1 0.729473
0.570153 1 0.725505
0.568811 1 0.724498
0.56791 1 0.725261
0.576547 1 0.722225
0.631342 1 0.716152
0.764569 0.997696 0.709743
0.940826 1 0.71516
1 1 0.741558
0.704738 1 0.786526
0.702464 1 0.78352
0.700374 1 0.782345
0.699718 1 0.784466
0.712032 1 0.787625
0.773037 1 0.791058
0.887984 1 0.791455
1 1 0.806332
1 1 0.82475
0.397711 0.569284 0.8748
0.398032 0.569238 0.874754
0.398947 0.570245 0.876234
0.403525 0.570977 0.877501
0.43357 0.56791 0.876234
0.564523 0.555016 0.881132
0.797375 0.552331 0.877424
0.989487 0.581476 0.878981
1 0.609049 0.884642
0.395987 0.567041 0.871733
0.395972 0.566476 0.870954
0.396292 0.566918 0.871611
0.400122 0.567163 0.872114
0.428641 0.563928 0.870451
0.555856 0.550622 0.874266
0.788174 0.546731 0.870451
0.985687 0.576501 0.879026
1 0.603632 0.87628
0.394888 0.565881 0.869368
0.394339 0.564843 0.86775
0.39443 0.564858 0.867796
0.397559 0.564736 0.867903
0.425071 0.56083 0.865492
0.54844 0.546777 0.868574
0.779919 0.542107 0.864332
0.979065 0.57116 0.871061
1 0.598688 0.868925
0.393133 0.567483 0.86453
0.392447 0.565881 0.862455
0.39234 0.56556 0.861967
0.394766 0.565057 0.861509
0.419379 0.560937 0.858518
0.538079 0.546151 0.860243
0.76788 0.539422 0.85597
0.967651 0.566308 0.854795
1 0.594949 0.858946
0.39884 0.594324 0.859525
0.397726 0.591775 0.856809
0.397452 0.590997 0.856001
0.398703 0.590188 0.855238
0.418387 0.585748 0.851698
0.522454 0.570718 0.846769
0.749355 0.558404 0.845945
0.957198 0.581842 0.846632
1 0.609751 0.847211
0.434165 0.691997 0.862058
0.432685 0.688518 0.858976
0.431754 0.686778 0.85713
0.431861 0.685359 0.855894
0.44506 0.680751 0.851942
0.511406 0.667292 0.840314
0.710597 0.649363 0.835828
0.934615 0.658701 0.826062
1 0.68954 0.835966
0.489601 0.857252 0.881987
0.48716 0.852644 0.877867
0.485954 0.849821 0.875654
0.485527 0.848066 0.874296
0.492699 0.843137 0.869718
0.540291 0.829694 0.856687
0.67068 0.809735 0.83566
0.903563 0.806973 0.824537
1 0.845457 0.852766
0.582055 1 0.906493
0.579217 1 0.902281
0.57789 1 0.899992
0.576776 1 0.898253
0.581048 1 0.894713
0.617243 1 0.884596
0.71783 1 0.857755
0.913115 0.99678 0.838178
1 1 0.848264
0.697581 1 0.934676
0.695201 1 0.931212
0.693553 1 0.928908
0.692317 1 0.928283
0.69723 1 0.927459
0.736568 1 0.926009
0.856779 1 0.917464
1 1 0.907118
1 1 0.918196
0.507637 0.689235 1
0.507881 0.689174 1
0.508705 0.689891 1
0.51223 0.690608 1
0.535836 0.690578 1
0.641657 0.690013 1
0.841459 0.688029 1
1 0.718822 1
1 0.737041 1
0.505852 0.687556 1
0.505821 0.687129 1
0.506081 0.687358 1
0.508812 0.687648 1
0.53106 0.687465 1
0.631144 0.686473 1
0.832319 0.683116 1
1 0.710658 1
1 0.731884 1
0.50486 0.686534 1
0.50428 0.685649 1
0.504311 0.685588 1
0.506401 0.68571 1
0.526848 0.684901 1
0.624033 0.683177 1
0.824033 0.678904 1
1 0.700938 1
1 0.727123 1
0.50309 0.687297 1
0.502205 0.686015 1
0.501976 0.685649 1
0.503563 0.685405 1
0.521737 0.684215 1
0.612406 0.682216 1
0.811337 0.676799 1
0.996994 0.691005 1
1 0.723308 1
0.506905 0.705089 1
0.505638 0.703136 1
0.50515 0.702342 1
0.505882 0.701747 1
0.521218 0.700282 1
0.598993 0.697368 1
0.793011 0.690562 1
0.97821 0.696483 1
1 0.731914 1
0.533959 0.779156 1
0.532189 0.775998 1
0.531136 0.774472 1
0.53109 0.773388 1
0.542504 0.771084 1
0.601709 0.766445 1
0.768597 0.758343 1
0.961547 0.753658 1
1 0.786267 1
0.574929 0.914458 1
0.572869 0.910292 1
0.571862 0.908034 1
0.571389 0.906249 1
0.578363 0.902831 1
0.619501 0.895567 1
0.728542 0.882353 1
0.932815 0.868513 1
1 0.890166 1
0.640375 1 1
0.637751 1 1
0.636011 1 1
0.634836 1 1
0.636942 1 1
0.661173 1 1
0.730922 1 1
0.897948 1 1
1 1 0.992599
0.739025 1 1
0.735836 1 1
0.733761 1 1
0.732418 1 1
0.733364 1 1
0.755764 1 1
0.840085 1 1
0.983261 1 1
1 1 1
