luts/DoN's BMPCC6K_4K.cube
TITLE "Generated by Resolve"
LUT_3D_SIZE 9
0.0334936 0.0341955 0.0341955
0.0843671 0.0546426 0.0434882
0.18143 0.0857557 0.0476692
0.332631 0.101106 0.0466316
0.549599 0.135698 0.080705
0.731106 0.192554 0.114656
0.838605 0.277195 0.140032
0.910918 0.372 0.161578
0.911803 0.434806 0.169207
0.0458686 0.0767987 0.0554208
0.067155 0.084123 0.0590829
0.156664 0.098436 0.0566262
0.323751 0.123888 0.0474403
0.561776 0.145815 0.0834669
0.745541 0.183047 0.116411
0.84715 0.26894 0.14081
0.910842 0.369894 0.161318
0.911803 0.432349 0.168856
0.0522164 0.149432 0.0973373
0.0664225 0.151278 0.0884871
0.0960403 0.166796 0.0950332
0.233188 0.160647 0.0754253
0.52871 0.220005 0.0850996
0.751904 0.285908 0.126253
0.866529 0.346761 0.151614
0.911543 0.41738 0.166964
0.911879 0.438025 0.169558
0.0463722 0.236912 0.142
0.0578012 0.241733 0.132052
0.080415 0.253056 0.124102
0.142535 0.307073 0.124056
0.399847 0.371557 0.132006
0.710491 0.348302 0.127138
0.859266 0.438376 0.161593
0.913664 0.530251 0.182742
0.914382 0.56379 0.187976
0.0775006 0.383795 0.198169
0.0776837 0.38468 0.186419
0.0948959 0.394675 0.172961
0.134722 0.428229 0.165835
0.2963 0.533867 0.186938
0.591089 0.618021 0.22501
0.811719 0.514778 0.165911
0.914763 0.580118 0.190661
0.916075 0.631617 0.199344
0.122042 0.558053 0.264561
0.121294 0.555383 0.241657
0.121157 0.554849 0.222675
0.154345 0.579721 0.211139
0.266255 0.651377 0.208118
0.510063 0.739239 0.246189
0.744289 0.790402 0.281987
0.871717 0.691646 0.204471
0.917967 0.696651 0.211078
0.164004 0.716625 0.339803
0.163714 0.715587 0.303471
0.163317 0.714275 0.270604
0.176913 0.726345 0.253025
0.25066 0.75816 0.232425
0.455817 0.822614 0.265507
0.672312 0.873564 0.310719
0.820768 0.915648 0.357961
0.92723 0.905791 0.363851
0.197223 0.839109 0.437339
0.197742 0.841093 0.390829
0.198184 0.842741 0.348638
0.213199 0.850416 0.304875
0.274968 0.87396 0.277836
0.43331 0.908034 0.304387
0.611002 0.942763 0.340719
0.748547 0.946014 0.360952
0.857618 0.949462 0.385321
0.219104 0.919295 0.538186
0.219104 0.919295 0.48719
0.219104 0.919295 0.440085
0.226719 0.917769 0.372915
0.288121 0.932265 0.319615
0.401541 0.939986 0.31725
0.557229 0.942123 0.337896
0.70222 0.944823 0.353445
0.818998 0.948135 0.375891
0.0344701 0.0711376 0.0831769
0.0606088 0.067155 0.0724804
0.148684 0.104646 0.0935988
0.317494 0.112902 0.0467384
0.538964 0.148974 0.0800488
0.727916 0.208362 0.115312
0.840513 0.281025 0.140719
0.910918 0.372808 0.161685
0.911803 0.434501 0.1691
0.0361486 0.0809186 0.0886549
0.0638743 0.075288 0.0757
0.165591 0.105165 0.0734569
0.320027 0.130968 0.0476692
0.543999 0.162402 0.0819409
0.735912 0.185748 0.115007
0.842023 0.26923 0.139956
0.910842 0.368734 0.161212
0.911803 0.434455 0.1691
0.0383612 0.141207 0.136217
0.0596933 0.148058 0.108476
0.138933 0.161089 0.107027
0.30631 0.164553 0.0516518
0.576501 0.231647 0.0934005
0.755581 0.276936 0.125948
0.858061 0.318303 0.147265
0.910979 0.381323 0.162631
0.911589 0.420127 0.167285
0.0533761 0.28452 0.226154
0.0475929 0.256641 0.173159
0.0859236 0.245792 0.135485
0.187976 0.301259 0.130434
0.479393 0.28574 0.0869001
0.762234 0.366262 0.137194
0.878386 0.451286 0.166262
0.913725 0.532097 0.182986
0.91426 0.557168 0.186954
0.093492 0.447257 0.323384
0.0867628 0.420798 0.257801
0.0793622 0.391135 0.20119
0.150256 0.42063 0.167727
0.358114 0.525185 0.190951
0.666621 0.533471 0.15288
0.852125 0.514504 0.171572
0.91519 0.596353 0.193362
0.91603 0.628901 0.198901
0.136553 0.613352 0.431373
0.132891 0.599588 0.366125
0.12517 0.570199 0.273976
0.164797 0.576547 0.221775
0.301427 0.636713 0.213809
0.568078 0.729122 0.248905
0.778592 0.771969 0.279957
0.915526 0.669642 0.205982
0.917861 0.694347 0.210666
0.172244 0.747265 0.535119
0.171405 0.744305 0.476753
0.167666 0.730465 0.365606
0.168673 0.721935 0.291096
0.278935 0.749874 0.244327
0.490684 0.809827 0.269795
0.709346 0.862272 0.312062
0.845457 0.896208 0.353124
0.921798 0.811719 0.233204
0.200168 0.849882 0.633051
0.200549 0.851286 0.581079
0.199969 0.84921 0.484703
0.199313 0.846845 0.382361
0.288441 0.867384 0.296498
0.454704 0.890486 0.310445
0.636912 0.942397 0.35137
0.769497 0.947005 0.36968
0.887175 0.950469 0.392248
0.219104 0.919295 0.707469
0.219104 0.919295 0.663264
0.219104 0.919295 0.594797
0.219104 0.919295 0.484092
0.293904 0.935882 0.371054
0.427558 0.942107 0.342702
0.582956 0.944244 0.355886
0.719875 0.946471 0.368917
0.835569 0.948959 0.382589
0.0347448 0.138003 0.175906
0.0439155 0.13196 0.157824
0.0996262 0.127275 0.134188
0.220539 0.166537 0.147768
0.457145 0.213031 0.141131
0.700511 0.26479 0.115908
0.840986 0.299367 0.142504
0.910918 0.376104 0.162066
0.911803 0.434699 0.169177
0.0357519 0.143542 0.172778
0.0475776 0.127504 0.153033
0.108125 0.130571 0.138125
0.242298 0.1738 0.152712
0.497612 0.212192 0.125368
0.724056 0.255329 0.11873
0.842496 0.296849 0.142504
0.910918 0.373602 0.161761
0.911803 0.43473 0.169177
0.0364538 0.179477 0.214527
0.10045 0.135836 0.138643
0.123064 0.154208 0.155474
0.320714 0.173251 0.111803
0.571099 0.211658 0.0905776
0.751354 0.232441 0.121172
0.848051 0.277913 0.141726
0.910552 0.348623 0.159014
0.911437 0.411963 0.166262
0.040528 0.218021 0.244465
0.0467842 0.250675 0.241566
0.0634623 0.259236 0.190814
0.278218 0.297627 0.148867
0.556802 0.300954 0.0992142
0.771038 0.382483 0.140673
0.865522 0.449729 0.16408
0.912993 0.498283 0.177935
0.913634 0.528618 0.182467
0.0763409 0.378393 0.39411
0.0978103 0.464363 0.401785
0.0927291 0.444404 0.306004
0.161761 0.427909 0.214572
0.396231 0.515053 0.208667
0.716716 0.470192 0.145953
0.871183 0.538231 0.177981
0.915526 0.609812 0.195605
0.91606 0.629511 0.198978
0.133333 0.601267 0.574334
0.14493 0.645075 0.545861
0.137667 0.617807 0.422507
0.133822 0.585336 0.313085
0.324483 0.629984 0.24593
0.599069 0.716503 0.264591
0.796033 0.707881 0.201404
0.917021 0.665461 0.205386
0.917922 0.695857 0.210956
0.178759 0.771466 0.726268
0.177417 0.766644 0.659327
0.174273 0.754818 0.540978
0.170382 0.740536 0.415579
0.298634 0.757671 0.291356
0.518105 0.800488 0.297566
0.7299 0.851041 0.326238
0.862348 0.876204 0.356283
0.92079 0.783597 0.227665
0.203037 0.860426 0.794476
0.203128 0.860868 0.752361
0.202121 0.857176 0.652018
0.201373 0.854475 0.537041
0.285878 0.86627 0.396994
0.475837 0.881086 0.351934
0.653651 0.928313 0.374884
0.786404 0.949477 0.394491
0.91519 0.952026 0.405936
0.219104 0.919295 0.838056
0.219104 0.919295 0.804211
0.219104 0.919295 0.733028
0.219104 0.919295 0.638148
0.231037 0.923278 0.525338
0.448005 0.947616 0.402167
0.600183 0.948653 0.403052
0.733547 0.949996 0.406104
0.848981 0.951095 0.404639
0.0408942 0.221454 0.297795
0.0391089 0.214405 0.270512
0.0399329 0.209155 0.234638
0.130327 0.214954 0.202472
0.339467 0.247181 0.19443
0.596719 0.338384 0.238773
0.799084 0.387854 0.23093
0.918425 0.449027 0.233356
0.91931 0.480842 0.204456
0.0408026 0.222309 0.286976
0.0399329 0.217334 0.2878
0.0399939 0.212528 0.246677
0.140932 0.219669 0.211231
0.362036 0.257511 0.205035
0.618708 0.344259 0.241443
0.810636 0.390875 0.228672
0.921798 0.448569 0.227039
0.916503 0.474754 0.190723
0.0497292 0.262226 0.331533
0.0435798 0.236652 0.288273
0.121355 0.167239 0.174273
0.168719 0.237324 0.240955
0.426657 0.286778 0.240391
0.683955 0.342992 0.23856
0.834592 0.390997 0.220401
0.9178 0.438178 0.195926
0.913436 0.467536 0.176928
0.0629587 0.31812 0.398657
0.0573892 0.296376 0.356863
0.155734 0.25919 0.270191
0.207446 0.295216 0.298024
0.552254 0.316594 0.251011
0.756115 0.354986 0.211917
0.855222 0.394614 0.17467
0.911894 0.439063 0.169757
0.912642 0.47985 0.17528
0.0747082 0.366766 0.447898
0.0725567 0.360632 0.405295
0.0881514 0.426108 0.421271
0.127459 0.46099 0.349416
0.495857 0.521096 0.283833
0.752239 0.49865 0.216831
0.87068 0.571542 0.19295
0.915892 0.624018 0.198047
0.916136 0.63183 0.199374
0.104631 0.486503 0.564019
0.120211 0.549706 0.573892
0.14435 0.642908 0.591806
0.143481 0.639597 0.498131
0.329015 0.643107 0.352636
0.616205 0.708309 0.331273
0.827497 0.648783 0.19115
0.917662 0.685969 0.20911
0.918212 0.704219 0.212467
0.151141 0.665293 0.720317
0.165667 0.722545 0.73048
0.179873 0.775647 0.71342
0.177356 0.766293 0.604639
0.257038 0.766644 0.469535
0.532204 0.794583 0.383856
0.737896 0.83856 0.383047
0.874128 0.83975 0.341115
0.920226 0.767224 0.224399
0.187762 0.802121 0.836378
0.199252 0.846601 0.842298
0.20444 0.865568 0.792172
0.203784 0.863142 0.701427
0.202945 0.858015 0.584314
0.495094 0.884718 0.444678
0.661906 0.913741 0.443107
0.800549 0.951339 0.445899
0.937469 0.955139 0.439689
0.217884 0.914611 0.919127
0.219104 0.919295 0.915038
0.219104 0.919295 0.842725
0.219104 0.919295 0.768231
0.219104 0.919295 0.676005
0.456886 0.951766 0.522148
0.620005 0.954986 0.486763
0.747616 0.955184 0.472953
0.865599 0.955032 0.450965
0.0690929 0.340597 0.457801
0.0668498 0.333059 0.426154
0.0647898 0.328389 0.375174
0.0625162 0.32256 0.318837
0.186023 0.338643 0.248295
0.523156 0.340612 0.208209
0.733455 0.428504 0.248203
0.876844 0.529488 0.410376
0.943145 0.572747 0.4495
0.0685283 0.339117 0.44741
0.0682231 0.336996 0.45417
0.0656291 0.330556 0.394736
0.0633555 0.325551 0.333639
0.202106 0.343847 0.256245
0.5337 0.346136 0.220035
0.743725 0.436622 0.257206
0.884077 0.535561 0.42269
0.942901 0.571313 0.444694
0.0744945 0.363973 0.469749
0.0705577 0.348333 0.445655
0.0713664 0.349538 0.470985
0.0679179 0.341558 0.386709
0.25835 0.357809 0.287968
0.566461 0.371679 0.271092
0.766049 0.461723 0.311177
0.90367 0.537316 0.422797
0.941024 0.562722 0.417945
0.0926986 0.436439 0.555337
0.0848707 0.406241 0.51014
0.0802777 0.3888 0.47837
0.19942 0.315175 0.333822
0.361334 0.402029 0.389502
0.642725 0.444724 0.38851
0.816068 0.504814 0.418402
0.937499 0.538155 0.407355
0.93724 0.547753 0.367864
0.105882 0.487846 0.61442
0.100267 0.467048 0.57705
0.0982071 0.460319 0.550393
0.335271 0.468544 0.481453
0.429908 0.516945 0.520989
0.727871 0.551736 0.51043
0.862425 0.574624 0.480461
0.941848 0.587503 0.423362
0.937545 0.599054 0.359106
0.116945 0.530678 0.65771
0.113787 0.520241 0.620203
0.116228 0.532418 0.591333
0.135683 0.609644 0.618936
0.328984 0.672923 0.559045
0.698695 0.710857 0.488029
0.861036 0.686488 0.431022
0.94197 0.724437 0.383841
0.937346 0.722759 0.311055
0.132662 0.591516 0.707347
0.144427 0.638498 0.718029
0.159548 0.697917 0.733822
0.178973 0.772351 0.754528
0.179461 0.773541 0.669734
0.561074 0.797696 0.538048
0.756741 0.832609 0.500801
0.921798 0.785657 0.299428
0.93077 0.780346 0.263676
0.169986 0.732586 0.824903
0.180285 0.772915 0.834455
0.193133 0.822858 0.843519
0.20618 0.871946 0.830533
0.205097 0.867933 0.747143
0.484581 0.889204 0.608637
0.684627 0.902113 0.551583
0.816602 0.937667 0.522133
0.95378 0.92903 0.469993
0.19707 0.833188 0.91487
0.206348 0.869505 0.91722
0.219089 0.91928 0.919295
0.219104 0.919295 0.875181
0.219104 0.919295 0.801236
0.378683 0.945174 0.698604
0.655512 0.961547 0.584695
0.763394 0.961715 0.567712
0.886839 0.960052 0.51754
0.103944 0.479438 0.619547
0.102495 0.475257 0.592325
0.0990616 0.465629 0.524987
0.0960555 0.457465 0.450843
0.112734 0.447349 0.371588
0.403357 0.456764 0.255467
0.697612 0.450492 0.246555
0.850111 0.541222 0.421347
0.957839 0.654475 0.665522
0.103548 0.477928 0.616251
0.103914 0.478767 0.624598
0.0995193 0.465873 0.550774
0.0957046 0.455177 0.469444
0.125154 0.451301 0.386465
0.420356 0.458137 0.265492
0.703044 0.455604 0.266316
0.857298 0.548455 0.442222
0.957504 0.656367 0.668956
0.105303 0.485054 0.619821
0.103471 0.477852 0.61323
0.102617 0.472847 0.630396
0.0983749 0.46157 0.540917
0.157717 0.46006 0.444877
0.480812 0.456992 0.303212
0.716472 0.471702 0.33283
0.871183 0.56614 0.499809
0.957885 0.660334 0.681422
0.117357 0.53135 0.671244
0.110018 0.503258 0.636255
0.107698 0.494774 0.623163
0.109834 0.501167 0.655177
0.217258 0.494499 0.57232
0.546899 0.498787 0.473991
0.761898 0.525139 0.479438
0.897673 0.616495 0.615396
0.957824 0.660746 0.668147
0.134035 0.594736 0.739071
0.127199 0.569421 0.706661
0.123293 0.555413 0.678477
0.123186 0.556405 0.661433
0.435172 0.535286 0.558938
0.628489 0.579293 0.619333
0.813214 0.637247 0.658198
0.940719 0.673854 0.677562
0.95523 0.659831 0.619883
0.14493 0.635859 0.778103
0.13991 0.617639 0.752728
0.137758 0.610773 0.729717
0.13991 0.620264 0.718654
0.500526 0.654169 0.695491
0.691402 0.70013 0.699672
0.851377 0.729213 0.702068
0.960311 0.733028 0.670604
0.956771 0.718379 0.609873
0.154757 0.672831 0.808911
0.151583 0.662181 0.786419
0.151232 0.662562 0.763973
0.155749 0.681788 0.750484
0.170626 0.739971 0.766598
0.601038 0.808682 0.710079
0.827939 0.828855 0.64651
0.956161 0.799069 0.572351
0.95404 0.800641 0.522789
0.166506 0.717388 0.841108
0.166613 0.719341 0.822507
0.17673 0.75874 0.834501
0.188312 0.803433 0.847913
0.203464 0.862074 0.85449
0.366537 0.889616 0.792126
0.729259 0.898344 0.676753
0.843244 0.924758 0.627268
0.947799 0.862715 0.382727
0.185672 0.788754 0.902892
0.192859 0.816541 0.913222
0.201556 0.850828 0.916487
0.215335 0.904707 0.918685
0.219104 0.919295 0.908278
0.252415 0.927886 0.830152
0.674296 0.967208 0.71986
0.788708 0.968688 0.678477
0.91632 0.966278 0.610742
0.138018 0.610697 0.745251
0.137758 0.610529 0.731777
0.134722 0.601572 0.687449
0.131029 0.589837 0.637278
0.125383 0.570169 0.585122
0.307256 0.579721 0.559228
0.641352 0.565164 0.50988
0.834592 0.596902 0.543618
0.957946 0.661799 0.677348
0.137591 0.608774 0.746731
0.138399 0.61146 0.752651
0.134676 0.599863 0.707637
0.130312 0.585885 0.653559
0.125383 0.56936 0.597238
0.319448 0.580484 0.572824
0.646479 0.570001 0.52723
0.837934 0.596643 0.54934
0.958221 0.664363 0.687556
0.136782 0.605386 0.746624
0.135332 0.599496 0.746654
0.134096 0.59353 0.756512
0.130205 0.581506 0.708507
0.125811 0.568444 0.641367
0.354162 0.57615 0.613352
0.667124 0.576745 0.568154
0.845975 0.601007 0.579599
0.959014 0.671443 0.713436
0.142626 0.6271 0.770245
0.136782 0.604898 0.751766
0.135698 0.600702 0.750118
0.135271 0.597528 0.766354
0.132647 0.587762 0.724483
0.421332 0.583017 0.693614
0.709773 0.585092 0.634943
0.86453 0.618784 0.641901
0.960479 0.686061 0.750637
0.156344 0.678401 0.817533
0.148745 0.649973 0.792111
0.144091 0.633036 0.771084
0.14461 0.635493 0.766781
0.169696 0.645396 0.790097
0.509865 0.638193 0.779156
0.764645 0.637079 0.727733
0.894194 0.683253 0.745678
0.964172 0.722896 0.793469
0.17023 0.730129 0.862654
0.164141 0.707637 0.841184
0.160296 0.694118 0.821698
0.159167 0.690822 0.806729
0.223316 0.703273 0.803906
0.580011 0.721019 0.819867
0.805035 0.72784 0.787701
0.925109 0.76585 0.810987
0.968597 0.768597 0.802411
0.177966 0.758907 0.890288
0.173297 0.741878 0.87068
0.17084 0.733394 0.853758
0.17055 0.733455 0.841306
0.19585 0.743969 0.833158
0.580484 0.773205 0.828122
0.824125 0.816495 0.811444
0.947509 0.828016 0.810681
0.971756 0.820783 0.790173
0.184176 0.782101 0.912902
0.181094 0.771054 0.89691
0.179843 0.767376 0.879759
0.180591 0.771466 0.866087
0.183658 0.784863 0.851896
0.370428 0.846677 0.875242
0.766354 0.898863 0.808316
0.912902 0.9093 0.751278
0.965713 0.871427 0.668284
0.186877 0.792676 0.91429
0.18909 0.801541 0.914626
0.190356 0.806867 0.911833
0.198032 0.836927 0.916518
0.208286 0.877028 0.917571
0.218936 0.918746 0.913985
0.604959 0.96228 0.862684
0.826551 0.976516 0.781903
0.95433 0.973709 0.718685
0.169848 0.731426 0.831907
0.170062 0.732708 0.827329
0.168795 0.729061 0.811536
0.166201 0.720012 0.795361
0.162982 0.708125 0.783856
0.229923 0.701808 0.781384
0.57377 0.687648 0.784787
0.820478 0.67422 0.763897
0.962432 0.705074 0.780682
0.16907 0.728161 0.835081
0.170169 0.732128 0.839094
0.168673 0.727382 0.823774
0.165209 0.715297 0.804028
0.162081 0.70425 0.788083
0.243229 0.701503 0.788464
0.586847 0.685802 0.789517
0.823545 0.672511 0.767163
0.963119 0.703563 0.783154
0.166857 0.719066 0.836774
0.165881 0.714839 0.840589
0.165057 0.710948 0.845975
0.162585 0.702403 0.829252
0.15964 0.692927 0.805249
0.269276 0.696376 0.805844
0.610269 0.680186 0.803143
0.831022 0.668376 0.778531
0.962005 0.700252 0.786831
0.168643 0.725063 0.849546
0.164446 0.708705 0.842908
0.163149 0.703395 0.844358
0.161593 0.696452 0.851331
0.159228 0.688167 0.838453
0.300114 0.693675 0.834714
0.648096 0.680339 0.826749
0.843351 0.66891 0.799725
0.962341 0.701915 0.799344
0.176455 0.753582 0.881682
0.16994 0.728969 0.863142
0.166018 0.714366 0.85034
0.166323 0.715541 0.850996
0.16582 0.712673 0.861372
0.350393 0.715267 0.871489
0.697185 0.711559 0.861036
0.861662 0.697673 0.830839
0.967315 0.727993 0.827268
0.185031 0.785473 0.914092
0.180606 0.768612 0.902953
0.176211 0.752514 0.882658
0.173983 0.744839 0.868437
0.174838 0.748547 0.864591
0.390478 0.758312 0.893431
0.741741 0.762875 0.889204
0.887938 0.754742 0.860319
0.969924 0.775738 0.860212
0.184512 0.783429 0.914
0.185031 0.785458 0.914092
0.186465 0.791119 0.914244
0.185245 0.786465 0.910567
0.184588 0.785061 0.894194
0.456962 0.798962 0.899855
0.767849 0.820706 0.900496
0.907805 0.82121 0.87924
0.976577 0.832807 0.888731
0.184695 0.784054 0.914
0.185779 0.788281 0.914168
0.187686 0.795865 0.914427
0.190112 0.805829 0.914794
0.191821 0.812345 0.915022
0.452506 0.827573 0.933425
0.770733 0.858305 0.902419
0.907576 0.895369 0.880934
0.983215 0.901976 0.88368
0.187137 0.793759 0.914382
0.189288 0.80235 0.914641
0.191791 0.812253 0.915022
0.194827 0.824414 0.91548
0.19823 0.837736 0.915984
0.33666 0.864378 0.938979
0.661616 0.929335 0.947402
0.870863 0.984344 0.88539
0.982803 0.982803 0.831876
0.194995 0.826093 0.897307
0.1953 0.82768 0.89633
0.195056 0.826795 0.892668
0.193606 0.821118 0.891768
0.191196 0.811307 0.895994
0.188449 0.800137 0.898299
0.509544 0.791455 0.924971
0.805432 0.783093 0.927367
0.966506 0.758999 0.915908
0.193759 0.820951 0.901457
0.195026 0.825864 0.905638
0.19469 0.824674 0.901991
0.192477 0.816281 0.897566
0.189868 0.806043 0.896437
0.187625 0.796902 0.899336
0.516426 0.788846 0.927275
0.807721 0.78027 0.928222
0.967193 0.757595 0.916381
0.191073 0.810056 0.907881
0.190387 0.806882 0.914595
0.189899 0.80473 0.914733
0.188815 0.800488 0.913664
0.186755 0.792828 0.906096
0.185275 0.787091 0.90515
0.541375 0.77937 0.934356
0.81294 0.772763 0.931899
0.9691 0.75285 0.91902
0.188708 0.800122 0.913558
0.187289 0.7944 0.914382
0.185824 0.788449 0.914153
0.184451 0.783062 0.913954
0.183001 0.777325 0.913771
0.182208 0.774289 0.913634
0.570306 0.767926 0.945296
0.818875 0.764782 0.939376
0.968261 0.748943 0.926177
0.186511 0.791272 0.914214
0.185397 0.786969 0.914107
0.184985 0.785122 0.914
0.18468 0.78407 0.914
0.183246 0.778347 0.913771
0.182101 0.7738 0.913649
0.587869 0.769467 0.954681
0.829679 0.769635 0.950118
0.969055 0.758206 0.938552
0.185016 0.785428 0.914092
0.184848 0.784665 0.914
0.185367 0.786526 0.914107
0.186465 0.79115 0.914229
0.187976 0.797055 0.914473
0.203037 0.79585 0.918212
0.645655 0.78851 0.959121
0.854994 0.790967 0.959106
0.971893 0.783444 0.949432
0.184527 0.783475 0.914
0.185138 0.785824 0.914107
0.186664 0.791897 0.914305
0.188785 0.800427 0.914595
0.191241 0.810071 0.914931
0.26537 0.823102 0.929778
0.712688 0.827176 0.965118
0.882887 0.830945 0.961166
0.976501 0.825818 0.9552
0.184848 0.78468 0.914
0.186175 0.78996 0.914199
0.188205 0.798032 0.914488
0.190936 0.80885 0.9149
0.193988 0.820752 0.915297
0.498985 0.84094 0.951034
0.749508 0.868742 0.96202
0.893034 0.899458 0.960479
0.984649 0.896819 0.958633
0.187243 0.794217 0.914382
0.189441 0.802945 0.914672
0.192004 0.813062 0.915053
0.19501 0.824918 0.915511
0.198169 0.837552 0.915999
0.49482 0.864485 0.951446
0.768215 0.899336 0.957183
0.893065 0.943206 0.952789
0.988602 0.986999 0.946807
