luts/DoN's BMPCC6K_4K.cube
TITLE "Generated by Resolve"
LUT_3D_SIZE 5
0.0334936 0.0341955 0.0341955
0.18143 0.0857557 0.0476692
0.549599 0.135698 0.080705
0.838605 0.277195 0.140032
0.911803 0.434806 0.169207
0.0522164 0.149432 0.0973373
0.0960403 0.166796 0.0950332
0.52871 0.220005 0.0850996
0.866529 0.346761 0.151614
0.911879 0.438025 0.169558
0.0775006 0.383795 0.198169
0.0948959 0.394675 0.172961
0.2963 0.533867 0.186938
0.811719 0.514778 0.165911
0.916075 0.631617 0.199344
0.164004 0.716625 0.339803
0.163317 0.714275 0.270604
0.25066 0.75816 0.232425
0.672312 0.873564 0.310719
0.92723 0.905791 0.363851
0.219104 0.919295 0.538186
0.219104 0.919295 0.440085
0.288121 0.932265 0.319615
0.557229 0.942123 0.337896
0.818998 0.948135 0.375891
0.0347448 0.138003 0.175906
0.0996262 0.127275 0.134188
0.457145 0.213031 0.141131
0.840986 0.299367 0.142504
0.911803 0.434699 0.169177
0.0364538 0.179477 0.214527
0.123064 0.154208 0.155474
0.571099 0.211658 0.0905776
0.848051 0.277913 0.141726
0.911437 0.411963 0.166262
0.0763409 0.378393 0.39411
0.0927291 0.444404 0.306004
0.396231 0.515053 0.208667
0.871183 0.538231 0.177981
0.91606 0.629511 0.198978
0.178759 0.771466 0.726268
0.174273 0.754818 0.540978
0.298634 0.757671 0.291356
0.7299 0.851041 0.326238
0.92079 0.783597 0.227665
0.219104 0.919295 0.838056
0.219104 0.919295 0.733028
0.231037 0.923278 0.525338
0.600183 0.948653 0.403052
0.848981 0.951095 0.404639
0.0690929 0.340597 0.457801
0.0647898 0.328389 0.375174
0.186023 0.338643 0.248295
0.733455 0.428504 0.248203
0.943145 0.572747 0.4495
0.0744945 0.363973 0.469749
0.0713664 0.349538 0.470985
0.25835 0.357809 0.287968
0.766049 0.461723 0.311177
0.941024 0.562722 0.417945
0.105882 0.487846 0.61442
0.0982071 0.460319 0.550393
0.429908 0.516945 0.520989
0.862425 0.574624 0.480461
0.937545 0.599054 0.359106
0.132662 0.591516 0.707347
0.159548 0.697917 0.733822
0.179461 0.773541 0.669734
0.756741 0.832609 0.500801
0.93077 0.780346 0.263676
0.19707 0.833188 0.91487
0.219089 0.91928 0.919295
0.219104 0.919295 0.801236
0.655512 0.961547 0.584695
0.886839 0.960052 0.51754
0.138018 0.610697 0.745251
0.134722 0.601572 0.687449
0.125383 0.570169 0.585122
0.641352 0.565164 0.50988
0.957946 0.661799 0.677348
0.136782 0.605386 0.746624
0.134096 0.59353 0.756512
0.125811 0.568444 0.641367
0.667124 0.576745 0.568154
0.959014 0.671443 0.713436
0.156344 0.678401 0.817533
0.144091 0.633036 0.771084
0.169696 0.645396 0.790097
0.764645 0.637079 0.727733
0.964172 0.722896 0.793469
0.177966 0.758907 0.890288
0.17084 0.733394 0.853758
0.19585 0.743969 0.833158
0.824125 0.816495 0.811444
0.971756 0.820783 0.790173
0.186877 0.792676 0.91429
0.190356 0.806867 0.911833
0.208286 0.877028 0.917571
0.604959 0.96228 0.862684
0.95433 0.973709 0.718685
0.194995 0.826093 0.897307
0.195056 0.826795 0.892668
0.191196 0.811307 0.895994
0.509544 0.791455 0.924971
0.966506 0.758999 0.915908
0.191073 0.810056 0.907881
0.189899 0.80473 0.914733
0.186755 0.792828 0.906096
0.541375 0.77937 0.934356
0.9691 0.75285 0.91902
0.186511 0.791272 0.914214
0.184985 0.785122 0.914
0.183246 0.778347 0.913771
0.587869 0.769467 0.954681
0.969055 0.758206 0.938552
0.184527 0.783475 0.914
0.186664 0.791897 0.914305
0.191241 0.810071 0.914931
0.712688 0.827176 0.965118
0.976501 0.825818 0.9552
0.187243 0.794217 0.914382
0.192004 0.813062 0.915053
0.198169 0.837552 0.915999
0.768215 0.899336 0.957183
0.988602 0.986999 0.946807
