luts/DoN's BMPCC6K_4K.cube
TITLE "Generated by Resolve"
LUT_3D_SIZE 33
0.0334936 0.0341955 0.0341955
0.0429389 0.0380255 0.0355688
0.0534371 0.0427405 0.0376135
0.0673686 0.0480201 0.0403449
0.0843671 0.0546426 0.0434882
0.104448 0.0625467 0.0466316
0.127962 0.0709239 0.0496529
0.153674 0.0788434 0.0504158
0.18143 0.0857557 0.0476692
0.211795 0.0912947 0.0403449
0.246738 0.0946822 0.0373693
0.286976 0.0961624 0.0406348
0.332631 0.101106 0.0466316
0.383047 0.109453 0.0539712
0.437354 0.117876 0.0623789
0.493645 0.126635 0.0715038
0.549599 0.135698 0.080705
0.603586 0.14226 0.0899062
0.653605 0.15053 0.0987411
0.694896 0.170871 0.10692
0.731106 0.192554 0.114656
0.762448 0.214237 0.12163
0.789807 0.235935 0.127993
0.814099 0.25977 0.13431
0.838605 0.277195 0.140032
0.86183 0.298543 0.145983
0.885893 0.321706 0.152193
0.909682 0.34696 0.158648
0.910918 0.372 0.161578
0.911208 0.393957 0.164126
0.91162 0.421454 0.167483
0.911803 0.434806 0.169207
0.911803 0.434806 0.169207
0.0357519 0.0416114 0.0373541
0.041413 0.042237 0.0370336
0.052781 0.0452125 0.0380255
0.06598 0.0511482 0.0409094
0.0824445 0.0578775 0.0445411
0.10309 0.064683 0.0477607
0.127428 0.0714275 0.0499123
0.154086 0.0778973 0.0500038
0.182315 0.0839704 0.0466316
0.212528 0.0896315 0.0395819
0.247196 0.093843 0.0373541
0.287098 0.0964523 0.0406348
0.332738 0.101366 0.0466316
0.383337 0.109651 0.054078
0.437766 0.118181 0.0624704
0.494377 0.125597 0.0715038
0.551064 0.131975 0.0807507
0.604959 0.138354 0.0899062
0.652766 0.153155 0.0987411
0.694301 0.173648 0.107027
0.730846 0.194278 0.114687
0.762585 0.215091 0.12166
0.790188 0.236271 0.128161
0.815015 0.258015 0.13431
0.83859 0.279667 0.140246
0.861967 0.300435 0.146151
0.886244 0.322286 0.152316
0.909926 0.347066 0.158709
0.910918 0.372595 0.161654
0.911223 0.39675 0.164416
0.91162 0.42208 0.167575
0.911803 0.434806 0.169207
0.911803 0.434806 0.169207
0.0386664 0.05066 0.0416266
0.04271 0.0516518 0.0419471
0.0499275 0.0526741 0.0418097
0.0632486 0.0534676 0.0414435
0.0789044 0.0601511 0.0448615
0.0987259 0.0687877 0.0486458
0.122423 0.0778821 0.0525368
0.149493 0.0852827 0.0536049
0.179034 0.0900587 0.0500191
0.211551 0.0930953 0.0409857
0.247913 0.094667 0.0374609
0.288762 0.0953536 0.0408026
0.334707 0.100694 0.0468757
0.385611 0.10837 0.0542153
0.440482 0.115755 0.0626688
0.497246 0.122866 0.0717327
0.553399 0.129885 0.0809339
0.60679 0.137942 0.0901961
0.653819 0.154986 0.0990311
0.695659 0.17467 0.107317
0.732433 0.194598 0.114977
0.764248 0.214862 0.12192
0.791669 0.235447 0.128328
0.816312 0.257359 0.134432
0.839719 0.278889 0.140368
0.863416 0.299916 0.146349
0.887617 0.323476 0.152697
0.910536 0.348348 0.158984
0.910903 0.37174 0.161471
0.911223 0.395972 0.16434
0.91162 0.421546 0.167483
0.911803 0.434806 0.169207
0.911803 0.434806 0.169207
0.0419013 0.0622263 0.0474403
0.044892 0.062089 0.0468452
0.0504005 0.0645609 0.048249
0.0591287 0.0674449 0.0505531
0.0714427 0.0646372 0.0462959
0.0904555 0.0695048 0.0490425
0.113268 0.0785534 0.0528267
0.140154 0.0882124 0.0549477
0.170443 0.0970169 0.053315
0.203876 0.103456 0.0462654
0.240879 0.105989 0.0385443
0.285679 0.103929 0.0411536
0.335256 0.105501 0.0472725
0.388418 0.112154 0.0549172
0.444312 0.119173 0.063508
0.501442 0.126238 0.0726482
0.557488 0.133516 0.0818952
0.611337 0.140993 0.0911421
0.65977 0.152071 0.0998245
0.700587 0.171786 0.107988
0.736538 0.191684 0.115526
0.767758 0.212085 0.122301
0.794659 0.232685 0.128618
0.818906 0.254368 0.13463
0.842237 0.276097 0.140551
0.865415 0.299168 0.14667
0.889586 0.32372 0.153017
0.910613 0.349447 0.159091
0.910918 0.373281 0.161669
0.911223 0.397742 0.164538
0.911696 0.42533 0.167941
0.911803 0.434806 0.169207
0.911803 0.434806 0.169207
0.0458686 0.0767987 0.0554208
0.0479438 0.0762188 0.0532845
0.0519417 0.0766155 0.0538643
0.0582895 0.0798047 0.0555886
0.067155 0.084123 0.0590829
0.0784772 0.0851301 0.0583047
0.0990005 0.0809339 0.0537881
0.125902 0.0887007 0.0565805
0.156664 0.098436 0.0566262
0.191943 0.107134 0.05066
0.230198 0.1149 0.0413062
0.273213 0.120958 0.0412909
0.323751 0.123888 0.0474403
0.382055 0.127321 0.0552377
0.442527 0.132906 0.0643168
0.503136 0.139071 0.0738384
0.561776 0.145815 0.0834669
0.616602 0.15317 0.0927749
0.665949 0.161135 0.101427
0.70901 0.170642 0.109346
0.745541 0.183047 0.116411
0.775174 0.203632 0.123018
0.800824 0.224826 0.129107
0.824552 0.246296 0.134981
0.84715 0.26894 0.14081
0.870039 0.292927 0.146853
0.893736 0.318517 0.153216
0.910521 0.345068 0.158618
0.910842 0.369894 0.161318
0.911223 0.39585 0.164355
0.91162 0.422293 0.16759
0.911803 0.431693 0.16875
0.911803 0.432349 0.168856
0.0491798 0.0936599 0.0647898
0.0505837 0.0935531 0.0623941
0.0546731 0.0932174 0.060914
0.0589456 0.0937057 0.0615244
0.0651408 0.0972763 0.0628519
0.0742504 0.102358 0.0664836
0.0865187 0.107927 0.0716716
0.106126 0.103761 0.0644083
0.136233 0.100893 0.0610361
0.173388 0.109636 0.0578775
0.214252 0.118624 0.0487221
0.259312 0.12697 0.0408637
0.311101 0.136172 0.0471351
0.367208 0.147784 0.0552224
0.429068 0.157534 0.0644999
0.495201 0.163348 0.0745403
0.559213 0.169421 0.0848707
0.61799 0.176211 0.094728
0.669566 0.183413 0.103639
0.713832 0.191409 0.11162
0.751034 0.200488 0.118624
0.782193 0.210727 0.124758
0.808438 0.223362 0.130312
0.832624 0.238743 0.13576
0.854826 0.26006 0.141375
0.877333 0.285801 0.147433
0.900572 0.313207 0.153841
0.910445 0.339895 0.158068
0.910811 0.366064 0.160845
0.911208 0.392813 0.163989
0.911604 0.419883 0.167254
0.911696 0.425345 0.167956
0.911696 0.425757 0.167971
0.0510567 0.112032 0.0759136
0.052491 0.112276 0.0732128
0.0558633 0.111849 0.0695506
0.0605631 0.111894 0.0690929
0.0650645 0.112474 0.0697795
0.0717174 0.11632 0.071046
0.0807965 0.121981 0.0749676
0.0938888 0.128634 0.0808881
0.117769 0.13344 0.084184
0.147906 0.118135 0.0689403
0.192279 0.122759 0.0605783
0.23827 0.13167 0.0481422
0.291463 0.141375 0.0454261
0.352453 0.15491 0.0541085
0.418296 0.169986 0.0643015
0.484565 0.183215 0.0748913
0.551232 0.194553 0.0858625
0.612955 0.203815 0.0962234
0.66862 0.211078 0.10573
0.715648 0.218906 0.114061
0.754131 0.227344 0.121202
0.785992 0.237385 0.127504
0.812894 0.248173 0.133089
0.837186 0.261311 0.138338
0.860899 0.276707 0.143832
0.884916 0.294499 0.149554
0.908598 0.315312 0.155398
0.910414 0.335149 0.157565
0.910719 0.359579 0.160159
0.911116 0.388083 0.163409
0.911513 0.413672 0.166522
0.911513 0.414343 0.166552
0.911513 0.415274 0.166644
0.0517433 0.13077 0.0870985
0.0534218 0.131228 0.0847181
0.0554818 0.131563 0.0818799
0.0610208 0.131136 0.0787366
0.0660563 0.131731 0.0788434
0.071046 0.132692 0.0793774
0.0777447 0.136522 0.0804456
0.0875257 0.143069 0.0847334
0.102693 0.150713 0.0913252
0.130709 0.158892 0.0976577
0.167529 0.144762 0.0817426
0.21146 0.13933 0.0679637
0.265507 0.146242 0.0493172
0.328328 0.160021 0.0517128
0.400076 0.176745 0.062562
0.473289 0.194217 0.0744182
0.543557 0.210101 0.0862593
0.607233 0.224537 0.0973068
0.66482 0.237125 0.107454
0.713222 0.249027 0.116365
0.753521 0.259876 0.123964
0.786786 0.269596 0.130465
0.815015 0.280842 0.136324
0.840497 0.293477 0.141878
0.865187 0.308431 0.147478
0.890135 0.325353 0.153231
0.910185 0.344167 0.158511
0.910765 0.362036 0.160418
0.910964 0.381231 0.1626
0.911269 0.401679 0.164981
0.911467 0.413184 0.166445
0.911452 0.413031 0.16643
0.911482 0.412314 0.166293
0.0522164 0.149432 0.0973373
0.0539254 0.150225 0.0955978
0.0556191 0.151049 0.0939803
0.0598917 0.151186 0.0905623
0.0664225 0.151278 0.0884871
0.0715038 0.152377 0.0889296
0.0767376 0.153597 0.0896468
0.0846113 0.15845 0.0909285
0.0960403 0.166796 0.0950332
0.114397 0.176471 0.101244
0.144671 0.187762 0.10901
0.194766 0.184756 0.0935531
0.233188 0.160647 0.0754253
0.296788 0.165866 0.052369
0.370672 0.182559 0.0594949
0.450202 0.201007 0.0720378
0.52871 0.220005 0.0850996
0.599588 0.239155 0.0976272
0.660685 0.255756 0.108736
0.710018 0.271778 0.118105
0.751904 0.285908 0.126253
0.786648 0.299565 0.133379
0.815061 0.314107 0.139666
0.841352 0.330465 0.145708
0.866529 0.346761 0.151614
0.89276 0.364248 0.157778
0.911009 0.38201 0.162692
0.911254 0.399207 0.164721
0.911543 0.41738 0.166964
0.911833 0.436423 0.169421
0.911955 0.440772 0.169909
0.911955 0.439521 0.169787
0.911879 0.438025 0.169558
0.0518349 0.168734 0.108064
0.0542763 0.169192 0.105943
0.0560922 0.170153 0.104646
0.0593576 0.170703 0.102144
0.0662394 0.170947 0.0991226
0.0718242 0.172091 0.0985885
0.0768292 0.173724 0.0989548
0.0828565 0.175814 0.0994125
0.0923629 0.183078 0.100862
0.105562 0.193378 0.10428
0.126635 0.205127 0.109453
0.15993 0.219303 0.115038
0.215961 0.227314 0.10692
0.262837 0.190784 0.0789349
0.331304 0.192187 0.0604257
0.416098 0.207965 0.0683604
0.501732 0.227771 0.0822003
0.58117 0.248676 0.0959945
0.649668 0.268711 0.108446
0.705699 0.289219 0.119326
0.750103 0.306569 0.128206
0.784527 0.323857 0.135607
0.813855 0.341848 0.142458
0.840742 0.35935 0.148821
0.866606 0.377569 0.155108
0.893538 0.397787 0.161746
0.911559 0.419028 0.167132
0.911864 0.439063 0.169772
0.912276 0.459449 0.172457
0.912535 0.474907 0.174594
0.912581 0.477043 0.174899
0.912581 0.476265 0.174792
0.912566 0.474189 0.174533
0.0506752 0.188815 0.119356
0.0536049 0.189364 0.117464
0.0563363 0.18999 0.11574
0.0594797 0.190692 0.113725
0.0657206 0.191196 0.11075
0.0724498 0.191821 0.108598
0.0771038 0.193942 0.108766
0.0825513 0.19646 0.108827
0.0895705 0.200534 0.108965
0.0992905 0.211292 0.109575
0.113695 0.225193 0.110109
0.138781 0.240101 0.113512
0.177066 0.256626 0.118578
0.237934 0.271443 0.121584
0.303838 0.236301 0.0861677
0.369772 0.22385 0.0700236
0.463554 0.237018 0.0781415
0.551186 0.257786 0.0927596
0.629496 0.279362 0.106645
0.693401 0.301381 0.118761
0.743618 0.321782 0.128878
0.781811 0.34316 0.137392
0.812573 0.36289 0.144701
0.839673 0.382239 0.151339
0.865187 0.403571 0.158007
0.891249 0.426627 0.164981
0.912093 0.448997 0.171038
0.912398 0.468849 0.173739
0.91281 0.488914 0.176577
0.913146 0.507485 0.179294
0.913237 0.512032 0.17995
0.913329 0.515877 0.18056
0.913405 0.518669 0.180911
0.0490425 0.210178 0.13135
0.0521401 0.211063 0.129122
0.0548867 0.212085 0.127138
0.0577249 0.213245 0.125002
0.0625162 0.214542 0.121874
0.0698253 0.215839 0.118364
0.0745861 0.218204 0.117494
0.0791333 0.22118 0.117098
0.0850538 0.224842 0.116472
0.092958 0.232624 0.11519
0.103395 0.247028 0.113603
0.122454 0.263188 0.113573
0.155795 0.280308 0.119036
0.202365 0.300023 0.128161
0.269825 0.320409 0.138674
0.352453 0.30106 0.106493
0.411749 0.260853 0.0785534
0.509896 0.272404 0.0889601
0.599039 0.290089 0.103502
0.672145 0.313054 0.117006
0.730495 0.335088 0.128496
0.774365 0.357153 0.137942
0.808362 0.37847 0.145937
0.83711 0.400534 0.15317
0.863539 0.424231 0.160388
0.889952 0.446647 0.167422
0.91191 0.469612 0.173754
0.912856 0.491417 0.176959
0.913329 0.514626 0.180331
0.913741 0.535256 0.183459
0.913863 0.539742 0.184161
0.913954 0.543191 0.184741
0.914 0.545663 0.185092
0.0463722 0.236912 0.142
0.0480354 0.23743 0.13959
0.0508888 0.238788 0.137499
0.0534066 0.240284 0.135622
0.0578012 0.241733 0.132052
0.0640879 0.243565 0.128435
0.0703288 0.245792 0.125643
0.0748913 0.249058 0.12491
0.080415 0.253056 0.124102
0.0874189 0.25803 0.122911
0.0979629 0.270298 0.120729
0.113344 0.287968 0.119387
0.142535 0.307073 0.124056
0.183597 0.327611 0.132967
0.235981 0.350484 0.14316
0.309834 0.374273 0.154772
0.399847 0.371557 0.132006
0.461128 0.308568 0.0881514
0.555184 0.31339 0.100649
0.642847 0.326986 0.114565
0.710491 0.348302 0.127138
0.761135 0.37084 0.137636
0.799573 0.393286 0.146426
0.831128 0.415579 0.154238
0.859266 0.438376 0.161593
0.886564 0.462516 0.168994
0.910903 0.487068 0.176013
0.913222 0.509392 0.179553
0.913664 0.530251 0.182742
0.914153 0.551446 0.186023
0.914321 0.55903 0.187213
0.914336 0.561654 0.187701
0.914382 0.56379 0.187976
0.0496834 0.26775 0.153109
0.0497597 0.267887 0.150896
0.0500343 0.268193 0.148699
0.0524147 0.269841 0.146807
0.0559854 0.271458 0.143648
0.0613718 0.27332 0.140017
0.0684672 0.27599 0.1364
0.0738079 0.279454 0.135225
0.0794995 0.283742 0.134554
0.0870985 0.289174 0.133577
0.0971237 0.297108 0.132082
0.112413 0.314763 0.130907
0.13431 0.335729 0.131456
0.171176 0.357778 0.138933
0.217899 0.381537 0.148455
0.276265 0.406867 0.15903
0.357382 0.433021 0.170932
0.441627 0.441505 0.167803
0.520714 0.37554 0.10605
0.599527 0.358358 0.113085
0.680049 0.370016 0.125689
0.742107 0.38471 0.136629
0.786725 0.406973 0.146288
0.822217 0.429877 0.154803
0.851972 0.453254 0.16257
0.880232 0.47657 0.170047
0.908568 0.500465 0.1776
0.913466 0.522133 0.181476
0.914015 0.544961 0.184985
0.914473 0.567422 0.188602
0.914778 0.579797 0.190585
0.914855 0.581704 0.190875
0.914839 0.583383 0.19118
0.0578317 0.303136 0.167285
0.0578317 0.303075 0.164324
0.0579232 0.303487 0.162066
0.0580301 0.304036 0.160037
0.0597848 0.305119 0.157351
0.0645762 0.307134 0.153674
0.0712749 0.310094 0.150271
0.0779126 0.313726 0.147829
0.0836957 0.318364 0.147189
0.0909438 0.323781 0.146319
0.100328 0.330709 0.144991
0.113359 0.343664 0.143404
0.131533 0.365652 0.142
0.162264 0.389441 0.145418
0.206165 0.414145 0.154589
0.259678 0.440146 0.16463
0.325322 0.467674 0.175799
0.41001 0.494255 0.18735
0.490333 0.503578 0.190463
0.576226 0.453468 0.127489
0.642329 0.406134 0.126009
0.713375 0.415259 0.136904
0.768536 0.426886 0.14641
0.809262 0.443854 0.154818
0.841215 0.466377 0.162814
0.871702 0.490288 0.170764
0.90132 0.513832 0.178515
0.913787 0.535897 0.183566
0.914244 0.556497 0.186847
0.914733 0.57731 0.190188
0.91516 0.595148 0.193149
0.91519 0.596277 0.193347
0.915221 0.597971 0.193561
0.0672465 0.342123 0.182666
0.0671855 0.341863 0.179339
0.0672007 0.342031 0.176532
0.0673533 0.342657 0.174289
0.0674754 0.343236 0.171969
0.0695048 0.344198 0.168383
0.0757458 0.34699 0.164553
0.0831006 0.350835 0.161227
0.0889601 0.35555 0.160113
0.0960098 0.361166 0.159197
0.104814 0.368002 0.157855
0.116152 0.376867 0.155993
0.132708 0.396582 0.153719
0.157305 0.421576 0.153201
0.197818 0.447044 0.161044
0.247974 0.47396 0.170809
0.308476 0.500816 0.181186
0.37969 0.528084 0.192172
0.464317 0.553521 0.203372
0.540581 0.563134 0.210178
0.628046 0.533806 0.158709
0.681849 0.458762 0.139666
0.743832 0.461204 0.14815
0.791058 0.471305 0.156207
0.828489 0.483421 0.163485
0.860899 0.5028 0.171054
0.890898 0.525658 0.178805
0.913603 0.548928 0.18558
0.914549 0.568444 0.188739
0.915007 0.58851 0.191989
0.91548 0.608347 0.195377
0.915602 0.613733 0.196323
0.915679 0.614923 0.196445
0.0775006 0.383795 0.198169
0.0774853 0.383795 0.194614
0.0774853 0.383871 0.191348
0.0775311 0.38407 0.188678
0.0776837 0.38468 0.186419
0.0775464 0.384222 0.182376
0.0809796 0.386221 0.178973
0.0882582 0.389944 0.175036
0.0948959 0.394675 0.172961
0.101518 0.400244 0.172
0.109941 0.407004 0.170611
0.120729 0.415061 0.168566
0.134722 0.428229 0.165835
0.155489 0.453483 0.162432
0.191623 0.479805 0.167483
0.239384 0.506615 0.176867
0.2963 0.533867 0.186938
0.362432 0.560876 0.197528
0.436835 0.586358 0.208225
0.51957 0.609216 0.21854
0.591089 0.618021 0.22501
0.661936 0.602319 0.184878
0.717723 0.527626 0.155856
0.770306 0.506996 0.15906
0.811719 0.514778 0.165911
0.846143 0.525551 0.172457
0.878248 0.538521 0.178988
0.908583 0.559716 0.186557
0.914763 0.580118 0.190661
0.915282 0.599786 0.193927
0.915785 0.619257 0.197208
0.916075 0.630945 0.199207
0.916075 0.631617 0.199344
0.0884108 0.427329 0.214389
0.0882429 0.426581 0.209812
0.0882582 0.42678 0.206302
0.0882887 0.427024 0.203006
0.0884108 0.427466 0.20032
0.0882887 0.426673 0.196033
0.088426 0.427115 0.192676
0.0936141 0.429938 0.189044
0.100954 0.434592 0.185718
0.107469 0.440162 0.184421
0.115816 0.446647 0.182803
0.125887 0.454505 0.180667
0.138613 0.464027 0.17763
0.156909 0.484871 0.173587
0.187686 0.51194 0.174029
0.232685 0.538399 0.182864
0.286656 0.565362 0.192538
0.348943 0.591714 0.202716
0.418814 0.617227 0.213153
0.493385 0.640208 0.223285
0.572015 0.660761 0.233158
0.63682 0.668147 0.239139
0.697154 0.665461 0.223789
0.752697 0.601022 0.173297
0.791623 0.554406 0.169863
0.830564 0.557641 0.175509
0.863432 0.566659 0.181445
0.895659 0.577646 0.187655
0.915038 0.590829 0.192416
0.915526 0.60943 0.19556
0.916014 0.628595 0.198825
0.916548 0.647288 0.202152
0.916533 0.648524 0.20235
0.0996414 0.47155 0.230747
0.099382 0.470603 0.225772
0.0991684 0.469749 0.221088
0.0992447 0.470115 0.217517
0.0993668 0.470634 0.214084
0.0993057 0.470176 0.210086
0.0991073 0.469368 0.205325
0.0999008 0.470298 0.202258
0.106767 0.474601 0.198322
0.113558 0.479942 0.196368
0.121553 0.486442 0.19472
0.131472 0.493996 0.192401
0.143648 0.502968 0.189197
0.159106 0.515801 0.184909
0.184604 0.542458 0.180835
0.227573 0.568627 0.188632
0.278599 0.5953 0.197894
0.338079 0.621805 0.207767
0.40383 0.645747 0.217792
0.474769 0.668193 0.227741
0.547143 0.68893 0.237659
0.620737 0.707454 0.247227
0.677531 0.713466 0.252872
0.728985 0.71664 0.255741
0.772717 0.669154 0.188556
0.808591 0.609751 0.181765
0.847868 0.600229 0.185107
0.880064 0.606668 0.190448
0.913283 0.61561 0.196323
0.915862 0.623194 0.197894
0.916274 0.63772 0.200366
0.916793 0.656855 0.203815
0.917006 0.664866 0.205295
0.110872 0.515007 0.247196
0.110582 0.513848 0.241352
0.110399 0.513176 0.23624
0.110307 0.512734 0.23151
0.110353 0.512993 0.227756
0.110353 0.5131 0.223774
0.110063 0.511864 0.218082
0.110185 0.512261 0.214115
0.112535 0.514168 0.211078
0.119356 0.519387 0.208087
0.127428 0.525856 0.20618
0.137163 0.532982 0.203632
0.148745 0.541375 0.200519
0.163088 0.551247 0.195926
0.184451 0.572442 0.190509
0.222934 0.597757 0.194156
0.271916 0.623819 0.203082
0.327932 0.648875 0.212421
0.391028 0.673075 0.222232
0.45832 0.695247 0.232227
0.527535 0.715084 0.241993
0.596521 0.73283 0.251637
0.663447 0.749096 0.26128
0.713329 0.754391 0.266911
0.756664 0.756451 0.271275
0.791135 0.732311 0.22031
0.827405 0.674708 0.195972
0.861997 0.64387 0.194598
0.897047 0.646006 0.19942
0.916671 0.651102 0.202777
0.916762 0.656718 0.20383
0.917052 0.66479 0.20528
0.917449 0.680751 0.208148
0.122042 0.558053 0.264561
0.121752 0.556924 0.257832
0.121492 0.555978 0.25185
0.12134 0.555428 0.246448
0.121294 0.555383 0.241657
0.121401 0.555734 0.237781
0.12105 0.554284 0.231022
0.120958 0.553948 0.226032
0.121157 0.554849 0.222675
0.12549 0.55845 0.219669
0.133104 0.564553 0.217273
0.142931 0.571832 0.214633
0.154345 0.579721 0.211139
0.168139 0.589075 0.206622
0.185077 0.601328 0.200717
0.219135 0.626413 0.200183
0.266255 0.651377 0.208118
0.319677 0.675624 0.217044
0.378927 0.698863 0.226658
0.443168 0.720027 0.236316
0.510063 0.739239 0.246189
0.576471 0.756634 0.256046
0.640391 0.771496 0.265812
0.699489 0.785031 0.275563
0.744289 0.790402 0.281987
0.780606 0.792279 0.287007
0.811917 0.786389 0.269856
0.841993 0.738689 0.209888
0.871717 0.691646 0.204471
0.912657 0.68481 0.208316
0.917662 0.685573 0.209064
0.917708 0.688838 0.209644
0.917967 0.696651 0.211078
0.132952 0.59971 0.281682
0.132708 0.598795 0.274571
0.132464 0.59794 0.267674
0.132326 0.597345 0.261646
0.13225 0.59704 0.256138
0.13228 0.597116 0.251591
0.132021 0.59617 0.244602
0.131792 0.595209 0.238041
0.132006 0.596078 0.233753
0.132464 0.59707 0.230777
0.138811 0.602594 0.22829
0.148623 0.609934 0.225406
0.159991 0.617777 0.221759
0.173083 0.626184 0.217227
0.189136 0.63592 0.210941
0.214908 0.654505 0.206409
0.2607 0.678248 0.213367
0.311315 0.700786 0.221653
0.367651 0.723171 0.230793
0.429633 0.743526 0.240436
0.494148 0.761944 0.250431
0.557748 0.777859 0.260349
0.62005 0.79237 0.270604
0.67808 0.804761 0.280583
0.730404 0.81648 0.290929
0.770825 0.822583 0.298863
0.801923 0.824201 0.304479
0.831968 0.825803 0.311574
0.848371 0.793194 0.231403
0.885924 0.747097 0.216632
0.916777 0.724407 0.215961
0.918654 0.718669 0.215152
0.918669 0.720745 0.215579
0.143664 0.64033 0.30042
0.14345 0.63949 0.291691
0.143267 0.638819 0.284413
0.143114 0.638285 0.277333
0.143023 0.63801 0.271321
0.142992 0.637842 0.265599
0.142901 0.637476 0.258991
0.14255 0.636103 0.250721
0.142611 0.636316 0.245045
0.142916 0.637369 0.24126
0.145129 0.64036 0.238865
0.153933 0.647044 0.236103
0.165606 0.654871 0.232151
0.178637 0.663127 0.227481
0.193805 0.671946 0.221332
0.213397 0.683482 0.213977
0.255665 0.704173 0.219242
0.304814 0.725856 0.226459
0.358068 0.746639 0.235218
0.417273 0.765698 0.244709
0.478309 0.782788 0.254627
0.541238 0.798123 0.265034
0.601801 0.811795 0.275654
0.658412 0.824262 0.286259
0.710307 0.835554 0.297108
0.755642 0.846052 0.308141
0.792248 0.853223 0.3178
0.820188 0.855024 0.324056
0.847745 0.855817 0.330312
0.869581 0.844129 0.303563
0.894423 0.801877 0.228367
0.919921 0.764233 0.223819
0.919753 0.752697 0.221622
0.154009 0.679377 0.31957
0.153826 0.678676 0.310445
0.153689 0.678157 0.301839
0.153597 0.677836 0.294148
0.153536 0.677668 0.286748
0.153536 0.677638 0.28072
0.153506 0.677424 0.274266
0.153185 0.676173 0.264515
0.153033 0.675685 0.25713
0.153338 0.676753 0.25214
0.153689 0.678172 0.248875
0.159457 0.683558 0.246708
0.171206 0.691402 0.242634
0.184131 0.699062 0.237629
0.198962 0.707393 0.231479
0.217227 0.71635 0.223911
0.251575 0.730205 0.22536
0.29839 0.750515 0.232395
0.350835 0.769207 0.240208
0.407691 0.787106 0.249653
0.466682 0.803235 0.2598
0.526467 0.817639 0.270359
0.585107 0.830732 0.28127
0.64033 0.842786 0.292271
0.690669 0.853971 0.303456
0.735744 0.864729 0.31487
0.774273 0.874662 0.326223
0.808576 0.883452 0.337789
0.835767 0.886839 0.345571
0.861646 0.887343 0.351919
0.889235 0.885573 0.356222
0.904372 0.853086 0.275502
0.921614 0.808804 0.232624
0.164004 0.716625 0.339803
0.163851 0.716136 0.32961
0.16376 0.715862 0.320104
0.163745 0.715694 0.311223
0.163714 0.715587 0.303471
0.163699 0.715511 0.296407
0.16379 0.715908 0.290394
0.16347 0.714763 0.279393
0.163317 0.714275 0.270604
0.163561 0.714977 0.263981
0.163851 0.716136 0.259556
0.16585 0.719081 0.257176
0.176913 0.726345 0.253025
0.190021 0.73402 0.247837
0.204639 0.741695 0.241703
0.221653 0.749706 0.234058
0.25066 0.75816 0.232425
0.294423 0.774182 0.238758
0.344152 0.791363 0.246357
0.398779 0.807446 0.255344
0.455817 0.822614 0.265507
0.512779 0.836942 0.276493
0.569345 0.849851 0.287739
0.623072 0.861936 0.299184
0.672312 0.873564 0.310719
0.716884 0.884749 0.322454
0.755703 0.895415 0.334096
0.789929 0.90605 0.346151
0.820768 0.915648 0.357961
0.849775 0.922026 0.368246
0.875181 0.922362 0.37467
0.904555 0.92195 0.381125
0.92723 0.905791 0.363851
0.173373 0.751583 0.361898
0.173297 0.751339 0.350607
0.17322 0.751095 0.340505
0.173205 0.751125 0.330999
0.17322 0.751232 0.322072
0.173297 0.751461 0.314061
0.173419 0.751812 0.306905
0.173266 0.751293 0.296437
0.173159 0.750713 0.285466
0.17319 0.75082 0.277378
0.173465 0.751858 0.271565
0.174243 0.753826 0.268132
0.183658 0.759976 0.263706
0.196658 0.76704 0.258289
0.211154 0.774121 0.252171
0.227802 0.78146 0.244831
0.253025 0.788449 0.241001
0.291981 0.797101 0.246021
0.339895 0.812772 0.25388
0.39173 0.827848 0.262898
0.446342 0.842664 0.272862
0.502068 0.856382 0.283543
0.556939 0.869947 0.295506
0.607752 0.882567 0.307286
0.656077 0.894621 0.319036
0.698909 0.905989 0.330632
0.737667 0.917617 0.342321
0.77142 0.928985 0.354101
0.801434 0.940627 0.366018
0.829786 0.947311 0.377066
0.860868 0.949432 0.38584
0.887587 0.950439 0.392325
0.918059 0.95137 0.398627
0.181994 0.783459 0.384863
0.181979 0.783413 0.373373
0.181979 0.783398 0.362188
0.182086 0.783795 0.35256
0.182162 0.784131 0.343053
0.182239 0.784405 0.334173
0.182345 0.784787 0.326024
0.182345 0.78468 0.31632
0.182162 0.7841 0.303334
0.182132 0.784039 0.293263
0.182376 0.784848 0.286213
0.182971 0.78645 0.2813
0.192081 0.791516 0.275151
0.204761 0.797787 0.269261
0.21886 0.804288 0.263508
0.23534 0.811002 0.25655
0.258671 0.817334 0.251637
0.294377 0.822858 0.255558
0.338109 0.834272 0.262715
0.387304 0.848615 0.271809
0.439796 0.863096 0.282109
0.492805 0.877287 0.292943
0.545953 0.890654 0.304128
0.595132 0.904173 0.316091
0.640665 0.917205 0.327855
