luts/Dream 85.cube
TITLE "Generated by Resolve"
LUT_3D_SIZE 33
0.0136568 0.0187381 0.0317082
0.00915541 0.0131533 0.0238041
0.00500496 0.00769055 0.0154574
0.00138857 0.00250248 0.00627146
0.00108339 0.00201419 0.00529488
0.00459297 0.00714122 0.0145571
0.00944533 0.0123598 0.0226139
0.0167086 0.0171969 0.0295109
0.0266117 0.0215152 0.0353704
0.0392004 0.0252689 0.0402838
0.0543221 0.0284581 0.0443885
0.0716259 0.0311589 0.0478065
0.0905776 0.0334936 0.0507515
0.11046 0.0356451 0.0534524
0.130388 0.0378424 0.0561685
0.149325 0.0403296 0.0592355
0.166918 0.0432288 0.0627146
0.184985 0.0460365 0.0660716
0.203616 0.0487373 0.0692454
0.222827 0.0513161 0.072282
0.242573 0.0537881 0.0751507
0.262867 0.0561532 0.0778668
0.283696 0.0584115 0.0804456
0.305028 0.0605631 0.0828717
0.326879 0.0625925 0.0851759
0.349218 0.0645304 0.0873426
0.372045 0.0663615 0.0893873
0.395346 0.0680858 0.09131
0.419135 0.0697032 0.0930953
0.443381 0.0712139 0.0947738
0.468086 0.0726329 0.0963302
0.493233 0.0739452 0.0977798
0.518837 0.0751659 0.0991073
0.000350958 0.000762951 0.0024567
0.00224308 0.0037995 0.00875868
0.0059968 0.00903334 0.0175937
0.0104524 0.0144656 0.0254673
0.0162051 0.0198215 0.0322576
0.0236973 0.0249027 0.0380255
0.0332341 0.0296025 0.0428931
0.0449378 0.0338445 0.0469673
0.0587015 0.0376287 0.0503395
0.0743114 0.041001 0.0532235
0.09131 0.0440375 0.055787
0.109102 0.0469215 0.0582895
0.126909 0.0498054 0.0609903
0.143862 0.0529335 0.0642252
0.160678 0.0561227 0.0675975
0.178103 0.0591897 0.0708019
0.196109 0.0621347 0.0738537
0.21471 0.0649577 0.0767529
0.23386 0.0676738 0.0795148
0.253559 0.0702678 0.0821241
0.273793 0.0727398 0.084596
0.29456 0.0751049 0.0869306
0.315831 0.0773632 0.0891432
0.337606 0.0794995 0.0912337
0.359884 0.081529 0.0931868
0.382635 0.0834516 0.0950332
0.405875 0.0852827 0.0967575
0.429587 0.0869917 0.0983597
0.453758 0.0885939 0.099855
0.478386 0.0901045 0.101228
0.503471 0.0914931 0.10251
0.529 0.0927901 0.10367
0.554955 0.0939956 0.104723
0.0116579 0.0165408 0.0283207
0.016144 0.0223239 0.0350195
0.0215152 0.0280919 0.0407416
0.028275 0.0336461 0.0455787
0.0367285 0.0388952 0.0496071
0.0470283 0.0437324 0.0529641
0.0591897 0.0481575 0.0557717
0.0730144 0.0521859 0.0582284
0.0881666 0.0558785 0.0605325
0.104112 0.0593729 0.0629435
0.120211 0.0628214 0.0657359
0.135943 0.0663615 0.0690471
0.152163 0.0697948 0.072282
0.169009 0.0730907 0.0753643
0.18645 0.0762646 0.0783093
0.204471 0.0793164 0.0810864
0.223056 0.0822461 0.0837415
0.242206 0.0850538 0.0862593
0.261891 0.0877394 0.0886397
0.282109 0.0903029 0.090898
0.302846 0.0927596 0.093019
0.324102 0.0950942 0.0950332
0.345846 0.097322 0.09691
0.368093 0.099443 0.0986801
0.390814 0.101442 0.100328
0.414008 0.103349 0.101869
0.437675 0.105135 0.103304
0.461814 0.106813 0.104631
0.486397 0.1084 0.105837
0.511421 0.10988 0.10695
0.536889 0.111238 0.107958
0.562814 0.11252 0.108858
0.589151 0.11368 0.109651
0.0244297 0.0373541 0.0483101
0.0298772 0.0435187 0.0523232
0.0368658 0.0493782 0.0556497
0.0455634 0.0548562 0.0584115
0.0560311 0.0599069 0.0607614
0.0681468 0.0645609 0.0629129
0.0816205 0.0688334 0.0650492
0.0960403 0.0728466 0.0674601
0.110826 0.0767224 0.0704051
0.125872 0.0805219 0.0736706
0.141543 0.0841688 0.0767987
0.157855 0.0876936 0.0797589
0.174762 0.0910811 0.0825971
0.192248 0.0943313 0.0852827
0.210315 0.0974594 0.0878462
0.228946 0.100465 0.0902724
0.248112 0.103349 0.0925612
0.267811 0.106111 0.0947433
0.288045 0.108766 0.096788
0.308797 0.111284 0.0987259
0.330037 0.113695 0.100542
0.351781 0.115999 0.102251
0.374014 0.118181 0.103838
0.396719 0.120256 0.105318
0.419898 0.122225 0.106691
0.443549 0.124071 0.107958
0.467658 0.125826 0.109117
0.49221 0.127474 0.11017
0.517205 0.129015 0.111116
0.542657 0.130449 0.111971
0.568536 0.131777 0.112734
0.594842 0.133013 0.11339
0.621561 0.134142 0.113939
0.033753 0.0610056 0.0611276
0.0407874 0.0671092 0.0634012
0.0496071 0.0727703 0.0654002
0.0601511 0.0779736 0.0673075
0.0722057 0.0827497 0.0693675
0.08542 0.0871595 0.0718395
0.099321 0.0913252 0.0749523
0.113848 0.0953231 0.0781109
0.129015 0.0991989 0.081117
0.144808 0.102922 0.0839857
0.161196 0.106508 0.0867323
0.178195 0.109957 0.0893263
0.195758 0.113283 0.0917983
0.213886 0.116472 0.0941482
0.232563 0.119539 0.096376
0.251774 0.122499 0.0984665
0.271519 0.125322 0.10045
0.291783 0.128023 0.102327
0.312551 0.130617 0.104082
0.333806 0.133089 0.105714
0.355566 0.135439 0.107256
0.377798 0.137682 0.108675
0.400519 0.139818 0.109987
0.423697 0.141848 0.111208
0.447333 0.143755 0.112322
0.471427 0.145571 0.113329
0.495979 0.147265 0.114229
0.520958 0.148867 0.115038
0.54638 0.150362 0.115755
0.572244 0.151751 0.116365
0.59852 0.153033 0.116884
0.625223 0.154223 0.117311
0.652354 0.155306 0.117647
0.0403449 0.0866102 0.069688
0.049485 0.0922866 0.071458
0.0603647 0.0974594 0.0735027
0.072694 0.102174 0.076112
0.0860304 0.106538 0.0792706
0.100053 0.11075 0.0823377
0.114717 0.114809 0.0852522
0.130007 0.11873 0.0880446
0.145922 0.122499 0.0906996
0.162417 0.126146 0.0932174
0.179507 0.129656 0.0956283
0.197147 0.133028 0.0979019
0.215351 0.136278 0.100053
0.234089 0.139406 0.102083
0.253361 0.142412 0.104005
0.273152 0.145281 0.105821
0.293462 0.148043 0.107515
0.31426 0.150683 0.109102
0.335546 0.153216 0.110582
0.357336 0.155612 0.111955
0.379583 0.157916 0.113222
0.402319 0.160098 0.114382
0.425498 0.162173 0.11545
0.449149 0.164141 0.116411
0.473243 0.166003 0.117281
0.497795 0.167758 0.118044
0.522774 0.169406 0.118715
0.548196 0.170947 0.119295
0.574044 0.172381 0.119768
0.600305 0.173724 0.120165
0.627008 0.174945 0.120455
0.654108 0.176089 0.120668
0.68162 0.177127 0.120775
0.0465705 0.112856 0.0774548
0.0582895 0.117754 0.0802472
0.0711223 0.122316 0.0833753
0.0846418 0.126726 0.0863661
0.0988174 0.130968 0.0892042
0.113619 0.135073 0.0919203
0.129046 0.13904 0.0944991
0.145083 0.14287 0.0969558
0.161685 0.146548 0.0992905
0.178866 0.150103 0.101503
0.196597 0.153521 0.103593
0.214878 0.156817 0.105577
0.233677 0.159991 0.107439
0.25301 0.163043 0.109194
0.272862 0.165957 0.110842
0.293202 0.168765 0.112383
0.314061 0.17145 0.113817
0.335393 0.174029 0.115129
0.357198 0.176486 0.116365
0.379477 0.17882 0.117479
0.402228 0.181064 0.118502
0.425437 0.183169 0.119432
0.449104 0.185183 0.120256
0.473213 0.187091 0.120989
0.497765 0.188891 0.121614
0.522759 0.190585 0.122164
0.548165 0.192172 0.122606
0.574014 0.193652 0.122957
0.60029 0.195026 0.123217
0.626963 0.196307 0.1234
0.654063 0.197498 0.123476
0.681575 0.198566 0.123476
0.709484 0.199557 0.123384
0.0548104 0.138582 0.0872358
0.0678111 0.143191 0.0901503
0.0814832 0.147631 0.0929427
0.0957961 0.151919 0.0955978
0.110735 0.156069 0.0981308
0.126284 0.160067 0.100526
0.142412 0.163928 0.1028
0.159121 0.167651 0.104967
0.176394 0.171252 0.107012
0.194217 0.174716 0.108934
0.212573 0.178058 0.11075
0.231449 0.181262 0.112459
0.250843 0.184344 0.114061
0.270756 0.187304 0.115557
0.291157 0.190158 0.116945
0.312047 0.192889 0.118227
0.333425 0.195499 0.119417
0.355276 0.197986 0.1205
0.377584 0.200381 0.121477
0.400366 0.202655 0.122362
0.423606 0.204807 0.123156
0.447288 0.206867 0.123857
0.471412 0.208804 0.124453
0.495979 0.210651 0.124956
0.520974 0.212375 0.125368
0.546395 0.214008 0.125704
0.572259 0.215534 0.125933
0.59852 0.216953 0.12607
0.625208 0.218265 0.126131
0.652293 0.219486 0.126101
0.679805 0.220615 0.125978
0.707698 0.221637 0.125765
0.736004 0.222553 0.125475
0.0628977 0.164721 0.0964523
0.0766918 0.169207 0.0990768
0.0911269 0.173541 0.101549
0.106188 0.177722 0.103914
0.121828 0.18175 0.106142
0.138079 0.185657 0.108263
0.154879 0.18941 0.110262
0.172229 0.193042 0.112154
0.190127 0.196551 0.113924
0.20856 0.199924 0.115602
0.227512 0.203159 0.117159
0.246967 0.206287 0.118608
0.266941 0.209293 0.119966
0.287388 0.212177 0.121218
0.308324 0.214939 0.122362
0.329747 0.217578 0.123415
0.351644 0.220111 0.124361
0.373999 0.222538 0.125216
0.396796 0.224842 0.125978
0.420066 0.227039 0.126635
0.443778 0.229129 0.127214
0.467918 0.231113 0.127687
0.4925 0.23299 0.128069
0.517525 0.23476 0.128374
0.542962 0.236423 0.128573
0.568826 0.237995 0.128695
0.595102 0.239445 0.128725
0.62179 0.240803 0.128664
0.648875 0.242069 0.128527
0.676387 0.243214 0.128283
0.70428 0.244282 0.127977
0.73257 0.245243 0.127565
0.761273 0.246098 0.127092
0.0704051 0.191394 0.104753
0.0849317 0.195758 0.107088
0.100084 0.199985 0.1093
0.115816 0.204059 0.111391
0.132143 0.207996 0.113359
0.149035 0.21178 0.115221
0.166476 0.215457 0.11696
0.184451 0.218982 0.118593
0.202945 0.222385 0.120119
0.221958 0.225666 0.121553
0.241474 0.228824 0.122866
0.261494 0.231861 0.124086
0.282002 0.234775 0.1252
0.302998 0.237568 0.126223
0.324453 0.240253 0.127153
0.34638 0.242832 0.127977
0.36878 0.245274 0.12871
0.391623 0.247623 0.129351
0.414908 0.249851 0.129885
0.438651 0.251972 0.130343
0.462821 0.254002 0.130709
0.487419 0.255909 0.130968
0.512459 0.25771 0.131151
0.537911 0.259403 0.131243
0.56379 0.261006 0.131258
0.590066 0.262501 0.131167
0.61677 0.26389 0.130999
0.64387 0.265187 0.130755
0.671366 0.266377 0.130419
0.699275 0.267475 0.129992
0.727565 0.268467 0.129488
0.756252 0.269368 0.128893
0.785336 0.270161 0.128222
0.0773327 0.21857 0.11223
0.0925307 0.222812 0.114305
0.108354 0.226932 0.116258
0.124743 0.2309 0.118105
0.141695 0.23473 0.119829
0.159197 0.238422 0.121447
0.177249 0.241993 0.122942
0.195804 0.245426 0.124346
0.214878 0.248737 0.125643
0.234455 0.251926 0.126833
0.25452 0.254994 0.127932
0.275074 0.257939 0.128939
0.296117 0.260777 0.129824
0.317617 0.263493 0.130632
0.33959 0.266087 0.131334
0.362005 0.268574 0.13196
0.384894 0.270954 0.132479
0.408209 0.273213 0.132906
0.431968 0.275364 0.133242
0.456168 0.277424 0.133501
0.480797 0.279362 0.133654
0.505852 0.281193 0.13373
0.531319 0.282933 0.133715
0.557214 0.28455 0.133608
0.583505 0.286076 0.133425
0.610224 0.28751 0.13315
0.637324 0.288838 0.132799
0.664836 0.290059 0.132357
0.692744 0.291188 0.131838
0.721035 0.29221 0.131228
0.749722 0.293141 0.130541
0.778805 0.29398 0.129763
0.808255 0.294713 0.128908
0.0836652 0.246189 0.118944
0.0995193 0.25034 0.12079
0.115953 0.254337 0.122499
0.132967 0.258213 0.124102
0.15053 0.261936 0.125597
0.168612 0.265538 0.126986
0.187228 0.269017 0.128267
0.206348 0.272358 0.129458
0.225971 0.275578 0.130526
0.246082 0.278676 0.131518
0.266682 0.281651 0.132387
0.28777 0.284504 0.133181
0.3093 0.287251 0.133867
0.331319 0.289876 0.134463
0.353765 0.292393 0.134966
0.376684 0.294804 0.135378
0.400031 0.297093 0.135698
0.423819 0.29929 0.135943
0.448035 0.301366 0.13608
0.472694 0.303334 0.136141
0.497765 0.305211 0.136095
0.523247 0.306966 0.135988
0.549157 0.308629 0.135775
0.575463 0.310185 0.135485
0.602182 0.311635 0.135119
0.629313 0.312993 0.134661
0.656825 0.314244 0.134112
0.684733 0.315404 0.133501
0.713039 0.316457 0.132784
0.741726 0.317433 0.132006
0.770809 0.318288 0.131136
0.800259 0.319066 0.13019
0.830091 0.319738 0.129152
0.0894179 0.27425 0.124956
0.105882 0.278294 0.126574
0.122927 0.2822 0.128069
0.140505 0.285954 0.129458
0.158633 0.289601 0.130739
0.177295 0.293095 0.131914
0.196445 0.296468 0.132982
0.216114 0.299718 0.133959
0.236271 0.302846 0.134829
0.256901 0.305867 0.135592
0.278019 0.308751 0.136278
0.299596 0.311528 0.136858
0.32163 0.314183 0.137346
0.344121 0.316732 0.137758
0.367056 0.319173 0.138064
0.390433 0.321492 0.138277
0.414237 0.323705 0.138415
0.438483 0.325811 0.138445
0.463157 0.32781 0.138399
0.488243 0.329717 0.138277
0.513756 0.331502 0.138048
0.539681 0.333196 0.137743
0.566003 0.334783 0.137362
0.592737 0.336263 0.136889
0.619867 0.337652 0.136339
0.647395 0.338933 0.135698
0.675303 0.340124 0.134981
0.703609 0.341207 0.134188
0.732311 0.342199 0.133303
0.761379 0.343099 0.132342
0.790845 0.343893 0.131304
0.820676 0.344594 0.130175
0.850874 0.345205 0.128969
0.0946059 0.302708 0.130312
0.111635 0.306661 0.131716
0.129244 0.31046 0.133013
0.147387 0.314122 0.134188
0.166064 0.317662 0.135271
0.185245 0.32108 0.136233
0.204944 0.324361 0.137102
0.225116 0.32752 0.137881
0.245792 0.330556 0.138552
0.266926 0.333486 0.139132
0.288533 0.336278 0.13962
0.310582 0.338979 0.140002
0.333104 0.341543 0.140307
0.356069 0.344015 0.14052
0.379461 0.346365 0.140642
0.403296 0.348608 0.140673
0.427558 0.350744 0.140612
0.452247 0.352773 0.140475
0.477363 0.354696 0.140246
0.502876 0.356512 0.139925
0.528817 0.358236 0.139528
0.555154 0.359854 0.139055
0.581903 0.361364 0.138491
0.609033 0.362768 0.137835
0.636576 0.36408 0.137102
0.6645 0.365301 0.136294
0.692805 0.366415 0.135409
0.721508 0.367437 0.134432
0.750591 0.368368 0.133379
0.780041 0.369192 0.13225
0.809873 0.369924 0.131029
0.84007 0.370565 0.129747
0.870649 0.371115 0.128374
0.0992294 0.331563 0.135058
0.116808 0.335409 0.136263
0.134951 0.339117 0.137346
0.153628 0.342687 0.138338
0.172824 0.346136 0.139223
0.192523 0.349462 0.140002
0.212726 0.352651 0.140673
0.233402 0.355718 0.141253
0.254551 0.358679 0.141741
0.276173 0.361501 0.142138
0.298253 0.364218 0.142428
0.32079 0.366827 0.142641
0.343771 0.369329 0.142748
0.367193 0.37171 0.142779
0.391043 0.373968 0.142718
0.41532 0.376135 0.142565
0.440024 0.378195 0.142336
0.465156 0.380148 0.142016
0.490684 0.381994 0.141604
0.516625 0.383734 0.141115
0.542977 0.385382 0.140551
0.569726 0.386923 0.139895
0.596887 0.388357 0.139147
0.624414 0.3897 0.138338
0.652354 0.390951 0.137438
0.680674 0.392096 0.136446
0.709377 0.393133 0.135393
0.73846 0.394095 0.134249
0.76791 0.394949 0.133028
0.797742 0.395712 0.131731
0.827939 0.396368 0.130358
0.858518 0.396948 0.128893
0.889448 0.397436 0.127367
0.103288 0.360784 0.139208
0.121386 0.364538 0.14023
0.140047 0.368154 0.141131
0.159228 0.371633 0.141924
0.178927 0.37499 0.142626
0.19913 0.378225 0.143221
0.219806 0.381323 0.143709
0.24097 0.384314 0.144106
0.262608 0.387182 0.144411
0.284703 0.389929 0.144625
0.30724 0.392554 0.144747
0.330236 0.395087 0.144778
0.353658 0.397498 0.144717
0.377523 0.399786 0.144564
0.401816 0.401984 0.14432
0.426535 0.404074 0.143999
0.451667 0.406043 0.143587
0.477211 0.407919 0.143099
0.503166 0.409689 0.142519
0.529519 0.411368 0.141863
0.556283 0.412924 0.141115
0.583429 0.414405 0.140291
0.610986 0.415763 0.139391
0.638926 0.417029 0.138399
0.667247 0.418204 0.137331
0.695949 0.419287 0.136187
0.725032 0.420264 0.134951
0.754482 0.421149 0.133654
0.784314 0.421927 0.132265
0.814527 0.422629 0.1308
0.84509 0.423224 0.129259
0.87602 0.423728 0.127642
0.907317 0.424155 0.125948
0.106813 0.390356 0.142809
0.125399 0.394018 0.143648
0.144549 0.397543 0.144366
0.164218 0.400946 0.144991
0.184405 0.404211 0.14551
0.205081 0.407355 0.145922
0.22623 0.410376 0.146242
0.247852 0.413275 0.146456
0.269947 0.416052 0.146593
0.2925 0.418723 0.146624
0.315496 0.421271 0.146578
0.338918 0.423713 0.146426
0.362799 0.426032 0.146197
0.387091 0.42826 0.145876
0.41181 0.430365 0.145464
0.436942 0.43238 0.144976
0.462501 0.434287 0.144396
0.488457 0.436088 0.14374
0.514824 0.437781 0.142992
0.541588 0.439368 0.142168
0.56875 0.440864 0.141253
0.596292 0.442267 0.140261
0.624231 0.443549 0.139193
0.652552 0.444755 0.138033
0.68127 0.445853 0.136812
0.710353 0.44686 0.1355
0.739803 0.447761 0.134112
0.769635 0.448585 0.132631
0.799832 0.449302 0.13109
0.830396 0.449928 0.129473
0.861326 0.450462 0.127764
0.892622 0.450904 0.125978
0.924269 0.451255 0.124132
0.109773 0.420264 0.145861
0.128847 0.42385 0.146532
0.14847 0.427283 0.147082
0.168612 0.430594 0.147539
0.189258 0.433783 0.147875
0.210391 0.436835 0.148135
0.231998 0.439765 0.148272
0.254078 0.442588 0.148333
0.276616 0.445289 0.148287
0.299596 0.447868 0.14815
0.323033 0.45034 0.147936
0.346899 0.452705 0.147616
0.371191 0.454948 0.147219
0.395911 0.457099 0.146731
0.421042 0.459129 0.146151
0.446601 0.461051 0.145495
0.472557 0.462882 0.144762
0.498924 0.464607 0.143923
0.525689 0.466224 0.143023
0.55285 0.46775 0.142031
0.580392 0.469169 0.140963
0.608331 0.470497 0.139803
0.636667 0.471717 0.138567
0.66537 0.472847 0.137255
0.694453 0.473869 0.135866
0.723903 0.474815 0.134401
0.753735 0.475654 0.132845
0.783932 0.476402 0.131212
0.814496 0.477058 0.129519
0.845411 0.477607 0.127733
0.876707 0.47808 0.125872
0.908339 0.478462 0.123934
0.940337 0.478752 0.12192
0.112215 0.450507 0.148409
0.131746 0.454002 0.148913
0.151827 0.457359 0.14931
0.172412 0.460594 0.149584
0.1935 0.463691 0.149767
0.215076 0.466667 0.149844
0.237125 0.469505 0.149828
0.259648 0.472251 0.149722
0.282612 0.474861 0.149508
0.30602 0.477363 0.149218
0.329885 0.479759 0.148836
0.354162 0.482048 0.148348
0.378882 0.484215 0.147799
0.404013 0.486275 0.147143
0.429557 0.488243 0.14641
0.455512 0.490089 0.145586
0.481865 0.491844 0.144686
0.508629 0.493492 0.143694
0.535775 0.495048 0.142626
0.563333 0.496483 0.141482
0.591272 0.497841 0.140246
0.619593 0.499092 0.138933
0.64828 0.500237 0.137545
0.677363 0.501305 0.136065
0.706813 0.502266 0.134524
0.736645 0.50312 0.132891
0.766827 0.503899 0.131182
0.797391 0.504585 0.129396
0.828305 0.505165 0.127535
0.859586 0.505653 0.125597
0.891218 0.506065 0.123583
0.923217 0.506371 0.121477
0.955566 0.5066 0.11931
0.114137 0.481056 0.150469
0.134096 0.484474 0.150805
0.154604 0.487755 0.151034
0.175631 0.490898 0.151156
0.197147 0.493919 0.151186
0.219165 0.496818 0.15111
0.241642 0.49958 0.150927
0.264576 0.502235 0.150652
0.287953 0.504784 0.150286
0.311788 0.50721 0.149828
0.336049 0.509514 0.149294
0.360754 0.511727 0.148653
0.38587 0.513817 0.147936
0.411399 0.515801 0.147127
0.437339 0.517693 0.146227
0.463691 0.519478 0.145251
0.49044 0.521157 0.144183
0.517586 0.522728 0.143038
0.545129 0.524193 0.141817
0.573053 0.525582 0.140505
0.601373 0.526848 0.139116
0.63006 0.528038 0.137652
0.659129 0.529122 0.13611
0.688579 0.530098 0.134478
0.718395 0.530999 0.132769
0.748577 0.531792 0.130983
0.779126 0.532494 0.129122
0.81004 0.53312 0.127184
0.841321 0.533639 0.125154
0.872938 0.534066 0.123064
0.904921 0.534401 0.120897
0.937255 0.534646 0.118639
0.96994 0.534798 0.11632
0.115541 0.511925 0.152026
0.135927 0.515267 0.152224
0.156847 0.518456 0.1523
0.178286 0.521523 0.15227
0.200229 0.524468 0.152132
0.222644 0.527276 0.151904
0.245533 0.529976 0.151568
0.268879 0.532555 0.151141
0.292683 0.535012 0.150622
0.316915 0.537362 0.150011
0.341573 0.539605 0.14931
0.366674 0.541726 0.148516
0.392187 0.543755 0.147631
0.418112 0.545663 0.14667
0.444434 0.547478 0.145632
0.471168 0.549187 0.144488
0.498299 0.55079 0.143282
0.525826 0.552285 0.141985
0.55375 0.553689 0.140597
0.582055 0.555001 0.139132
0.610727 0.556207 0.137591
0.639796 0.557321 0.135973
0.66923 0.558328 0.134264
0.699031 0.559258 0.132479
0.729213 0.560082 0.130617
0.759747 0.5608 0.128679
0.790646 0.56144 0.126665
0.821912 0.56199 0.124575
0.853529 0.562448 0.122393
0.885496 0.562814 0.12015
0.91783 0.563088 0.117815
0.9505 0.563272 0.115404
0.98352 0.563363 0.112932
0.116442 0.543084 0.153124
0.137224 0.546349 0.15317
0.158556 0.549462 0.153109
0.180392 0.552453 0.152926
0.202731 0.555322 0.152636
0.225559 0.558068 0.152255
0.248844 0.560678 0.151766
0.272587 0.56318 0.151186
0.296773 0.565576 0.150515
0.321401 0.567849 0.149752
0.346456 0.570001 0.148898
0.371939 0.572061 0.147951
0.397833 0.574014 0.146929
0.42414 0.575845 0.145815
0.450858 0.577585 0.14461
0.477974 0.579217 0.143328
0.50547 0.580758 0.141955
0.533379 0.582193 0.140505
0.561654 0.58352 0.138964
0.590326 0.584756 0.137346
0.619364 0.585885 0.135653
0.648783 0.586938 0.133883
0.678584 0.587884 0.132021
0.708736 0.588724 0.130083
0.739269 0.589487 0.128069
0.770153 0.590158 0.125978
0.801404 0.590723 0.123812
0.833005 0.591211 0.121553
0.864973 0.591592 0.119234
0.897276 0.591897 0.116823
0.929946 0.592096 0.114351
0.962951 0.592218 0.111788
0.996307 0.592248 0.109148
0.116854 0.574517 0.153765
0.138018 0.577707 0.153674
0.159731 0.580758 0.15346
0.181964 0.583688 0.153124
0.204685 0.58648 0.152697
0.227893 0.589136 0.152163
0.251575 0.591684 0.151537
0.2757 0.59411 0.150805
0.300282 0.596429 0.149981
0.325292 0.598627 0.149065
0.350729 0.600717 0.148074
0.376577 0.602701 0.146975
0.402853 0.604578 0.1458
0.429526 0.606348 0.144533
0.456611 0.608011 0.143175
0.484092 0.609567 0.141741
0.511971 0.611032 0.140215
0.54023 0.612406 0.138613
0.568872 0.613657 0.136934
0.597894 0.614832 0.135164
0.627298 0.6159 0.133318
0.657069 0.616876 0.131395
0.687221 0.617746 0.129381
0.717723 0.61854 0.127291
0.748592 0.619226 0.125124
0.779828 0.619821 0.122881
0.811429 0.620325 0.120562
0.843366 0.620737 0.118151
0.875669 0.621073 0.115679
0.908309 0.621302 0.113115
0.941299 0.621454 0.110475
0.97464 0.6215 0.107759
1 0.621469 0.104967
0.116777 0.606241 0.153964
0.138308 0.609369 0.153719
0.160403 0.612345 0.153368
0.183001 0.615198 0.152895
0.206104 0.617914 0.152331
0.229679 0.620508 0.151644
0.253727 0.62298 0.150866
0.278233 0.625345 0.149996
0.303181 0.627588 0.149035
0.328557 0.629709 0.147967
0.354376 0.631724 0.146822
0.380606 0.633646 0.145571
0.407233 0.635447 0.144244
0.434287 0.63714 0.14284
0.461723 0.638743 0.141329
0.48957 0.640238 0.139742
0.5178 0.641627 0.138079
0.54641 0.642924 0.136324
0.575418 0.644114 0.134493
0.604791 0.645212 0.13257
0.634546 0.64622 0.130571
0.664668 0.64712 0.128496
0.695155 0.647929 0.126345
0.726009 0.648646 0.124102
0.757214 0.649271 0.121782
0.788785 0.649805 0.119387
0.820722 0.650248 0.116915
0.852995 0.650599 0.114351
0.885618 0.650858 0.111711
0.918593 0.651041 0.10901
0.951919 0.651118 0.106218
0.98558 0.651118 0.103349
1 0.651026 0.100389
0.116228 0.638239 0.153704
0.138109 0.641291 0.153338
0.160555 0.644205 0.15285
0.18352 0.646983 0.152239
0.206973 0.649638 0.151522
0.23093 0.652171 0.150698
0.255344 0.654566 0.149783
0.280201 0.656855 0.148775
0.305516 0.659022 0.147662
0.331258 0.661082 0.146456
0.357427 0.663035 0.145159
0.384009 0.664881 0.143771
0.411002 0.666606 0.14229
0.438407 0.668238 0.140734
0.466209 0.669764 0.139086
0.494408 0.671199 0.137346
0.522988 0.672526 0.135531
0.551949 0.673747 0.133639
0.581292 0.674876 0.131655
0.611017 0.675898 0.12958
0.641108 0.676844 0.127443
0.67158 0.677684 0.125216
0.702403 0.678431 0.122896
0.733593 0.679072 0.1205
0.765148 0.679637 0.118044
0.79704 0.68011 0.11548
0.829297 0.680491 0.112856
0.861906 0.680781 0.11014
0.894865 0.68098 0.107362
0.928161 0.681086 0.104494
0.961807 0.681102 0.101549
0.995789 0.681041 0.0985122
1 0.680888 0.0954147
0.115206 0.670497 0.153017
0.137423 0.673487 0.152514
0.160204 0.676341 0.151888
0.18352 0.679057 0.151156
0.20734 0.681636 0.150301
0.231632 0.684092 0.14934
0.256397 0.686427 0.148287
0.281621 0.688655 0.147127
0.307286 0.690761 0.145876
0.333379 0.692744 0.144518
0.359899 0.694621 0.143084
0.386831 0.696406 0.141558
0.414176 0.69807 0.139925
0.441932 0.699626 0.138231
0.470069 0.701091 0.136431
0.498619 0.702449 0.134554
0.527535 0.7037 0.132586
0.556848 0.70486 0.130541
0.586542 0.705928 0.128405
0.616602 0.706889 0.126192
0.647028 0.707759 0.123888
0.677821 0.708537 0.121508
0.70898 0.709224 0.119051
0.740505 0.709804 0.116503
0.772381 0.710307 0.113893
0.804623 0.710719 0.111177
0.837201 0.711025 0.1084
0.87013 0.711254 0.105531
0.90341 0.711391 0.102586
0.937026 0.711437 0.0995651
0.970993 0.711406 0.0964523
1 0.711269 0.0932784
1 0.711055 0.090013
0.113725 0.702998 0.151904
0.136263 0.705943 0.151263
0.15938 0.708736 0.150515
0.183032 0.711376 0.14963
0.207187 0.713909 0.148653
0.231815 0.716289 0.147555
0.256931 0.718563 0.146365
0.28249 0.720714 0.145068
0.308492 0.722759 0.143664
0.334936 0.724681 0.142184
0.361791 0.726497 0.140597
0.389075 0.728206 0.138918
0.416754 0.729809 0.137163
0.444846 0.731304 0.135302
0.473335 0.732692 0.133364
0.50222 0.733989 0.13135
0.531472 0.73518 0.129229
0.56112 0.736278 0.127031
0.59115 0.73727 0.124758
0.62153 0.73817 0.122393
0.652293 0.738979 0.119936
0.683421 0.739696 0.117418
0.714916 0.740307 0.114794
0.746761 0.740841 0.112108
0.778958 0.741268 0.109331
0.811521 0.741619 0.106462
0.844419 0.741863 0.103532
