luts/Dream 85.cube
TITLE "Generated by Resolve"
LUT_3D_SIZE 5
0.0136568 0.0187381 0.0317082
0.0266117 0.0215152 0.0353704
0.166918 0.0432288 0.0627146
0.326879 0.0625925 0.0851759
0.518837 0.0751659 0.0991073
0.0628977 0.164721 0.0964523
0.190127 0.196551 0.113924
0.351644 0.220111 0.124361
0.542962 0.236423 0.128573
0.761273 0.246098 0.127092
0.106813 0.390356 0.142809
0.269947 0.416052 0.146593
0.462501 0.434287 0.144396
0.68127 0.445853 0.136812
0.924269 0.451255 0.124132
0.116228 0.638239 0.153704
0.305516 0.659022 0.147662
0.522988 0.672526 0.135531
0.765148 0.679637 0.118044
1 0.680888 0.0954147
0.0958114 0.903136 0.136156
0.304753 0.920272 0.121691
0.54284 0.929793 0.100221
0.805264 0.933043 0.0726177
1 0.930632 0.0387884
0.00143435 0.00257877 0.00643931
0.0589609 0.0309148 0.0951095
0.195361 0.0520027 0.156512
0.360601 0.0698405 0.191348
0.557244 0.0809186 0.215732
0.0703899 0.179599 0.207416
0.203906 0.20943 0.23505
0.370901 0.231205 0.254582
0.567178 0.245853 0.267247
0.790066 0.253956 0.273762
0.111177 0.405493 0.2851
0.279042 0.429541 0.296941
0.476127 0.446174 0.30251
0.699199 0.456168 0.302525
0.946319 0.460029 0.297414
0.117357 0.653361 0.322667
0.31043 0.672679 0.324376
0.531746 0.684642 0.320058
0.777676 0.690227 0.310521
1 0.689921 0.296193
0.0937209 0.917861 0.331853
0.305577 0.933608 0.326101
0.546868 0.941604 0.313817
0.812482 0.943221 0.296239
1 0.939055 0.273869
0.00901808 0.0130159 0.0286717
0.0881514 0.0381781 0.19057
0.223285 0.061326 0.253513
0.393988 0.0776989 0.297688
0.595422 0.0874037 0.330404
0.078584 0.194842 0.317754
0.218235 0.222858 0.353582
0.390646 0.242969 0.380591
0.591867 0.256062 0.400183
0.819348 0.262684 0.41323
0.116442 0.421332 0.421149
0.288991 0.44387 0.439597
0.490608 0.459007 0.451423
0.718044 0.467567 0.457465
0.969345 0.470039 0.458198
0.119677 0.66952 0.480262
0.316579 0.687526 0.487999
0.541817 0.698146 0.489509
0.791623 0.702373 0.48571
1 0.70071 0.477058
0.0933242 0.934142 0.509377
0.308202 0.948745 0.50959
0.552895 0.955474 0.503136
0.822003 0.955795 0.491417
1 0.950301 0.474937
0.0191043 0.0254826 0.12137
0.109468 0.0488136 0.286687
0.25066 0.0709544 0.355428
0.426841 0.0859236 0.407019
0.633143 0.0942855 0.446616
0.0871901 0.210178 0.430518
0.232761 0.2365 0.473228
0.410513 0.255039 0.5066
0.616663 0.266667 0.532158
0.848722 0.271885 0.550866
0.122164 0.437476 0.555932
0.299351 0.458579 0.580118
0.505455 0.472313 0.597375
0.737224 0.4795 0.608637
0.992721 0.480629 0.61442
0.122621 0.686168 0.633799
0.323293 0.702937 0.646738
0.552438 0.712276 0.653239
0.806149 0.715221 0.654307
1 0.712291 0.650416
0.0937514 0.95108 0.679988
0.311604 0.96463 0.685237
0.559731 0.970184 0.683635
0.832349 0.969299 0.676646
1 0.9626 0.664881
0.0265049 0.0340429 0.260121
0.129763 0.0600595 0.387686
0.277531 0.080766 0.462318
0.45919 0.094377 0.519997
0.670359 0.101442 0.565454
0.0960708 0.225544 0.546548
0.247395 0.250263 0.595163
0.430396 0.267308 0.634089
0.641398 0.277516 0.664912
0.878019 0.281376 0.68864
0.128206 0.453788 0.691249
0.309926 0.473518 0.720531
0.520485 0.485893 0.742657
0.756573 0.491768 0.758572
1 0.4916 0.768856
0.125963 0.70309 0.785901
0.330343 0.718669 0.803525
0.563394 0.726787 0.814496
0.820981 0.728496 0.819883
1 0.724346 0.820203
0.0947127 0.968383 0.847349
0.315496 0.980957 0.857114
0.567025 0.985412 0.85977
0.843153 0.983368 0.856947
1 0.975494 0.849271
