luts/Dream 85.cube
TITLE "Generated by Resolve"
LUT_3D_SIZE 9
0.0136568 0.0187381 0.0317082
0.00108339 0.00201419 0.00529488
0.0266117 0.0215152 0.0353704
0.0905776 0.0334936 0.0507515
0.166918 0.0432288 0.0627146
0.242573 0.0537881 0.0751507
0.326879 0.0625925 0.0851759
0.419135 0.0697032 0.0930953
0.518837 0.0751659 0.0991073
0.033753 0.0610056 0.0611276
0.0722057 0.0827497 0.0693675
0.129015 0.0991989 0.081117
0.195758 0.113283 0.0917983
0.271519 0.125322 0.10045
0.355566 0.135439 0.107256
0.447333 0.143755 0.112322
0.54638 0.150362 0.115755
0.652354 0.155306 0.117647
0.0628977 0.164721 0.0964523
0.121828 0.18175 0.106142
0.190127 0.196551 0.113924
0.266941 0.209293 0.119966
0.351644 0.220111 0.124361
0.443778 0.229129 0.127214
0.542962 0.236423 0.128573
0.648875 0.242069 0.128527
0.761273 0.246098 0.127092
0.0894179 0.27425 0.124956
0.158633 0.289601 0.130739
0.236271 0.302846 0.134829
0.32163 0.314183 0.137346
0.414237 0.323705 0.138415
0.513756 0.331502 0.138048
0.619867 0.337652 0.136339
0.732311 0.342199 0.133303
0.850874 0.345205 0.128969
0.106813 0.390356 0.142809
0.184405 0.404211 0.14551
0.269947 0.416052 0.146593
0.362799 0.426032 0.146197
0.462501 0.434287 0.144396
0.56875 0.440864 0.141253
0.68127 0.445853 0.136812
0.799832 0.449302 0.13109
0.924269 0.451255 0.124132
0.115541 0.511925 0.152026
0.200229 0.524468 0.152132
0.292683 0.535012 0.150622
0.392187 0.543755 0.147631
0.498299 0.55079 0.143282
0.610727 0.556207 0.137591
0.729213 0.560082 0.130617
0.853529 0.562448 0.122393
0.98352 0.563363 0.112932
0.116228 0.638239 0.153704
0.206973 0.649638 0.151522
0.305516 0.659022 0.147662
0.411002 0.666606 0.14229
0.522988 0.672526 0.135531
0.641108 0.676844 0.127443
0.765148 0.679637 0.118044
0.894865 0.68098 0.107362
1 0.680888 0.0954147
0.109438 0.76878 0.148363
0.205371 0.779217 0.144106
0.3093 0.787564 0.138033
0.420203 0.79411 0.130388
0.53756 0.798978 0.121294
0.66096 0.802274 0.110796
0.790188 0.804074 0.0989395
0.925002 0.804425 0.0857252
1 0.803403 0.0711528
0.0958114 0.903136 0.136156
0.196078 0.91281 0.129931
0.304753 0.920272 0.121691
0.420569 0.925872 0.111742
0.54284 0.929793 0.100221
0.671168 0.932158 0.0871748
0.805264 0.933043 0.0726177
0.9449 0.932509 0.0565194
1 0.930632 0.0387884
0.00688182 0.0102235 0.0194247
0.00680552 0.00993362 0.0192721
0.0425116 0.0268559 0.0590219
0.11046 0.0365301 0.0896468
0.181186 0.0475166 0.109545
0.258198 0.0576791 0.125475
0.343755 0.0661021 0.138643
0.437201 0.0728161 0.149447
0.538033 0.0779126 0.158129
0.035996 0.0701152 0.0951553
0.0787366 0.0894636 0.116503
0.137285 0.105226 0.132845
0.205676 0.118807 0.146593
0.282918 0.130373 0.158053
0.368322 0.140047 0.167483
0.461387 0.147936 0.175036
0.561639 0.154131 0.18085
0.668772 0.158679 0.185016
0.0665141 0.172091 0.152438
0.127092 0.188586 0.164904
0.196918 0.202884 0.175296
0.275135 0.215152 0.183795
0.361166 0.225544 0.190539
0.454566 0.234119 0.195666
0.554971 0.241001 0.199237
0.662043 0.24622 0.201328
0.77554 0.249866 0.201999
0.0922713 0.281666 0.189792
0.16286 0.296544 0.197925
0.241794 0.309346 0.204273
0.32842 0.320241 0.209003
0.422248 0.329335 0.212207
0.522927 0.336721 0.213962
0.630167 0.342458 0.214313
0.743709 0.346609 0.213336
0.86334 0.349218 0.211063
0.108827 0.397787 0.215351
0.187625 0.411215 0.220218
0.274342 0.422644 0.223423
0.368322 0.432212 0.225116
0.469139 0.44004 0.225391
0.576471 0.44622 0.224292
0.690044 0.450813 0.221897
0.809659 0.453849 0.218235
0.935088 0.455421 0.213352
0.116732 0.519341 0.2318
0.202472 0.531487 0.233997
0.295964 0.541634 0.234562
0.396521 0.549966 0.233646
0.50367 0.556603 0.231357
0.617105 0.561624 0.227771
0.736568 0.565087 0.222904
0.86186 0.567056 0.216815
0.992798 0.567575 0.209537
0.116564 0.645594 0.240528
0.208255 0.656611 0.240467
0.307729 0.665614 0.238727
0.414176 0.672801 0.235508
0.527108 0.678309 0.230915
0.646174 0.682231 0.22504
0.771115 0.684627 0.217899
0.901747 0.685557 0.209567
1 0.685054 0.200031
0.108919 0.776013 0.24239
0.205661 0.786084 0.240345
0.310445 0.794064 0.236545
0.422217 0.800198 0.23122
0.540429 0.804669 0.224506
0.664698 0.807553 0.21648
0.794766 0.808927 0.207202
0.930404 0.80885 0.196704
1 0.80737 0.185016
0.0944381 0.910185 0.237827
0.195361 0.919493 0.234073
0.304799 0.926574 0.228382
0.421378 0.931762 0.221088
0.544427 0.935271 0.21236
0.673518 0.937194 0.202274
0.808362 0.937606 0.190921
0.94873 0.936584 0.178317
1 0.934173 0.164477
0.00143435 0.00257877 0.00643931
0.0151217 0.0174563 0.0390021
0.0589609 0.0309148 0.0951095
0.126192 0.0404212 0.133791
0.195361 0.0520027 0.156512
0.273762 0.061799 0.175448
0.360601 0.0698405 0.191348
0.455253 0.0761883 0.204685
0.557244 0.0809186 0.215732
0.0380713 0.0783246 0.138811
0.0853285 0.0961776 0.164797
0.145724 0.111421 0.18407
0.215717 0.124529 0.200488
0.294438 0.135637 0.214435
0.381216 0.144884 0.2262
0.475547 0.152377 0.235966
0.577035 0.158175 0.243885
0.685328 0.162341 0.250095
0.0703899 0.179599 0.207416
0.132586 0.195605 0.222354
0.203906 0.20943 0.23505
0.283543 0.221256 0.245731
0.370901 0.231205 0.254582
0.465568 0.239384 0.261723
0.567178 0.245853 0.267247
0.675425 0.25069 0.271244
0.790066 0.253956 0.273762
0.0953994 0.289296 0.252644
0.167346 0.303731 0.262882
0.247593 0.316121 0.27126
0.335485 0.326589 0.277943
0.430533 0.335286 0.28304
0.532387 0.34226 0.286641
0.640757 0.347601 0.288808
0.755413 0.35137 0.289601
0.876112 0.353613 0.289082
0.111177 0.405493 0.2851
0.19115 0.418524 0.291875
0.279042 0.429541 0.296941
0.374182 0.438727 0.30045
0.476127 0.446174 0.30251
0.584543 0.451957 0.303181
0.699199 0.456168 0.302525
0.819852 0.458839 0.300587
0.946319 0.460029 0.297414
0.118303 0.527092 0.307881
0.205097 0.538872 0.311894
0.299657 0.548638 0.314244
0.401251 0.556603 0.315084
0.509453 0.56286 0.314534
0.623911 0.567498 0.312657
0.744381 0.570596 0.309529
0.870665 0.572198 0.30515
1 0.572351 0.299596
0.117357 0.653361 0.322667
0.209979 0.664027 0.324376
0.31043 0.672679 0.324376
0.417853 0.6795 0.322911
0.531746 0.684642 0.320058
0.651774 0.688197 0.315908
0.777676 0.690227 0.310521
0.909239 0.690791 0.303944
1 0.689921 0.296193
0.108949 0.783749 0.330449
0.206516 0.7935 0.330205
0.312184 0.801129 0.328161
0.424857 0.806928 0.32462
0.543969 0.811032 0.319677
0.669139 0.81355 0.313451
0.800092 0.814572 0.305989
0.936629 0.81413 0.297353
1 0.812284 0.287541
0.0937209 0.917861 0.331853
0.195346 0.926863 0.329946
0.305577 0.933608 0.326101
0.42298 0.93846 0.320668
0.546868 0.941604 0.313817
0.676799 0.943175 0.305653
0.812482 0.943221 0.296239
0.953689 0.941833 0.285634
1 0.939055 0.273869
0.00274662 0.00454719 0.0101167
0.024918 0.0235599 0.0718547
0.0745403 0.0343938 0.140673
0.138705 0.0453956 0.178927
0.2094 0.0566262 0.204425
0.289219 0.066041 0.22594
0.377356 0.0737163 0.244236
0.473228 0.0797131 0.259815
0.576379 0.0840925 0.272984
0.0408942 0.085893 0.187518
0.0920272 0.102968 0.21387
0.154208 0.117708 0.235691
0.225803 0.130343 0.254459
0.305989 0.141039 0.270634
0.394125 0.149874 0.284489
0.489754 0.15697 0.296254
0.592462 0.162387 0.306096
0.70193 0.166171 0.314153
0.0744182 0.187198 0.262379
0.138231 0.202731 0.279515
0.211032 0.216098 0.294301
0.292058 0.227497 0.306981
0.380743 0.237034 0.317739
0.476677 0.244816 0.326711
0.579507 0.250889 0.334005
0.688914 0.25536 0.339712
0.804685 0.258244 0.343923
0.0987106 0.297047 0.314733
0.172 0.31107 0.326879
0.253559 0.323033 0.337087
0.342702 0.333104 0.345541
0.438956 0.341405 0.352361
0.541985 0.347997 0.357641
0.651514 0.352972 0.361456
0.767269 0.356374 0.363867
0.889052 0.358251 0.36492
0.113741 0.413367 0.35346
0.194888 0.426001 0.36199
0.283955 0.436637 0.368734
0.38024 0.445441 0.373892
0.483299 0.452506 0.377569
0.592828 0.457938 0.379812
0.708553 0.461784 0.380713
0.830259 0.464103 0.380316
0.957763 0.464942 0.378668
0.120104 0.535042 0.38201
0.20795 0.546456 0.387655
0.303578 0.555871 0.391608
0.406241 0.56347 0.394018
0.51548 0.569375 0.395026
0.630976 0.573663 0.394675
0.752468 0.57641 0.393057
0.879744 0.577661 0.390188
1 0.577462 0.38613
0.118425 0.661357 0.402228
0.211978 0.671702 0.405524
0.313405 0.680003 0.407095
0.421805 0.686488 0.407156
0.53669 0.691295 0.405814
0.657679 0.694499 0.403189
0.784543 0.696178 0.399298
0.917067 0.696406 0.394217
1 0.695186 0.387961
0.1093 0.791791 0.415274
0.207691 0.801221 0.416602
0.314244 0.80853 0.416098
0.427832 0.813993 0.414084
0.54786 0.817761 0.410666
0.673945 0.819959 0.405966
0.805814 0.82063 0.400015
0.943267 0.819852 0.392889
1 0.817655 0.384619
0.0933852 0.925887 0.421851
0.195727 0.934615 0.421546
0.306752 0.941039 0.419242
0.424994 0.945571 0.415366
0.549752 0.948394 0.410056
0.680552 0.94963 0.403449
0.817105 0.949355 0.395605
0.959167 0.947616 0.386572
1 0.944503 0.37641
0.00901808 0.0130159 0.0286717
0.0350958 0.0283513 0.117815
0.0881514 0.0381781 0.19057
0.151019 0.0504768 0.22565
0.223285 0.061326 0.253513
0.304524 0.0703899 0.277272
0.393988 0.0776989 0.297688
0.491096 0.08336 0.315297
0.595422 0.0874037 0.330404
0.0452888 0.0932174 0.236103
0.0988022 0.109773 0.263996
0.162737 0.124041 0.288045
0.235904 0.136248 0.308934
0.31754 0.146517 0.327108
0.40705 0.154955 0.34287
0.50396 0.161669 0.356466
0.607889 0.166705 0.368063
0.718517 0.170153 0.377813
0.078584 0.194842 0.317754
0.143954 0.209918 0.336889
0.218235 0.222858 0.353582
0.300633 0.233829 0.368078
0.390646 0.242969 0.380591
0.487846 0.250355 0.391241
0.591867 0.256062 0.400183
0.702464 0.260151 0.407477
0.819348 0.262684 0.41323
0.102144 0.304891 0.376623
0.176776 0.318486 0.390524
0.259632 0.330053 0.402426
0.350011 0.339742 0.412528
0.447486 0.347646 0.420935
0.55169 0.353887 0.427756
0.662348 0.35848 0.433082
0.779217 0.361532 0.436973
0.902098 0.363058 0.439475
0.116442 0.421332 0.421149
0.198779 0.4336 0.431281
0.288991 0.44387 0.439597
0.386419 0.452308 0.446265
0.490608 0.459007 0.451423
0.601236 0.464073 0.455131
0.718044 0.467567 0.457465
0.840803 0.469535 0.458473
0.969345 0.470039 0.458198
0.122072 0.54313 0.455024
0.210971 0.554192 0.462181
0.307652 0.563256 0.467597
0.411368 0.570504 0.471458
0.52166 0.576059 0.473884
0.638193 0.580011 0.474937
0.760708 0.582406 0.474693
0.888991 0.583322 0.473198
1 0.582788 0.470481
0.119677 0.66952 0.480262
0.214176 0.679561 0.485008
0.316579 0.687526 0.487999
0.425956 0.693675 0.489448
0.541817 0.698146 0.489509
0.663783 0.701015 0.488228
0.791623 0.702373 0.48571
0.925109 0.702251 0.481971
1 0.70071 0.477058
0.10988 0.800015 0.4981
0.209094 0.809155 0.500862
0.316533 0.816144 0.501762
0.431022 0.821286 0.501122
0.55198 0.82475 0.499077
0.678996 0.826612 0.49572
0.811795 0.826963 0.491127
0.950149 0.825849 0.485344
1 0.823346 0.478416
0.0933242 0.934142 0.509377
0.196368 0.942596 0.510491
0.308202 0.948745 0.50959
0.427283 0.952956 0.507073
0.552895 0.955474 0.503136
0.684581 0.95639 0.497902
0.822003 0.955795 0.491417
0.964935 0.95375 0.483742
1 0.950301 0.474937
0.0145571 0.0199741 0.0664836
0.0449836 0.0323033 0.173434
0.0991836 0.0432593 0.238621
0.16321 0.0556191 0.27393
0.237049 0.0661173 0.303838
0.319707 0.0747997 0.32958
0.410483 0.0817731 0.351919
0.508843 0.0870832 0.371359
0.614343 0.0907912 0.38822
0.0501717 0.100542 0.285298
0.105623 0.116609 0.315267
0.171267 0.130419 0.341314
0.246006 0.142199 0.364111
0.329076 0.152056 0.3841
0.419928 0.160113 0.401617
0.51812 0.166445 0.416892
0.62327 0.17113 0.430106
0.735088 0.174212 0.441428
0.0828412 0.202502 0.373754
0.149752 0.217136 0.394736
0.225483 0.229648 0.413169
0.309255 0.240223 0.429343
0.40058 0.248981 0.443473
0.499031 0.255985 0.455695
0.604257 0.261326 0.466148
0.716014 0.265064 0.474922
0.834043 0.267247 0.482124
0.105699 0.312764 0.438636
0.181643 0.325978 0.45417
0.265766 0.337148 0.467643
0.357397 0.346456 0.479255
0.456077 0.353994 0.489158
0.561456 0.359854 0.497414
0.673243 0.364111 0.504158
0.791226 0.366812 0.509422
0.91519 0.367987 0.513268
0.119265 0.429389 0.488563
0.202762 0.441291 0.500191
0.294133 0.451194 0.509957
0.392691 0.459266 0.518044
0.498009 0.465614 0.524575
0.60972 0.470344 0.529641
0.727611 0.473487 0.533318
0.851423 0.47512 0.535637
0.981018 0.475273 0.53666
0.124178 0.551308 0.527398
0.214115 0.562036 0.535988
0.311849 0.570764 0.542779
0.416617 0.577676 0.547982
0.527962 0.582895 0.55172
0.645518 0.586496 0.55407
0.769055 0.588571 0.555108
0.89836 0.589151 0.554879
1 0.588281 0.553414
0.121096 0.677806 0.557321
0.21651 0.687526 0.563439
0.319875 0.695171 0.567742
0.430243 0.700999 0.570504
0.547082 0.70515 0.571832
0.670039 0.707698 0.571817
0.79884 0.708736 0.570535
0.933288 0.708293 0.568032
1 0.706432 0.564355
0.110628 0.808362 0.579644
0.210666 0.817227 0.583734
0.31899 0.823926 0.585931
0.434394 0.828763 0.586557
0.556268 0.831907 0.585763
0.684199 0.833448 0.583642
0.817929 0.833494 0.580285
0.957198 0.832074 0.575723
1 0.829236 0.570016
0.0934615 0.94255 0.595239
0.197192 0.950759 0.597681
0.309834 0.956619 0.598062
0.42977 0.96054 0.596811
0.556252 0.962753 0.594125
0.688792 0.963363 0.590112
0.8271 0.962463 0.584863
0.970932 0.960113 0.578408
1 0.956359 0.57084
0.0191043 0.0254826 0.12137
0.0542306 0.0361639 0.233265
0.109468 0.0488136 0.286687
0.175265 0.0608225 0.32372
0.25066 0.0709544 0.355428
0.334752 0.0792859 0.382956
0.426841 0.0859236 0.407019
0.526452 0.090898 0.428138
0.633143 0.0942855 0.446616
0.0551461 0.107851 0.335927
0.11249 0.123445 0.367727
0.179812 0.136828 0.39556
0.256077 0.14818 0.420096
0.340581 0.157656 0.441749
0.432776 0.165331 0.460883
0.532235 0.171298 0.477714
0.638605 0.175631 0.492439
0.751598 0.178378 0.505226
0.0871901 0.210178 0.430518
0.155612 0.224384 0.453178
0.232761 0.2365 0.473228
0.317906 0.246677 0.490959
0.410513 0.255039 0.5066
0.510216 0.261677 0.520287
0.616663 0.266667 0.532158
0.729564 0.270054 0.542321
0.848722 0.271885 0.550866
0.109331 0.320684 0.500954
0.186572 0.333501 0.518013
0.271977 0.344305 0.532967
0.364828 0.353231 0.546014
0.464698 0.360418 0.55729
0.571237 0.365927 0.566903
0.684169 0.369818 0.57496
0.803265 0.372168 0.581521
0.928298 0.373022 0.586648
0.122164 0.437476 0.555932
0.206821 0.449042 0.568978
0.299351 0.458579 0.580118
0.399039 0.4663 0.589532
0.505455 0.472313 0.597375
0.61828 0.476692 0.603723
0.737224 0.4795 0.608637
0.862104 0.480797 0.612177
0.992721 0.480629 0.61442
0.12639 0.559548 0.599466
0.21735 0.569955 0.609384
0.316136 0.578347 0.617472
0.421958 0.584924 0.623941
0.53434 0.589822 0.628916
0.652934 0.593103 0.632502
0.777478 0.594842 0.63473
0.90779 0.595102 0.635676
1 0.593912 0.635386
0.122621 0.686168 0.633799
0.218967 0.695598 0.641184
0.323293 0.702937 0.646738
0.434623 0.708446 0.650721
0.552438 0.712276 0.653239
0.676371 0.714504 0.654414
0.806149 0.715221 0.654307
0.941558 0.714473 0.652964
1 0.712291 0.650416
0.111513 0.816831 0.660334
0.21236 0.825422 0.66566
0.321569 0.83183 0.669078
0.437873 0.836362 0.670893
0.560678 0.839185 0.67126
0.68954 0.840436 0.670314
0.824186 0.840162 0.668101
0.964385 0.838437 0.664668
1 0.835309 0.66009
0.0937514 0.95108 0.679988
0.198169 0.959045 0.683665
0.311604 0.96463 0.685237
0.432395 0.968277 0.685161
0.559731 0.970184 0.683635
0.693172 0.970504 0.680766
0.832349 0.969299 0.676646
0.97705 0.966644 0.671336
1 0.9626 0.664881
0.0229343 0.0299687 0.188037
0.0627604 0.0408789 0.290303
0.119646 0.0544137 0.336416
0.187198 0.0660563 0.37496
0.264149 0.0758373 0.40827
0.34966 0.0838331 0.4374
0.443076 0.0901198 0.46305
0.543938 0.0947738 0.485695
0.65182 0.0978256 0.505669
0.0602121 0.115145 0.387915
0.119387 0.130282 0.421378
0.188357 0.143236 0.450828
0.266133 0.154208 0.476936
0.352041 0.163287 0.500145
0.445579 0.170596 0.52076
0.546304 0.176211 0.53904
0.653895 0.180194 0.555184
0.768048 0.182589 0.569345
0.0915999 0.217868 0.488106
0.161501 0.231662 0.512322
0.24007 0.243366 0.533867
0.326558 0.253162 0.553063
0.420462 0.261158 0.570108
0.521401 0.26743 0.585168
0.629038 0.272068 0.598383
0.743114 0.275105 0.609842
0.863386 0.2766 0.619669
0.113024 0.328618 0.563714
0.191562 0.34107 0.582208
0.278218 0.351492 0.59855
0.37229 0.360067 0.612924
0.47335 0.366888 0.625513
0.581048 0.372045 0.636408
0.695109 0.375601 0.645716
0.815305 0.377615 0.653498
0.941421 0.378134 0.659831
0.125154 0.445624 0.623453
0.210941 0.456825 0.637827
0.304616 0.466026 0.650263
0.405432 0.473411 0.660945
0.512963 0.479072 0.670008
0.626871 0.483116 0.677562
0.746899 0.485603 0.683665
0.872816 0.486564 0.68838
1 0.486076 0.691752
0.128679 0.567849 0.671412
0.220661 0.577935 0.682597
0.3205 0.586007 0.691905
0.427359 0.592264 0.69958
0.540764 0.596826 0.70573
0.660395 0.599786 0.71046
0.785962 0.601205 0.713832
0.917281 0.601144 0.715908
1 0.599649 0.716716
0.124254 0.694606 0.709926
0.2215 0.703731 0.718532
0.326787 0.710765 0.725277
0.439094 0.715969 0.730404
0.557885 0.719493 0.734066
0.682795 0.721416 0.736355
0.813535 0.721813 0.737331
0.94992 0.72076 0.737072
1 0.718273 0.735607
0.112505 0.825376 0.740444
0.21416 0.833707 0.746975
0.324239 0.839811 0.751522
0.441459 0.844053 0.754467
0.565164 0.846586 0.755947
0.694957 0.847532 0.756085
0.830533 0.846967 0.75494
0.971664 0.844938 0.75259
1 0.841505 0.749065
0.0941787 0.959701 0.763943
0.199268 0.967437 0.768795
0.313497 0.972747 0.771496
0.435126 0.97612 0.772534
0.563333 0.977752 0.772076
0.697643 0.977768 0.770291
0.837705 0.976272 0.767239
0.983291 0.973327 0.762982
1 0.968978 0.75758
0.0265049 0.0340429 0.260121
0.0708629 0.0468147 0.341009
0.129763 0.0600595 0.387686
0.199039 0.0713359 0.427573
0.277531 0.080766 0.462318
0.364446 0.088426 0.492912
0.45919 0.094377 0.519997
0.561288 0.0986954 0.544076
0.670359 0.101442 0.565454
0.0653544 0.122438 0.44123
0.126299 0.137133 0.476173
0.196887 0.149676 0.507118
0.276158 0.16025 0.534691
0.36347 0.168948 0.559319
0.45832 0.175906 0.581323
0.560311 0.181155 0.600961
0.669108 0.184802 0.618433
0.784436 0.186862 0.63389
0.0960708 0.225544 0.546548
0.167437 0.238941 0.572198
0.247395 0.250263 0.595163
0.33521 0.259678 0.615717
0.430396 0.267308 0.634089
0.532555 0.273228 0.650446
0.641398 0.277516 0.664912
0.756619 0.280217 0.677607
0.878019 0.281376 0.68864
0.116777 0.336568 0.627008
0.196597 0.348653 0.646845
0.284489 0.358709 0.664485
0.379782 0.366934 0.68014
0.482017 0.373404 0.693965
0.590875 0.378225 0.706081
0.706065 0.381445 0.716564
0.827344 0.383124 0.725505
0.954543 0.383322 0.732967
0.128206 0.453788 0.691249
0.215137 0.464652 0.706874
0.309926 0.473518 0.720531
0.411856 0.480552 0.732418
0.520485 0.485893 0.742657
0.635477 0.489601 0.751354
0.756573 0.491768 0.758572
0.883558 0.492409 0.764401
1 0.4916 0.768856
0.131044 0.576181 0.743404
0.224033 0.585977 0.755795
0.32491 0.593713 0.766278
0.432807 0.599649 0.775082
0.54725 0.603891 0.782361
0.667903 0.606531 0.78819
0.794491 0.607645 0.79263
0.926818 0.607279 0.795773
1 0.605463 0.797635
0.125963 0.70309 0.785901
0.224125 0.71194 0.795666
0.330343 0.718669 0.803525
0.443626 0.723568 0.80975
0.563394 0.726787 0.814496
0.689265 0.728405 0.817838
0.820981 0.728496 0.819883
0.958312 0.727138 0.820645
1 0.724346 0.820203
0.113603 0.833967 0.820218
0.216052 0.842039 0.827863
0.327001 0.847883 0.833524
0.445121 0.851835 0.837522
0.569741 0.854078 0.840055
0.70045 0.854719 0.84123
0.836942 0.853864 0.841108
0.979004 0.851545 0.839765
1 0.847807 0.837247
0.0947127 0.968383 0.847349
0.200473 0.975906 0.85333
0.315496 0.980957 0.857114
0.437949 0.984054 0.85919
0.567025 0.985412 0.85977
0.702205 0.985138 0.859007
0.843153 0.983368 0.856947
0.989624 0.980133 0.853697
1 0.975494 0.849271
