luts/DUNE Inspired LUT - Merga.cube
# Copyright: (C) Copyright 2021 Premierecuts.store
# Cannot be resold, shared or otherwise redistributed
TITLE "Retina LUTS By Premierecuts"
LUT_3D_SIZE 5
0.00723278 0.0159152 0.023743
0.173938 0.0446021 0.0434577
0.498344 0.106737 0.0685893
0.788449 0.182284 0.103502
0.942229 0.228275 0.124483
0.111574 0.17145 0.157916
0.176562 0.201099 0.159396
0.495583 0.242115 0.122332
0.788373 0.313069 0.149676
0.950744 0.364385 0.173602
0.287877 0.416876 0.362036
0.344656 0.433127 0.374426
0.471351 0.495506 0.327398
0.797833 0.526665 0.256291
0.96466 0.5617 0.283207
0.480797 0.658457 0.571847
0.525185 0.666331 0.578714
0.609506 0.708614 0.590631
0.755306 0.768124 0.503258
0.959197 0.790295 0.470573
0.627253 0.833921 0.728054
0.667933 0.842741 0.736767
0.757778 0.873152 0.766903
0.84271 0.91516 0.765301
0.951736 0.952697 0.710231
0.0158236 0.0286564 0.116625
0.151659 0.0581369 0.174945
0.480476 0.110491 0.22182
0.779538 0.181018 0.248402
0.93753 0.227436 0.265614
0.0875105 0.189639 0.213046
0.178042 0.205188 0.227588
0.458625 0.246387 0.244831
0.746761 0.318883 0.274891
0.947112 0.364218 0.27631
0.279438 0.427634 0.396017
0.372793 0.437171 0.420188
0.471916 0.491127 0.42649
0.806226 0.520607 0.354955
0.961227 0.561135 0.364645
0.47863 0.665675 0.599847
0.5561 0.670497 0.620081
0.630732 0.705058 0.646464
0.75816 0.763149 0.586526
0.961624 0.788281 0.526146
0.628626 0.840955 0.754757
0.673259 0.848112 0.764324
0.769131 0.875029 0.798123
0.849805 0.915526 0.808896
0.952911 0.953811 0.758587
0.0390173 0.0601663 0.27248
0.152804 0.0849775 0.369604
0.426734 0.135088 0.411246
0.753124 0.199969 0.471717
0.923751 0.243153 0.486412
0.0910964 0.209644 0.368292
0.167727 0.227039 0.35697
0.424277 0.265553 0.430152
0.744961 0.327581 0.461036
0.93724 0.372549 0.493233
0.233906 0.45507 0.47657
0.321874 0.459632 0.51014
0.476936 0.498329 0.514076
0.733257 0.537118 0.515831
0.962707 0.558389 0.518578
0.45449 0.682963 0.644038
0.542428 0.684092 0.657145
0.654337 0.711101 0.68864
0.756085 0.764157 0.679103
0.965469 0.784695 0.62533
0.618418 0.853651 0.790265
0.668925 0.858381 0.797528
0.779553 0.880537 0.83032
0.861967 0.91632 0.856703
0.95491 0.955535 0.818936
0.0675364 0.0996414 0.450996
0.172412 0.120134 0.529717
0.425361 0.162341 0.590158
0.699474 0.228397 0.638605
0.908003 0.264042 0.69369
0.112398 0.235874 0.517372
0.18854 0.260273 0.495567
0.360678 0.294484 0.619226
0.681346 0.358022 0.63975
0.920943 0.390784 0.701885
0.220127 0.479973 0.619013
0.300114 0.482979 0.621836
0.452171 0.516396 0.640421
0.721218 0.547219 0.700938
0.948806 0.566934 0.73315
0.404028 0.710506 0.725948
0.479103 0.710048 0.739223
0.613535 0.731716 0.772686
0.759136 0.768933 0.776486
0.960601 0.78584 0.776043
0.587335 0.874571 0.842161
0.64036 0.877211 0.845197
0.773831 0.893507 0.86688
0.876219 0.920836 0.898222
0.957946 0.958602 0.889433
0.0850996 0.12224 0.568475
0.188556 0.141375 0.635157
0.423316 0.180591 0.714748
0.685939 0.248981 0.744244
0.862547 0.293568 0.787854
0.128161 0.255848 0.625727
0.217197 0.263096 0.651255
0.421897 0.3028 0.74638
0.696574 0.368063 0.773541
0.881376 0.4168 0.814038
0.228809 0.493019 0.730388
0.312383 0.492699 0.742779
0.479271 0.518624 0.782712
0.730678 0.551644 0.839033
0.917159 0.585779 0.863523
0.380529 0.731044 0.823423
0.44239 0.730632 0.828016
0.573449 0.74876 0.852857
0.753536 0.773968 0.893629
0.939529 0.796429 0.911574
0.570474 0.894987 0.902159
0.621134 0.897902 0.90486
0.739147 0.911849 0.917021
0.857755 0.935134 0.938277
0.96144 0.961608 0.962036
