luts/DUNE Inspired LUT - Merga.cube
# Copyright: (C) Copyright 2021 Premierecuts.store
# Cannot be resold, shared or otherwise redistributed
TITLE "Retina LUTS By Premierecuts"
LUT_3D_SIZE 9
0.00723278 0.0159152 0.023743
0.055787 0.0238041 0.0329137
0.173938 0.0446021 0.0434577
0.341543 0.0758679 0.0578775
0.498344 0.106737 0.0685893
0.646006 0.141787 0.0837415
0.788449 0.182284 0.103502
0.899611 0.222599 0.12137
0.942229 0.228275 0.124483
0.0448157 0.0740978 0.0729534
0.0716106 0.0865644 0.0842908
0.18117 0.10634 0.0666056
0.337346 0.12784 0.0720684
0.494072 0.156283 0.0826734
0.644007 0.191928 0.0971542
0.787121 0.23473 0.114916
0.903609 0.281392 0.134829
0.94612 0.288258 0.138201
0.111574 0.17145 0.157916
0.135088 0.177493 0.163531
0.176562 0.201099 0.159396
0.33518 0.220157 0.120226
0.495583 0.242115 0.122332
0.645914 0.274342 0.134478
0.788373 0.313069 0.149676
0.904906 0.354589 0.166064
0.950744 0.364385 0.173602
0.193988 0.290745 0.255039
0.214633 0.295399 0.259602
0.253544 0.313863 0.268589
0.320439 0.348516 0.239078
0.483787 0.368627 0.194659
0.653239 0.384497 0.183185
0.793362 0.413046 0.194812
0.907958 0.445304 0.208865
0.957351 0.45687 0.222995
0.287877 0.416876 0.362036
0.307927 0.420157 0.36553
0.344656 0.433127 0.374426
0.392065 0.461067 0.375235
0.471351 0.495506 0.327398
0.628061 0.514519 0.280293
0.797833 0.526665 0.256291
0.912779 0.549722 0.26302
0.96466 0.5617 0.283207
0.385306 0.539925 0.468345
0.402884 0.542351 0.470665
0.435126 0.551034 0.477256
0.479011 0.572961 0.486564
0.530556 0.603662 0.476249
0.616983 0.635859 0.416037
0.764843 0.654612 0.37116
0.906249 0.665309 0.347219
0.970443 0.671992 0.363027
0.480797 0.658457 0.571847
0.496773 0.660227 0.573648
0.525185 0.666331 0.578714
0.565576 0.683223 0.589059
0.609506 0.708614 0.590631
0.665949 0.737408 0.573114
0.755306 0.768124 0.503258
0.878157 0.785733 0.463355
0.959197 0.790295 0.470573
0.569146 0.765423 0.666697
0.58349 0.767147 0.668589
0.609262 0.771725 0.672206
0.646845 0.785183 0.682139
0.687465 0.805051 0.688777
0.731533 0.829999 0.682506
0.791104 0.855436 0.65565
0.873243 0.879362 0.583841
0.945113 0.889235 0.585412
0.627253 0.833921 0.728054
0.642756 0.837674 0.73196
0.667933 0.842741 0.736767
0.709377 0.855497 0.750484
0.757778 0.873152 0.766903
0.797299 0.893339 0.770886
0.84271 0.91516 0.765301
0.895613 0.936584 0.742382
0.951736 0.952697 0.710231
0.0091249 0.0195621 0.0606851
0.0496223 0.0282597 0.0825513
0.167468 0.0478065 0.107988
0.335271 0.076463 0.123919
0.492317 0.105653 0.131792
0.641169 0.140307 0.141314
0.784848 0.179858 0.155612
0.898421 0.22063 0.169848
0.940902 0.2262 0.171939
0.0344701 0.0815747 0.0993668
0.0673228 0.090959 0.109804
0.163134 0.108385 0.124269
0.304768 0.130251 0.133608
0.468193 0.158114 0.141711
0.627085 0.192905 0.150851
0.778439 0.234379 0.163195
0.900221 0.280095 0.176532
0.944579 0.286671 0.178576
0.104692 0.176684 0.172839
0.139635 0.1785 0.180606
0.181415 0.19881 0.195346
0.34258 0.215473 0.162646
0.494011 0.239445 0.168444
0.643656 0.272129 0.17557
0.78793 0.310582 0.187304
0.903731 0.35227 0.201785
0.94963 0.363821 0.210285
0.191836 0.295415 0.270115
0.22681 0.294469 0.279683
0.263233 0.312184 0.295354
0.321859 0.34493 0.288899
0.519295 0.358572 0.217441
0.658839 0.381094 0.221332
0.79736 0.409689 0.230106
0.90927 0.442603 0.24332
0.956268 0.456565 0.255497
0.287358 0.420523 0.376349
0.316075 0.419501 0.38262
0.354757 0.433387 0.395575
0.40058 0.458427 0.408576
0.472251 0.49308 0.369177
0.646418 0.509178 0.304982
0.805661 0.52282 0.29044
0.915633 0.546548 0.297124
0.963516 0.561349 0.313649
0.384771 0.54287 0.481621
0.406607 0.542809 0.484855
0.442893 0.552422 0.495506
0.48687 0.572213 0.508049
0.53489 0.601724 0.507362
0.6168 0.634546 0.451408
0.768795 0.652277 0.398474
0.910658 0.662028 0.373938
0.970077 0.671656 0.388846
0.481117 0.661173 0.584634
0.498039 0.662577 0.587015
0.528832 0.667964 0.592844
0.571267 0.683604 0.605264
0.615824 0.707378 0.612909
0.668467 0.736828 0.599313
0.754559 0.767605 0.532738
0.879316 0.784237 0.488716
0.960113 0.78938 0.493828
0.569543 0.768093 0.678935
0.585412 0.769543 0.681407
0.611917 0.773327 0.685328
0.651011 0.786023 0.696406
0.69366 0.804822 0.706966
0.736309 0.828885 0.705409
0.792874 0.854475 0.683955
0.87248 0.87866 0.611688
0.946136 0.888823 0.608225
0.628611 0.837018 0.740749
0.644724 0.840162 0.744961
0.670619 0.844862 0.749798
0.713558 0.857267 0.764324
0.763409 0.873732 0.782467
0.802548 0.893278 0.789929
0.845594 0.915328 0.786664
0.896925 0.936736 0.767803
0.952316 0.953231 0.733288
0.0158236 0.0286564 0.116625
0.0509804 0.0367742 0.142504
0.151659 0.0581369 0.174945
0.322988 0.0833295 0.21593
0.480476 0.110491 0.22182
0.633738 0.143359 0.23241
0.779538 0.181018 0.248402
0.894484 0.221897 0.263828
0.93753 0.227436 0.265614
0.0361028 0.0901198 0.158602
0.0639963 0.100694 0.159655
0.154772 0.113924 0.19501
0.304952 0.1337 0.205982
0.467857 0.15996 0.219028
0.625925 0.193347 0.234806
0.774716 0.23444 0.249424
0.895491 0.280415 0.263279
0.941405 0.28748 0.265507
0.0875105 0.189639 0.213046
0.119677 0.189059 0.229389
0.178042 0.205188 0.227588
0.298558 0.224521 0.234501
0.458625 0.246387 0.244831
0.59826 0.281285 0.259159
0.746761 0.318883 0.274891
0.877714 0.359304 0.288899
0.947112 0.364218 0.27631
0.178271 0.304967 0.295003
0.214511 0.303365 0.302358
0.271061 0.317525 0.315465
0.327123 0.345739 0.332113
0.497627 0.361257 0.288396
0.638331 0.38381 0.296651
0.778729 0.412192 0.307988
0.896635 0.444755 0.318441
0.954086 0.456779 0.314168
0.279438 0.427634 0.396017
0.313756 0.425635 0.400397
0.372793 0.437171 0.420188
0.411765 0.457954 0.438346
0.471916 0.491127 0.42649
0.688457 0.497993 0.347295
0.806226 0.520607 0.354955
0.913161 0.54493 0.361593
0.961227 0.561135 0.364645
0.381094 0.548577 0.498924
0.404608 0.547158 0.500938
0.473426 0.55581 0.52488
0.506279 0.572564 0.53904
0.543923 0.596323 0.555291
0.616815 0.630549 0.513024
0.850919 0.631128 0.410437
0.929656 0.653162 0.414206
0.969284 0.671397 0.42797
0.47863 0.665675 0.599847
0.496788 0.666514 0.601831
0.5561 0.670497 0.620081
0.592554 0.684932 0.633829
0.630732 0.705058 0.646464
0.670512 0.731823 0.650782
0.75816 0.763149 0.586526
0.935286 0.765301 0.503975
0.961624 0.788281 0.526146
0.568063 0.771954 0.693111
0.584543 0.773114 0.695171
0.633326 0.776654 0.708949
0.669398 0.788678 0.721019
0.707897 0.805081 0.732998
0.747768 0.82652 0.740368
0.792676 0.851041 0.733455
0.87335 0.875196 0.670359
0.947326 0.888228 0.635325
0.628626 0.840955 0.754757
0.645289 0.844068 0.758999
0.673259 0.848112 0.764324
0.717876 0.859403 0.778744
0.769131 0.875029 0.798123
0.808423 0.893629 0.808225
0.849805 0.915526 0.808896
0.898146 0.936645 0.794491
0.952911 0.953811 0.758587
0.0264897 0.0432136 0.187701
0.0623331 0.0504463 0.214649
0.154604 0.0702831 0.272877
0.28867 0.0972915 0.29688
0.466926 0.118807 0.334707
0.618219 0.152255 0.346029
0.767742 0.188327 0.35964
0.888914 0.227466 0.374212
0.933043 0.232456 0.375265
0.0444343 0.102556 0.230137
0.0712902 0.113298 0.219806
0.135119 0.125887 0.273732
0.272343 0.146242 0.29305
0.452262 0.168414 0.326177
0.613474 0.201205 0.342412
0.766033 0.239673 0.359762
0.89012 0.283192 0.374273
0.937972 0.290593 0.375967
0.0836042 0.200473 0.289128
0.114214 0.200458 0.290639
0.169268 0.213733 0.295888
0.295979 0.229206 0.329717
0.456809 0.252064 0.330388
0.60502 0.283452 0.347951
0.751873 0.319661 0.36434
0.87924 0.359915 0.38233
0.943709 0.366064 0.386069
0.156817 0.320241 0.344579
0.186038 0.318242 0.355657
0.245426 0.329976 0.370657
0.325307 0.352071 0.372091
0.456687 0.371572 0.375692
0.601801 0.392874 0.382513
0.743328 0.420233 0.395392
0.861738 0.454734 0.411872
0.950896 0.458228 0.399863
0.258824 0.44007 0.427344
0.289311 0.437781 0.43003
0.350973 0.447471 0.449348
0.421195 0.464012 0.45893
0.476875 0.492714 0.472435
0.643412 0.506584 0.428672
0.778836 0.525826 0.434775
0.890105 0.550744 0.446235
0.960143 0.561212 0.435996
0.368017 0.557458 0.521599
0.395605 0.555154 0.52224
0.475395 0.562402 0.54229
0.516182 0.577707 0.557549
0.556695 0.599481 0.576501
0.617823 0.632029 0.555825
0.823728 0.63624 0.483909
0.915572 0.655772 0.487678
0.967483 0.670985 0.484321
0.470466 0.672541 0.618738
0.49131 0.672282 0.620111
0.556588 0.675502 0.63563
0.611078 0.688624 0.655573
0.644434 0.7066 0.670542
0.681071 0.730297 0.685863
0.755001 0.762478 0.636652
0.928359 0.762646 0.579034
0.963226 0.786664 0.570184
0.56286 0.777462 0.709621
0.580865 0.77818 0.711498
0.633036 0.780529 0.722896
0.70277 0.793317 0.749508
0.730465 0.807416 0.760937
0.763622 0.824857 0.775662
0.798413 0.846433 0.785916
0.871855 0.872816 0.727962
0.949111 0.88751 0.66862
0.625986 0.846464 0.771038
0.64329 0.848981 0.774807
0.672679 0.852155 0.779477
0.721111 0.86276 0.794736
0.775051 0.877104 0.814023
0.815015 0.894514 0.827115
0.855161 0.915846 0.8327
0.900542 0.93695 0.823438
0.953628 0.95433 0.786999
0.0390173 0.0601663 0.27248
0.0767987 0.0671244 0.300359
0.152804 0.0849775 0.369604
0.28838 0.108949 0.390005
0.426734 0.135088 0.411246
0.60557 0.160678 0.454536
0.753124 0.199969 0.471717
0.878737 0.238239 0.485466
0.923751 0.243153 0.486412
0.0551003 0.118303 0.312901
0.0852216 0.127749 0.3037
0.140475 0.137789 0.351797
0.25391 0.156664 0.400153
0.412039 0.184527 0.407324
0.600595 0.209812 0.4533
0.750729 0.251057 0.470253
0.879698 0.292576 0.484657
0.929412 0.300084 0.486275
0.0910964 0.209644 0.368292
0.121599 0.21236 0.358801
0.167727 0.227039 0.35697
0.258106 0.242344 0.419318
0.424277 0.265553 0.430152
0.590661 0.292165 0.453696
0.744961 0.327581 0.461036
0.874815 0.364828 0.48098
0.93724 0.372549 0.493233
0.148379 0.333791 0.418082
0.176165 0.332052 0.423865
0.23267 0.339483 0.437079
0.314611 0.359854 0.444266
0.449149 0.376684 0.472129
0.605631 0.396979 0.462989
0.750607 0.422431 0.475685
0.869276 0.455161 0.49543
0.955673 0.45359 0.502022
0.233906 0.45507 0.47657
0.26302 0.452918 0.480552
0.321874 0.459632 0.51014
0.396445 0.476417 0.507576
0.476936 0.498329 0.514076
0.612696 0.513863 0.516579
0.733257 0.537118 0.515831
0.870954 0.557168 0.528725
0.962707 0.558389 0.518578
0.344457 0.57055 0.555291
0.370092 0.568978 0.556374
0.42182 0.574975 0.57644
0.491524 0.587915 0.589029
0.567056 0.605142 0.597086
0.622065 0.63386 0.603311
0.780163 0.64567 0.563256
0.893996 0.661692 0.566659
0.965026 0.671458 0.560113
0.45449 0.682963 0.644038
0.476127 0.682857 0.6448
0.542428 0.684092 0.657145
0.612802 0.695079 0.67332
0.654337 0.711101 0.68864
0.694301 0.733242 0.706966
0.756085 0.764157 0.679103
0.906142 0.768872 0.644404
0.965469 0.784695 0.62533
0.551858 0.785931 0.730587
0.570932 0.786023 0.73164
0.632502 0.787366 0.741924
0.705852 0.798184 0.764187
0.743938 0.811399 0.779293
0.77847 0.827878 0.795056
0.812314 0.84831 0.808988
0.870481 0.872801 0.774746
0.953185 0.886854 0.708949
0.618418 0.853651 0.790265
0.637034 0.856107 0.793439
0.668925 0.858381 0.797528
0.721599 0.867643 0.811765
0.779553 0.880537 0.83032
0.822156 0.896483 0.845457
0.861967 0.91632 0.856703
0.903883 0.937652 0.852689
0.95491 0.955535 0.818936
0.0527657 0.0792706 0.362692
0.0932631 0.0865187 0.389319
0.160235 0.102159 0.453696
0.286732 0.122286 0.488487
0.421073 0.149493 0.494469
0.565011 0.178531 0.525811
0.741131 0.208682 0.57348
0.867185 0.251225 0.593133
0.912856 0.25626 0.594766
0.0677806 0.135592 0.396994
0.101366 0.140673 0.399588
0.155398 0.150729 0.43563
0.268971 0.16762 0.493141
0.415549 0.195117 0.501442
0.560021 0.228305 0.527825
0.740826 0.258717 0.575631
0.866285 0.304601 0.592721
0.918578 0.312596 0.594827
0.101335 0.221622 0.443671
0.132189 0.222675 0.442252
0.175494 0.242344 0.424323
0.23743 0.255985 0.487175
0.400153 0.277195 0.53106
0.55404 0.3093 0.535012
0.723369 0.338033 0.567452
0.861601 0.375723 0.581827
0.927031 0.382712 0.600275
0.15169 0.343847 0.495491
0.17966 0.343664 0.495094
0.230533 0.353231 0.491936
0.302312 0.373037 0.500465
0.417258 0.385748 0.567254
0.575769 0.408057 0.56817
0.732738 0.430945 0.583261
0.86363 0.461875 0.584878
0.946731 0.461341 0.611704
0.221027 0.468879 0.54522
0.247974 0.467628 0.54931
0.305119 0.469932 0.571481
0.381613 0.48452 0.577768
0.468421 0.504051 0.587625
0.59089 0.521538 0.609628
0.747127 0.538201 0.597681
0.876158 0.559731 0.600031
0.957549 0.560922 0.628351
0.318547 0.585 0.603677
0.344793 0.58381 0.605203
0.401373 0.587579 0.628733
0.469718 0.598947 0.649241
0.54342 0.617304 0.6383
0.62208 0.637827 0.649439
0.758938 0.650309 0.652003
0.876982 0.668406 0.636896
0.961273 0.672114 0.65066
0.429709 0.696025 0.679225
0.451926 0.695216 0.679057
0.496941 0.697307 0.692958
0.554253 0.708186 0.715633
0.629725 0.721263 0.720455
0.704906 0.738277 0.727596
0.76025 0.766201 0.724285
0.88864 0.775677 0.699916
0.964569 0.784909 0.691493
0.532937 0.796643 0.757595
0.553521 0.796902 0.758236
0.605371 0.796918 0.765286
0.682063 0.806775 0.786892
0.74815 0.817197 0.797498
0.789227 0.832197 0.812894
0.823865 0.851347 0.829404
0.871412 0.874479 0.811429
0.95758 0.88542 0.758022
0.60621 0.863279 0.814069
0.625162 0.865278 0.816464
0.658396 0.86688 0.818677
0.716518 0.87451 0.830701
0.780087 0.885527 0.847135
0.827848 0.899718 0.863569
0.869581 0.917586 0.878645
0.907881 0.938872 0.881788
0.956146 0.956847 0.853071
0.0675364 0.0996414 0.450996
0.109697 0.106294 0.476143
0.172412 0.120134 0.529717
0.282856 0.137713 0.576791
0.425361 0.162341 0.590158
0.554726 0.194675 0.602579
0.699474 0.228397 0.638605
0.855634 0.261128 0.685756
0.908003 0.264042 0.69369
0.08159 0.153002 0.478889
0.118685 0.154711 0.4916
0.175937 0.165209 0.522377
0.274983 0.181506 0.58085
0.425299 0.207019 0.599603
0.556954 0.242451 0.609949
0.700755 0.279301 0.644083
0.856931 0.312581 0.688533
0.914153 0.320394 0.695888
0.112398 0.235874 0.517372
0.144259 0.234684 0.523507
0.18854 0.260273 0.495567
0.243366 0.273396 0.550561
0.360678 0.294484 0.619226
0.53138 0.323293 0.621805
0.681346 0.358022 0.63975
0.844968 0.385916 0.681071
0.920943 0.390784 0.701885
0.160388 0.353841 0.570123
0.189425 0.352682 0.57171
0.238514 0.367056 0.555154
0.30248 0.387778 0.559503
0.380118 0.401556 0.62446
0.553719 0.417517 0.661128
0.700618 0.445289 0.667338
0.849073 0.469993 0.693004
0.938048 0.469154 0.717403
0.220127 0.479973 0.619013
0.24712 0.47892 0.620966
0.300114 0.482979 0.621836
0.373083 0.495949 0.631296
0.452171 0.516396 0.640421
0.57322 0.527504 0.698512
0.721218 0.547219 0.700938
0.858305 0.567239 0.708629
0.948806 0.566934 0.73315
0.304051 0.599542 0.668162
0.328588 0.598795 0.669215
0.381109 0.598169 0.690593
0.451743 0.607065 0.710216
0.528389 0.624811 0.709453
0.617502 0.642252 0.722057
0.723964 0.660014 0.739803
0.873915 0.670848 0.725963
0.954589 0.675441 0.75172
0.404028 0.710506 0.725948
0.426413 0.709361 0.725414
0.479103 0.710048 0.739223
0.542565 0.71812 0.767849
0.613535 0.731716 0.772686
0.683253 0.749706 0.76109
0.759136 0.768933 0.776486
0.874769 0.780728 0.768673
0.960601 0.78584 0.776043
0.507622 0.809323 0.792798
0.528344 0.809354 0.792905
0.571817 0.809339 0.800092
0.621942 0.817853 0.82031
0.711009 0.828107 0.83331
0.768719 0.840558 0.837491
0.83238 0.855619 0.846372
0.873472 0.877226 0.845594
0.962295 0.884291 0.817914
0.587335 0.874571 0.842161
0.607034 0.876081 0.8439
0.64036 0.877211 0.845197
0.704646 0.884092 0.854139
0.773831 0.893507 0.86688
0.82739 0.905531 0.881102
0.876219 0.920836 0.898222
0.914931 0.939925 0.91104
0.957946 0.958602 0.889433
0.080354 0.116762 0.527352
0.123461 0.123064 0.551263
0.184817 0.136309 0.59791
0.281453 0.152499 0.654337
0.423987 0.176257 0.674372
0.55877 0.207431 0.68336
0.686625 0.245319 0.707134
0.818204 0.282139 0.743603
0.879469 0.283116 0.761517
0.0948959 0.16965 0.552926
0.133349 0.171633 0.565515
0.190433 0.18172 0.596414
0.277104 0.197894 0.658518
0.421332 0.222477 0.684367
0.562478 0.254597 0.695476
0.688548 0.295949 0.714244
0.819745 0.333532 0.74876
0.889906 0.337133 0.769741
0.124834 0.25153 0.589059
0.156542 0.250462 0.596216
0.204547 0.276417 0.576364
0.259022 0.286412 0.626245
0.367849 0.308095 0.688518
0.520394 0.334951 0.719295
0.66775 0.371862 0.717983
0.807874 0.406195 0.747127
0.903181 0.4038 0.7823
0.169696 0.365743 0.638086
0.199557 0.364141 0.641917
0.250797 0.379416 0.628458
0.310613 0.402975 0.623911
0.372869 0.420111 0.672755
0.502602 0.432944 0.749783
0.675517 0.458381 0.744106
0.815076 0.487556 0.763195
0.927199 0.477073 0.805783
0.226032 0.488792 0.689021
0.255177 0.487556 0.691829
0.306233 0.495354 0.680095
0.371756 0.509133 0.686427
0.444709 0.529686 0.694316
0.52575 0.542992 0.754849
0.700893 0.555459 0.783413
0.83209 0.579049 0.79115
0.941863 0.572396 0.825116
0.299077 0.610803 0.73463
0.324331 0.609766 0.735912
0.372778 0.610132 0.741726
0.43978 0.61854 0.75491
0.517998 0.634592 0.761608
0.586328 0.653452 0.778958
0.717144 0.66276 0.821286
0.852216 0.677943 0.823499
0.948684 0.679469 0.841947
0.389334 0.723659 0.782208
0.41149 0.723217 0.782559
0.457069 0.721477 0.793759
0.538643 0.726665 0.813123
0.615641 0.739101 0.81973
0.672023 0.756695 0.826749
0.744762 0.774762 0.838392
0.861311 0.785702 0.852522
0.953307 0.789212 0.861418
0.484169 0.82153 0.832868
0.504479 0.821637 0.832898
0.552926 0.820768 0.839551
0.662348 0.826688 0.853681
0.732158 0.836103 0.862089
0.778058 0.849271 0.86862
0.822034 0.864271 0.874662
0.87541 0.879591 0.882948
0.960555 0.884596 0.882368
0.566506 0.88571 0.873808
0.585595 0.887297 0.875151
0.617365 0.888258 0.875349
0.68716 0.894606 0.88191
0.758465 0.902968 0.890394
0.815961 0.913954 0.901503
0.87303 0.927077 0.915328
0.921935 0.942061 0.931685
0.959869 0.960388 0.92607
0.0850996 0.12224 0.568475
0.127886 0.128206 0.59115
0.188556 0.141375 0.635157
0.281285 0.157076 0.693767
0.423316 0.180591 0.714748
0.561608 0.210468 0.726711
0.685939 0.248981 0.744244
0.808118 0.288624 0.773846
0.862547 0.293568 0.787854
0.0996262 0.174578 0.59147
0.137072 0.176226 0.603494
0.194461 0.186404 0.633906
0.279957 0.202533 0.694255
0.41973 0.227008 0.724453
0.563668 0.258091 0.741512
0.688319 0.300008 0.754681
0.809323 0.3402 0.782269
0.870695 0.348745 0.798581
0.128161 0.255848 0.625727
0.160922 0.255406 0.634379
0.217197 0.263096 0.651255
0.30042 0.28191 0.694469
0.421897 0.3028 0.74638
0.56994 0.330404 0.764965
0.696574 0.368063 0.773541
0.814054 0.405478 0.796445
0.881376 0.4168 0.814038
0.172366 0.369848 0.676081
0.203372 0.368719 0.681605
0.257465 0.37261 0.694606
0.339986 0.387533 0.715297
0.43621 0.40621 0.767895
0.579934 0.424933 0.795605
0.71223 0.453407 0.801968
0.822873 0.486717 0.816281
0.903777 0.490227 0.840955
0.228809 0.493019 0.730388
0.258915 0.491356 0.734234
0.312383 0.492699 0.742779
0.386847 0.503044 0.759579
0.479271 0.518624 0.782712
0.587274 0.535378 0.828199
0.730678 0.551644 0.839033
0.839734 0.57702 0.846021
0.917159 0.585779 0.863523
0.296941 0.615961 0.777661
0.322652 0.614786 0.779965
0.370031 0.615244 0.785901
0.439277 0.62298 0.800061
0.525109 0.63415 0.818906
0.612146 0.648081 0.854383
0.73962 0.660945 0.875547
0.851698 0.680308 0.873701
0.928084 0.690562 0.886122
0.380529 0.731044 0.823423
0.402701 0.7308 0.825071
0.44239 0.730632 0.828016
0.501778 0.737881 0.838224
0.573449 0.74876 0.852857
0.658335 0.761166 0.871946
0.753536 0.773968 0.893629
0.865827 0.785504 0.906188
0.939529 0.796429 0.911574
0.470771 0.830793 0.868452
0.490227 0.830915 0.869352
0.525704 0.830701 0.870039
0.579339 0.836622 0.876295
0.65211 0.845777 0.884657
0.72018 0.857511 0.897169
0.795529 0.870604 0.912261
0.874098 0.881422 0.93019
0.950866 0.88867 0.93724
0.570474 0.894987 0.902159
0.589639 0.896788 0.903899
0.621134 0.897902 0.90486
0.68452 0.903243 0.9093
0.739147 0.911849 0.917021
0.798398 0.922789 0.927031
0.857755 0.935134 0.938277
0.913588 0.948867 0.95079
0.96144 0.961608 0.962036
