luts/DUNE Inspired LUT - Merga.cube
# Copyright: (C) Copyright 2021 Premierecuts.store
# Cannot be resold, shared or otherwise redistributed
TITLE "Retina LUTS By Premierecuts"
LUT_3D_SIZE 33
0.00723278 0.0159152 0.023743
0.0112917 0.0171969 0.0254673
0.0189212 0.019089 0.0285191
0.0347601 0.0212253 0.0313573
0.055787 0.0238041 0.0329137
0.0800793 0.0277409 0.0348211
0.107942 0.0323339 0.0368658
0.139483 0.0381628 0.0399023
0.173938 0.0446021 0.0434577
0.212726 0.0521859 0.0468299
0.255482 0.0601816 0.0509957
0.298833 0.0681163 0.0545357
0.341543 0.0758679 0.0578775
0.382483 0.0834974 0.0604715
0.421881 0.0911116 0.0633249
0.460578 0.0988479 0.0659953
0.498344 0.106737 0.0685893
0.535637 0.114992 0.07187
0.572351 0.123507 0.0753643
0.609308 0.132464 0.0792401
0.646006 0.141787 0.0837415
0.682292 0.151583 0.0880751
0.717998 0.161257 0.0930037
0.753368 0.171466 0.0977188
0.788449 0.182284 0.103502
0.820722 0.192905 0.108248
0.850614 0.20383 0.11342
0.878889 0.215122 0.118181
0.899611 0.222599 0.12137
0.910765 0.224308 0.122408
0.921584 0.225498 0.123003
0.93196 0.226764 0.123629
0.942229 0.228275 0.124483
0.0137331 0.0269627 0.0310216
0.01738 0.0280461 0.0325017
0.0239872 0.030396 0.0348058
0.0365148 0.0337072 0.0369726
0.0574502 0.0359197 0.0377356
0.0827039 0.0392309 0.0388342
0.111131 0.0435798 0.0407874
0.142992 0.0490425 0.043061
0.177722 0.0556191 0.0460059
0.216022 0.062974 0.0492409
0.257542 0.0706645 0.0525521
0.29958 0.0780346 0.0556954
0.341726 0.0859998 0.0590219
0.381491 0.0934768 0.0612802
0.419883 0.100649 0.0635843
0.458732 0.108415 0.0663157
0.496422 0.116655 0.0694743
0.533639 0.124773 0.072694
0.570855 0.133562 0.0766003
0.60824 0.142916 0.0808576
0.644892 0.152102 0.0853132
0.680903 0.161685 0.0898451
0.716884 0.171588 0.0947738
0.752667 0.182147 0.0997482
0.787228 0.193179 0.105135
0.819806 0.204211 0.110185
0.849851 0.215595 0.114931
0.878202 0.226871 0.120226
0.900374 0.235462 0.123766
0.911589 0.23711 0.124697
0.922408 0.2383 0.125307
0.932906 0.239719 0.125948
0.942962 0.241611 0.126726
0.0230106 0.0397498 0.042298
0.0264134 0.0405432 0.0432746
0.0322881 0.042649 0.0453651
0.0406348 0.0466163 0.0497139
0.0585641 0.0509346 0.0450752
0.0847639 0.0542458 0.0456397
0.113771 0.0580606 0.0468605
0.145006 0.0631113 0.0483711
0.179126 0.0695811 0.0514382
0.217792 0.0764172 0.0535439
0.258137 0.0838026 0.0565805
0.299672 0.0910658 0.0589303
0.340185 0.0977646 0.0608225
0.380118 0.10515 0.0634012
0.418662 0.112306 0.0654154
0.457221 0.119875 0.0681926
0.495521 0.128298 0.0715343
0.532647 0.136507 0.0749523
0.570245 0.145266 0.0787213
0.60766 0.154788 0.0835279
0.644587 0.16405 0.0877241
0.680659 0.173922 0.092668
0.716442 0.18407 0.0972
0.752117 0.194858 0.102571
0.786969 0.206378 0.107805
0.819715 0.21735 0.113283
0.849607 0.228641 0.117968
0.877546 0.239979 0.122698
0.901625 0.249897 0.126955
0.912474 0.251392 0.127504
0.922972 0.252583 0.12784
0.933791 0.254093 0.128756
0.943694 0.256184 0.129366
0.032929 0.0551156 0.0560159
0.0365454 0.0561074 0.057084
0.0421454 0.0580301 0.059678
0.0509194 0.0623331 0.0639811
0.0598764 0.0683757 0.0645762
0.0834821 0.0730297 0.0561685
0.114748 0.0763561 0.0556039
0.147295 0.0810559 0.0562905
0.180911 0.0863661 0.0578317
0.218387 0.0929732 0.0597696
0.257527 0.0989853 0.0615091
0.298573 0.105608 0.0639506
0.338888 0.111666 0.0654459
0.378042 0.118456 0.0674601
0.41735 0.125841 0.0697337
0.455863 0.133288 0.0724041
0.494316 0.141253 0.0758984
0.532311 0.149752 0.079057
0.569924 0.158373 0.0827039
0.607126 0.167346 0.0864881
0.644099 0.17702 0.090959
0.680415 0.187198 0.0955673
0.716503 0.197406 0.100999
0.752117 0.208148 0.105684
0.786618 0.219577 0.111101
0.819348 0.231388 0.116213
0.849638 0.242878 0.121569
0.877638 0.254261 0.126238
0.902907 0.265476 0.131228
0.913451 0.266423 0.13138
0.924331 0.267918 0.132021
0.934462 0.269062 0.132372
0.944945 0.271733 0.133516
0.0448157 0.0740978 0.0729534
0.0484321 0.0753185 0.0744335
0.0537118 0.0772412 0.0768292
0.0630503 0.0814679 0.081178
0.0716106 0.0865644 0.0842908
0.0833753 0.0938125 0.0796826
0.110948 0.0991989 0.0696574
0.147051 0.102007 0.0672007
0.18117 0.10634 0.0666056
0.218585 0.11133 0.0676432
0.257145 0.116548 0.0691539
0.297353 0.122072 0.0702373
0.337346 0.12784 0.0720684
0.376852 0.134295 0.0738689
0.416297 0.141115 0.0765698
0.455344 0.148699 0.0794232
0.494072 0.156283 0.0826734
0.532052 0.164599 0.0857557
0.569879 0.17348 0.0896315
0.606668 0.18233 0.0934005
0.644007 0.191928 0.0971542
0.680446 0.202106 0.101534
0.716564 0.212741 0.105714
0.752605 0.223453 0.110552
0.787121 0.23473 0.114916
0.819425 0.246189 0.119982
0.849775 0.258198 0.125093
0.877897 0.269795 0.130251
0.903609 0.281392 0.134829
0.914946 0.283024 0.135698
0.925597 0.284169 0.136126
0.935897 0.285451 0.136522
0.94612 0.288258 0.138201
0.0586862 0.0963607 0.092668
0.0623178 0.097673 0.0940566
0.0680095 0.0995804 0.0964065
0.0773632 0.103532 0.100542
0.0858473 0.10779 0.103502
0.0950942 0.113848 0.103563
0.109987 0.121584 0.0955062
0.139437 0.126696 0.0843061
0.178515 0.129183 0.0801556
0.218158 0.131792 0.0771801
0.256733 0.136095 0.0773022
0.297246 0.141131 0.0785534
0.337331 0.146197 0.0803388
0.376608 0.152468 0.0827344
0.415976 0.158923 0.085069
0.454917 0.165911 0.0879072
0.493553 0.173541 0.0912032
0.531624 0.181704 0.0942855
0.569528 0.190341 0.0980392
0.606836 0.199496 0.101549
0.643977 0.209064 0.10544
0.680385 0.219043 0.109468
0.716548 0.229587 0.113207
0.752438 0.240528 0.118013
0.787335 0.251865 0.122393
0.819989 0.263416 0.126925
0.849928 0.274891 0.131121
0.878035 0.286259 0.135454
0.904112 0.298009 0.139971
0.916289 0.299992 0.140551
0.927108 0.30135 0.141131
0.937545 0.302449 0.141649
0.947204 0.30547 0.144015
0.0754253 0.121294 0.114656
0.0784466 0.121904 0.115434
0.0843977 0.123491 0.117449
0.0928206 0.126711 0.120485
0.101625 0.13019 0.123354
0.110246 0.135393 0.124926
0.120882 0.142092 0.122637
0.138094 0.149233 0.110994
0.169558 0.153475 0.0991989
0.212146 0.155642 0.0933852
0.257511 0.158358 0.0893568
0.298558 0.162402 0.0894636
0.337469 0.167437 0.0904707
0.377264 0.173129 0.0925917
0.416464 0.179294 0.0947585
0.45539 0.186145 0.0977646
0.493721 0.193347 0.100221
0.531563 0.20145 0.10338
0.569894 0.209918 0.107301
0.607156 0.218708 0.110628
0.64419 0.228229 0.114244
0.68069 0.238376 0.118273
0.717052 0.2486 0.122576
0.753033 0.259556 0.127016
0.787472 0.270726 0.131106
0.819837 0.28188 0.135348
0.850217 0.2934 0.139956
0.878386 0.304509 0.144106
0.904051 0.315435 0.147814
0.917876 0.318883 0.148974
0.927962 0.319371 0.148867
0.938582 0.3205 0.149325
0.948165 0.323919 0.153017
0.0934615 0.146532 0.136873
0.096788 0.147097 0.137682
0.10193 0.148119 0.13875
0.109682 0.150393 0.141131
0.117906 0.153048 0.143633
0.126604 0.157321 0.14519
0.135637 0.163027 0.144945
0.147417 0.169848 0.141131
0.168048 0.178027 0.126375
0.203021 0.182864 0.114733
0.248631 0.185138 0.108583
0.296651 0.187243 0.103731
0.339773 0.19144 0.102174
0.378958 0.196811 0.103868
0.417441 0.202548 0.105852
0.456001 0.209201 0.108156
0.494255 0.216068 0.110765
0.532494 0.223789 0.113771
0.570397 0.232044 0.116915
0.608042 0.24097 0.120378
0.645075 0.250065 0.123995
0.681483 0.259892 0.128145
0.717723 0.270008 0.132128
0.753399 0.280598 0.136187
0.787655 0.291081 0.140215
0.820508 0.302174 0.144732
0.850629 0.312978 0.148959
0.878447 0.323415 0.152621
0.904509 0.334554 0.157
0.919219 0.338109 0.158328
0.930037 0.339223 0.158892
0.939864 0.339529 0.158679
0.949508 0.343832 0.163195
0.111574 0.17145 0.157916
0.114748 0.171893 0.158541
0.119585 0.1729 0.159716
0.127016 0.174945 0.161227
0.135088 0.177493 0.163531
0.143465 0.181003 0.16556
0.152422 0.186664 0.167102
0.162097 0.193622 0.165225
0.176562 0.201099 0.159396
0.200885 0.209628 0.143145
0.238834 0.214893 0.131838
0.286488 0.217594 0.125261
0.33518 0.220157 0.120226
0.380224 0.22327 0.116548
0.419867 0.229099 0.118074
0.457465 0.235218 0.119677
0.495583 0.242115 0.122332
0.5337 0.249256 0.124865
0.571801 0.257282 0.127916
0.609018 0.265339 0.13109
0.645914 0.274342 0.134478
0.682429 0.283604 0.138079
0.718746 0.2934 0.141863
0.754025 0.302968 0.145769
0.788373 0.313069 0.149676
0.820966 0.32369 0.154147
0.850782 0.333761 0.157824
0.879225 0.344213 0.162005
0.904906 0.354589 0.166064
0.92079 0.358663 0.167666
0.931548 0.35964 0.168063
0.941451 0.360464 0.168322
0.950744 0.364385 0.173602
0.131182 0.198764 0.17998
0.134356 0.199176 0.180606
0.138598 0.199771 0.18143
0.14551 0.201648 0.183566
0.153033 0.204211 0.185534
0.161135 0.207416 0.187289
0.170413 0.212543 0.189624
0.180163 0.219364 0.190051
0.192187 0.2271 0.186908
0.209277 0.235767 0.178164
0.236866 0.244465 0.160403
0.276539 0.250156 0.150362
0.324483 0.253223 0.14345
0.373007 0.255848 0.138064
0.418555 0.258747 0.132937
0.4607 0.263951 0.133349
0.497642 0.270344 0.134585
0.535698 0.277211 0.136843
0.573373 0.284627 0.139376
0.610391 0.292226 0.142458
0.647227 0.300435 0.145525
0.683452 0.308614 0.148394
0.720012 0.317876 0.152407
0.754971 0.326833 0.156054
0.789685 0.336553 0.160052
0.82208 0.34609 0.164187
0.851591 0.355657 0.167742
0.879835 0.365789 0.172061
0.905653 0.375418 0.176013
0.922393 0.380438 0.177295
0.932982 0.381308 0.177752
0.943221 0.382162 0.178073
0.9523 0.385931 0.185031
0.151629 0.228122 0.204059
0.154284 0.228489 0.204532
0.158816 0.229145 0.205478
0.165438 0.230976 0.207309
0.172412 0.233005 0.208911
0.180819 0.236149 0.211032
0.190356 0.241123 0.21355
0.20058 0.247578 0.215518
0.211154 0.255085 0.214343
0.225635 0.26363 0.21033
0.245121 0.273121 0.198215
0.275059 0.281636 0.179889
0.314763 0.287663 0.169467
0.362295 0.291142 0.162112
0.41004 0.293736 0.156146
0.45597 0.296391 0.151049
0.499901 0.30042 0.148821
0.538018 0.30663 0.149752
0.57496 0.312886 0.151858
0.612314 0.319997 0.153903
0.64892 0.327779 0.157076
0.685008 0.335134 0.160052
0.721019 0.343389 0.163226
0.756298 0.352071 0.167056
0.790707 0.360861 0.170886
0.822904 0.370138 0.174487
0.852506 0.379065 0.178119
0.880293 0.388754 0.182544
0.906188 0.397925 0.18584
0.924651 0.403342 0.188418
0.934966 0.404044 0.188678
0.945083 0.404471 0.188617
0.953841 0.408606 0.196689
0.172168 0.258961 0.228901
0.175402 0.259373 0.229313
0.179324 0.260121 0.230243
0.186206 0.261997 0.23212
0.19321 0.263539 0.233799
0.201526 0.266651 0.235859
0.210697 0.271077 0.238117
0.221042 0.27715 0.240772
0.231983 0.284443 0.241566
0.244541 0.29276 0.239048
0.261402 0.301488 0.234272
0.282383 0.310903 0.218357
0.314229 0.319478 0.200336
0.353246 0.32517 0.189364
0.399283 0.328405 0.181323
0.44686 0.331243 0.175082
0.493309 0.334112 0.169924
0.537591 0.337148 0.165301
0.578164 0.342321 0.165209
0.614755 0.349004 0.167376
0.650599 0.355459 0.169528
0.686961 0.362921 0.172381
0.722057 0.370001 0.175433
0.757687 0.378302 0.179049
0.791684 0.38645 0.181903
0.823697 0.394965 0.185763
0.853666 0.403525 0.189837
0.881239 0.412222 0.193225
0.907027 0.421103 0.197238
0.926421 0.427146 0.19968
0.936965 0.427649 0.199908
0.946822 0.427985 0.199908
0.955474 0.432242 0.209689
0.193988 0.290745 0.255039
0.197269 0.291402 0.255772
0.201404 0.292042 0.256565
0.207828 0.293523 0.257984
0.214633 0.295399 0.259602
0.223239 0.2981 0.261845
0.232456 0.301854 0.263905
0.242573 0.307073 0.266514
0.253544 0.313863 0.268589
0.265461 0.321813 0.26807
0.28011 0.330449 0.264118
0.297841 0.338827 0.25771
0.320439 0.348516 0.239078
0.352941 0.356954 0.220844
0.39176 0.36257 0.209781
0.436347 0.365972 0.20174
0.483787 0.368627 0.194659
0.529839 0.371496 0.188998
0.574472 0.374319 0.183871
0.616815 0.378424 0.181613
0.653239 0.384497 0.183185
0.688899 0.391165 0.185733
0.724376 0.398199 0.188449
0.75938 0.405432 0.191455
0.793362 0.413046 0.194812
0.825177 0.420981 0.198154
0.854826 0.428748 0.201633
0.882368 0.437079 0.205554
0.907958 0.445304 0.208865
0.928862 0.45185 0.211536
0.938979 0.452064 0.211551
0.948989 0.452522 0.211795
0.957351 0.45687 0.222995
0.216388 0.32282 0.281727
0.219516 0.323232 0.282353
0.223606 0.323751 0.28307
0.229984 0.325216 0.284642
0.237217 0.326986 0.286198
0.245365 0.329061 0.28809
0.254795 0.332616 0.290333
0.264881 0.337301 0.293111
0.276173 0.343481 0.295506
0.287846 0.350668 0.296284
0.300511 0.358938 0.294347
0.316106 0.367575 0.289616
0.334905 0.376226 0.281117
0.358572 0.385946 0.261234
0.391684 0.393851 0.242527
0.429038 0.399527 0.230854
0.473594 0.403235 0.223026
0.5205 0.405737 0.214847
0.565988 0.408179 0.208621
0.610437 0.411154 0.203693
0.653712 0.414893 0.199817
0.691737 0.419867 0.200229
0.726818 0.426444 0.202625
0.761624 0.433326 0.205341
0.794919 0.440391 0.208057
0.82652 0.4477 0.211353
0.856077 0.454856 0.214557
0.88365 0.462959 0.217945
0.909026 0.470466 0.221393
0.931136 0.477272 0.224491
0.941192 0.477714 0.224689
0.951003 0.477806 0.224582
0.959045 0.482246 0.236286
0.239368 0.354467 0.30898
0.242771 0.354696 0.309224
0.246738 0.355413 0.309911
0.253468 0.356756 0.311406
0.260334 0.3579 0.312535
0.268391 0.359899 0.314183
0.277592 0.363256 0.316396
0.288212 0.367666 0.319356
0.29897 0.373495 0.322087
0.310109 0.380026 0.323476
0.322408 0.387747 0.323125
0.335973 0.396139 0.319966
0.352361 0.404456 0.314931
0.371771 0.413413 0.303838
0.396429 0.422797 0.282765
0.429328 0.430518 0.264347
0.466667 0.435904 0.252995
0.51017 0.439734 0.244602
0.556863 0.442496 0.236011
0.601999 0.444785 0.229084
0.646052 0.447852 0.223987
0.68896 0.451286 0.219242
0.728923 0.455436 0.217563
0.763928 0.461738 0.220111
0.797162 0.46833 0.222293
0.828473 0.474876 0.225025
0.857816 0.482109 0.22829
0.884855 0.489174 0.23154
0.909987 0.4963 0.234302
0.933364 0.5037 0.237751
0.943496 0.503639 0.237507
0.953323 0.503777 0.237507
0.960952 0.508171 0.251087
0.263371 0.385702 0.335714
0.267033 0.386236 0.336263
0.271015 0.386572 0.336553
0.277363 0.387945 0.337835
0.284092 0.389456 0.339254
0.291569 0.390967 0.340398
0.300923 0.393774 0.342718
0.31078 0.398047 0.345495
0.322103 0.403449 0.348608
0.332952 0.409689 0.350256
0.344701 0.416663 0.35082
0.357275 0.424689 0.349493
0.371542 0.433066 0.345571
0.388815 0.441215 0.340124
0.408576 0.450385 0.326268
0.434195 0.459403 0.305196
0.466957 0.466697 0.28716
0.504082 0.472374 0.275563
0.546349 0.476143 0.266987
0.592676 0.478752 0.257588
0.637736 0.481315 0.250721
0.68101 0.484276 0.245319
0.723262 0.487358 0.239734
0.764492 0.491035 0.236118
0.800015 0.496559 0.238178
0.830991 0.503014 0.240406
0.859571 0.509178 0.242618
0.886244 0.515984 0.24538
0.911421 0.523033 0.248569
0.93489 0.529809 0.251591
0.945434 0.529976 0.251331
0.955276 0.530266 0.251331
0.962417 0.534508 0.2663
0.287877 0.416876 0.362036
0.291096 0.417456 0.362768
0.295171 0.418112 0.363531
0.301457 0.419272 0.364706
0.307927 0.420157 0.36553
0.315389 0.42153 0.366522
0.324224 0.424567 0.368765
0.333913 0.428275 0.371542
0.344656 0.433127 0.374426
0.355978 0.438895 0.376974
0.367132 0.445594 0.37821
0.379019 0.45301 0.377691
0.392065 0.461067 0.375235
0.406928 0.469368 0.370733
0.424811 0.477455 0.364462
0.444953 0.48687 0.348348
0.471351 0.495506 0.327398
0.504265 0.502754 0.309575
0.541436 0.508492 0.298482
0.581872 0.512291 0.290181
0.628061 0.514519 0.280293
0.672419 0.517418 0.272999
0.715755 0.520409 0.266941
0.757443 0.523369 0.26186
0.797833 0.526665 0.256291
0.832441 0.531472 0.25658
0.861997 0.537255 0.258534
0.888472 0.543526 0.261006
0.912779 0.549722 0.26302
0.935988 0.555993 0.265827
0.947845 0.557366 0.266102
0.957412 0.557275 0.265599
0.96466 0.5617 0.283207
0.312596 0.448112 0.38909
0.31606 0.4486 0.389731
0.319539 0.449165 0.390372
0.325383 0.449882 0.391165
0.331533 0.450752 0.391897
0.339147 0.452583 0.392874
0.347478 0.454765 0.394705
0.356924 0.458289 0.397452
0.366934 0.462608 0.400366
0.378302 0.468208 0.402899
0.389899 0.474388 0.404959
0.401007 0.481346 0.405295
0.413199 0.489036 0.404089
0.426764 0.497185 0.400839
0.442329 0.505318 0.395697
0.460624 0.513451 0.388159
0.481422 0.522759 0.370413
0.508324 0.531029 0.349447
0.541497 0.538155 0.332219
0.578042 0.543969 0.32105
0.617884 0.548119 0.313664
0.663157 0.550271 0.302815
0.706767 0.553048 0.295323
0.749523 0.555947 0.289311
0.790677 0.559075 0.284138
0.828046 0.562188 0.278965
0.861936 0.565911 0.27602
0.890547 0.571038 0.277592
0.914839 0.576959 0.279438
0.937606 0.583154 0.281697
0.949767 0.584405 0.281483
0.959548 0.584375 0.280903
0.966308 0.588663 0.301015
0.33698 0.479072 0.41561
0.340337 0.47921 0.415976
0.343862 0.479698 0.416556
0.349355 0.480461 0.417319
0.355642 0.481651 0.418372
0.362829 0.482887 0.419318
0.370855 0.485039 0.420768
0.380056 0.488228 0.423301
0.389731 0.49218 0.425925
0.400778 0.497215 0.428824
0.411856 0.503288 0.431205
0.423194 0.509865 0.432395
0.434897 0.517052 0.43212
0.447166 0.52491 0.429969
0.461311 0.533043 0.426154
0.477729 0.541024 0.420615
0.496117 0.549493 0.411185
0.517418 0.558282 0.392248
0.544991 0.566293 0.37145
0.578164 0.57319 0.354757
0.614099 0.579065 0.343694
0.653147 0.583383 0.336614
0.697536 0.585657 0.325689
0.740719 0.588113 0.317662
0.782925 0.59089 0.311467
0.821332 0.594034 0.30663
0.856199 0.597116 0.301625
0.888365 0.600381 0.297124
0.915999 0.604471 0.2963
0.939055 0.609888 0.298116
0.952361 0.611841 0.298054
0.96141 0.611627 0.297108
0.968017 0.616617 0.32076
0.361074 0.50956 0.441749
0.364401 0.509758 0.4421
0.367971 0.510353 0.442908
0.373602 0.511269 0.443976
0.379339 0.512032 0.444572
0.386007 0.513008 0.445365
0.393729 0.514931 0.446723
0.402457 0.517937 0.448814
0.412451 0.521675 0.451896
0.422919 0.526543 0.454612
0.434165 0.531685 0.456962
0.445579 0.537987 0.458991
0.456748 0.545312 0.459602
0.468956 0.552911 0.458824
0.481849 0.56083 0.456062
0.496132 0.568856 0.45153
0.513085 0.576608 0.445945
0.531685 0.585077 0.434379
0.553689 0.593729 0.414221
0.581125 0.601389 0.393652
0.614282 0.608087 0.37702
0.649699 0.613657 0.366308
0.687968 0.617823 0.358709
0.731502 0.62031 0.348394
0.77435 0.622873 0.340246
0.813886 0.625391 0.333806
0.849699 0.628336 0.329152
0.882292 0.631525 0.324453
0.912123 0.634653 0.320287
0.939055 0.638209 0.317357
0.954055 0.6392 0.31577
0.96376 0.639414 0.314641
0.969451 0.644022 0.340948
0.385306 0.539925 0.468345
0.388678 0.540124 0.468666
0.392309 0.54049 0.469123
0.397238 0.54139 0.469841
0.402884 0.542351 0.470665
0.409735 0.543236 0.471366
0.417075 0.544808 0.472618
0.42594 0.547494 0.474861
0.435126 0.551034 0.477256
0.445869 0.555749 0.480613
0.45655 0.560906 0.483101
0.467781 0.566567 0.485283
0.479011 0.572961 0.486564
0.490333 0.58027 0.486244
0.502495 0.588022 0.484688
0.515618 0.595834 0.481224
0.530556 0.603662 0.476249
0.547967 0.611261 0.470314
0.566583 0.619776 0.456519
0.589181 0.628489 0.436301
0.616983 0.635859 0.416037
0.649958 0.642405 0.399817
0.685023 0.647837 0.389136
0.72195 0.651881 0.381415
0.764843 0.654612 0.37116
0.806043 0.657099 0.363241
0.842542 0.659663 0.356832
0.875883 0.662211 0.351568
0.906249 0.665309 0.347219
0.934081 0.668391 0.343328
0.954009 0.669276 0.339239
0.964538 0.667399 0.336187
0.970443 0.671992 0.363027
0.409384 0.56994 0.494209
0.412467 0.570321 0.494667
0.416297 0.570886 0.495247
0.421012 0.57174 0.496071
0.426886 0.57232 0.496757
0.432853 0.572793 0.497246
0.440131 0.574319 0.498512
0.448569 0.577218 0.500801
0.457557 0.580407 0.502907
0.468162 0.584726 0.505989
0.478965 0.589487 0.50901
0.489784 0.594827 0.511055
0.500999 0.600809 0.512703
0.5122 0.607706 0.513375
0.52372 0.614984 0.512871
0.536248 0.622553 0.510384
0.549508 0.630289 0.506157
0.564813 0.637964 0.501122
0.582376 0.645594 0.494011
0.601144 0.654032 0.478523
0.624323 0.662638 0.457969
0.652705 0.669917 0.438163
0.684779 0.676127 0.421866
0.719509 0.681498 0.411429
0.755566 0.685756 0.403876
0.796536 0.688258 0.393851
0.834882 0.690776 0.385962
0.869169 0.693385 0.379583
0.900191 0.695735 0.374441
0.928145 0.698451 0.369848
0.9523 0.70074 0.366461
0.96289 0.698619 0.362951
0.969909 0.700908 0.389761
0.433478 0.599817 0.520424
0.437049 0.600336 0.521157
0.440467 0.600732 0.521523
0.444999 0.60145 0.522179
0.45005 0.601755 0.522438
0.456062 0.602426 0.522911
0.463203 0.603922 0.524132
0.471458 0.606348 0.526299
0.480491 0.609415 0.528756
0.489998 0.613123 0.53077
0.501152 0.617777 0.534188
0.511757 0.622812 0.536889
0.52253 0.628473 0.538231
0.533761 0.634852 0.539681
0.545068 0.641688 0.53959
0.556451 0.649042 0.538186
0.569146 0.656504 0.535378
0.582986 0.664179 0.530678
0.599039 0.67155 0.525399
0.616388 0.679301 0.516884
0.635523 0.687785 0.500175
0.659205 0.696101 0.479606
0.687465 0.703136 0.459983
0.719326 0.7093 0.444373
0.753262 0.714443 0.434012
0.787503 0.718837 0.426856
0.826032 0.721401 0.417136
0.861402 0.723613 0.408927
0.893339 0.726101 0.402625
0.922301 0.728756 0.397177
0.948669 0.731273 0.393149
0.959731 0.730007 0.391638
0.966918 0.731273 0.415457
0.457237 0.629389 0.546471
0.460777 0.629816 0.546853
0.464042 0.630076 0.547021
0.467979 0.630365 0.547387
0.473472 0.630991 0.548028
0.479347 0.631754 0.548623
0.486427 0.633143 0.549767
0.494118 0.634974 0.551476
0.502953 0.638163 0.553979
0.512215 0.641505 0.555886
0.522774 0.646097 0.559152
0.533532 0.650706 0.56199
0.544442 0.655879 0.563928
0.555215 0.662013 0.565454
0.565911 0.668315 0.565896
0.577432 0.675425 0.565377
0.589227 0.682612 0.563577
0.602106 0.690211 0.560006
0.616342 0.697673 0.555184
0.632822 0.704906 0.549523
0.650339 0.712642 0.539147
0.669779 0.721065 0.52163
0.693568 0.729122 0.501366
0.721462 0.735866 0.481697
0.753094 0.741955 0.466346
0.786221 0.747097 0.456443
0.817838 0.751247 0.449012
0.853071 0.753765 0.439948
0.886091 0.7561 0.431785
0.915663 0.758328 0.425238
0.942946 0.760952 0.420462
0.955642 0.76112 0.423026
0.963241 0.760983 0.442298
0.480797 0.658457 0.571847
0.484215 0.65893 0.572274
0.487617 0.659098 0.572595
0.491569 0.659556 0.573114
0.496773 0.660227 0.573648
0.502708 0.661036 0.574319
0.509285 0.661799 0.574853
0.51667 0.663508 0.576333
0.525185 0.666331 0.578714
0.534447 0.669612 0.581064
0.544686 0.673625 0.583719
0.555138 0.678233 0.58674
0.565576 0.683223 0.589059
0.576806 0.688914 0.590845
0.587503 0.695003 0.591821
0.598077 0.701488 0.591669
0.609506 0.708614 0.590631
0.621668 0.71577 0.588296
0.634562 0.72311 0.583947
0.649332 0.730419 0.579141
0.665949 0.737408 0.573114
0.683543 0.745403 0.561395
0.703288 0.753704 0.542992
0.727199 0.761471 0.522316
0.755306 0.768124 0.503258
0.785992 0.774014 0.48835
0.816892 0.778805 0.47863
0.846372 0.783062 0.471351
0.878157 0.785733 0.463355
0.908782 0.787869 0.455161
0.935637 0.790341 0.451484
0.949798 0.791135 0.456977
0.959197 0.790295 0.470573
0.504112 0.686854 0.597025
0.507454 0.687083 0.597253
0.51104 0.687633 0.597726
0.514427 0.68809 0.598245
0.519936 0.688716 0.598978
0.525338 0.689097 0.599298
0.531685 0.689982 0.599893
0.538857 0.691691 0.601129
0.547189 0.694148 0.603296
0.556161 0.697246 0.605676
0.565911 0.701137 0.608118
0.576577 0.705287 0.611124
0.587152 0.710155 0.613764
0.597833 0.715572 0.61593
0.608392 0.721233 0.617075
0.618814 0.72723 0.61735
0.629786 0.733852 0.616693
0.641245 0.74081 0.615213
0.653391 0.748028 0.6121
0.66688 0.755322 0.607675
0.681926 0.76257 0.602625
0.698634 0.769574 0.596292
0.716304 0.777539 0.582422
0.736217 0.785504 0.563638
0.760159 0.792706 0.543008
0.78764 0.798947 0.524041
0.816617 0.804334 0.510018
0.845594 0.808804 0.500282
0.872831 0.812848 0.493233
0.90103 0.815656 0.485481
0.928405 0.81767 0.482704
0.944549 0.81883 0.490272
0.95552 0.817853 0.499306
0.526741 0.714031 0.621088
0.529931 0.71426 0.621393
0.533532 0.714946 0.62208
0.537087 0.715312 0.622492
0.541787 0.715831 0.622827
0.54725 0.716396 0.623285
0.553658 0.717128 0.623774
0.560632 0.718578 0.624964
0.56878 0.720943 0.627024
0.577371 0.723857 0.629313
0.587198 0.727581 0.631983
0.597131 0.731456 0.634455
0.607797 0.736156 0.637522
0.618067 0.741161 0.639567
0.628656 0.74641 0.641184
0.638834 0.752163 0.642039
0.649561 0.758556 0.642069
0.660685 0.765423 0.641306
0.672084 0.772213 0.638773
0.684627 0.779217 0.635019
0.698207 0.786267 0.630365
0.713451 0.793072 0.624903
0.730037 0.800031 0.61706
0.747723 0.807752 0.602167
0.76846 0.815503 0.582696
