luts/EAGLE EYE.cube
TITLE "Generated by Resolve"
LUT_3D_SIZE 5
0.0334936 0.0341955 0.0341955
0.230274 0.0923476 0.0386053
0.649592 0.153063 0.0982223
0.886 0.323598 0.152422
0.911803 0.434806 0.169207
0.0483711 0.181521 0.117723
0.106386 0.203174 0.107164
0.599985 0.262638 0.10042
0.899489 0.423178 0.165835
0.91313 0.504479 0.178866
0.102251 0.481666 0.245243
0.113222 0.473167 0.194614
0.361425 0.621454 0.209567
0.821057 0.597314 0.181186
0.916945 0.662989 0.204929
0.184482 0.792584 0.426978
0.181216 0.78056 0.298299
0.303532 0.818433 0.255207
0.688609 0.922896 0.337194
0.90927 0.950896 0.396826
0.219104 0.919295 0.585428
0.219074 0.919219 0.441779
0.31107 0.937194 0.315694
0.595666 0.942931 0.342977
0.821393 0.948211 0.376486
0.0344244 0.17734 0.232258
0.102861 0.169909 0.17644
0.514138 0.279866 0.203052
0.870695 0.388495 0.178927
0.912184 0.455009 0.171862
0.0441749 0.238758 0.294606
0.144518 0.194141 0.198077
0.635676 0.259007 0.132433
0.874128 0.33756 0.151919
0.911803 0.433463 0.168994
0.089601 0.428504 0.482017
0.11902 0.546624 0.421149
0.454078 0.592096 0.256962
0.888716 0.597299 0.18999
0.916991 0.663752 0.205097
0.181064 0.779202 0.791196
0.188846 0.808667 0.655818
0.347906 0.814862 0.368078
0.734112 0.883284 0.374105
0.925536 0.847425 0.251209
0.219104 0.919295 0.912688
0.219104 0.919295 0.781552
0.239185 0.925124 0.581003
0.634684 0.952102 0.443854
0.85716 0.953063 0.426886
0.0943465 0.441794 0.577905
0.0892042 0.428367 0.460578
0.2533 0.437827 0.278767
0.781933 0.484138 0.302113
0.957336 0.654826 0.664973
0.10045 0.46627 0.595834
0.0938582 0.439185 0.583047
0.303655 0.441444 0.376516
0.794736 0.50808 0.408591
0.955276 0.641627 0.628077
0.132967 0.590906 0.733547
0.123003 0.555215 0.664454
0.53698 0.599435 0.613046
0.878843 0.671016 0.638407
0.948272 0.639002 0.510201
0.156069 0.678218 0.807218
0.165377 0.717662 0.782971
0.191943 0.819928 0.78024
0.782116 0.862638 0.601678
0.944213 0.811978 0.370108
0.187289 0.795041 0.905806
0.208728 0.87895 0.917632
0.219104 0.919295 0.858503
0.701747 0.966644 0.664042
0.905669 0.964233 0.580377
0.165331 0.714305 0.820691
0.162875 0.707362 0.787167
0.156893 0.684153 0.756176
0.728649 0.669123 0.761624
0.962325 0.703822 0.779477
0.161181 0.697444 0.82388
0.156176 0.676829 0.826825
0.151781 0.65919 0.777584
0.714595 0.643061 0.76257
0.960739 0.687449 0.761868
0.178882 0.762402 0.892836
0.164645 0.709651 0.841703
0.171862 0.715023 0.847654
0.777829 0.712474 0.843565
0.966995 0.748394 0.835615
0.184436 0.783139 0.914
0.186175 0.789899 0.913802
0.204135 0.793301 0.894545
0.816052 0.844175 0.875303
0.979995 0.862699 0.87924
0.187106 0.793622 0.914366
0.192355 0.81445 0.915099
0.199207 0.841611 0.916152
0.671809 0.963714 0.940108
0.980697 0.980697 0.806775
0.195102 0.826505 0.897398
0.194614 0.825116 0.891722
0.189761 0.805447 0.898207
0.699672 0.78558 0.928389
0.966522 0.758968 0.915908
0.190188 0.806226 0.910323
0.187686 0.795956 0.914443
0.184802 0.784741 0.910201
0.659922 0.773068 0.939178
0.969512 0.750088 0.921324
0.185611 0.787625 0.914122
0.185016 0.78529 0.914046
0.184863 0.784726 0.914015
0.686656 0.7776 0.961654
0.970123 0.767681 0.945006
0.184558 0.783566 0.914
0.187716 0.796094 0.914427
0.193011 0.817044 0.915221
0.758923 0.850889 0.96556
0.9794 0.851072 0.956909
0.187243 0.794217 0.914382
0.192645 0.815518 0.915129
0.209476 0.841856 0.91928
0.7935 0.906233 0.956619
0.988602 0.986999 0.946807
