luts/EAGLE EYE.cube
TITLE "Generated by Resolve"
LUT_3D_SIZE 33
0.0334936 0.0341955 0.0341955
0.0471351 0.040238 0.0367285
0.062501 0.0467079 0.0400397
0.0820172 0.0543069 0.0436408
0.105486 0.0631266 0.0471199
0.13286 0.072282 0.0499886
0.162737 0.0801862 0.0492714
0.194903 0.0869001 0.043946
0.230274 0.0923476 0.0386053
0.270863 0.0958877 0.0393683
0.317525 0.10045 0.0447242
0.369574 0.108339 0.0520943
0.425803 0.117372 0.0606851
0.484428 0.12575 0.0700389
0.54313 0.133593 0.0796063
0.599252 0.14078 0.0891432
0.649592 0.153063 0.0982223
0.693202 0.170993 0.106676
0.730251 0.192599 0.114504
0.762493 0.214282 0.121614
0.790219 0.235859 0.128099
0.815167 0.257496 0.134249
0.838941 0.278309 0.1402
0.862104 0.29987 0.146151
0.886 0.323598 0.152422
0.909804 0.34725 0.158709
0.910872 0.371588 0.161547
0.911208 0.394186 0.164096
0.911589 0.418814 0.167071
0.911788 0.433616 0.169039
0.911803 0.434806 0.169207
0.911803 0.434806 0.169207
0.911803 0.434806 0.169207
0.0369573 0.0455634 0.0394446
0.0454566 0.046891 0.039353
0.0594339 0.0506142 0.0406653
0.0773632 0.0574655 0.0440681
0.0997482 0.0661631 0.0480659
0.126772 0.0751354 0.0513008
0.156756 0.0829023 0.0513619
0.188998 0.0890059 0.046479
0.224353 0.0936141 0.0396429
0.264637 0.0964981 0.0389715
0.31043 0.100206 0.0438392
0.3617 0.107362 0.0509804
0.417212 0.115785 0.0593423
0.475578 0.123705 0.0685435
0.53431 0.131121 0.0780652
0.5906 0.138506 0.0875868
0.641688 0.150134 0.0967117
0.686305 0.167376 0.105272
0.724681 0.187839 0.113191
0.757687 0.208896 0.120363
0.786114 0.230182 0.12694
0.811307 0.252171 0.133135
0.834928 0.274144 0.139116
0.858457 0.29546 0.145098
0.882185 0.319081 0.151339
0.905333 0.343053 0.15758
0.910811 0.366918 0.160998
0.911147 0.390143 0.163653
0.911513 0.414466 0.166583
0.911742 0.430793 0.168673
0.911803 0.434806 0.169207
0.911803 0.434806 0.169207
0.911803 0.434806 0.169207
0.0408026 0.0589151 0.0462654
0.0462959 0.059266 0.0456703
0.0561685 0.0617075 0.0469673
0.0707103 0.063035 0.0463264
0.0913863 0.0687266 0.0486915
0.117021 0.0786297 0.0528115
0.147066 0.0883955 0.0542458
0.180484 0.0963149 0.05066
0.217243 0.101411 0.0428016
0.259113 0.102922 0.0393378
0.307286 0.1037 0.0437476
0.360342 0.108797 0.0509041
0.416953 0.116335 0.0593423
0.475578 0.123857 0.068574
0.533883 0.13135 0.0780499
0.590158 0.138979 0.087541
0.642008 0.148608 0.0966659
0.686702 0.164538 0.105165
0.72491 0.184329 0.113008
0.757931 0.204913 0.120104
0.786389 0.225681 0.126619
0.81149 0.247044 0.132723
0.835126 0.268894 0.138674
0.858244 0.291356 0.144701
0.881819 0.315084 0.150912
0.903456 0.340047 0.156939
0.910796 0.364111 0.160678
0.911116 0.388296 0.163455
0.911513 0.413642 0.166522
0.911742 0.429862 0.168551
0.911803 0.434104 0.169116
0.911803 0.434089 0.1691
0.911803 0.434028 0.1691
0.0452277 0.0756695 0.0555428
0.0489815 0.0745708 0.0529641
0.0555428 0.0765698 0.0542153
0.0654307 0.0803082 0.0566415
0.0790723 0.0823377 0.0567636
0.101457 0.0807355 0.0537423
0.131456 0.0898146 0.0563821
0.165621 0.100053 0.0549935
0.203891 0.108827 0.0476539
0.24625 0.115953 0.0411231
0.294621 0.120455 0.0437476
0.350744 0.124071 0.0509346
0.411887 0.129259 0.0596475
0.474037 0.135729 0.0692302
0.535012 0.14284 0.0790723
0.592599 0.150622 0.0887465
0.645258 0.158877 0.0978714
0.691722 0.168124 0.106264
0.731304 0.179751 0.113771
0.763958 0.196963 0.120592
0.791501 0.216968 0.126879
0.81619 0.237095 0.132769
0.839323 0.258549 0.138567
0.861936 0.281621 0.144457
0.885054 0.306371 0.150622
0.903822 0.332113 0.156237
0.910674 0.357137 0.159945
0.911025 0.382055 0.162737
0.911406 0.407645 0.165789
0.911681 0.42501 0.167926
0.911757 0.429755 0.168521
0.911757 0.429862 0.168536
0.911757 0.429709 0.168505
0.0487831 0.0954757 0.0669718
0.0519417 0.0941176 0.0626841
0.0571756 0.0937209 0.0616312
0.0635996 0.0964065 0.0627909
0.0733196 0.101717 0.0661631
0.0867781 0.1075 0.0710918
0.109224 0.103487 0.0641642
0.142824 0.103456 0.0611124
0.183169 0.112276 0.0559243
0.227878 0.121584 0.0467079
0.277729 0.130785 0.0435035
0.333623 0.141573 0.0504616
0.394766 0.152987 0.0594644
0.460945 0.161746 0.0695048
0.527474 0.168872 0.0799878
0.589792 0.176364 0.0902876
0.645716 0.184009 0.0998398
0.694133 0.192203 0.108415
0.734981 0.201282 0.115969
0.769024 0.21146 0.12256
0.797482 0.223285 0.128405
0.822599 0.237415 0.133898
0.845792 0.255436 0.139422
0.868284 0.277089 0.145144
0.891218 0.301076 0.151171
0.906554 0.325353 0.156024
0.910582 0.349691 0.159136
0.910933 0.375189 0.161944
0.911315 0.401328 0.165026
0.911589 0.418296 0.167071
0.91162 0.420859 0.167376
0.911604 0.421088 0.167391
0.911604 0.420859 0.167361
0.0502937 0.116793 0.0802014
0.0534066 0.115618 0.0748302
0.0584726 0.1149 0.0714427
0.0640421 0.115038 0.0712596
0.0709239 0.118059 0.0723583
0.0806287 0.123766 0.0758221
0.0952163 0.130892 0.0817578
0.120836 0.13344 0.0825971
0.15581 0.124987 0.0711986
0.20206 0.12842 0.0603037
0.252628 0.136339 0.0495766
0.311269 0.147738 0.0491646
0.377157 0.162707 0.0581826
0.446281 0.178088 0.0690471
0.515206 0.19176 0.0802625
0.581155 0.203418 0.09131
0.640894 0.213291 0.101534
0.692714 0.222614 0.110674
0.735576 0.232029 0.118547
0.770871 0.241917 0.125338
0.80032 0.252888 0.131334
0.826032 0.265385 0.136858
0.850126 0.279789 0.142275
0.873869 0.29633 0.147829
0.896773 0.315145 0.153445
0.909621 0.334829 0.157488
0.910643 0.355154 0.159731
0.910948 0.377935 0.162264
0.911284 0.400183 0.164858
0.911482 0.413199 0.16643
0.911498 0.413443 0.166445
0.911498 0.413352 0.166415
0.911498 0.41326 0.1664
0.0504616 0.13814 0.093019
0.0535286 0.137346 0.0883345
0.0581521 0.136873 0.0841382
0.064622 0.136675 0.0819257
0.0705577 0.137469 0.0821088
0.0775769 0.140658 0.0831006
0.0880903 0.147295 0.0868391
0.105028 0.155795 0.0931868
0.134417 0.161776 0.0963455
0.174075 0.154635 0.0850538
0.223713 0.151308 0.0687877
0.280232 0.15465 0.054902
0.349523 0.16878 0.0559854
0.424842 0.186481 0.0670481
0.500435 0.204349 0.0794385
0.570825 0.221164 0.0914931
0.633982 0.236637 0.102663
0.687968 0.250614 0.11252
0.732647 0.263462 0.120943
0.769833 0.275334 0.128206
0.800687 0.287587 0.134585
0.827405 0.301244 0.140459
0.852232 0.316136 0.14612
0.876905 0.33257 0.151873
0.89926 0.350286 0.157366
0.91075 0.368475 0.161196
0.911086 0.386419 0.163272
0.911345 0.405158 0.165499
0.911604 0.421363 0.167483
0.911727 0.427649 0.168261
0.911727 0.427207 0.168215
0.911727 0.426764 0.168139
0.911727 0.427192 0.168185
0.0498054 0.159548 0.105241
0.0533455 0.158785 0.100984
0.0572518 0.158755 0.0973831
0.0641489 0.158465 0.0937057
0.0707713 0.159197 0.0927749
0.0766461 0.16054 0.0932479
0.0846571 0.164767 0.0943465
0.0970626 0.173526 0.0978103
0.116793 0.184421 0.103563
0.149599 0.1944 0.107164
0.195956 0.192752 0.0967117
0.248051 0.181918 0.0780194
0.312352 0.179599 0.0615244
0.390311 0.193683 0.0643931
0.473442 0.212528 0.0766308
0.552575 0.232486 0.0900282
0.622477 0.251789 0.10251
0.68127 0.270069 0.113481
0.728862 0.287129 0.122744
0.76762 0.302831 0.130632
0.799146 0.318791 0.137514
0.826642 0.335439 0.143877
0.852262 0.352438 0.14995
0.877729 0.370398 0.156085
0.900252 0.389517 0.161883
0.911391 0.408789 0.165942
0.911711 0.427588 0.168322
0.912032 0.445731 0.170672
0.912261 0.459052 0.172442
0.912322 0.461738 0.172793
0.912306 0.461112 0.172717
0.912291 0.459953 0.172564
0.912306 0.460533 0.172641
0.0483711 0.181521 0.117723
0.0526436 0.180453 0.11342
0.0566415 0.180407 0.110124
0.0632639 0.180362 0.106294
0.0708171 0.180758 0.103792
0.0766461 0.182437 0.103624
0.0830243 0.184909 0.103899
0.0925765 0.191669 0.104875
0.106386 0.203174 0.107164
0.128527 0.217151 0.110857
0.164797 0.231464 0.113603
0.217044 0.23566 0.106783
0.277195 0.22208 0.0885328
0.349493 0.213352 0.0710307
0.432685 0.222553 0.0738079
0.52076 0.241474 0.0865949
0.599985 0.262638 0.10042
0.667399 0.283772 0.112871
0.721569 0.304189 0.123476
0.763607 0.323522 0.132265
0.796811 0.342779 0.139803
0.825116 0.361563 0.146578
0.850965 0.380697 0.152987
0.87631 0.401465 0.159518
0.899489 0.423178 0.165835
0.912001 0.444221 0.170443
0.912322 0.463691 0.173068
0.912703 0.482734 0.175723
0.912963 0.497017 0.177768
0.913024 0.500603 0.178302
0.913085 0.502937 0.178668
0.91313 0.503883 0.17879
0.91313 0.504479 0.178866
0.0471199 0.204852 0.130968
0.0511788 0.203449 0.126223
0.0552377 0.203403 0.122759
0.0611734 0.203784 0.118868
0.0692302 0.204379 0.115023
0.075349 0.206332 0.113741
0.0809339 0.20914 0.113436
0.0882429 0.213672 0.113085
0.0983902 0.224231 0.112505
0.113848 0.239475 0.112215
0.140719 0.256184 0.114992
0.183688 0.273884 0.120455
0.243458 0.283925 0.120546
0.314031 0.274067 0.104891
0.391638 0.258228 0.0847028
0.475242 0.25658 0.0834974
0.565484 0.27422 0.09691
0.64329 0.295262 0.110628
0.705882 0.317479 0.122637
0.754391 0.338964 0.132647
0.791638 0.360311 0.141054
0.822003 0.381033 0.148409
0.84863 0.402518 0.155276
0.874235 0.425132 0.162173
0.89807 0.447425 0.16875
0.912276 0.46949 0.173831
0.91284 0.490639 0.176852
0.913268 0.511727 0.179919
0.913603 0.528054 0.182376
0.913695 0.532509 0.183078
0.913787 0.53611 0.183642
0.913848 0.538277 0.183948
0.913863 0.538689 0.184009
0.0462348 0.232807 0.143557
0.0487221 0.230625 0.138399
0.0519265 0.230594 0.134859
0.0567941 0.231098 0.130648
0.064271 0.232136 0.12607
0.0713817 0.234073 0.122988
0.0767071 0.237217 0.122011
0.0831159 0.241459 0.121126
0.0916152 0.24889 0.1196
0.104265 0.263615 0.11751
0.125856 0.281666 0.118044
0.161898 0.301305 0.12459
0.211658 0.322698 0.134173
0.277958 0.339239 0.138811
0.357015 0.336065 0.1252
0.436561 0.313481 0.10132
0.518853 0.297841 0.0939345
0.606989 0.311543 0.107576
0.681224 0.330632 0.120638
0.738308 0.352667 0.131899
0.781186 0.374853 0.141253
0.814923 0.396765 0.149279
0.843793 0.419181 0.156664
0.870588 0.442191 0.163836
0.895582 0.465461 0.170779
0.912032 0.488716 0.17644
0.913237 0.510155 0.17969
0.91368 0.530938 0.182834
0.914076 0.549187 0.185672
0.914199 0.554543 0.186526
0.91426 0.557488 0.187015
0.91429 0.559808 0.18735
0.914305 0.560082 0.187396
0.0496376 0.265812 0.156481
0.0496681 0.262486 0.15082
0.0510109 0.261753 0.147066
0.0542 0.261891 0.142824
0.0601205 0.262989 0.138125
0.0679179 0.265034 0.133776
0.0740673 0.26836 0.13196
0.0804456 0.27274 0.131014
0.0888685 0.278813 0.129686
0.10074 0.290211 0.127733
0.119219 0.309209 0.12694
0.149081 0.330541 0.130846
0.192035 0.353414 0.139757
0.247379 0.378058 0.150134
0.319326 0.399649 0.157015
0.402655 0.403235 0.149096
0.482719 0.378668 0.125414
0.565042 0.350271 0.107713
0.644831 0.353475 0.118624
0.713558 0.369528 0.13048
0.764996 0.388861 0.140612
0.803754 0.411154 0.149462
0.835492 0.433799 0.157382
0.8636 0.456825 0.164813
0.890471 0.48011 0.172045
0.910964 0.503151 0.178347
0.913542 0.524605 0.181857
0.914031 0.546258 0.185214
0.914473 0.566506 0.188434
0.914687 0.575311 0.189853
0.914748 0.577508 0.190204
0.914763 0.579675 0.19057
0.914763 0.579934 0.190616
0.0579385 0.303441 0.172335
0.0569467 0.299138 0.165408
0.0567788 0.297658 0.161242
0.0578012 0.296956 0.15697
0.0615854 0.297383 0.152224
0.0688945 0.29958 0.147646
0.0763104 0.302937 0.144549
0.0828717 0.307607 0.143526
0.0911116 0.313359 0.142336
0.102113 0.32221 0.140749
0.117983 0.338827 0.139071
0.141894 0.361593 0.139452
0.179721 0.385763 0.146044
0.228946 0.411337 0.155886
0.290318 0.438117 0.166705
0.366537 0.462898 0.176059
0.450828 0.471778 0.173739
0.531609 0.449271 0.149828
0.609949 0.412177 0.123857
0.679561 0.399207 0.130022
0.741085 0.411688 0.140352
0.787823 0.427604 0.149355
0.823636 0.447639 0.157519
0.853666 0.470436 0.16524
0.882383 0.493599 0.172808
0.906798 0.516503 0.17969
0.913832 0.537697 0.183871
0.91429 0.558129 0.187106
0.914763 0.578195 0.190341
0.915068 0.592126 0.19263
0.915129 0.593454 0.192859
0.915175 0.595376 0.193149
0.915175 0.595636 0.193194
0.0679179 0.34493 0.18967
0.0667124 0.33994 0.181811
0.0662089 0.337881 0.176913
0.0660258 0.336599 0.172519
0.0673381 0.335866 0.16762
0.0728771 0.337423 0.16286
0.0810559 0.340932 0.158709
0.087892 0.345525 0.156985
0.0958267 0.351354 0.155779
0.105913 0.358938 0.154131
0.119432 0.371237 0.151965
0.139696 0.393408 0.150271
0.171664 0.418814 0.15317
0.217243 0.44506 0.162173
0.272755 0.472389 0.172457
0.339742 0.499825 0.183368
0.418296 0.525017 0.1935
0.500877 0.537026 0.195346
0.579019 0.520424 0.175814
0.6533 0.480583 0.145144
0.71136 0.448585 0.141939
0.765606 0.456199 0.150423
0.807263 0.468986 0.158236
0.841199 0.485023 0.16556
0.87155 0.506081 0.173083
0.89868 0.528603 0.180362
0.913878 0.550286 0.185824
0.914565 0.569726 0.188952
0.915022 0.589334 0.192142
0.91545 0.60734 0.195193
0.915526 0.610681 0.195804
0.915602 0.612299 0.196033
0.915602 0.612619 0.196078
0.0789197 0.389578 0.207706
0.0775311 0.383963 0.198825
0.0768749 0.381369 0.193057
0.0764782 0.379736 0.188434
0.076173 0.377859 0.182925
0.0786755 0.378103 0.178164
0.0859998 0.381018 0.173404
0.0936904 0.385641 0.170504
0.101244 0.391394 0.169162
0.110765 0.398444 0.167376
0.122988 0.408087 0.164965
0.140047 0.425727 0.162112
0.167056 0.451682 0.16141
0.208621 0.478325 0.168521
0.260929 0.505806 0.178408
0.322621 0.533379 0.188876
0.393423 0.560159 0.199664
0.472114 0.583993 0.209979
0.550988 0.597314 0.214221
0.622461 0.587274 0.198566
0.686641 0.549279 0.165682
0.740032 0.50605 0.155108
0.787243 0.501396 0.160494
0.824842 0.511162 0.167224
0.857267 0.524269 0.173831
0.887434 0.54049 0.180591
0.911421 0.561532 0.187243
0.914794 0.580911 0.190784
0.915282 0.600015 0.193973
0.91577 0.619287 0.197208
0.915984 0.627634 0.198657
0.91603 0.629099 0.198901
0.91603 0.629374 0.198962
0.0904707 0.435477 0.226261
0.0889143 0.429282 0.215946
0.0881514 0.426322 0.209384
0.0876936 0.424567 0.204242
0.0870985 0.422034 0.198032
0.0870832 0.420722 0.192752
0.0914626 0.4224 0.18822
0.0995346 0.426551 0.183993
0.107134 0.432288 0.182116
0.116396 0.439063 0.180133
0.127749 0.447532 0.177569
0.142641 0.46041 0.174075
0.165606 0.483848 0.171252
0.202533 0.510918 0.174929
0.251637 0.537972 0.184253
0.30956 0.565209 0.194293
0.375463 0.591684 0.2047
0.448508 0.616541 0.215152
0.524819 0.638071 0.224964
0.597803 0.65153 0.230442
0.660716 0.64715 0.2215
0.717708 0.619028 0.195392
0.766491 0.569177 0.169421
0.805753 0.547127 0.17052
0.84126 0.553429 0.176287
0.872831 0.563745 0.182269
0.90219 0.576547 0.188373
0.915053 0.591272 0.192493
0.915526 0.609689 0.19559
0.916014 0.628214 0.198764
0.916442 0.643473 0.20145
0.916487 0.646067 0.201907
0.916487 0.646403 0.201968
0.102251 0.481666 0.245243
0.100496 0.474907 0.233692
0.0995956 0.471458 0.22591
0.0991226 0.469627 0.219989
0.0985122 0.467094 0.213352
0.0979019 0.464668 0.206775
0.0986343 0.464378 0.202197
0.105028 0.467582 0.197559
0.113222 0.473167 0.194614
0.122148 0.479652 0.192447
0.133165 0.487633 0.1897
0.146792 0.497887 0.185992
0.165911 0.515221 0.181765
0.198032 0.542062 0.181537
0.244495 0.568597 0.189914
0.299153 0.595514 0.199542
0.361425 0.621454 0.209567
0.429633 0.645487 0.219684
0.501686 0.667689 0.229664
0.574166 0.686976 0.23917
0.640955 0.699947 0.245884
0.695583 0.699809 0.243061
0.744259 0.681407 0.223529
0.786084 0.635081 0.183856
0.821057 0.597314 0.181186
0.856596 0.595346 0.185428
0.887617 0.603006 0.190829
0.914214 0.612558 0.195941
0.915785 0.621897 0.197665
0.916259 0.637186 0.200305
0.916747 0.654932 0.203479
0.916915 0.661891 0.20473
0.916945 0.662989 0.204929
0.113954 0.526955 0.264942
0.112123 0.51986 0.251606
0.111147 0.516045 0.242512
0.110582 0.513848 0.235615
0.109941 0.511498 0.228611
0.109209 0.508629 0.220859
0.108965 0.507439 0.215106
0.111131 0.508446 0.210971
0.118898 0.513344 0.206943
0.128038 0.519966 0.204364
0.138735 0.527413 0.201389
0.151522 0.53611 0.197559
0.168246 0.54902 0.192569
0.195209 0.572106 0.189578
0.238437 0.597864 0.195468
0.290181 0.623911 0.204517
0.349096 0.649058 0.21413
0.414069 0.672877 0.224063
0.482078 0.694514 0.233936
0.551522 0.713909 0.243626
0.619211 0.730816 0.252964
0.679393 0.742687 0.260487
0.72668 0.744823 0.261845
0.767971 0.735164 0.250019
0.801816 0.700069 0.206928
0.836027 0.655283 0.193515
0.869932 0.637491 0.194507
0.902602 0.641642 0.199374
0.915816 0.647105 0.201984
0.916701 0.653971 0.203326
0.917021 0.664302 0.205188
0.917342 0.676402 0.20737
0.917403 0.678965 0.207828
0.125444 0.57116 0.285451
0.123629 0.564187 0.270497
0.122591 0.56022 0.260136
0.121889 0.55758 0.25185
0.12134 0.555474 0.244526
0.120516 0.552239 0.235203
0.119966 0.550164 0.228031
0.120134 0.550057 0.223255
0.124605 0.553017 0.219348
0.133654 0.559213 0.215869
0.144411 0.566598 0.21265
0.156863 0.574823 0.208606
0.171969 0.584909 0.203372
0.194156 0.601343 0.198657
0.23299 0.626261 0.201221
0.282445 0.651026 0.209384
0.338293 0.675319 0.218524
0.399786 0.69836 0.228229
0.464897 0.719127 0.237919
0.531685 0.738094 0.24773
0.596902 0.75494 0.25742
0.658793 0.769345 0.26685
0.712581 0.780056 0.275166
0.753887 0.783429 0.279438
0.788602 0.779324 0.273671
0.817945 0.760327 0.245228
0.849073 0.716579 0.206561
0.879774 0.683848 0.204074
0.9122 0.679805 0.20737
0.917205 0.681331 0.208255
0.917601 0.685405 0.209018
0.917845 0.693004 0.210407
0.917906 0.694957 0.210773
0.136584 0.61355 0.306325
0.134813 0.606836 0.289769
0.133791 0.60296 0.277989
0.133059 0.600122 0.268437
0.132555 0.59823 0.260746
0.131746 0.595132 0.250462
0.13106 0.592493 0.241306
0.130938 0.591989 0.235309
0.131868 0.592584 0.231128
0.139086 0.597757 0.22742
0.150027 0.605158 0.223697
0.162325 0.613016 0.219471
0.176608 0.621668 0.21413
0.19556 0.633555 0.208209
0.22797 0.653956 0.207187
0.275288 0.677455 0.214496
0.328328 0.700298 0.222965
0.386481 0.722301 0.232181
0.449302 0.742397 0.241917
0.513359 0.760433 0.251774
0.576638 0.776242 0.261662
0.637034 0.790311 0.271565
0.692744 0.802518 0.281331
0.740291 0.812131 0.290394
0.777356 0.816693 0.296941
0.807355 0.816175 0.297047
0.835477 0.808957 0.289738
0.856138 0.773846 0.2271
0.889906 0.736156 0.21561
0.914168 0.719432 0.214771
0.918318 0.714824 0.21442
0.918563 0.717159 0.214893
0.918593 0.718273 0.215106
0.147372 0.654337 0.328496
0.145708 0.64802 0.310018
0.144686 0.64419 0.296773
0.144015 0.641688 0.28603
0.143496 0.639704 0.277104
0.142794 0.637018 0.266438
0.142016 0.634089 0.255406
0.141695 0.632822 0.247547
0.141878 0.633082 0.242512
0.144869 0.635676 0.238834
0.155322 0.642573 0.234684
0.167834 0.650355 0.230076
0.18172 0.658442 0.224674
0.198611 0.667918 0.218173
0.224842 0.682033 0.21416
0.269078 0.703044 0.220035
0.319631 0.724636 0.227649
0.375113 0.745266 0.236423
0.434821 0.764202 0.245945
0.496483 0.781094 0.255879
0.558129 0.796155 0.266102
0.617212 0.809522 0.276432
0.671733 0.821576 0.286687
0.721218 0.832532 0.297124
0.763378 0.841856 0.307256
0.796979 0.847547 0.315663
0.82414 0.848966 0.320653
0.849805 0.844938 0.316304
0.870268 0.82475 0.276738
0.898344 0.790036 0.233051
0.91632 0.761135 0.222873
0.9196 0.749142 0.220935
0.91957 0.747204 0.220569
0.157626 0.692882 0.351232
0.1561 0.687236 0.331151
0.1552 0.683848 0.316503
0.154543 0.681437 0.304387
0.15407 0.679652 0.294514
0.15349 0.67744 0.283619
0.152758 0.674601 0.270695
0.15227 0.672755 0.260777
0.152285 0.67277 0.2542
0.153231 0.674006 0.24976
0.16054 0.679225 0.245808
0.173251 0.6869 0.240787
0.18706 0.694606 0.235111
0.202991 0.70277 0.228305
0.225406 0.712932 0.222599
0.264012 0.728649 0.226032
0.312322 0.748623 0.233158
0.365682 0.76733 0.241245
0.422858 0.78497 0.250538
0.482155 0.800916 0.260594
0.541497 0.815167 0.271046
0.598917 0.828168 0.281743
0.652522 0.839918 0.29247
0.700908 0.850858 0.303288
0.744045 0.861189 0.31426
0.780713 0.870451 0.325124
0.812238 0.877638 0.335256
0.838407 0.88043 0.342535
0.862837 0.878767 0.341772
0.887816 0.870268 0.333883
0.906065 0.840772 0.273136
0.91809 0.805493 0.23711
0.921172 0.795316 0.229969
0.167315 0.729015 0.375387
0.165988 0.724102 0.353597
0.165225 0.721218 0.337285
0.164675 0.719203 0.323949
0.164248 0.717617 0.312612
0.163867 0.716167 0.302113
0.163088 0.713329 0.287343
0.1626 0.711559 0.275517
0.162524 0.711162 0.266941
0.16286 0.71191 0.26125
0.166247 0.714748 0.25716
0.178683 0.721889 0.251514
0.19263 0.729381 0.245579
0.208103 0.736858 0.238651
0.228214 0.744869 0.231952
0.261509 0.755077 0.232731
0.306615 0.771634 0.2392
0.357488 0.788846 0.247013
0.412589 0.80499 0.256077
0.469871 0.820081 0.266133
0.52668 0.833997 0.276814
0.582269 0.846708 0.287816
0.634272 0.858457 0.298909
0.681865 0.869657 0.310048
0.724392 0.880293 0.321218
0.761608 0.890471 0.332509
0.794247 0.900359 0.34403
0.823667 0.908904 0.355001
0.850752 0.914015 0.364126
0.875944 0.914504 0.36965
0.902144 0.909865 0.364889
0.92166 0.89015 0.334768
0.92694 0.882582 0.322683
0.176318 0.762402 0.400168
0.17525 0.75848 0.37734
0.174563 0.755993 0.360052
0.174121 0.754391 0.34548
0.173724 0.753002 0.332937
0.173449 0.751949 0.321981
0.17293 0.749966 0.306386
0.172473 0.748165 0.291875
0.172244 0.747311 0.281422
0.172351 0.7476 0.273976
0.174075 0.749401 0.268894
0.184955 0.755444 0.262577
0.198764 0.762295 0.256291
0.214084 0.769162 0.249378
0.232959 0.776226 0.242329
0.26215 0.783459 0.240787
0.303243 0.794278 0.246296
0.351858 0.809827 0.254108
0.404211 0.824857 0.263081
0.458946 0.839399 0.273045
0.514229 0.852995 0.283696
0.567788 0.86598 0.295003
0.617914 0.878065 0.30631
0.664332 0.88957 0.317647
0.705867 0.900664 0.328939
0.742733 0.911635 0.34023
0.775311 0.922454 0.351629
0.804501 0.933364 0.363165
0.832258 0.940734 0.373999
0.860777 0.943557 0.382513
0.887495 0.944656 0.389136
0.915099 0.942718 0.389761
0.9243 0.941909 0.389441
0.184482 0.792584 0.426978
0.183627 0.789425 0.402899
0.183139 0.787671 0.384421
0.182818 0.78648 0.368917
0.182513 0.785336 0.355184
0.1823 0.784558 0.343389
0.181918 0.783169 0.327749
0.181445 0.781445 0.311101
0.181216 0.78056 0.298299
0.181247 0.780652 0.289204
0.182605 0.782086 0.28246
0.192279 0.786831 0.27483
0.206302 0.793088 0.267567
0.221225 0.799237 0.260838
0.239414 0.805768 0.253819
0.265858 0.811658 0.250645
0.303532 0.818433 0.255207
0.348592 0.830762 0.262486
0.398352 0.844984 0.271519
0.450797 0.859205 0.281636
0.503624 0.872923 0.292332
0.555337 0.886015 0.303395
0.60383 0.898863 0.314824
0.648142 0.911116 0.326024
0.688609 0.922896 0.337194
0.72491 0.93341 0.348135
0.757076 0.940826 0.358251
0.786007 0.94493 0.366613
0.812955 0.94728 0.373938
0.840238 0.948653 0.38085
0.869368 0.949722 0.387915
0.899184 0.950607 0.394629
0.90927 0.950896 0.396826
0.19202 0.820188 0.454749
0.191257 0.81738 0.429801
0.19086 0.816022 0.4103
0.190631 0.815152 0.393973
0.190478 0.814542 0.379492
0.190311 0.813947 0.366842
0.190082 0.813107 0.352361
0.189654 0.811521 0.333547
0.189441 0.810788 0.31873
0.18941 0.810666 0.307546
0.190646 0.811826 0.299321
0.200473 0.816144 0.289265
0.215473 0.821912 0.279973
0.229877 0.827573 0.273503
0.247379 0.833478 0.266697
0.271519 0.839185 0.262181
0.307286 0.844297 0.266239
0.347814 0.852216 0.272358
0.395148 0.86566 0.281331
0.444923 0.879896 0.291569
0.494865 0.893858 0.302296
0.544091 0.90779 0.31339
0.5906 0.921263 0.324376
0.633646 0.933547 0.33521
0.672206 0.939986 0.344457
0.707317 0.943206 0.352224
0.738766 0.945327 0.358633
0.768048 0.946456 0.364614
0.795163 0.947326 0.370443
0.821378 0.948196 0.376532
0.848356 0.949142 0.383032
0.877928 0.950149 0.389975
0.888884 0.9505 0.392508
0.199237 0.846616 0.48365
0.19855 0.843992 0.458351
0.198215 0.842756 0.438499
0.198016 0.842084 0.421088
0.197894 0.841688 0.40621
0.197818 0.841382 0.392645
0.197742 0.841138 0.379187
0.197421 0.839902 0.359258
0.197208 0.839063 0.342138
0.197162 0.838926 0.329168
0.198566 0.839979 0.319142
0.209567 0.844434 0.306889
0.226505 0.850263 0.294286
0.240558 0.855421 0.287572
0.257282 0.861112 0.281178
0.279637 0.866926 0.275914
0.313802 0.871717 0.279316
0.3514 0.87747 0.284718
0.393774 0.887312 0.292332
0.44126 0.901976 0.302678
0.488792 0.916716 0.313512
0.534936 0.930648 0.3243
0.57818 0.937896 0.333471
0.618204 0.941878 0.340795
0.655146 0.943648 0.34612
0.689281 0.944472 0.351125
0.720974 0.945251 0.356069
0.750683 0.946059 0.361364
0.778256 0.946807 0.366812
0.804349 0.947631 0.37258
