luts/EAGLE EYE.cube
TITLE "Generated by Resolve"
LUT_3D_SIZE 9
0.0334936 0.0341955 0.0341955
0.105486 0.0631266 0.0471199
0.230274 0.0923476 0.0386053
0.425803 0.117372 0.0606851
0.649592 0.153063 0.0982223
0.790219 0.235859 0.128099
0.886 0.323598 0.152422
0.911589 0.418814 0.167071
0.911803 0.434806 0.169207
0.0487831 0.0954757 0.0669718
0.0733196 0.101717 0.0661631
0.183169 0.112276 0.0559243
0.394766 0.152987 0.0594644
0.645716 0.184009 0.0998398
0.797482 0.223285 0.128405
0.891218 0.301076 0.151171
0.911315 0.401328 0.165026
0.911604 0.420859 0.167361
0.0483711 0.181521 0.117723
0.0708171 0.180758 0.103792
0.106386 0.203174 0.107164
0.277195 0.22208 0.0885328
0.599985 0.262638 0.10042
0.796811 0.342779 0.139803
0.899489 0.423178 0.165835
0.912963 0.497017 0.177768
0.91313 0.504479 0.178866
0.0579385 0.303441 0.172335
0.0615854 0.297383 0.152224
0.0911116 0.313359 0.142336
0.179721 0.385763 0.146044
0.450828 0.471778 0.173739
0.741085 0.411688 0.140352
0.882383 0.493599 0.172808
0.914763 0.578195 0.190341
0.915175 0.595636 0.193194
0.102251 0.481666 0.245243
0.0985122 0.467094 0.213352
0.113222 0.473167 0.194614
0.165911 0.515221 0.181765
0.361425 0.621454 0.209567
0.640955 0.699947 0.245884
0.821057 0.597314 0.181186
0.915785 0.621897 0.197665
0.916945 0.662989 0.204929
0.147372 0.654337 0.328496
0.143496 0.639704 0.277104
0.141878 0.633082 0.242512
0.18172 0.658442 0.224674
0.319631 0.724636 0.227649
0.558129 0.796155 0.266102
0.763378 0.841856 0.307256
0.870268 0.82475 0.276738
0.91957 0.747204 0.220569
0.184482 0.792584 0.426978
0.182513 0.785336 0.355184
0.181216 0.78056 0.298299
0.206302 0.793088 0.267567
0.303532 0.818433 0.255207
0.503624 0.872923 0.292332
0.688609 0.922896 0.337194
0.812955 0.94728 0.373938
0.90927 0.950896 0.396826
0.213764 0.899809 0.542535
0.213077 0.897307 0.464866
0.212924 0.89662 0.398016
0.250004 0.909377 0.332464
0.327108 0.929992 0.3084
0.473335 0.940276 0.327749
0.624094 0.943267 0.344335
0.751415 0.946075 0.361486
0.840452 0.948852 0.381079
0.219104 0.919295 0.585428
0.219104 0.919295 0.511971
0.219074 0.919219 0.441779
0.240528 0.922438 0.365179
0.31107 0.937194 0.315694
0.442771 0.940307 0.324559
0.595666 0.942931 0.342977
0.728222 0.94551 0.358022
0.821393 0.948211 0.376486
0.0352483 0.0916457 0.110689
0.0700694 0.0869917 0.0953689
0.172793 0.125734 0.113497
0.37499 0.156222 0.0816968
0.636774 0.190265 0.0988479
0.79266 0.242573 0.129076
0.889281 0.32578 0.153201
0.911574 0.418906 0.167117
0.911803 0.434806 0.169207
0.0359808 0.109087 0.124483
0.0728618 0.0932631 0.0951858
0.198016 0.122316 0.0859693
0.400198 0.146746 0.0596933
0.630655 0.178042 0.09691
0.783475 0.218311 0.125566
0.877379 0.299611 0.148714
0.911208 0.394659 0.164202
0.911727 0.429068 0.168444
0.0390784 0.168093 0.172213
0.0586862 0.180407 0.140337
0.162844 0.195087 0.119463
0.375814 0.202762 0.0680247
0.654521 0.27715 0.110155
0.797467 0.335866 0.139147
0.885054 0.38645 0.159167
0.911955 0.441093 0.170047
0.912276 0.45919 0.172442
0.0663462 0.338537 0.302022
0.0648661 0.332311 0.229282
0.0931563 0.305562 0.164462
0.234821 0.372335 0.154894
0.553323 0.374014 0.111955
0.797024 0.424277 0.150271
0.905577 0.509682 0.178515
0.91487 0.583276 0.19118
0.915084 0.590951 0.192447
0.122408 0.559731 0.462684
0.112169 0.520058 0.34316
0.101305 0.47776 0.247379
0.187976 0.503151 0.192737
0.424598 0.602792 0.215244
0.701442 0.644312 0.215473
0.868772 0.579614 0.184405
0.916274 0.63801 0.200473
0.916854 0.659052 0.204242
0.160891 0.705135 0.578866
0.155001 0.682963 0.469444
0.147387 0.654292 0.339956
0.195148 0.654505 0.251942
0.359091 0.704097 0.23975
0.611994 0.780667 0.271061
0.79617 0.820768 0.303258
0.908919 0.739422 0.217945
0.91899 0.729549 0.217212
0.189776 0.812024 0.676921
0.187579 0.803891 0.590707
0.184512 0.792615 0.454063
0.188495 0.785611 0.344808
0.335195 0.808469 0.278309
0.537667 0.853071 0.300206
0.720363 0.900404 0.340032
0.840742 0.937377 0.377127
0.938491 0.930068 0.369818
0.21532 0.905516 0.754833
0.214572 0.9028 0.690394
0.21355 0.898939 0.580728
0.21326 0.897078 0.462409
0.339651 0.92018 0.34519
0.499245 0.934279 0.351644
0.649302 0.94612 0.370626
0.770214 0.947921 0.378729
0.865141 0.950042 0.39057
0.219104 0.919295 0.779767
0.219104 0.919295 0.725521
0.219104 0.919295 0.63418
0.219104 0.919295 0.518608
0.323583 0.939635 0.386236
0.473411 0.944259 0.363226
0.619715 0.946044 0.372305
0.744762 0.947936 0.381338
0.840848 0.949615 0.388846
0.0344244 0.17734 0.232258
0.0368658 0.169238 0.202655
0.102861 0.169909 0.17644
0.257313 0.202502 0.172244
0.514138 0.279866 0.203052
0.748623 0.332769 0.189792
0.870695 0.388495 0.178927
0.912108 0.444236 0.170764
0.912184 0.455009 0.171862
0.0358892 0.18555 0.230442
0.0379797 0.168658 0.209277
0.108965 0.170275 0.183978
0.276997 0.20528 0.17705
0.549416 0.266835 0.184054
0.758953 0.321172 0.165484
0.86978 0.365148 0.158541
0.911604 0.420951 0.167391
0.912032 0.445975 0.170642
0.0441749 0.238758 0.294606
0.0416724 0.201907 0.229572
0.144518 0.194141 0.198077
0.367941 0.221881 0.178714
0.635676 0.259007 0.132433
0.785885 0.295933 0.132906
0.874128 0.33756 0.151919
0.911238 0.397147 0.164492
0.911803 0.433463 0.168994
0.0549325 0.286244 0.340536
0.0561532 0.294881 0.306172
0.112993 0.335897 0.284413
0.3234 0.367941 0.199084
0.625315 0.371603 0.147845
0.80061 0.452598 0.154849
0.893233 0.518563 0.178088
0.914382 0.561746 0.187701
0.914672 0.575402 0.189914
0.089601 0.428504 0.482017
0.109957 0.511437 0.484703
0.11902 0.546624 0.421149
0.18436 0.519631 0.293492
0.454078 0.592096 0.256962
0.738659 0.568673 0.169146
0.888716 0.597299 0.18999
0.916823 0.657633 0.203967
0.916991 0.663752 0.205097
0.140063 0.625101 0.653666
0.160693 0.704372 0.657008
0.15874 0.697063 0.544274
0.153506 0.670863 0.412741
0.379583 0.700267 0.306279
0.629602 0.765774 0.309865
0.811322 0.787305 0.298146
0.918013 0.716518 0.21471
0.918914 0.727901 0.216922
0.181064 0.779202 0.791196
0.191028 0.816556 0.767315
0.188846 0.808667 0.655818
0.186587 0.800336 0.529946
0.347906 0.814862 0.368078
0.554345 0.840528 0.356283
0.734112 0.883284 0.374105
0.863783 0.914778 0.394949
0.925536 0.847425 0.251209
0.212909 0.89659 0.882353
0.216098 0.908324 0.836011
0.214755 0.903441 0.746685
0.214282 0.901701 0.643153
0.300099 0.914183 0.509102
0.519753 0.930861 0.422751
0.665675 0.950286 0.428367
0.785153 0.952102 0.42475
0.887053 0.952895 0.419928
0.219104 0.919295 0.912688
0.219104 0.919295 0.862715
0.219104 0.919295 0.781552
0.219104 0.919295 0.691981
0.239185 0.925124 0.581003
0.495018 0.951446 0.449653
0.634684 0.952102 0.443854
0.758114 0.952773 0.436957
0.85716 0.953063 0.426886
0.0574807 0.292744 0.395041
0.054551 0.283177 0.352117
0.0535134 0.28278 0.30631
0.116381 0.292439 0.259037
0.409354 0.304631 0.208316
0.649882 0.381796 0.2383
0.819165 0.480278 0.31931
0.935485 0.531609 0.373404
0.939391 0.555993 0.396445
0.0569162 0.291539 0.381033
0.0552987 0.28394 0.380926
0.0533455 0.280079 0.326101
0.124514 0.289845 0.273121
0.40972 0.30454 0.223804
0.650202 0.385046 0.255268
0.820371 0.469627 0.305486
0.932784 0.517525 0.337255
0.935622 0.540215 0.34789
0.0711223 0.350698 0.44802
0.0616312 0.312551 0.390417
0.0631418 0.310048 0.396719
0.162325 0.301839 0.31751
0.468849 0.337804 0.284993
0.695903 0.414511 0.312932
0.847364 0.467048 0.316121
0.933028 0.512337 0.320699
0.931273 0.521767 0.299886
0.0889296 0.421866 0.533562
0.0801404 0.388251 0.477424
0.0745098 0.367285 0.428809
0.268803 0.378164 0.385519
0.572229 0.425818 0.390463
0.778088 0.45864 0.370993
0.884123 0.482033 0.329366
0.929534 0.508629 0.282856
0.925246 0.517693 0.243427
0.101289 0.470741 0.585641
0.0948653 0.44773 0.526299
0.101884 0.478386 0.51017
0.21828 0.556802 0.508614
0.5449 0.595956 0.400259
0.782483 0.588647 0.363149
0.897551 0.645121 0.334676
0.932296 0.679942 0.293446
0.925368 0.67422 0.247379
0.118776 0.539071 0.646845
0.130587 0.587488 0.645075
0.150179 0.664652 0.662104
0.163424 0.714565 0.632654
0.378973 0.7187 0.48896
0.65182 0.760082 0.433265
0.841093 0.739971 0.307439
0.92459 0.732845 0.241062
0.92195 0.739696 0.228351
0.157382 0.686213 0.777493
0.170977 0.739834 0.783536
0.187961 0.80528 0.792874
0.191089 0.816739 0.722744
0.243214 0.815274 0.604089
0.571786 0.835737 0.489082
0.745388 0.869917 0.470863
0.884504 0.884733 0.431785
0.92163 0.806912 0.232273
0.188815 0.803388 0.876051
0.199924 0.846937 0.878767
0.215717 0.907042 0.868467
0.215503 0.906188 0.792172
0.215091 0.90277 0.693828
0.54519 0.932891 0.543114
0.683726 0.946746 0.526696
0.800748 0.957732 0.50132
0.916671 0.957397 0.473335
0.200717 0.847593 0.915724
0.214649 0.901991 0.918578
0.219104 0.919295 0.898497
0.219104 0.919295 0.821591
0.219104 0.919295 0.737652
0.495735 0.954559 0.597833
0.662593 0.959213 0.546258
0.772625 0.959014 0.524071
0.878477 0.958007 0.489342
0.0943465 0.441794 0.577905
0.0915847 0.433387 0.531014
0.0892042 0.428367 0.460578
0.0867781 0.420905 0.385183
0.2533 0.437827 0.278767
0.598306 0.419745 0.200595
0.781933 0.484138 0.302113
0.92134 0.5935 0.541192
0.957336 0.654826 0.664973
0.0925154 0.434867 0.564767
0.0916304 0.430381 0.571328
0.0874952 0.41886 0.492302
0.0840162 0.409735 0.404669
0.251225 0.428626 0.301198
0.585809 0.412406 0.217121
0.77438 0.480064 0.311681
0.914443 0.587823 0.533318
0.957275 0.654032 0.662425
0.10045 0.46627 0.595834
0.0937057 0.440055 0.562753
0.0938582 0.439185 0.583047
0.0912337 0.427161 0.492119
0.303655 0.441444 0.376516
0.609201 0.43418 0.316808
0.794736 0.50808 0.408591
0.925307 0.607263 0.583337
0.955276 0.641627 0.628077
0.118624 0.536263 0.675441
0.10808 0.496422 0.621729
0.104158 0.482216 0.593164
0.115969 0.489952 0.603143
0.37789 0.486076 0.528099
0.67631 0.517311 0.492226
0.836271 0.589395 0.577768
0.950256 0.625483 0.594873
0.950378 0.619928 0.552529
0.132967 0.590906 0.733547
0.124926 0.561303 0.690364
0.123003 0.555215 0.664454
0.133562 0.557092 0.635203
0.53698 0.599435 0.613046
0.740612 0.643107 0.639338
0.878843 0.671016 0.638407
0.953033 0.662242 0.581262
0.948272 0.639002 0.510201
0.143496 0.63061 0.770321
0.137407 0.609186 0.730785
0.136889 0.609308 0.700938
0.144732 0.641291 0.694789
0.360052 0.740307 0.710002
0.735973 0.756664 0.614481
0.88217 0.753048 0.580774
0.953292 0.771023 0.537453
0.950423 0.763638 0.494087
0.156069 0.678218 0.807218
0.15465 0.675303 0.776684
0.165377 0.717662 0.782971
0.180362 0.775799 0.799817
0.191943 0.819928 0.78024
0.610574 0.841932 0.658183
0.782116 0.862638 0.601678
0.921874 0.841489 0.467994
0.944213 0.811978 0.370108
0.175326 0.750759 0.861753
0.183795 0.783948 0.868681
0.1944 0.825238 0.87744
0.209613 0.884215 0.883406
0.215824 0.907378 0.832715
0.479957 0.931624 0.730358
0.720378 0.938949 0.642832
0.82034 0.959197 0.604791
0.952102 0.959289 0.556252
0.187289 0.795041 0.905806
0.196429 0.830671 0.914931
0.208728 0.87895 0.917632
0.219089 0.919219 0.918502
0.219104 0.919295 0.858503
0.400565 0.946731 0.771313
0.701747 0.966644 0.664042
0.792645 0.966262 0.638148
0.905669 0.964233 0.580377
0.131319 0.58497 0.722988
0.129702 0.580713 0.692332
0.126162 0.570428 0.631662
0.122576 0.559136 0.578943
0.179278 0.55346 0.535302
0.497688 0.563378 0.482567
0.752575 0.571862 0.504891
0.901884 0.610498 0.564675
0.958038 0.661845 0.678752
0.128893 0.575433 0.717174
0.128145 0.571984 0.721675
0.123247 0.556756 0.658717
0.119265 0.544747 0.591577
0.169711 0.538705 0.535073
0.484215 0.550927 0.478676
0.736507 0.558404 0.490288
0.886961 0.598611 0.550225
0.958358 0.665202 0.692653
0.130968 0.583261 0.726329
0.126162 0.564706 0.712215
0.124956 0.558648 0.724697
0.121324 0.547768 0.672297
0.199832 0.545464 0.605722
0.517815 0.551995 0.55729
0.75108 0.564309 0.540032
0.893294 0.615061 0.608331
0.959213 0.673304 0.719676
0.142977 0.628351 0.772793
0.132998 0.59089 0.735363
0.130495 0.581659 0.722133
0.132494 0.588083 0.743511
0.265827 0.584955 0.71986
0.581109 0.570001 0.663508
0.788922 0.599176 0.632303
0.915557 0.657801 0.70425
0.961501 0.69662 0.759625
0.159533 0.690257 0.827909
0.149874 0.654551 0.79321
0.145235 0.637934 0.7673
0.145159 0.638804 0.754269
0.315938 0.66154 0.782467
0.646937 0.656199 0.75613
0.828092 0.684657 0.731304
0.944121 0.730449 0.780453
0.964874 0.732784 0.76878
0.170581 0.731517 0.863935
0.163149 0.704265 0.835111
0.160128 0.69395 0.814862
0.160662 0.697246 0.802777
0.355276 0.717662 0.804364
0.691508 0.751827 0.792447
0.854704 0.780728 0.79086
0.96492 0.790188 0.786847
0.967727 0.776699 0.757519
0.178058 0.759304 0.890517
0.17229 0.738567 0.86244
0.17023 0.732067 0.841978
0.17116 0.736965 0.82768
0.228 0.762402 0.822858
0.563912 0.845273 0.82768
0.842451 0.852934 0.753246
0.963409 0.843854 0.717052
0.965576 0.845594 0.696193
0.184436 0.783185 0.912093
0.182147 0.775494 0.892546
0.182467 0.778302 0.873594
0.189746 0.80676 0.878462
0.200656 0.849424 0.884703
0.343847 0.918547 0.877638
0.75433 0.934737 0.776837
0.865461 0.949569 0.720562
0.96527 0.927092 0.608103
0.186862 0.792569 0.914504
0.188022 0.797665 0.91017
0.194049 0.82121 0.915389
0.203357 0.857877 0.916793
0.216602 0.909575 0.918914
0.269093 0.931121 0.89807
0.678584 0.96762 0.809766
0.824872 0.974075 0.750729
0.945983 0.971572 0.689082
0.165331 0.714305 0.820691
0.164843 0.713436 0.80914
0.162875 0.707362 0.787167
0.160266 0.69807 0.771191
0.156893 0.684153 0.756176
0.410025 0.686229 0.770855
0.728649 0.669123 0.761624
0.891859 0.689357 0.767773
0.962325 0.703822 0.779477
0.162158 0.701747 0.819409
0.162005 0.700801 0.822461
0.159243 0.691707 0.799954
0.155673 0.679652 0.772931
0.152499 0.668711 0.750164
0.39173 0.671275 0.760372
0.706889 0.653971 0.745068
0.874907 0.67509 0.748562
0.961273 0.692515 0.757473
0.161181 0.697444 0.82388
0.15761 0.683253 0.820706
0.156176 0.676829 0.826825
0.153292 0.667048 0.808988
0.151781 0.65919 0.777584
0.41738 0.661204 0.783185
0.714595 0.643061 0.76257
0.874388 0.666957 0.756237
0.960739 0.687449 0.761868
0.167346 0.719921 0.849546
0.159243 0.689143 0.828443
0.157397 0.681926 0.824704
0.156634 0.678141 0.833677
0.159579 0.671244 0.823865
0.464195 0.672129 0.825223
0.740108 0.655894 0.799969
0.882933 0.67718 0.783719
0.962905 0.706813 0.798367
0.178882 0.762402 0.892836
0.169589 0.727733 0.861692
0.164645 0.709651 0.841703
0.164569 0.709712 0.836866
0.171862 0.715023 0.847654
0.519921 0.715846 0.864881
0.777829 0.712474 0.843565
0.901167 0.722942 0.818952
0.966995 0.748394 0.835615
0.184756 0.784253 0.914
0.181811 0.773236 0.90634
0.177691 0.758267 0.884627
0.175814 0.752071 0.868162
0.193423 0.755016 0.857343
0.544076 0.773709 0.880018
0.806714 0.779904 0.86923
0.924498 0.787121 0.84831
0.972732 0.800626 0.865888
0.184436 0.783139 0.914
0.185275 0.786297 0.914092
0.186175 0.789899 0.913802
0.185702 0.788617 0.90631
0.204135 0.793301 0.894545
0.586374 0.812146 0.894652
0.816052 0.844175 0.875303
0.937819 0.859556 0.875135
0.979995 0.862699 0.87924
0.185504 0.787091 0.914107
0.187121 0.793637 0.914351
0.189212 0.802029 0.914626
0.191424 0.810803 0.914977
0.192874 0.816754 0.911742
0.481651 0.843839 0.918257
0.756329 0.919188 0.90164
0.918761 0.931029 0.838788
0.977371 0.918303 0.805783
0.187106 0.793622 0.914366
0.189548 0.803372 0.914702
0.192355 0.81445 0.915099
0.195499 0.82707 0.915587
0.199207 0.841611 0.916152
0.374807 0.889479 0.942519
0.671809 0.963714 0.940108
0.878096 0.982895 0.85333
0.980697 0.980697 0.806775
0.192493 0.816739 0.890181
0.192508 0.81709 0.886671
0.191882 0.814984 0.882292
0.18999 0.807309 0.884215
0.187839 0.798428 0.889586
0.31899 0.795117 0.909163
0.699214 0.782605 0.923339
0.881575 0.764569 0.919188
0.966522 0.758984 0.915908
0.189181 0.803479 0.892302
0.189471 0.804471 0.895582
0.188464 0.800885 0.889403
0.185916 0.791363 0.881392
0.183764 0.783047 0.879545
0.289006 0.781521 0.895445
0.665995 0.769787 0.909529
0.863249 0.752194 0.902922
0.967453 0.750988 0.900236
0.18677 0.793362 0.898848
0.184237 0.783215 0.901457
0.182971 0.77792 0.904906
0.18146 0.772335 0.899886
0.17969 0.765927 0.889326
0.298466 0.768109 0.902693
0.670893 0.758083 0.91342
0.85919 0.742397 0.903334
0.96762 0.743877 0.898589
0.18706 0.793515 0.912688
0.182635 0.776562 0.905882
0.18088 0.769406 0.906142
0.179553 0.763653 0.911742
0.177737 0.756588 0.909224
0.300511 0.759976 0.916838
0.685924 0.753185 0.924926
0.861967 0.740871 0.911284
0.967391 0.74493 0.905455
0.185595 0.787579 0.914107
0.184878 0.784741 0.913954
0.182696 0.776318 0.911391
0.182498 0.775509 0.912139
0.181933 0.77319 0.913634
0.323415 0.771801 0.935241
0.706828 0.768933 0.94342
0.871595 0.760616 0.925505
0.969436 0.763958 0.91931
0.184695 0.783902 0.914
0.185 0.785275 0.914061
0.186282 0.790326 0.914229
0.187182 0.793927 0.914351
0.187778 0.796307 0.914443
0.369024 0.802945 0.940154
0.748806 0.802945 0.959533
0.893492 0.797604 0.942
0.973404 0.799329 0.93518
0.184558 0.783566 0.914
0.185657 0.787854 0.914137
0.187655 0.795834 0.914397
0.190372 0.806699 0.914824
0.193027 0.817105 0.915221
0.472801 0.831205 0.948867
0.764172 0.850004 0.959487
0.907362 0.851438 0.94847
0.979507 0.852689 0.944778
0.185702 0.787915 0.914122
0.187427 0.794797 0.914397
0.189685 0.803952 0.914717
0.192584 0.815412 0.915145
0.200488 0.827283 0.916732
0.579278 0.851347 0.95668
0.794324 0.885176 0.959609
0.906447 0.919326 0.940017
0.988769 0.934798 0.944244
0.187243 0.794217 0.914366
0.189715 0.804089 0.914717
0.192569 0.815259 0.915114
0.195697 0.827787 0.915618
0.200961 0.84033 0.916732
0.531533 0.868742 0.953948
0.778393 0.904311 0.956603
0.898558 0.959564 0.949096
0.98938 0.985672 0.921691
0.195102 0.826505 0.897398
0.195438 0.828061 0.895537
0.194614 0.825116 0.891722
0.192325 0.81593 0.893538
0.189761 0.805447 0.898207
0.314214 0.799893 0.915938
0.699672 0.78558 0.928389
0.882231 0.76582 0.921202
0.966522 0.758968 0.915908
0.19295 0.817716 0.903868
0.194064 0.821607 0.909422
0.19321 0.818479 0.905272
0.190692 0.808957 0.899519
0.188357 0.799695 0.898955
0.264393 0.795102 0.912673
0.657969 0.782544 0.93109
0.86154 0.7673 0.924407
0.967773 0.7561 0.91693
0.190188 0.806226 0.910323
0.188708 0.800061 0.914565
0.187686 0.795956 0.914443
0.186481 0.79115 0.914168
0.184802 0.784741 0.910201
0.263432 0.78439 0.921782
0.659922 0.773068 0.939178
0.855665 0.761456 0.930404
0.969512 0.750088 0.921324
0.18764 0.795727 0.914412
0.18613 0.789746 0.914199
0.184985 0.785138 0.914031
0.183566 0.779599 0.913817
0.181933 0.773114 0.913619
0.259876 0.77583 0.92813
0.669261 0.76669 0.950652
0.856352 0.759243 0.939681
0.968292 0.751095 0.930922
0.185611 0.787625 0.914122
0.184955 0.785061 0.914015
0.185016 0.78529 0.914046
0.185611 0.787579 0.914122
0.184863 0.784726 0.914015
0.278874 0.784741 0.931075
0.686656 0.7776 0.961654
0.865492 0.774182 0.952453
0.970123 0.767681 0.945006
0.184695 0.783902 0.914
0.185 0.78526 0.914061
0.186236 0.790188 0.914214
0.1879 0.79678 0.914443
0.189822 0.804532 0.914748
0.33315 0.809232 0.936996
0.738125 0.804929 0.966308
0.889586 0.802762 0.957458
0.973602 0.79939 0.952102
0.184558 0.783566 0.914
0.185702 0.788052 0.914153
0.187716 0.796094 0.914427
0.190387 0.806775 0.914824
0.193011 0.817044 0.915221
0.446006 0.832883 0.947005
0.758923 0.850889 0.96556
0.905882 0.853849 0.95964
0.9794 0.851072 0.956909
0.185718 0.787961 0.914107
0.187488 0.795041 0.914412
0.189776 0.804379 0.914733
0.192706 0.81593 0.915145
0.218647 0.82974 0.920821
0.596368 0.85243 0.957824
0.798703 0.887022 0.960128
0.904845 0.923171 0.956634
0.988663 0.932754 0.958907
0.187243 0.794217 0.914382
0.189746 0.804181 0.914733
0.192645 0.815518 0.915129
0.195727 0.827924 0.915602
0.209476 0.841856 0.91928
0.56054 0.869551 0.955474
0.7935 0.906233 0.956619
0.904005 0.947738 0.951797
0.988602 0.986999 0.946807
