luts/FEEL FRESH IN THE MORNING DAY.cube
TITLE "Generated by Resolve"
LUT_3D_SIZE 33
0 0 0
0 0 0
0 0 0
0.0638895 0 0
0.141588 0 0
0.213336 0 0
0.283909 0 0
0.348989 0 0
0.408804 0 0
0.464927 0 0
0.518822 0 0
0.570794 0 0
0.623026 0 0
0.676188 0 0
0.704829 0 0
0.641886 0 0
0.471717 0.00823987 0.012726
0.230152 0.0910353 0.0923323
0.135073 0.135073 0.135073
0.146456 0.146456 0.146456
0.156115 0.156115 0.156115
0.165316 0.165316 0.165316
0.173358 0.173358 0.173358
0.180713 0.180713 0.180713
0.18793 0.18793 0.18793
0.194354 0.194354 0.194354
0.200839 0.200839 0.200839
0.206912 0.206912 0.206912
0.212116 0.212116 0.212116
0.212116 0.212116 0.212116
0.2121 0.2121 0.2121
0.2121 0.2121 0.2121
0.212085 0.212085 0.212085
0 0 0
0 0 0
0 0 0
0.0620432 0 0
0.140017 0 0
0.211948 0 0
0.282719 0 0
0.348058 0 0
0.408011 0 0
0.464317 0 0
0.51838 0 0
0.570291 0 0
0.622568 0 0
0.675776 0 0
0.704921 0 0
0.64239 0 0
0.472847 0.0078584 0.0123598
0.231281 0.0906691 0.0919814
0.135012 0.135012 0.135012
0.14641 0.14641 0.14641
0.1561 0.1561 0.1561
0.165301 0.165301 0.165301
0.173342 0.173342 0.173342
0.180697 0.180697 0.180697
0.18793 0.18793 0.18793
0.194354 0.194354 0.194354
0.200809 0.200809 0.200809
0.206912 0.206912 0.206912
0.212131 0.212131 0.212131
0.212116 0.212116 0.212116
0.2121 0.2121 0.2121
0.2121 0.2121 0.2121
0.2121 0.2121 0.2121
0 0 0
0 0 0
0 0 0
0.0536965 0 0
0.132876 0 0
0.20589 0 0
0.276951 0 0
0.343191 0 0
0.40296 0 0
0.460548 0 0
0.514931 0 0
0.5673 0 0
0.619806 0 0
0.673457 0 0
0.705348 0 0
0.645594 0 0
0.47892 0.00567636 0.0102541
0.237064 0.0886549 0.0900435
0.134615 0.134615 0.134615
0.146166 0.146166 0.146166
0.155962 0.155962 0.155962
0.165194 0.165194 0.165194
0.173236 0.173236 0.173236
0.180591 0.180591 0.180591
0.187839 0.187839 0.187839
0.194278 0.194278 0.194278
0.200763 0.200763 0.200763
0.206851 0.206851 0.206851
0.212131 0.212131 0.212131
0.212116 0.212116 0.212116
0.212116 0.212116 0.212116
0.2121 0.2121 0.2121
0.2121 0.2121 0.2121
0 0.0191501 0
0 0.0185245 0
0 0.0167391 0
0.037232 0.0199435 0
0.12491 0.0131075 0
0.198474 0.00611887 0
0.270604 0 0
0.338979 0 0
0.401007 0 0
0.458762 0 0
0.514 0 0
0.566705 0 0
0.619577 0 0
0.67303 0 0
0.712413 0 0
0.649653 0 0
0.485756 0.00328069 0.00796521
0.242771 0.0866102 0.0880598
0.134234 0.134234 0.134234
0.145922 0.145922 0.145922
0.15581 0.15581 0.15581
0.165087 0.165087 0.165087
0.173114 0.173114 0.173114
0.180499 0.180499 0.180499
0.187747 0.187747 0.187747
0.194217 0.194217 0.194217
0.200702 0.200702 0.200702
0.206806 0.206806 0.206806
0.212131 0.212131 0.212131
0.212131 0.212131 0.212131
0.212116 0.212116 0.212116
0.212116 0.212116 0.212116
0.212116 0.212116 0.212116
0 0.0802472 0
0 0.0796826 0
0 0.0767987 0
0.0239261 0.0782788 0
0.0985733 0.0766308 0
0.190356 0.0647288 0
0.264118 0.0559091 0
0.333684 0.0464332 0
0.397681 0.037583 0
0.456855 0.028748 0
0.51342 0.0205386 0
0.567208 0.01149 0
0.621347 0.00227359 0
0.675578 0 0
0.730632 0 0
0.728191 0 0
0.596689 0.017731 0
0.333776 0.0879988 0.0846113
0.139284 0.139284 0.139284
0.145693 0.145693 0.145693
0.155673 0.155673 0.155673
0.164965 0.164965 0.164965
0.172992 0.172992 0.172992
0.180392 0.180392 0.180392
0.187671 0.187671 0.187671
0.194141 0.194141 0.194141
0.200641 0.200641 0.200641
0.206775 0.206775 0.206775
0.212131 0.212131 0.212131
0.212131 0.212131 0.212131
0.212131 0.212131 0.212131
0.212131 0.212131 0.212131
0.212131 0.212131 0.212131
0 0.141054 0
0 0.140551 0
0 0.138277 0
0.0162356 0.139055 0
0.0742046 0.144137 0
0.151644 0.142306 0
0.256275 0.125383 0
0.329 0.11754 0
0.395087 0.110185 0
0.45713 0.103227 0
0.515511 0.0959335 0
0.571511 0.0878309 0
0.626551 0.0786297 0
0.682124 0.0688029 0
0.737636 0.0570077 0
0.781857 0.0474861 0
0.729976 0.0612192 0
0.544945 0.108583 0.0722362
0.262318 0.180987 0.176211
0.190982 0.190982 0.190982
0.179965 0.179965 0.179965
0.164981 0.164981 0.164981
0.172869 0.172869 0.172869
0.18027 0.18027 0.18027
0.187579 0.187579 0.187579
0.194064 0.194064 0.194064
0.20058 0.20058 0.20058
0.206699 0.206699 0.206699
0.212146 0.212146 0.212146
0.212131 0.212131 0.212131
0.212131 0.212131 0.212131
0.212131 0.212131 0.212131
0.212131 0.212131 0.212131
0 0.197498 0
0 0.197131 0
0 0.194415 0
0.00161746 0.196277 0
0.066453 0.201556 0
0.125612 0.208606 0
0.205966 0.205356 0
0.315923 0.188388 0
0.391165 0.18056 0
0.455283 0.17528 0
0.515373 0.170352 0
0.573831 0.165286 0
0.630213 0.15938 0
0.687541 0.15198 0
0.745678 0.143679 0
0.802808 0.133089 0
0.818723 0.131106 0
0.722744 0.153841 0.0507515
0.500542 0.207462 0.165103
0.276936 0.256062 0.253697
0.249119 0.249119 0.249119
0.233433 0.233433 0.233433
0.213184 0.213184 0.213184
0.188785 0.188785 0.188785
0.187457 0.187457 0.187457
0.193957 0.193957 0.193957
0.200488 0.200488 0.200488
0.206638 0.206638 0.206638
0.212131 0.212131 0.212131
0.212131 0.212131 0.212131
0.212131 0.212131 0.212131
0.212131 0.212131 0.212131
0.212131 0.212131 0.212131
0 0.254597 0
0 0.254246 0
0 0.251789 0
0 0.254719 0
0.0530404 0.259876 0
0.121355 0.267414 0
0.176104 0.273304 0
0.256901 0.269749 0
0.355138 0.256519 0
0.446281 0.242618 0
0.508141 0.238025 0
0.567056 0.233417 0
0.624231 0.228382 0
0.682857 0.222705 0
0.741314 0.215732 0
0.800244 0.207538 0
0.84863 0.200595 0
0.8215 0.210452 0.0231174
0.689097 0.244511 0.129274
0.501961 0.287221 0.240269
0.331914 0.319844 0.317647
0.308766 0.308766 0.308766
0.290242 0.290242 0.290242
0.266636 0.266636 0.266636
0.237415 0.237415 0.237415
0.202853 0.202853 0.202853
0.200412 0.200412 0.200412
0.206561 0.206561 0.206561
0.212131 0.212131 0.212131
0.212131 0.212131 0.212131
0.212146 0.212146 0.212146
0.212131 0.212131 0.212131
0.212131 0.212131 0.212131
0 0.313695 0
0 0.313359 0
0 0.311116 0
0 0.313313 0
0.0355993 0.318456 0
0.1093 0.325689 0
0.172488 0.329915 0
0.22562 0.334508 0
0.299382 0.330922 0
0.38706 0.320439 0
0.482673 0.30428 0
0.553964 0.295384 0
0.611231 0.290974 0
0.669184 0.285435 0
0.727962 0.279194 0
0.786984 0.272282 0
0.845975 0.265187 0
0.858732 0.266712 0
0.78764 0.286549 0.0874189
0.657435 0.31693 0.199359
0.511696 0.347311 0.298054
0.378943 0.371633 0.369772
0.362722 0.362722 0.362722
0.346685 0.346685 0.346685
0.321447 0.321447 0.321447
0.290257 0.290257 0.290257
0.251286 0.251286 0.251286
0.20647 0.20647 0.20647
0.212131 0.212131 0.212131
0.212131 0.212131 0.212131
0.212131 0.212131 0.212131
0.212131 0.212131 0.212131
0.212116 0.212116 0.212116
0 0.371374 0
0 0.371054 0
0 0.3691 0
0 0.370138 0
0.0154421 0.37499 0
0.0965896 0.380529 0
0.160357 0.384543 0
0.220447 0.386572 0
0.271046 0.390188 0
0.337652 0.387243 0
0.420478 0.377035 0
0.505486 0.364477 0
0.590723 0.350088 0
0.654139 0.343069 0
0.712551 0.33756 0
0.771771 0.331365 0
0.830304 0.324804 0
0.864042 0.322499 0
0.832273 0.33344 0.0487526
0.745937 0.353567 0.155795
0.638071 0.375799 0.258503
0.521859 0.397833 0.348806
0.416922 0.41474 0.413993
0.406561 0.406561 0.406561
0.393256 0.393256 0.393256
0.374243 0.374243 0.374243
0.343694 0.343694 0.343694
0.302419 0.302419 0.302419
0.251255 0.251255 0.251255
0.212131 0.212131 0.212131
0.212131 0.212131 0.212131
0.212131 0.212131 0.212131
0.212131 0.212131 0.212131
0 0.427283 0
0 0.427039 0
0 0.425376 0
0 0.424308 0
0 0.428885 0
0.0781415 0.432578 0
0.147326 0.435996 0
0.209155 0.437018 0
0.263081 0.439399 0
0.312093 0.441764 0
0.374456 0.43888 0
0.452842 0.429877 0
0.530098 0.419806 0
0.620752 0.403479 0
0.696269 0.391546 0
0.756298 0.385473 0
0.814862 0.379263 0
0.856901 0.375723 0
0.847166 0.38172 0.0225071
0.790036 0.3953 0.124453
0.710796 0.411246 0.225986
0.620127 0.42768 0.320333
0.52723 0.442878 0.400519
0.452644 0.452644 0.452644
0.444633 0.444633 0.444633
0.432944 0.432944 0.432944
0.41677 0.41677 0.41677
0.392828 0.392828 0.392828
0.354772 0.354772 0.354772
0.29543 0.29543 0.29543
0.222049 0.222049 0.222049
0.212131 0.212131 0.212131
0.212131 0.212131 0.212131
0 0.480293 0
0 0.480064 0
0 0.478798 0
0 0.477623 0
0 0.480186 0
0.0525063 0.482704 0
0.132021 0.484901 0
0.195285 0.485847 0
0.255924 0.485985 0
0.301457 0.489082 0
0.350347 0.490471 0
0.41001 0.487922 0
0.48365 0.479912 0
0.559609 0.470008 0
0.647562 0.454597 0
0.734173 0.438743 0
0.799481 0.430182 0
0.844724 0.426154 0
0.847028 0.429084 0.00714122
0.807218 0.438911 0.109545
0.745663 0.450309 0.211109
0.676463 0.462333 0.303883
0.601984 0.474083 0.387518
0.529458 0.484443 0.456794
0.486641 0.486641 0.486641
0.479042 0.479042 0.479042
0.468544 0.468544 0.468544
0.453971 0.453971 0.453971
0.433112 0.433112 0.433112
0.398444 0.398444 0.398444
0.341756 0.341756 0.341756
0.263874 0.263874 0.263874
0.212146 0.212146 0.212146
0 0.531426 0
0 0.531243 0
0 0.530068 0
0 0.528984 0
0 0.529381 0
0.0237736 0.531975 0
0.111727 0.533135 0
0.180377 0.533028 0
0.242069 0.532555 0
0.297871 0.53286 0
0.337896 0.536492 0
0.386587 0.537041 0
0.443717 0.534707 0
0.514656 0.527138 0
0.592371 0.516518 0
0.675608 0.503136 0
0.767285 0.485527 0
0.82797 0.475288 0
0.840253 0.475761 0.0016022
0.811688 0.482826 0.106844
0.763653 0.491569 0.210025
0.707805 0.500755 0.304463
0.647135 0.509728 0.389944
0.586954 0.517479 0.461769
0.531823 0.523308 0.517067
0.519005 0.519005 0.519005
0.511315 0.511315 0.511315
0.501305 0.501305 0.501305
0.48719 0.48719 0.48719
0.464454 0.464454 0.464454
0.433646 0.433646 0.433646
0.387549 0.387549 0.387549
0.308721 0.308721 0.308721
0 0.581109 0
0 0.580972 0
0 0.57998 0
0 0.578943 0
0 0.578012 0
0 0.579965 0
0.0853132 0.580621 0
0.16228 0.579538 0
0.226734 0.578256 0
0.285054 0.577462 0
0.335424 0.57818 0
0.37261 0.581704 0
0.421012 0.582025 0
0.477333 0.57966 0
0.548714 0.572152 0
0.627039 0.561715 0
0.706188 0.549874 0
0.783993 0.533516 0
0.821988 0.524575 0.0037995
0.808286 0.527245 0.118273
0.770245 0.533578 0.225055
0.722515 0.540658 0.323873
0.673213 0.547478 0.409293
0.624155 0.553368 0.481483
0.57763 0.558053 0.539696
0.556909 0.556909 0.556909
0.551003 0.551003 0.551003
0.54316 0.54316 0.54316
0.532891 0.532891 0.532891
0.515419 0.515419 0.515419
0.493614 0.493614 0.493614
0.464958 0.464958 0.464958
0.424643 0.424643 0.424643
0 0.63003 0
0 0.629908 0
0 0.629068 0
0 0.628153 0
0 0.627405 0
0 0.62768 0
0.0493629 0.628138 0
0.137881 0.6262 0
0.208362 0.623774 0
0.268956 0.622003 0
0.324224 0.62153 0
0.369467 0.623377 0
0.406668 0.626947 0
0.455283 0.627115 0
0.512444 0.624811 0
0.583947 0.617441 0
0.66128 0.606531 0
0.72517 0.594736 0
0.773175 0.581704 0.0104677
0.784909 0.575692 0.143252
0.763317 0.576699 0.258976
0.728176 0.580972 0.359792
0.688182 0.585657 0.44509
0.647547 0.590204 0.517494
0.609949 0.593759 0.574731
0.592828 0.592828 0.592828
0.588739 0.588739 0.588739
0.582589 0.582589 0.582589
0.574563 0.574563 0.574563
0.560372 0.560372 0.560372
0.542733 0.542733 0.542733
0.521233 0.521233 0.521233
0.494057 0.494057 0.494057
0 0.67863 0
0 0.678508 0
0 0.677699 0
0 0.677043 0
0 0.676402 0
0 0.675578 0
0.0065156 0.6757 0
0.105074 0.673625 0
0.184909 0.669963 0
0.250675 0.667796 0
0.308141 0.666712 0
0.360952 0.666697 0
0.402182 0.669322 0
0.439643 0.67303 0
0.489677 0.67303 0
0.547387 0.67039 0
0.6168 0.661631 0
0.684382 0.647578 0
0.726207 0.635477 0.0424201
0.740902 0.62707 0.193881
0.734569 0.62324 0.320058
0.715557 0.622736 0.4224
0.688548 0.624552 0.507225
0.660334 0.626993 0.572778
0.632837 0.629007 0.623362
0.627649 0.627649 0.627649
0.624521 0.624521 0.624521
0.619959 0.619959 0.619959
0.613535 0.613535 0.613535
0.601984 0.601984 0.601984
0.587671 0.587671 0.587671
0.570092 0.570092 0.570092
0.54873 0.54873 0.54873
0 0.715846 0
0 0.715785 0
0 0.715434 0
0 0.715084 0
0 0.714748 0
0 0.714351 0
0 0.723293 0
0.0637675 0.722408 0
0.154574 0.71841 0
0.229404 0.714717 0
0.290593 0.713085 0
0.345235 0.712566 0
0.395682 0.712734 0
0.434501 0.716197 0
0.472679 0.719463 0
0.52459 0.718334 0
0.584497 0.710964 0
0.64683 0.697063 0
0.69659 0.680705 0.10161
0.714519 0.669627 0.273915
0.709895 0.664179 0.414832
0.697276 0.662013 0.522408
0.681636 0.661784 0.600793
0.664729 0.662333 0.656352
0.662287 0.662287 0.662287
0.66128 0.66128 0.66128
0.659052 0.659052 0.659052
0.655467 0.655467 0.655467
0.650828 0.650828 0.650828
0.64097 0.64097 0.64097
0.628916 0.628916 0.628916
0.614633 0.614633 0.614633
0.59733 0.59733 0.59733
0.0315099 0.720348 0.0453956
0.03122 0.720394 0.0450904
0.0293126 0.720684 0.0432288
0.0275425 0.720806 0.0414893
0.0259098 0.720836 0.0398871
0.0237278 0.721004 0.0377356
0.0126497 0.731167 0.0125124
0.0285191 0.76434 0
0.11722 0.768124 0
0.202625 0.762966 0
0.271 0.760006 0
0.328161 0.758801 0
0.381308 0.758587 0
0.429282 0.759457 0
0.467109 0.762463 0
0.511162 0.761517 0
0.568872 0.752743 0
0.627008 0.737896 0.0275578
0.676478 0.71986 0.188647
0.704097 0.704326 0.379553
0.706706 0.696284 0.529061
0.699687 0.693019 0.634501
0.692592 0.692592 0.692592
0.694026 0.694026 0.694026
0.694438 0.694438 0.694438
0.693828 0.693828 0.693828
0.692226 0.692226 0.692226
0.689891 0.689891 0.689891
0.686076 0.686076 0.686076
0.677989 0.677989 0.677989
0.667994 0.667994 0.667994
0.656001 0.656001 0.656001
0.641764 0.641764 0.641764
0.234592 0.688121 0.243854
0.234134 0.688212 0.243412
0.231312 0.688762 0.240665
0.228489 0.689326 0.237903
0.2262 0.689677 0.23566
0.223651 0.690211 0.233188
0.220279 0.69102 0.229877
0.136873 0.747555 0.103883
0.118395 0.798169 0
0.177539 0.808865 0
0.248905 0.807172 0
0.310445 0.805463 0
0.366064 0.804242 0
0.419669 0.802487 0
0.47013 0.800107 0
0.515068 0.796643 0
0.567529 0.78677 0.00190738
0.626474 0.769772 0.123751
0.677256 0.749371 0.302525
0.710155 0.730694 0.515724
0.718883 0.721584 0.655528
0.720272 0.720272 0.720272
0.722881 0.722881 0.722881
0.724514 0.724514 0.724514
0.725246 0.725246 0.725246
0.725155 0.725155 0.725155
0.72433 0.72433 0.72433
0.722515 0.722515 0.722515
0.719829 0.719829 0.719829
0.713268 0.713268 0.713268
0.704753 0.704753 0.704753
0.694865 0.694865 0.694865
0.682918 0.682918 0.682918
0.502037 0.631647 0.504723
0.50164 0.631708 0.504356
0.499138 0.632197 0.501915
0.496529 0.632746 0.499367
0.493828 0.63328 0.496727
0.490715 0.633951 0.49369
0.487297 0.634684 0.490364
0.463859 0.646097 0.465995
0.273716 0.760006 0.216098
0.224048 0.820249 0.0476692
0.258686 0.837446 0
0.312276 0.841031 0
0.36733 0.840314 0
0.423102 0.836988 0
0.479912 0.831296 0
0.535103 0.823011 0.0221103
0.586633 0.81117 0.111498
0.643381 0.792523 0.250858
0.69691 0.769757 0.441001
0.73312 0.74995 0.649134
0.745205 0.745205 0.745205
0.749371 0.749371 0.749371
0.75227 0.75227 0.75227
0.753964 0.753964 0.753964
0.755108 0.755108 0.755108
0.755444 0.755444 0.755444
0.755001 0.755001 0.755001
0.753735 0.753735 0.753735
0.751995 0.751995 0.751995
0.746334 0.746334 0.746334
0.739284 0.739284 0.739284
0.731136 0.731136 0.731136
0.721325 0.721325 0.721325
0.630457 0.630457 0.630457
0.630396 0.630396 0.630396
0.630076 0.630076 0.630076
0.629755 0.629755 0.629755
0.629435 0.629435 0.629435
0.629068 0.629068 0.629068
0.628672 0.628672 0.628672
0.628275 0.628275 0.628275
0.618708 0.647761 0.61767
0.415549 0.768551 0.347158
0.348089 0.830243 0.1664
0.361501 0.85272 0.0801709
0.402136 0.859144 0.0541543
0.452522 0.857618 0.0592355
0.507759 0.851408 0.0901198
0.567147 0.840116 0.152209
0.624964 0.824872 0.256733
0.679866 0.805676 0.406439
0.732235 0.783093 0.595392
0.767025 0.767025 0.767025
0.773281 0.773281 0.773281
0.777569 0.777569 0.777569
0.780575 0.780575 0.780575
0.782788 0.782788 0.782788
0.783978 0.783978 0.783978
0.784604 0.784604 0.784604
0.784573 0.784573 0.784573
0.783886 0.783886 0.783886
0.782544 0.782544 0.782544
0.778134 0.778134 0.778134
0.772259 0.772259 0.772259
0.765301 0.765301 0.765301
0.757092 0.757092 0.757092
0.66099 0.66099 0.66099
0.66096 0.66096 0.66096
0.660746 0.660746 0.660746
0.660533 0.660533 0.660533
0.660319 0.660319 0.660319
0.660075 0.660075 0.660075
0.6598 0.6598 0.6598
0.659525 0.659525 0.659525
0.659266 0.659266 0.659266
0.680339 0.680339 0.680339
0.538796 0.773037 0.476234
0.467689 0.83212 0.299626
0.472923 0.854612 0.225879
0.50753 0.860212 0.213092
0.555871 0.856611 0.240864
0.61178 0.84654 0.306065
0.671672 0.830076 0.416159
0.727169 0.810513 0.567559
0.774548 0.791257 0.736965
0.792248 0.792248 0.792248
0.800519 0.800519 0.800519
0.805173 0.805173 0.805173
0.808057 0.808057 0.808057
0.810437 0.810437 0.810437
0.812039 0.812039 0.812039
0.81297 0.81297 0.81297
0.813245 0.813245 0.813245
0.812909 0.812909 0.812909
0.811917 0.811917 0.811917
0.808209 0.808209 0.808209
0.803296 0.803296 0.803296
0.797513 0.797513 0.797513
0.790692 0.790692 0.790692
0.684565 0.684565 0.684565
0.684535 0.684535 0.684535
0.684382 0.684382 0.684382
0.684245 0.684245 0.684245
0.684092 0.684092 0.684092
0.683909 0.683909 0.683909
0.683726 0.683726 0.683726
0.683543 0.683543 0.683543
0.68336 0.68336 0.68336
0.68867 0.68867 0.68867
0.714061 0.714061 0.714061
0.620584 0.781781 0.564431
0.564965 0.831205 0.419913
0.572366 0.849302 0.371298
0.608057 0.851774 0.38381
0.656657 0.844678 0.441749
0.712276 0.83032 0.544533
0.765438 0.813001 0.683055
0.802075 0.802075 0.802075
0.810742 0.810742 0.810742
0.818204 0.818204 0.818204
0.823255 0.823255 0.823255
0.827375 0.827375 0.827375
0.830198 0.830198 0.830198
0.832624 0.832624 0.832624
0.83444 0.83444 0.83444
0.835721 0.835721 0.835721
0.836591 0.836591 0.836591
0.836927 0.836927 0.836927
0.834943 0.834943 0.834943
0.833051 0.833051 0.833051
0.828046 0.828046 0.828046
0.822278 0.822278 0.822278
0.704387 0.704387 0.704387
0.704372 0.704372 0.704372
0.70428 0.70428 0.70428
0.704173 0.704173 0.704173
0.704051 0.704051 0.704051
0.703929 0.703929 0.703929
0.703792 0.703792 0.703792
0.703624 0.703624 0.703624
0.703441 0.703441 0.703441
0.703227 0.703227 0.703227
0.717189 0.717189 0.717189
0.741222 0.741222 0.741222
0.682429 0.79086 0.635279
0.648371 0.827726 0.536309
0.662791 0.840375 0.519066
0.700328 0.838804 0.55993
0.748379 0.82887 0.64686
0.795819 0.815061 0.765728
0.816205 0.816205 0.816205
0.824918 0.824918 0.824918
0.832914 0.832914 0.832914
0.838575 0.838575 0.838575
0.84271 0.84271 0.84271
0.846159 0.846159 0.846159
0.848722 0.848722 0.848722
0.851026 0.851026 0.851026
0.852918 0.852918 0.852918
0.854154 0.854154 0.854154
0.8551 0.8551 0.8551
0.854353 0.854353 0.854353
0.85214 0.85214 0.85214
0.849241 0.849241 0.849241
0.846128 0.846128 0.846128
0.72105 0.72105 0.72105
0.721035 0.721035 0.721035
0.720943 0.720943 0.720943
0.720851 0.720851 0.720851
0.72076 0.72076 0.72076
0.720668 0.720668 0.720668
0.720562 0.720562 0.720562
0.720424 0.720424 0.720424
0.720287 0.720287 0.720287
0.720134 0.720134 0.720134
0.719951 0.719951 0.719951
0.743236 0.743236 0.743236
0.764035 0.764035 0.764035
0.735592 0.798077 0.703151
0.721645 0.82388 0.649516
0.742794 0.830564 0.663798
0.779736 0.826596 0.727047
0.818769 0.818769 0.818769
0.827741 0.827741 0.827741
0.836439 0.836439 0.836439
0.845212 0.845212 0.845212
0.850965 0.850965 0.850965
0.85536 0.85536 0.85536
0.85919 0.85919 0.85919
0.861906 0.861906 0.861906
0.86453 0.86453 0.86453
0.866743 0.866743 0.866743
0.868589 0.868589 0.868589
0.86981 0.86981 0.86981
0.869718 0.869718 0.869718
0.868193 0.868193 0.868193
0.866117 0.866117 0.866117
0.863661 0.863661 0.863661
0.735744 0.735744 0.735744
0.735729 0.735729 0.735729
0.735653 0.735653 0.735653
0.735592 0.735592 0.735592
0.735515 0.735515 0.735515
0.735439 0.735439 0.735439
0.735348 0.735348 0.735348
0.735256 0.735256 0.735256
0.735149 0.735149 0.735149
0.735027 0.735027 0.735027
0.73489 0.73489 0.73489
0.737728 0.737728 0.737728
0.766354 0.766354 0.766354
0.783886 0.783886 0.783886
0.784909 0.80296 0.774105
0.785611 0.819608 0.75874
0.809537 0.823178 0.795926
0.827863 0.827863 0.827863
0.837018 0.837018 0.837018
0.846006 0.846006 0.846006
0.854765 0.854765 0.854765
0.861509 0.861509 0.861509
0.866468 0.866468 0.866468
0.870192 0.870192 0.870192
0.873533 0.873533 0.873533
0.876219 0.876219 0.876219
0.878401 0.878401 0.878401
0.880522 0.880522 0.880522
0.882292 0.882292 0.882292
0.882628 0.882628 0.882628
0.881422 0.881422 0.881422
0.87985 0.87985 0.87985
0.878019 0.878019 0.878019
0.748852 0.748852 0.748852
0.748837 0.748837 0.748837
0.748775 0.748775 0.748775
0.748714 0.748714 0.748714
0.748653 0.748653 0.748653
0.748592 0.748592 0.748592
0.748531 0.748531 0.748531
0.74844 0.74844 0.74844
0.748363 0.748363 0.748363
0.748257 0.748257 0.748257
0.74815 0.74815 0.74815
0.748012 0.748012 0.748012
0.759136 0.759136 0.759136
0.785931 0.785931 0.785931
0.801709 0.801709 0.801709
0.814466 0.814466 0.814466
0.825147 0.825147 0.825147
0.835111 0.835111 0.835111
0.844755 0.844755 0.844755
0.85391 0.85391 0.85391
0.862776 0.862776 0.862776
0.87042 0.87042 0.87042
0.87602 0.87602 0.87602
0.88011 0.88011 0.88011
0.883528 0.883528 0.883528
0.886381 0.886381 0.886381
0.888991 0.888991 0.888991
0.891142 0.891142 0.891142
0.892989 0.892989 0.892989
0.893874 0.893874 0.893874
0.892912 0.892912 0.892912
0.891814 0.891814 0.891814
0.890394 0.890394 0.890394
0.760708 0.760708 0.760708
0.760693 0.760693 0.760693
0.760647 0.760647 0.760647
0.760601 0.760601 0.760601
0.76054 0.76054 0.76054
0.760494 0.760494 0.760494
0.760433 0.760433 0.760433
0.760388 0.760388 0.760388
0.760342 0.760342 0.760342
