luts/FEEL FRESH IN THE MORNING DAY.cube
TITLE "Generated by Resolve"
LUT_3D_SIZE 5
0 0 0
0.408804 0 0
0.471717 0.00823987 0.012726
0.18793 0.18793 0.18793
0.212085 0.212085 0.212085
0 0.313695 0
0.299382 0.330922 0
0.845975 0.265187 0
0.321447 0.321447 0.321447
0.212116 0.212116 0.212116
0 0.715846 0
0.154574 0.71841 0
0.584497 0.710964 0
0.662287 0.662287 0.662287
0.59733 0.59733 0.59733
0.72105 0.72105 0.72105
0.720287 0.720287 0.720287
0.779736 0.826596 0.727047
0.861906 0.861906 0.861906
0.863661 0.863661 0.863661
0.796582 0.796582 0.796582
0.796551 0.796551 0.796551
0.796567 0.796567 0.796567
0.917342 0.917342 0.917342
0.937621 0.937621 0.937621
0 0 0.430442
0.315435 0 0.402441
0.80763 0 0.326619
0.199664 0.199664 0.199664
0.212116 0.212116 0.212116
0 0.287831 0.31754
0.273106 0.282841 0.293278
0.823758 0.233341 0.21004
0.277821 0.277821 0.277821
0.212131 0.212131 0.212131
0 0.711223 0
0.0224002 0.712673 0
0.556191 0.705623 0
0.655268 0.655268 0.655268
0.588693 0.588693 0.588693
0.719844 0.719844 0.719844
0.719081 0.719081 0.719081
0.755398 0.830411 0.679774
0.860655 0.860655 0.860655
0.862455 0.862455 0.862455
0.796582 0.796582 0.796582
0.796567 0.796567 0.796567
0.796567 0.796567 0.796567
0.916533 0.916533 0.916533
0.937621 0.937621 0.937621
0 0 0.130922
0 0 0.224018
0.545205 0 0.639735
0.252781 0.252781 0.252781
0.264225 0.264225 0.264225
0 0.197711 0.803098
0 0.173083 0.797833
0.733654 0.11754 0.857527
0.24831 0.24831 0.24831
0.258747 0.258747 0.258747
0 0.668818 0.722606
0 0.666087 0.717144
0.596384 0.621195 0.65626
1 0.576226 0.585855
1 0.454643 0.246082
0.730068 0.730068 0.730068
0.727886 0.727886 0.727886
0.471046 0.945785 0.188418
0.855863 0.855863 0.855863
0.859525 0.859525 0.859525
0.796567 0.796567 0.796567
0.796567 0.796567 0.796567
0.796567 0.796567 0.796567
0.913069 0.913069 0.913069
0.937621 0.937621 0.937621
0.0126802 0.0126802 0.0126802
0.0125734 0.0125734 0.0125734
0.101671 0.101671 0.101671
0.278889 0.278889 0.278889
0.314916 0.314916 0.314916
0.0122835 0.0122835 0.0122835
0.012192 0.012192 0.012192
0.0933852 0.0933852 0.0933852
0.277119 0.277119 0.277119
0.314168 0.314168 0.314168
0.493858 0.493858 0.493858
0.489021 0.489021 0.489021
0.191653 0.572351 1
0.986542 0.493523 1
1 0.327474 1
0.761166 0.761166 0.761166
0.76022 0.76022 0.76022
0.7579 0.7579 0.7579
0.852232 0.882475 0.934508
0.977905 0.856428 0.893629
0.821424 0.821424 0.821424
0.820935 0.820935 0.820935
0.819638 0.819638 0.819638
0.677226 1 0.391821
0.937621 0.937621 0.937621
0.0200961 0.0200961 0.0200961
0.0200961 0.0200961 0.0200961
0.0200961 0.0200961 0.0200961
0.207065 0.207065 0.207065
0.326955 0.326955 0.326955
0.0201114 0.0201114 0.0201114
0.0200961 0.0200961 0.0200961
0.0200961 0.0200961 0.0200961
0.202457 0.202457 0.202457
0.32697 0.32697 0.32697
0.29163 0.29163 0.29163
0.27808 0.27808 0.27808
0.236942 0.236942 0.236942
0.270665 0.270665 0.270665
0.327001 0.327001 0.327001
0.742336 0.742336 0.742336
0.741054 0.741054 0.741054
0.737713 0.737713 0.737713
0.470329 0.877928 1
0.993164 0.794598 1
0.846555 0.846555 0.846555
0.84654 0.84654 0.84654
0.84654 0.84654 0.84654
0.84654 0.84654 0.84654
0.945434 0.982528 1
