luts/FEEL FRESH IN THE MORNING DAY.cube
TITLE "Generated by Resolve"
LUT_3D_SIZE 9
0 0 0
0.141588 0 0
0.408804 0 0
0.623026 0 0
0.471717 0.00823987 0.012726
0.156115 0.156115 0.156115
0.18793 0.18793 0.18793
0.212116 0.212116 0.212116
0.212085 0.212085 0.212085
0 0.0802472 0
0.0985733 0.0766308 0
0.397681 0.037583 0
0.621347 0.00227359 0
0.596689 0.017731 0
0.155673 0.155673 0.155673
0.187671 0.187671 0.187671
0.212131 0.212131 0.212131
0.212131 0.212131 0.212131
0 0.313695 0
0.0355993 0.318456 0
0.299382 0.330922 0
0.611231 0.290974 0
0.845975 0.265187 0
0.511696 0.347311 0.298054
0.321447 0.321447 0.321447
0.212131 0.212131 0.212131
0.212116 0.212116 0.212116
0 0.531426 0
0 0.529381 0
0.242069 0.532555 0
0.443717 0.534707 0
0.767285 0.485527 0
0.763653 0.491569 0.210025
0.531823 0.523308 0.517067
0.48719 0.48719 0.48719
0.308721 0.308721 0.308721
0 0.715846 0
0 0.714748 0
0.154574 0.71841 0
0.395682 0.712734 0
0.584497 0.710964 0
0.709895 0.664179 0.414832
0.662287 0.662287 0.662287
0.650828 0.650828 0.650828
0.59733 0.59733 0.59733
0.630457 0.630457 0.630457
0.629435 0.629435 0.629435
0.618708 0.647761 0.61767
0.402136 0.859144 0.0541543
0.624964 0.824872 0.256733
0.773281 0.773281 0.773281
0.783978 0.783978 0.783978
0.782544 0.782544 0.782544
0.757092 0.757092 0.757092
0.72105 0.72105 0.72105
0.72076 0.72076 0.72076
0.720287 0.720287 0.720287
0.764035 0.764035 0.764035
0.779736 0.826596 0.727047
0.845212 0.845212 0.845212
0.861906 0.861906 0.861906
0.86981 0.86981 0.86981
0.863661 0.863661 0.863661
0.772045 0.772045 0.772045
0.771908 0.771908 0.771908
0.77171 0.77171 0.77171
0.771389 0.771389 0.771389
0.833417 0.833417 0.833417
0.875837 0.875837 0.875837
0.900938 0.900938 0.900938
0.91165 0.91165 0.91165
0.911101 0.911101 0.911101
0.796582 0.796582 0.796582
0.796567 0.796567 0.796567
0.796551 0.796551 0.796551
0.796567 0.796567 0.796567
0.796567 0.796567 0.796567
0.877012 0.877012 0.877012
0.917342 0.917342 0.917342
0.933272 0.933272 0.933272
0.937621 0.937621 0.937621
0 0 0.13225
0.081651 0 0.124834
0.379751 0 0.0808423
0.607752 0 0.0249485
0.585046 0 0.00579843
0.155245 0.155245 0.155245
0.187427 0.187427 0.187427
0.212146 0.212146 0.212146
0.212131 0.212131 0.212131
0 0.0631723 0.0717784
0.0536965 0.0542153 0.0552682
0.367376 0.0218814 0.0158083
0.603922 0 0
0.587076 0 0
0.154711 0.154711 0.154711
0.187182 0.187182 0.187182
0.212146 0.212146 0.212146
0.212146 0.212146 0.212146
0 0.303273 0
0 0.30164 0
0.265126 0.32079 0
0.596124 0.279591 0
0.838285 0.253025 0
0.495857 0.33817 0.294362
0.305943 0.305943 0.305943
0.212131 0.212131 0.212131
0.212131 0.212131 0.212131
0 0.525628 0
0 0.522362 0
0.212833 0.526894 0
0.428244 0.529473 0
0.757504 0.480095 0
0.768795 0.485054 0.19704
0.528298 0.518502 0.511513
0.481697 0.481697 0.481697
0.292897 0.292897 0.292897
0 0.714107 0
0 0.713069 0
0.113237 0.716793 0
0.38204 0.708812 0
0.574258 0.709545 0
0.712123 0.661723 0.39147
0.659785 0.659785 0.659785
0.648127 0.648127 0.648127
0.594186 0.594186 0.594186
0.62884 0.62884 0.62884
0.627985 0.627985 0.627985
0.626581 0.626581 0.626581
0.384512 0.857694 0.0498512
0.611856 0.827726 0.224414
0.771328 0.771328 0.771328
0.782605 0.782605 0.782605
0.781048 0.781048 0.781048
0.75552 0.75552 0.75552
0.720623 0.720623 0.720623
0.720333 0.720333 0.720333
0.719844 0.719844 0.719844
0.758694 0.758694 0.758694
0.770672 0.828199 0.708461
0.843763 0.843763 0.843763
0.86154 0.86154 0.86154
0.869459 0.869459 0.869459
0.863218 0.863218 0.863218
0.771862 0.771862 0.771862
0.771725 0.771725 0.771725
0.771527 0.771527 0.771527
0.771206 0.771206 0.771206
0.830716 0.830716 0.830716
0.874571 0.874571 0.874571
0.900496 0.900496 0.900496
0.911376 0.911376 0.911376
0.910948 0.910948 0.910948
0.796567 0.796567 0.796567
0.796551 0.796551 0.796551
0.796551 0.796551 0.796551
0.796567 0.796567 0.796567
0.796567 0.796567 0.796567
0.875669 0.875669 0.875669
0.916991 0.916991 0.916991
0.933165 0.933165 0.933165
0.937621 0.937621 0.937621
0 0 0.430442
0 0 0.424857
0.315435 0 0.402441
0.572 0 0.369329
0.80763 0 0.326619
0.383398 0.117128 0.197543
0.199664 0.199664 0.199664
0.212131 0.212131 0.212131
0.212116 0.212116 0.212116
0 0.0263066 0.402533
0 0.0160372 0.392706
0.299229 0 0.369589
0.567529 0 0.331014
0.802808 0 0.27509
0.291554 0.140078 0.176822
0.192065 0.192065 0.192065
0.212055 0.212055 0.212055
0.212146 0.212146 0.212146
0 0.287831 0.31754
0 0.280598 0.305821
0.273106 0.282841 0.293278
0.569558 0.261326 0.265965
0.823758 0.233341 0.21004
0.825269 0.240223 0.187106
0.277821 0.277821 0.277821
0.21181 0.21181 0.21181
0.212131 0.212131 0.212131
0 0.518013 0.145647
0 0.514321 0.128817
0.174136 0.51284 0.106905
0.421973 0.513268 0.014435
0.751034 0.467597 0
0.777661 0.473396 0.175509
0.521874 0.510185 0.502235
0.471656 0.471656 0.471656
0.265446 0.265446 0.265446
0 0.711223 0
0 0.70985 0
0.0224002 0.712673 0
0.35494 0.702144 0
0.556191 0.705623 0
0.716533 0.657359 0.34992
0.655268 0.655268 0.655268
0.643336 0.643336 0.643336
0.588693 0.588693 0.588693
0.626505 0.626505 0.626505
0.625467 0.625467 0.625467
0.623697 0.623697 0.623697
0.355398 0.854139 0.0513161
0.588647 0.831922 0.173632
0.767651 0.767651 0.767651
0.779873 0.779873 0.779873
0.778653 0.778653 0.778653
0.752819 0.752819 0.752819
0.719844 0.719844 0.719844
0.719554 0.719554 0.719554
0.719081 0.719081 0.719081
0.746334 0.746334 0.746334
0.755398 0.830411 0.679774
0.841443 0.841443 0.841443
0.860655 0.860655 0.860655
0.868711 0.868711 0.868711
0.862455 0.862455 0.862455
0.771542 0.771542 0.771542
0.771405 0.771405 0.771405
0.771206 0.771206 0.771206
0.770871 0.770871 0.770871
0.826185 0.826185 0.826185
0.872236 0.872236 0.872236
0.899718 0.899718 0.899718
0.910887 0.910887 0.910887
0.910658 0.910658 0.910658
0.796582 0.796582 0.796582
0.796567 0.796567 0.796567
0.796567 0.796567 0.796567
0.796567 0.796567 0.796567
0.796567 0.796567 0.796567
0.872877 0.872877 0.872877
0.916533 0.916533 0.916533
0.932982 0.932982 0.932982
0.937621 0.937621 0.937621
0 0 0.664729
0 0 0.660014
0.193317 0 0.65185
0.518227 0 0.625559
0.766125 0 0.600519
0.533928 0.0832074 0.362432
0.230701 0.230701 0.230701
0.24625 0.24625 0.24625
0.212131 0.212131 0.212131
0 0 0.649378
0 0 0.643732
0.1682 0 0.634394
0.508171 0 0.604166
0.765667 0 0.582406
0.555673 0.0734112 0.361776
0.228 0.228 0.228
0.242832 0.242832 0.242832
0.212146 0.212146 0.212146
0 0.255177 0.612131
0 0.247074 0.607217
0.129946 0.249073 0.614237
0.514717 0.223636 0.599741
0.790509 0.190951 0.583505
1 0.133089 0.552956
0.441886 0.213855 0.308156
0.236103 0.236103 0.236103
0.212131 0.212131 0.212131
0 0.496468 0.537148
0 0.492515 0.531289
0.0103456 0.49015 0.525216
0.445869 0.462547 0.482979
0.718624 0.439353 0.458244
0.956634 0.414603 0.410544
1 0.375326 0.31368
0.459785 0.459785 0.459785
0.218738 0.218738 0.218738
0 0.700374 0.388571
0 0.698253 0.379843
0 0.695277 0.364141
0.351965 0.668467 0.317357
0.583459 0.669398 0.233646
0.899931 0.632166 0.143282
0.828153 0.633448 0.327947
0.635615 0.635615 0.635615
0.579171 0.579171 0.579171
0.604135 0.633433 0.606012
0.622278 0.623362 0.622339
0.619791 0.619791 0.619791
0.313359 0.840024 0.0872053
0.549599 0.837858 0.102922
0.76202 0.76202 0.76202
0.775753 0.775753 0.775753
0.774594 0.774594 0.774594
0.74876 0.74876 0.74876
0.718608 0.718608 0.718608
0.718318 0.718318 0.718318
0.717937 0.717937 0.717937
0.718669 0.718669 0.718669
0.731136 0.832456 0.640528
0.837491 0.837491 0.837491
0.858869 0.858869 0.858869
0.867292 0.867292 0.867292
0.861479 0.861479 0.861479
0.771023 0.771023 0.771023
0.770886 0.770886 0.770886
0.770672 0.770672 0.770672
0.770336 0.770336 0.770336
0.817304 0.817304 0.817304
0.868818 0.868818 0.868818
0.898421 0.898421 0.898421
0.910109 0.910109 0.910109
0.910201 0.910201 0.910201
0.796582 0.796582 0.796582
0.796567 0.796567 0.796567
0.796551 0.796551 0.796551
0.796551 0.796551 0.796551
0.796567 0.796567 0.796567
0.868544 0.868544 0.868544
0.915389 0.915389 0.915389
0.932677 0.932677 0.932677
0.937621 0.937621 0.937621
0 0 0.130922
0 0 0.147723
0 0 0.224018
0.392126 0 0.80737
0.545205 0 0.639735
0.229053 0.209842 0.22678
0.252781 0.252781 0.252781
0.273716 0.273716 0.273716
0.264225 0.264225 0.264225
0 0 0.202823
0 0 0.21973
0 0 0.249805
0.38703 0 0.815915
0.569345 0 0.666239
0.253437 0.197498 0.24622
0.251072 0.251072 0.251072
0.272053 0.272053 0.272053
0.262318 0.262318 0.262318
0 0.197711 0.803098
0 0.188693 0.800931
0 0.173083 0.797833
0.405585 0.160235 0.867216
0.733654 0.11754 0.857527
0.814878 0.10808 0.700328
0.24831 0.24831 0.24831
0.269093 0.269093 0.269093
0.258747 0.258747 0.258747
0 0.467063 0.812619
0 0.463401 0.810987
0 0.456794 0.80763
0.316548 0.440085 0.797375
0.662531 0.408896 0.772854
0.935622 0.378866 0.753292
1 0.332082 0.728923
1 0.238346 0.669093
0.252842 0.252842 0.252842
0 0.668818 0.722606
0 0.667796 0.720653
0 0.666087 0.717144
0.191882 0.657816 0.708034
0.596384 0.621195 0.65626
0.87657 0.598184 0.63122
1 0.576226 0.585855
1 0.53579 0.497078
1 0.454643 0.246082
0.183948 0.790478 0.614435
0.172473 0.792523 0.609979
0.153567 0.796094 0.602319
0 0.877211 0.561517
0.50161 0.827314 0.493248
0.735012 0.820661 0.414374
0.898589 0.801648 0.316838
0.980423 0.78822 0.115785
0.741756 0.741756 0.741756
0.730068 0.730068 0.730068
0.729198 0.729198 0.729198
0.727886 0.727886 0.727886
0.725078 0.725078 0.725078
0.471046 0.945785 0.188418
0.830564 0.830564 0.830564
0.855863 0.855863 0.855863
0.864927 0.864927 0.864927
0.859525 0.859525 0.859525
0.770153 0.770153 0.770153
0.770031 0.770031 0.770031
0.769818 0.769818 0.769818
0.769482 0.769482 0.769482
0.796048 0.796048 0.796048
0.862165 0.862165 0.862165
0.896391 0.896391 0.896391
0.909148 0.909148 0.909148
0.909621 0.909621 0.909621
0.796567 0.796567 0.796567
0.796567 0.796567 0.796567
0.796567 0.796567 0.796567
0.796567 0.796567 0.796567
0.796567 0.796567 0.796567
0.860258 0.860258 0.860258
0.913069 0.913069 0.913069
0.932006 0.932006 0.932006
0.937621 0.937621 0.937621
0.00386053 0.00386053 0.00386053
0.00375372 0.00375372 0.00375372
0.00360113 0.00360113 0.00360113
0.0528725 0.0528725 0.0528725
0.140291 0.140291 0.140291
0.224582 0.224582 0.224582
0.272969 0.272969 0.272969
0.298283 0.298283 0.298283
0.295186 0.295186 0.295186
0.00349432 0.00349432 0.00349432
0.00341802 0.00341802 0.00341802
0.00329595 0.00329595 0.00329595
0.0475776 0.0475776 0.0475776
0.146075 0.134234 0.153368
0.222782 0.222782 0.222782
0.271946 0.271946 0.271946
0.297475 0.297475 0.297475
0.294148 0.294148 0.294148
0.122576 0.122576 0.122576
0.113451 0.113451 0.113451
0.0983139 0.0983139 0.0983139
0.110521 0.110521 0.110521
0.335149 0.101106 0.496529
0.219486 0.219486 0.219486
0.2701 0.2701 0.2701
0.295567 0.295567 0.295567
0.292287 0.292287 0.292287
0.325139 0.364462 0.412116
0.31986 0.36144 0.412726
0.31043 0.355993 0.413794
0.192462 0.375372 0.650462
0.566934 0.363485 1
0.902556 0.32398 1
1 0.266453 1
0.404959 0.404959 0.404959
0.289418 0.289418 0.289418
0.49131 0.518654 0.531106
0.483436 0.518425 0.534463
0.476646 0.516442 0.535027
0.451774 0.515908 0.546349
0.477653 0.598718 0.963104
0.822675 0.568658 0.940337
0.996323 0.542336 0.925155
1 0.496605 0.897871
1 0.394751 0.841642
0.656901 0.656901 0.656901
0.655711 0.655711 0.655711
0.653635 0.653635 0.653635
0.650675 0.650675 0.650675
0.359518 0.814878 0.873259
0.743404 0.77409 0.819348
0.927947 0.752529 0.796033
1 0.728161 0.750225
1 0.686824 0.658305
0.751247 0.751247 0.751247
0.750805 0.750805 0.750805
0.750027 0.750027 0.750027
0.748882 0.748882 0.748882
0.156497 0.983261 0.747356
0.65597 0.920348 0.66479
0.829221 0.916716 0.595117
0.90518 0.914427 0.492973
0.906554 0.918486 0.308919
0.788083 0.788083 0.788083
0.787686 0.787686 0.787686
0.786999 0.786999 0.786999
0.785855 0.785855 0.785855
0.784115 0.784115 0.784115
0.520745 1 0.201678
0.870512 0.921691 0.75581
0.907118 0.907118 0.907118
0.90866 0.90866 0.90866
0.796582 0.796582 0.796582
0.796567 0.796567 0.796567
0.796567 0.796567 0.796567
0.796567 0.796567 0.796567
0.796567 0.796567 0.796567
0.84242 0.84242 0.84242
0.908843 0.908843 0.908843
0.930922 0.930922 0.930922
0.937621 0.937621 0.937621
0.0126802 0.0126802 0.0126802
0.0126497 0.0126497 0.0126497
0.0125734 0.0125734 0.0125734
0.0124666 0.0124666 0.0124666
0.101671 0.101671 0.101671
0.206806 0.206806 0.206806
0.278889 0.278889 0.278889
0.309804 0.309804 0.309804
0.314916 0.314916 0.314916
0.0125429 0.0125429 0.0125429
0.0124819 0.0124819 0.0124819
0.0124208 0.0124208 0.0124208
0.0123293 0.0123293 0.0123293
0.0984817 0.0984817 0.0984817
0.20499 0.20499 0.20499
0.278264 0.278264 0.278264
0.309422 0.309422 0.309422
0.314656 0.314656 0.314656
0.0122835 0.0122835 0.0122835
0.012253 0.012253 0.012253
0.012192 0.012192 0.012192
0.0121157 0.0121157 0.0121157
0.0933852 0.0933852 0.0933852
0.201709 0.201709 0.201709
0.277119 0.277119 0.277119
0.308721 0.308721 0.308721
0.314168 0.314168 0.314168
0.304433 0.304433 0.304433
0.299916 0.299916 0.299916
0.292165 0.292165 0.292165
0.278859 0.278859 0.278859
0.320287 0.288899 0.947768
0.778515 0.233539 1
0.392645 0.392645 0.392645
0.307713 0.307713 0.307713
0.313359 0.313359 0.313359
0.493858 0.493858 0.493858
0.492073 0.492073 0.492073
0.489021 0.489021 0.489021
0.483894 0.483894 0.483894
0.191653 0.572351 1
0.722637 0.525673 1
0.986542 0.493523 1
1 0.438941 1
1 0.327474 1
0.650752 0.650752 0.650752
0.649882 0.649882 0.649882
0.647913 0.647913 0.647913
0.644724 0.644724 0.644724
0.647334 0.647334 0.647334
0.624292 0.756985 1
0.908721 0.7252 1
1 0.697505 1
1 0.649271 1
0.761166 0.761166 0.761166
0.760815 0.760815 0.760815
0.76022 0.76022 0.76022
0.759304 0.759304 0.759304
0.7579 0.7579 0.7579
0.512001 0.920439 0.98233
0.852232 0.882475 0.934508
0.937392 0.874739 0.917479
0.977905 0.856428 0.893629
0.809247 0.809247 0.809247
0.809033 0.809033 0.809033
0.808713 0.808713 0.808713
0.808164 0.808164 0.808164
0.80734 0.80734 0.80734
0.333898 1 0.908858
0.803403 0.958267 0.834195
0.900328 0.957259 0.786465
0.919097 0.960632 0.69752
0.821424 0.821424 0.821424
0.821241 0.821241 0.821241
0.820935 0.820935 0.820935
0.820462 0.820462 0.820462
0.819638 0.819638 0.819638
0.818479 0.818479 0.818479
0.677226 1 0.391821
0.790326 1 0.191562
0.937621 0.937621 0.937621
0.0197147 0.0197147 0.0197147
0.0196841 0.0196841 0.0196841
0.0196689 0.0196689 0.0196689
0.0196078 0.0196078 0.0196078
0.0195163 0.0195163 0.0195163
0.152148 0.152148 0.152148
0.271351 0.271351 0.271351
0.313634 0.313634 0.313634
0.324742 0.324742 0.324742
0.0196384 0.0196384 0.0196384
0.0196231 0.0196231 0.0196231
0.0195773 0.0195773 0.0195773
0.0195315 0.0195315 0.0195315
0.01944 0.01944 0.01944
0.149783 0.149783 0.149783
0.270588 0.270588 0.270588
0.313344 0.313344 0.313344
0.324651 0.324651 0.324651
0.0195163 0.0195163 0.0195163
0.0194858 0.0194858 0.0194858
0.01944 0.01944 0.01944
0.019379 0.019379 0.019379
0.0193027 0.0193027 0.0193027
0.146197 0.146197 0.146197
0.269215 0.269215 0.269215
0.312825 0.312825 0.312825
0.324498 0.324498 0.324498
0.113115 0.113115 0.113115
0.104097 0.104097 0.104097
0.0897231 0.0897231 0.0897231
0.0667124 0.0667124 0.0667124
0.0310521 0.0310521 0.0310521
0.139467 0.139467 0.139467
0.266957 0.266957 0.266957
0.311986 0.311986 0.311986
0.324224 0.324224 0.324224
0.442679 0.442679 0.442679
0.440284 0.440284 0.440284
0.436606 0.436606 0.436606
0.429938 0.429938 0.429938
0.41915 0.41915 0.41915
0.469993 0.443046 1
0.960525 0.390066 1
0.996811 0.360723 1
0.385702 0.385702 0.385702
0.625116 0.625116 0.625116
0.623865 0.623865 0.623865
0.621897 0.621897 0.621897
0.618708 0.618708 0.618708
0.61323 0.61323 0.61323
0.322194 0.736477 1
0.863874 0.681346 1
1 0.649058 1
1 0.592645 1
0.758709 0.758709 0.758709
0.758373 0.758373 0.758373
0.757733 0.757733 0.757733
0.756725 0.756725 0.756725
0.755077 0.755077 0.755077
0.785275 0.785275 0.785275
0.774426 0.873594 1
0.933043 0.854551 1
0.981308 0.83566 1
0.814389 0.814389 0.814389
0.814252 0.814252 0.814252
0.814054 0.814054 0.814054
0.813764 0.813764 0.813764
0.813245 0.813245 0.813245
0.812222 0.812222 0.812222
0.679698 0.960937 1
0.906783 0.93959 1
0.953658 0.934829 0.981445
0.841489 0.841489 0.841489
0.841443 0.841443 0.841443
0.841398 0.841398 0.841398
0.841321 0.841321 0.841321
0.841199 0.841199 0.841199
0.841001 0.841001 0.841001
0.496834 1 0.992035
0.880629 0.988144 0.945647
0.952712 0.982879 0.935409
0.0200961 0.0200961 0.0200961
0.0200961 0.0200961 0.0200961
0.0200961 0.0200961 0.0200961
0.0200961 0.0200961 0.0200961
0.0200961 0.0200961 0.0200961
0.0200961 0.0200961 0.0200961
0.207065 0.207065 0.207065
0.303441 0.303441 0.303441
0.326955 0.326955 0.326955
0.0200961 0.0200961 0.0200961
0.0200961 0.0200961 0.0200961
0.0200961 0.0200961 0.0200961
0.0200961 0.0200961 0.0200961
0.0200961 0.0200961 0.0200961
0.0200961 0.0200961 0.0200961
0.205509 0.205509 0.205509
0.303181 0.303181 0.303181
0.32697 0.32697 0.32697
0.0201114 0.0201114 0.0201114
0.0200961 0.0200961 0.0200961
0.0200961 0.0200961 0.0200961
0.0200961 0.0200961 0.0200961
0.0200961 0.0200961 0.0200961
0.0200961 0.0200961 0.0200961
0.202457 0.202457 0.202457
0.302724 0.302724 0.302724
0.32697 0.32697 0.32697
0.0201114 0.0201114 0.0201114
0.0200961 0.0200961 0.0200961
0.0200961 0.0200961 0.0200961
0.0200961 0.0200961 0.0200961
0.0200961 0.0200961 0.0200961
0.0200961 0.0200961 0.0200961
0.197742 0.197742 0.197742
0.301991 0.301991 0.301991
0.326986 0.326986 0.326986
0.29163 0.29163 0.29163
0.286748 0.286748 0.286748
0.27808 0.27808 0.27808
0.263645 0.263645 0.263645
0.236942 0.236942 0.236942
0.184924 0.184924 0.184924
0.270665 0.270665 0.270665
0.300755 0.300755 0.300755
0.327001 0.327001 0.327001
0.564721 0.564721 0.564721
0.563653 0.563653 0.563653
0.561059 0.561059 0.561059
0.557046 0.557046 0.557046
0.550301 0.550301 0.550301
0.539651 0.539651 0.539651
0.62208 0.600855 1
1 0.550988 1
1 0.473106 1
0.742336 0.742336 0.742336
0.741878 0.741878 0.741878
0.741054 0.741054 0.741054
0.739925 0.739925 0.739925
0.737713 0.737713 0.737713
0.734218 0.734218 0.734218
0.470329 0.877928 1
0.905379 0.826932 1
0.993164 0.794598 1
0.811582 0.811582 0.811582
0.811444 0.811444 0.811444
0.811215 0.811215 0.811215
0.810849 0.810849 0.810849
0.810239 0.810239 0.810239
0.809415 0.809415 0.809415
0.296773 0.995315 1
0.862791 0.932143 1
0.957565 0.921279 1
0.846555 0.846555 0.846555
0.846525 0.846525 0.846525
0.84654 0.84654 0.84654
0.84654 0.84654 0.84654
0.84654 0.84654 0.84654
0.84654 0.84654 0.84654
0.84654 0.84654 0.84654
0.814878 0.99057 1
0.945434 0.982528 1
