luts/Focus on red (lut).cube
TITLE "Generated by Resolve"
LUT_3D_SIZE 9
0 0.0266575 0.00923171
0.0260777 0.0181277 0.00552377
0.214847 0.00508125 0
0.39443 0 0
0.554849 0 0
0.7066 0 0
0.852674 0 0
0.994842 0 0
1 0 0
0 0.13666 0.116258
0 0.150729 0.0814221
0.134829 0.147707 0.0148928
0.304891 0.136477 0.010605
0.456077 0.130282 0
0.601236 0.124605 0
0.74461 0.119554 0
0.888243 0.113756 0
1 0.107591 0
0 0.246448 0.222782
0 0.262226 0.174304
0.0361334 0.291554 0.106081
0.221317 0.282475 0.0292821
0.396689 0.263905 0.0575875
0.534234 0.260395 0.0364996
0.674342 0.256992 0.00840772
0.817594 0.252461 0
0.95729 0.248829 0
0 0.357122 0.325139
0 0.373526 0.270954
0.0525368 0.399939 0.209674
0.105196 0.431067 0.132784
0.289281 0.420325 0.0498512
0.491203 0.392615 0.0847791
0.637186 0.38584 0.0865187
0.779675 0.382818 0.0607614
0.909545 0.381811 0.0360571
0 0.468254 0.427863
0 0.485374 0.369558
0.0663615 0.510933 0.308171
0.122591 0.53991 0.246143
0.182818 0.568032 0.155306
0.387243 0.551308 0.0713512
0.607294 0.519371 0.106416
0.756436 0.509834 0.127916
0.881712 0.509361 0.115434
0 0.578622 0.529015
0.0100557 0.596887 0.46746
0.0841077 0.6224 0.400504
0.14548 0.650767 0.336721
0.190387 0.681544 0.267079
0.275898 0.702052 0.165911
0.479179 0.683925 0.0964065
0.694286 0.653132 0.125994
0.850935 0.639323 0.162478
0 0.68806 0.623545
0.0309606 0.708141 0.553506
0.104753 0.7337 0.488579
0.166018 0.761242 0.429511
0.215396 0.789059 0.372183
0.256809 0.819242 0.305272
0.34966 0.83711 0.206149
0.543389 0.822416 0.130251
0.766384 0.790509 0.146014
0 0.797681 0.716564
0.0517281 0.818921 0.642466
0.124041 0.84416 0.582574
0.184604 0.871138 0.52755
0.236835 0.897185 0.476921
0.280568 0.925719 0.420523
0.324926 0.955627 0.349584
0.422446 0.972137 0.24979
0.607126 0.960601 0.168963
0 0.906615 0.815839
0.0676432 0.928588 0.74284
0.141146 0.953429 0.683131
0.202716 0.980087 0.628626
0.256458 1 0.57937
0.30457 1 0.528817
0.345876 1 0.46978
0.394308 1 0.395407
0.494789 1 0.295628
0 0.0297246 0.179538
0.0247501 0.0181582 0.170062
0.175525 0.0136568 0.1673
0.311543 0.0122835 0.167468
0.43299 0.0123293 0.168872
0.548012 0.0132143 0.171084
0.668498 0.0126192 0.173831
0.804425 0.00740063 0.176165
0.959289 0 0.175326
0 0.158251 0.175509
0.00463874 0.147158 0.165347
0.171939 0.138415 0.154833
0.346792 0.126329 0.144213
0.501396 0.117205 0.136767
0.646906 0.109636 0.130892
0.790494 0.102876 0.125307
0.931044 0.09691 0.121019
1 0.0913252 0.115373
0 0.281819 0.179629
0.01561 0.262135 0.211154
0.121141 0.269062 0.232807
0.274357 0.266194 0.193759
0.423438 0.26067 0.168032
0.570855 0.254688 0.140764
0.717113 0.249165 0.115724
0.865736 0.242542 0.097612
1 0.236454 0.0892042
0 0.396963 0.209583
0.0339055 0.367819 0.338033
0.130312 0.380301 0.329046
0.183093 0.410086 0.265782
0.359747 0.399176 0.208881
0.517143 0.387167 0.219684
0.662867 0.383307 0.187701
0.812787 0.378393 0.155993
0.948226 0.375387 0.135897
0 0.504265 0.305501
0.0520485 0.475502 0.456077
0.140169 0.492546 0.425498
0.200412 0.520363 0.363653
0.251194 0.550484 0.279576
0.459358 0.53051 0.215396
0.63827 0.510964 0.247166
0.773938 0.508278 0.234058
0.906493 0.507027 0.210849
0 0.604089 0.454353
0.0711376 0.584146 0.564767
0.154055 0.605768 0.509087
0.216236 0.633661 0.444312
0.263096 0.663081 0.379705
0.334661 0.686702 0.287221
0.542977 0.665614 0.233127
0.73341 0.641352 0.272663
0.870649 0.635218 0.289311
0 0.697368 0.619318
0.0935531 0.693675 0.658167
0.170214 0.718105 0.593683
0.233005 0.745052 0.534691
0.284566 0.771618 0.481926
0.325536 0.801343 0.421485
0.407324 0.822065 0.327565
0.606485 0.804791 0.261967
0.814557 0.775891 0.293904
0 0.797482 0.749722
0.11162 0.804593 0.748623
0.186419 0.829206 0.687053
0.250156 0.855177 0.632914
0.303258 0.880842 0.583749
0.350027 0.907988 0.532341
0.390555 0.938476 0.467674
0.479347 0.957321 0.371176
0.668711 0.94374 0.2972
0.0198062 0.903532 0.864683
0.127108 0.914351 0.849287
0.202014 0.938949 0.787594
0.267445 0.964401 0.733715
0.321309 0.989807 0.685023
0.37145 1 0.637278
0.414984 1 0.582849
0.457694 1 0.514473
0.551095 1 0.416953
0 0.029572 0.349599
0.0221561 0.0180362 0.340261
0.173053 0.0135042 0.337484
0.308843 0.0122072 0.337758
0.429984 0.0123751 0.339315
0.544335 0.0134585 0.341665
0.656825 0.015259 0.344671
0.767254 0.0176394 0.34818
0.878447 0.0204013 0.348272
0 0.158343 0.345098
0.00151064 0.147234 0.33518
0.152819 0.142641 0.331884
0.288823 0.141344 0.331884
0.410269 0.141466 0.333242
0.524849 0.142504 0.335439
0.638773 0.144152 0.336416
0.74966 0.146426 0.339925
0.861051 0.148928 0.341329
0 0.284199 0.347524
0 0.273365 0.336721
0.14049 0.268666 0.333104
0.277745 0.267247 0.33135
0.407904 0.265293 0.328603
0.57261 0.252399 0.319402
0.735225 0.240879 0.306172
0.890043 0.23209 0.291737
1 0.227558 0.29308
0 0.408728 0.353643
0 0.397498 0.342351
0.143786 0.389578 0.342504
0.25832 0.391104 0.384695
0.396292 0.3897 0.351385
0.547234 0.383795 0.315724
0.700282 0.377844 0.27985
0.85362 0.371405 0.250996
0.994888 0.365499 0.24477
0 0.529549 0.357824
0.000686656 0.514397 0.357794
0.171374 0.494255 0.462425
0.268162 0.504677 0.46949
0.314961 0.534829 0.395117
0.512383 0.51545 0.357214
0.658 0.509133 0.35137
0.796323 0.506752 0.323934
0.937118 0.503227 0.300145
0 0.641733 0.374319
0.0449073 0.616358 0.454673
0.20763 0.595407 0.600076
0.279683 0.619287 0.543877
0.329778 0.646998 0.484535
0.390127 0.672847 0.402914
0.599435 0.649485 0.370413
0.757015 0.635859 0.402121
0.887678 0.634485 0.388128
0 0.738903 0.471336
0.101015 0.706966 0.638483
0.225681 0.705928 0.693477
0.294011 0.731151 0.633707
0.347433 0.756771 0.584039
0.391928 0.784848 0.530083
0.461982 0.808469 0.443183
0.666163 0.788266 0.392737
0.85005 0.765942 0.432593
0 0.834821 0.623529
0.138109 0.807126 0.780316
0.240864 0.816938 0.788693
0.309194 0.841672 0.732921
0.364462 0.866621 0.68455
0.413977 0.892622 0.636683
0.45481 0.922454 0.578088
0.533349 0.943908 0.486748
0.728099 0.927794 0.42269
0 0.933242 0.771282
0.16083 0.913161 0.89781
0.256138 0.926757 0.889418
0.324849 0.9514 0.833555
0.381964 0.975769 0.785565
0.43299 1 0.73901
0.479591 1 0.689326
0.519387 1 0.626932
0.604501 1 0.532616
0 0.0295872 0.511421
0.019791 0.0180972 0.502342
0.171023 0.0134737 0.49955
0.306874 0.012192 0.49984
0.428 0.0123903 0.501442
0.542214 0.0135042 0.503838
0.654536 0.0153506 0.506905
0.764797 0.0177768 0.510445
0.875883 0.0206302 0.509041
0 0.158434 0.506554
0 0.147356 0.496895
0.150698 0.142657 0.493553
0.286748 0.14136 0.493599
0.408103 0.141558 0.495033
0.522484 0.142657 0.497169
0.636561 0.144366 0.496605
0.747066 0.146746 0.500359
0.857984 0.149477 0.500618
0 0.284428 0.508644
0 0.273655 0.498146
0.138369 0.268711 0.494102
0.276402 0.267231 0.490272
0.399924 0.267231 0.487724
0.516289 0.268147 0.486854
0.63357 0.269551 0.481865
0.750347 0.271427 0.47599
0.85684 0.274418 0.486122
0 0.409323 0.514275
0 0.398627 0.500847
0.131563 0.393362 0.495186
0.269841 0.391867 0.491905
0.396658 0.39147 0.484016
0.52195 0.39115 0.469978
0.713481 0.37261 0.44303
0.882078 0.361105 0.41738
1 0.357534 0.42475
0 0.533257 0.511513
0 0.523278 0.505486
0.133577 0.516838 0.492164
0.290898 0.509773 0.489128
0.377508 0.519799 0.501335
0.537041 0.511131 0.469322
0.68455 0.506432 0.437583
0.828305 0.50222 0.411627
0.973175 0.496925 0.393759
0 0.653376 0.50074
0 0.640238 0.490623
0.181918 0.625193 0.506279
0.331472 0.608713 0.634516
0.390066 0.633066 0.58204
0.44332 0.659754 0.514366
0.638911 0.638453 0.504601
0.774197 0.634852 0.500053
0.910018 0.633036 0.47393
0 0.76466 0.489143
0.0584115 0.743709 0.521309
0.228031 0.721279 0.662013
0.346014 0.719783 0.730297
0.405676 0.743465 0.681163
0.454505 0.769726 0.632822
0.514305 0.795651 0.554528
0.719005 0.773358 0.525307
0.871641 0.761334 0.55555
0 0.870832 0.539101
0.101793 0.843397 0.64564
0.260853 0.822217 0.808225
0.36054 0.830381 0.830686
0.421378 0.853742 0.781247
0.472969 0.878981 0.734905
0.517433 0.907164 0.682582
0.585092 0.931273 0.598016
0.784726 0.912337 0.548608
0 0.974548 0.635798
0.134539 0.943755 0.792493
0.28513 0.927306 0.931044
0.375769 0.940215 0.931517
0.437217 0.963439 0.881941
0.490623 0.988174 0.836194
0.539864 1 0.789914
0.580484 1 0.733166
0.655604 1 0.644236
0 0.0297246 0.669596
0.0175631 0.0182803 0.660548
0.169131 0.0135805 0.657649
0.305119 0.0122683 0.657908
0.426337 0.0124666 0.659495
0.540505 0.013611 0.661891
0.65272 0.0154879 0.664973
0.76289 0.0179294 0.668544
0.87396 0.0208286 0.665446
0 0.158618 0.664637
0 0.147601 0.655024
0.148745 0.142779 0.65156
0.284932 0.141466 0.65156
0.406348 0.14168 0.652995
0.521355 0.142763 0.652903
0.635142 0.144549 0.65211
0.746136 0.146929 0.65449
0.857038 0.149706 0.653696
0 0.284672 0.666651
0 0.27396 0.656382
0.136812 0.268818 0.650416
0.27541 0.267308 0.644572
0.39881 0.267353 0.64155
0.515373 0.268299 0.639017
0.63418 0.269688 0.627939
0.751019 0.271672 0.619333
0.856733 0.274754 0.632792
0 0.409613 0.671046
0 0.398917 0.655512
0.130007 0.39353 0.650095
0.269123 0.391913 0.644968
0.398306 0.391333 0.62887
0.52221 0.391562 0.611063
0.645289 0.392493 0.594797
0.764981 0.394171 0.58436
0.871473 0.397299 0.598108
0 0.533654 0.66273
0 0.523842 0.658549
0.133516 0.517189 0.637064
0.280949 0.514595 0.614847
0.411841 0.513787 0.596551
0.537621 0.513375 0.583825
0.704417 0.50103 0.570886
0.851728 0.49398 0.564187
0.994522 0.488197 0.558541
0 0.655283 0.640726
0 0.644129 0.626139
0.154498 0.637507 0.604791
0.306142 0.633112 0.591379
0.440223 0.62266 0.670253
0.494957 0.64715 0.621622
0.657862 0.63592 0.609506
0.799344 0.63238 0.583764
0.94107 0.628656 0.558938
0 0.77319 0.616999
0.0197757 0.760281 0.607874
0.186969 0.751598 0.605585
0.340414 0.738979 0.678035
0.455512 0.732738 0.773831
0.511452 0.756619 0.728054
0.564538 0.783459 0.661768
0.755352 0.763394 0.654017
0.888167 0.760601 0.648585
0 0.888808 0.624155
0.0554513 0.872145 0.623224
0.222721 0.858091 0.680522
0.370916 0.840467 0.825437
0.470314 0.843183 0.875074
0.527932 0.866621 0.828473
0.576516 0.89308 0.781384
0.634714 0.91928 0.705196
0.834928 0.898314 0.676143
0 1 0.649058
0.0910658 0.978897 0.690501
0.254902 0.960266 0.809201
0.398398 0.943542 0.95996
0.485618 0.952987 0.976257
0.544305 0.97644 0.929564
0.59559 1 0.884443
0.639811 1 0.833707
0.704768 1 0.751415
0 0.0299535 0.825971
0.0154269 0.018555 0.817014
0.167361 0.0137484 0.814038
0.303502 0.0124208 0.814267
0.424842 0.0126192 0.815824
0.538979 0.0137636 0.818219
0.651148 0.0156558 0.821286
0.761624 0.0181277 0.823636
0.872358 0.0210727 0.820111
0 0.158877 0.82089
0 0.147921 0.811368
0.146883 0.142992 0.807813
0.283238 0.141665 0.807797
0.404761 0.141863 0.809216
0.520317 0.142947 0.806577
0.634073 0.144762 0.805158
0.747082 0.147097 0.801053
0.856855 0.149966 0.802899
0 0.284962 0.822858
0 0.274342 0.812741
0.135653 0.269001 0.803479
0.274449 0.267475 0.796643
0.397894 0.267536 0.793057
0.515587 0.268452 0.786068
0.635096 0.269871 0.770428
0.752377 0.271916 0.75848
0.857542 0.275029 0.775402
0 0.409781 0.821668
0 0.399237 0.807843
0.128725 0.393744 0.802686
0.269581 0.391959 0.792264
0.40029 0.391302 0.768811
0.524361 0.391623 0.747219
0.647639 0.392691 0.726894
0.765225 0.394659 0.718898
0.872572 0.397742 0.732403
0 0.533944 0.810941
0 0.524025 0.806271
0.135439 0.517143 0.777218
0.283207 0.514595 0.750942
0.413962 0.513832 0.730098
0.536049 0.514351 0.718547
0.651743 0.516075 0.7205
0.765164 0.518349 0.723751
0.876951 0.52108 0.727443
0 0.655467 0.776547
0 0.644297 0.760906
0.154742 0.638178 0.737774
0.298512 0.636164 0.72314
0.421103 0.636393 0.722972
0.537728 0.637613 0.724987
0.654169 0.639063 0.727504
0.806775 0.630259 0.722622
0.956176 0.622568 0.715877
0 0.775311 0.749416
0.00842298 0.764294 0.741451
0.166308 0.759091 0.731609
0.30573 0.757366 0.731319
0.433066 0.755901 0.734249
0.558968 0.747356 0.812589
0.614939 0.771298 0.768475
0.773739 0.761242 0.756878
0.913375 0.75819 0.731746
0 0.895628 0.757168
0.0234836 0.883284 0.74641
0.182803 0.877104 0.743999
0.330144 0.872251 0.751949
0.464454 0.862593 0.821714
0.576165 0.856535 0.919799
0.632181 0.88043 0.87602
0.684047 0.907439 0.811872
0.870619 0.888655 0.804059
0 1 0.77026
0.0470436 0.998428 0.761471
0.212161 0.989395 0.77113
0.363394 0.978363 0.834043
0.495384 0.963424 0.969665
0.591989 0.966476 1
0.649378 0.990112 0.977539
0.697643 1 0.931823
0.753597 1 0.85803
0 0.0302586 0.981277
0.0133364 0.0189212 0.972381
0.165652 0.0140078 0.969314
0.301946 0.0126497 0.969512
0.423407 0.0128481 0.971069
0.53756 0.0139925 0.973449
0.650141 0.0158846 0.974594
0.76054 0.0183719 0.977081
0.870939 0.0213474 0.973587
0 0.159213 0.97612
0 0.148318 0.966674
0.145098 0.143282 0.962997
0.281621 0.141924 0.962951
0.403632 0.142092 0.962722
0.519356 0.143191 0.958785
0.633356 0.145022 0.955825
0.74934 0.147326 0.940063
0.857664 0.15024 0.947127
0 0.285313 0.978042
0 0.274739 0.966949
0.134707 0.269261 0.954269
0.273518 0.267735 0.947204
0.397162 0.267796 0.942596
0.516655 0.268635 0.92784
0.63595 0.270146 0.910521
0.754086 0.272221 0.893767
0.858854 0.275334 0.914275
0 0.409995 0.968872
0 0.399634 0.958694
0.127687 0.394018 0.953353
0.271244 0.391989 0.932891
0.402213 0.391394 0.905211
0.526696 0.391791 0.879377
0.64863 0.393057 0.859876
0.764614 0.395209 0.854643
0.874357 0.398138 0.863005
0 0.534234 0.95642
0 0.523995 0.947143
0.138186 0.517082 0.91191
0.28571 0.514656 0.88307
0.415778 0.514031 0.86125
0.535821 0.514809 0.853941
0.651011 0.516609 0.856733
0.764187 0.518959 0.86009
0.8757 0.521752 0.863905
0 0.655573 0.908125
0 0.64445 0.894057
0.156435 0.638437 0.86865
0.298039 0.636728 0.858076
0.420356 0.636957 0.859113
0.537224 0.638086 0.861158
0.652369 0.639902 0.863935
0.765606 0.642237 0.867277
0.877272 0.644999 0.871046
0 0.776089 0.883055
0.00761425 0.765087 0.874769
0.163806 0.760204 0.867338
0.301579 0.758999 0.866804
0.423804 0.759274 0.867765
0.540429 0.760479 0.869734
0.655192 0.762417 0.872496
0.768719 0.764675 0.875715
0.909606 0.759106 0.874006
0 0.897627 0.892699
0.014313 0.886458 0.881682
0.16936 0.881712 0.877516
0.307622 0.880369 0.876997
0.431434 0.880156 0.878157
0.552636 0.87985 0.881712
0.677073 0.872312 0.956374
0.733593 0.895598 0.917556
0.888685 0.886687 0.905547
0 1 0.904051
0.0242161 1 0.893095
0.182086 1 0.889464
0.324971 0.997543 0.890455
0.456107 0.994461 0.899077
0.584497 0.986786 0.96492
0.69604 0.980621 1
0.751934 1 1
0.802121 1 0.963729
0 0.0306096 1
0.0113069 0.0193332 1
0.164004 0.0143282 1
0.300465 0.0129397 1
0.422065 0.0131228 1
0.536233 0.0142519 1
0.649439 0.0161746 1
0.759579 0.0186618 1
0.869703 0.0216526 1
0 0.159594 1
0 0.148775 1
0.143374 0.143633 1
0.280079 0.142229 1
0.402838 0.142397 1
0.518517 0.143496 1
0.633783 0.145312 1
0.752361 0.147631 1
0.858885 0.150576 1
0 0.28571 1
0 0.275181 1
0.133806 0.269596 1
0.272679 0.268055 1
0.39704 0.268086 1
0.517983 0.268894 1
0.637552 0.270451 1
0.755978 0.272587 1
0.860365 0.275685 1
0 0.410269 1
0 0.400076 1
0.127459 0.394278 1
0.273487 0.392111 1
0.404578 0.391577 1
0.529046 0.39205 1
0.649882 0.393469 0.990417
0.764004 0.395789 0.990127
0.875349 0.398627 0.993988
0 0.534478 1
0 0.523934 1
0.140856 0.517159 1
0.288243 0.514824 1
0.417121 0.514366 0.991592
0.535348 0.515343 0.989395
0.650492 0.517159 0.992187
0.763561 0.519539 0.99556
0.874952 0.522377 0.99942
0 0.655711 1
0 0.644373 1
0.157839 0.638773 0.998795
0.297398 0.637308 0.993515
0.419837 0.637507 0.994553
0.536767 0.638621 0.996597
0.651881 0.640452 0.99939
0.76495 0.642817 1
0.876371 0.64564 1
0 0.776852 1
0.00767529 0.765667 1
0.162661 0.760952 1
0.300572 0.759701 1
0.42295 0.75993 1
0.539757 0.76109 1
0.654734 0.762951 1
0.767773 0.765347 1
0.87924 0.768139 1
0 0.898604 1
0.0121157 0.887526 1
0.167361 0.88275 1
0.305333 0.881498 1
0.42771 0.881743 1
0.544396 0.882933 1
0.659144 0.884886 1
0.771801 0.887373 1
0.883497 0.890135 1
0 1 1
0.0180362 1 1
0.173663 1 1
0.31191 1 1
0.434714 1 1
0.552804 1 1
0.671702 1 1
0.794171 0.997467 1
0.851499 1 1
0 0.0310216 1
0.00929274 0.0198215 1
0.162402 0.0146944 1
0.299031 0.0132753 1
0.420737 0.0134432 1
0.534951 0.0145724 1
0.648676 0.0165255 1
0.75877 0.0189975 1
0.869108 0.0220188 1
0 0.160021 1
0 0.149279 1
0.141726 0.14403 1
0.278569 0.142596 1
0.401999 0.142748 1
0.517754 0.143862 1
0.635599 0.145678 1
0.75581 0.148043 1
0.860212 0.150988 1
0 0.286137 1
0 0.275639 1
0.132891 0.269978 1
0.271885 0.268437 1
0.397803 0.268406 1
0.519112 0.269245 1
0.639292 0.270832 1
0.757824 0.273014 1
0.861982 0.276112 1
0 0.41062 1
0 0.400595 1
0.128603 0.394507 1
0.275731 0.392325 1
0.407004 0.391852 1
0.531182 0.392432 1
0.650507 0.393988 1
0.763531 0.396368 1
0.874815 0.399237 1
0 0.534615 1
0 0.523919 1
0.143648 0.517327 1
0.290578 0.515099 1
0.417929 0.514824 1
0.534936 0.515923 1
0.650065 0.517739 1
0.763088 0.520119 1
0.874403 0.522988 1
0 0.655848 1
0 0.644556 1
0.158831 0.639216 1
0.296864 0.637919 1
0.419379 0.638086 1
0.536355 0.6392 1
0.651469 0.641016 1
0.764492 0.643412 1
0.875807 0.646265 1
0 0.777615 1
0.00660716 0.766445 1
0.161852 0.761654 1
0.299916 0.760357 1
0.4224 0.76054 1
0.5393 0.761669 1
0.654353 0.763516 1
0.767346 0.765911 1
0.87866 0.768765 1
0 0.899443 1
0.0106966 0.888411 1
0.166217 0.883543 1
0.304341 0.882261 1
0.426825 0.88246 1
0.543633 0.883619 1
0.658549 0.885512 1
0.77142 0.887953 1
0.882689 0.890806 1
0 1 1
0.0159915 1 1
0.171862 1 1
0.310079 1 1
0.432624 1 1
0.549401 1 1
0.664195 1 1
0.776837 1 1
0.887755 1 1
