luts/Focus on red (lut).cube
TITLE "Generated by Resolve"
LUT_3D_SIZE 5
0 0.0266575 0.00923171
0.214847 0.00508125 0
0.554849 0 0
0.852674 0 0
1 0 0
0 0.246448 0.222782
0.0361334 0.291554 0.106081
0.396689 0.263905 0.0575875
0.674342 0.256992 0.00840772
0.95729 0.248829 0
0 0.468254 0.427863
0.0663615 0.510933 0.308171
0.182818 0.568032 0.155306
0.607294 0.519371 0.106416
0.881712 0.509361 0.115434
0 0.68806 0.623545
0.104753 0.7337 0.488579
0.215396 0.789059 0.372183
0.34966 0.83711 0.206149
0.766384 0.790509 0.146014
0 0.906615 0.815839
0.141146 0.953429 0.683131
0.256458 1 0.57937
0.345876 1 0.46978
0.494789 1 0.295628
0 0.029572 0.349599
0.173053 0.0135042 0.337484
0.429984 0.0123751 0.339315
0.656825 0.015259 0.344671
0.878447 0.0204013 0.348272
0 0.284199 0.347524
0.14049 0.268666 0.333104
0.407904 0.265293 0.328603
0.735225 0.240879 0.306172
1 0.227558 0.29308
0 0.529549 0.357824
0.171374 0.494255 0.462425
0.314961 0.534829 0.395117
0.658 0.509133 0.35137
0.937118 0.503227 0.300145
0 0.738903 0.471336
0.225681 0.705928 0.693477
0.347433 0.756771 0.584039
0.461982 0.808469 0.443183
0.85005 0.765942 0.432593
0 0.933242 0.771282
0.256138 0.926757 0.889418
0.381964 0.975769 0.785565
0.479591 1 0.689326
0.604501 1 0.532616
0 0.0297246 0.669596
0.169131 0.0135805 0.657649
0.426337 0.0124666 0.659495
0.65272 0.0154879 0.664973
0.87396 0.0208286 0.665446
0 0.284672 0.666651
0.136812 0.268818 0.650416
0.39881 0.267353 0.64155
0.63418 0.269688 0.627939
0.856733 0.274754 0.632792
0 0.533654 0.66273
0.133516 0.517189 0.637064
0.411841 0.513787 0.596551
0.704417 0.50103 0.570886
0.994522 0.488197 0.558541
0 0.77319 0.616999
0.186969 0.751598 0.605585
0.455512 0.732738 0.773831
0.564538 0.783459 0.661768
0.888167 0.760601 0.648585
0 1 0.649058
0.254902 0.960266 0.809201
0.485618 0.952987 0.976257
0.59559 1 0.884443
0.704768 1 0.751415
0 0.0302586 0.981277
0.165652 0.0140078 0.969314
0.423407 0.0128481 0.971069
0.650141 0.0158846 0.974594
0.870939 0.0213474 0.973587
0 0.285313 0.978042
0.134707 0.269261 0.954269
0.397162 0.267796 0.942596
0.63595 0.270146 0.910521
0.858854 0.275334 0.914275
0 0.534234 0.95642
0.138186 0.517082 0.91191
0.415778 0.514031 0.86125
0.651011 0.516609 0.856733
0.8757 0.521752 0.863905
0 0.776089 0.883055
0.163806 0.760204 0.867338
0.423804 0.759274 0.867765
0.655192 0.762417 0.872496
0.909606 0.759106 0.874006
0 1 0.904051
0.182086 1 0.889464
0.456107 0.994461 0.899077
0.69604 0.980621 1
0.802121 1 0.963729
0 0.0310216 1
0.162402 0.0146944 1
0.420737 0.0134432 1
0.648676 0.0165255 1
0.869108 0.0220188 1
0 0.286137 1
0.132891 0.269978 1
0.397803 0.268406 1
0.639292 0.270832 1
0.861982 0.276112 1
0 0.534615 1
0.143648 0.517327 1
0.417929 0.514824 1
0.650065 0.517739 1
0.874403 0.522988 1
0 0.777615 1
0.161852 0.761654 1
0.4224 0.76054 1
0.654353 0.763516 1
0.87866 0.768765 1
0 1 1
0.171862 1 1
0.432624 1 1
0.664195 1 1
0.887755 1 1
