luts/Focus on red (lut).cube
TITLE "Generated by Resolve"
LUT_3D_SIZE 33
0 0.0266575 0.00923171
0 0.0198825 0.0448157
0 0.0239567 0.032929
0 0.0303349 0.00697337
0.0260777 0.0181277 0.00552377
0.073518 0.0147555 0
0.121447 0.0113375 0
0.168658 0.00805676 0
0.214847 0.00508125 0
0.260761 0.00195315 0
0.306096 0 0
0.350744 0 0
0.39443 0 0
0.436973 0 0
0.477058 0 0
0.516182 0 0
0.554849 0 0
0.593317 0 0
0.631876 0 0
0.669444 0 0
0.7066 0 0
0.743557 0 0
0.780209 0 0
0.816571 0 0
0.852674 0 0
0.888533 0 0
0.924178 0 0
0.959625 0 0
0.994842 0 0
1 0 0
1 0 0
1 0 0
1 0 0
0 0.0550088 0.0293889
0 0.0487068 0.0667887
0 0.0530404 0.0528115
0 0.0601053 0.0335699
0 0.0618296 0.00320439
0.0557717 0.049836 0.00749218
0.101274 0.0465553 0.00460822
0.146059 0.0440528 0
0.191608 0.0412909 0
0.236713 0.0384985 0
0.280293 0.0360571 0
0.322896 0.0337682 0
0.364996 0.0314183 0
0.406699 0.0289616 0
0.446403 0.0265049 0
0.485557 0.0240635 0
0.524422 0.021622 0
0.562921 0.0192264 0
0.60087 0.0169375 0
0.638453 0.0146944 0
0.675853 0.0125277 0
0.713161 0.0104067 0
0.750134 0.0083772 0
0.786755 0.00643931 0
0.823224 0.00454719 0
0.859495 0.00268559 0
0.895567 0.000885023 0
0.931472 0 0
0.967208 0 0
1 0 0
1 0 0
1 0 0
1 0 0
0 0.082414 0.0575723
0 0.0774395 0.0887922
0 0.0818952 0.0737621
0 0.0883192 0.0552834
0 0.0956588 0.0340124
0.0117952 0.0940719 0.00363165
0.0835279 0.0820783 0.00965896
0.129671 0.0780957 0.0123598
0.17258 0.0760052 0.00489815
0.215457 0.073991 0
0.258503 0.0717174 0
0.301228 0.0693523 0
0.342901 0.0671855 0
0.38349 0.0652323 0
0.42179 0.0634775 0
0.459556 0.0617075 0
0.497276 0.0598611 0
0.534936 0.0579232 0
0.572427 0.0559396 0
0.609842 0.0539254 0
0.647257 0.0518807 0
0.684749 0.0498512 0
0.722133 0.0478218 0
0.759274 0.0458381 0
0.796109 0.0439155 0
0.832715 0.0420386 0
0.869108 0.0402228 0
0.905303 0.0384375 0
0.941268 0.0366979 0
0.977035 0.0350195 0
1 0.0334478 0
1 0.0318761 0
1 0.0303655 0
0 0.109514 0.0873274
0 0.106035 0.111055
0 0.110567 0.0954757
0 0.116594 0.0770275
0 0.122942 0.0584878
0 0.130678 0.0343633
0.0381628 0.126726 0.00585946
0.109743 0.114748 0.0121004
0.157763 0.109804 0.0191196
0.199268 0.107805 0.0145266
0.240421 0.10605 0.00700389
0.281147 0.104387 0
0.322103 0.10251 0
0.362737 0.100481 0
0.401282 0.0986038 0
0.43888 0.0968948 0
0.476005 0.0953231 0
0.512688 0.0938582 0
0.549065 0.0924239 0
0.585382 0.0909438 0
0.621836 0.0893873 0
0.658518 0.0877699 0
0.695293 0.0860761 0
0.732006 0.0843519 0
0.768704 0.0826123 0
0.805325 0.0808576 0
0.841856 0.0790875 0
0.878279 0.077348 0
0.914534 0.0756237 0
0.950591 0.07393 0
0.986633 0.0722667 0
1 0.070634 0
1 0.0690929 0
0 0.13666 0.116258
0 0.134478 0.133654
0 0.13904 0.117769
0 0.144701 0.0992142
0 0.150729 0.0814221
0 0.158373 0.0624704
0.00340276 0.165103 0.0353552
0.0632181 0.159655 0.0091249
0.134829 0.147707 0.0148928
0.185183 0.141787 0.0243076
0.226108 0.139391 0.0243229
0.2654 0.137972 0.0179751
0.304891 0.136477 0.010605
0.343786 0.135103 0.00247196
0.381399 0.133608 0
0.418799 0.13196 0
0.456077 0.130282 0
0.492988 0.128679 0
0.529397 0.127214 0
0.565408 0.125872 0
0.601236 0.124605 0
0.637095 0.123384 0
0.672923 0.122148 0
0.708751 0.120882 0
0.74461 0.119554 0
0.780484 0.118166 0
0.816403 0.116732 0
0.852323 0.115267 0
0.888243 0.113756 0
0.924086 0.11223 0
0.960311 0.110658 0
0.996414 0.109071 0
1 0.107591 0
0 0.163928 0.14406
0 0.162799 0.156558
0 0.167376 0.140551
0 0.172671 0.121706
0 0.178683 0.104234
0 0.185626 0.0871748
0 0.193942 0.0669871
0.0252689 0.1991 0.0373693
0.0874189 0.192767 0.013138
0.158709 0.180957 0.0180362
0.210956 0.174182 0.0287785
0.252293 0.171191 0.0329747
0.290684 0.169696 0.0290532
0.328634 0.168475 0.0225223
0.365164 0.167239 0.0157626
0.401007 0.166125 0.00836194
0.43711 0.16492 0.000946059
0.473579 0.163516 0
0.509896 0.162066 0
0.54609 0.160601 0
0.582132 0.159213 0
0.618097 0.157916 0
0.653819 0.156725 0
0.689265 0.155627 0
0.724559 0.154574 0
0.759899 0.153521 0
0.795331 0.152422 0
0.830427 0.151339 0
0.865248 0.15024 0
0.900481 0.14905 0
0.936233 0.147753 0
0.971862 0.146441 0
1 0.145174 0
0 0.191379 0.170687
0 0.191012 0.179751
0 0.195605 0.163699
0 0.200565 0.144503
0 0.206577 0.127337
0 0.21326 0.110903
0.00404364 0.220844 0.0932174
0.0166018 0.229206 0.071397
0.0476081 0.232868 0.0403754
0.110628 0.226078 0.0177768
0.181018 0.214481 0.0214847
0.235187 0.206973 0.0328222
0.27776 0.203235 0.0399023
0.315847 0.201373 0.0397803
0.351217 0.200351 0.0347448
0.386481 0.199298 0.0286717
0.421729 0.19826 0.0222629
0.456779 0.197314 0.0151827
0.491936 0.196307 0.00788891
0.527459 0.195148 0.000946059
0.563363 0.193866 0
0.599893 0.192462 0
0.636393 0.191089 0
0.672618 0.189792 0
0.708568 0.188586 0
0.744198 0.187488 0
0.779507 0.186481 0
0.814221 0.185565 0
0.848417 0.184741 0
0.882658 0.183917 0
0.917159 0.183017 0
0.951293 0.182132 0
0.985092 0.181247 0
0 0.21886 0.196887
0 0.219135 0.203189
0 0.223697 0.187198
0 0.228504 0.167697
0 0.234394 0.150683
0 0.241001 0.134447
0.00767529 0.248066 0.11812
0.0201419 0.256168 0.099443
0.0347906 0.264088 0.0757
0.0699168 0.266499 0.0443732
0.13228 0.259617 0.0230411
0.201846 0.24831 0.0251926
0.257847 0.240131 0.0365759
0.30219 0.235584 0.0454566
0.339147 0.23331 0.0491035
0.373999 0.232029 0.0468452
0.408103 0.23122 0.0415961
0.442741 0.230304 0.0356603
0.477409 0.229374 0.0294347
0.512398 0.228473 0.0223239
0.547448 0.227573 0.0150301
0.583032 0.226551 0.00791943
0.619058 0.225376 0.00117494
0.654994 0.22417 0
0.690974 0.222919 0
0.726772 0.221714 0
0.76228 0.2206 0
0.797223 0.219593 0
0.831876 0.218692 0
0.866728 0.217792 0
0.901732 0.216907 0
0.936477 0.216083 0
0.969711 0.215442 0
0 0.246448 0.222782
0 0.247227 0.226902
0 0.251759 0.211093
0 0.256458 0.191226
0 0.262226 0.174304
0 0.268772 0.15819
0.0106355 0.275593 0.142412
0.0245518 0.283101 0.125612
0.0361334 0.291554 0.106081
0.0537575 0.298711 0.0803998
0.0914015 0.30016 0.0495918
0.152773 0.293416 0.0288853
0.221317 0.282475 0.0292821
0.278889 0.273747 0.0401617
0.323857 0.268498 0.0500801
0.361593 0.265583 0.0563211
0.396689 0.263905 0.0575875
0.431174 0.262867 0.0541543
0.465156 0.262119 0.0486458
0.499718 0.261234 0.042649
0.534234 0.260395 0.0364996
0.568978 0.259602 0.0295415
0.603708 0.258869 0.0224155
0.638788 0.258015 0.0153048
0.674342 0.256992 0.00840772
0.70985 0.25594 0.00224308
0.745724 0.25478 0
0.781689 0.25359 0
0.817594 0.252461 0
0.853178 0.251392 0
0.889998 0.250233 0
0.924102 0.249454 0
0.95729 0.248829 0
0 0.274052 0.248447
0 0.275227 0.250828
0 0.279744 0.23534
0 0.284367 0.21503
0 0.290028 0.198138
0 0.296483 0.182132
0.0133211 0.303227 0.166552
0.0282292 0.310338 0.150759
0.0409857 0.318257 0.133181
0.0524758 0.326772 0.112886
0.0729381 0.333043 0.0859236
0.112184 0.333852 0.0557259
0.172244 0.327367 0.0352941
0.239536 0.316854 0.0338293
0.297292 0.30782 0.0434272
0.344518 0.301701 0.0540932
0.38468 0.297932 0.0620127
0.420569 0.295766 0.0662394
0.454994 0.294453 0.0655222
0.488594 0.29369 0.0614328
0.522194 0.29305 0.0559854
0.556603 0.292271 0.0500343
0.590967 0.291539 0.044007
0.625483 0.290837 0.0372168
0.660243 0.29015 0.0300298
0.695888 0.289296 0.0225528
0.732372 0.288258 0.0152285
0.769131 0.287098 0.00820935
0.805371 0.285969 0.00202945
0.842359 0.284718 0
0.878065 0.28365 0
0.912322 0.282795 0
0.945495 0.282124 0
0 0.301686 0.274006
0 0.303181 0.274968
0 0.307668 0.259648
0 0.312245 0.239078
0 0.31783 0.222187
0 0.324178 0.206271
0.0159457 0.330877 0.190768
0.0314183 0.337774 0.175463
0.0453193 0.34522 0.159274
0.0571756 0.353445 0.140978
0.069337 0.361685 0.119936
0.092134 0.367208 0.0922103
0.132448 0.367575 0.0624704
0.192157 0.361151 0.041825
0.257374 0.351095 0.0386664
0.315984 0.341756 0.047013
0.364935 0.335073 0.0578317
0.406806 0.330632 0.0670481
0.443793 0.327916 0.0732738
0.478264 0.326299 0.0756542
0.512093 0.325277 0.0737163
0.545586 0.324666 0.0691081
0.579599 0.324056 0.0635386
0.614816 0.323217 0.0572671
0.650477 0.322347 0.0506905
0.686732 0.321462 0.0432136
0.72311 0.320623 0.0353552
0.759228 0.319768 0.0276493
0.795911 0.318776 0.0201419
0.831724 0.317815 0.0133211
0.866957 0.316915 0.00733959
0.900923 0.316136 0.00210575
0.933959 0.315465 0
0 0.329366 0.299535
0 0.331121 0.299306
0 0.335561 0.284138
0 0.340124 0.263386
0 0.345647 0.246448
0.00231937 0.351873 0.230625
0.018677 0.358526 0.215183
0.0343938 0.365332 0.200061
0.049073 0.372457 0.18468
0.0620584 0.380224 0.167971
0.073228 0.388571 0.149157
0.0869459 0.396429 0.126528
0.112276 0.401251 0.0977646
0.153872 0.401083 0.0685588
0.210773 0.395056 0.0487373
0.27361 0.385626 0.043946
0.33312 0.376135 0.0507057
0.384039 0.368841 0.0614328
0.427787 0.363729 0.0715953
0.466407 0.360372 0.0793011
0.501976 0.358267 0.0841382
0.537118 0.356817 0.0844434
0.572244 0.355825 0.0809949
0.607416 0.355093 0.0752728
0.643275 0.354238 0.0690318
0.679866 0.353262 0.0621347
0.716136 0.352392 0.0552071
0.75227 0.351583 0.0476844
0.788083 0.350866 0.0400702
0.82269 0.350286 0.0329442
0.857038 0.349676 0.0262455
0.890455 0.349126 0.0201724
0.922988 0.348638 0.0149691
0 0.357122 0.325139
0 0.359106 0.323888
0 0.3635 0.308843
0 0.368032 0.287953
0 0.373526 0.270954
0.00492866 0.379629 0.255177
0.0215 0.386206 0.239811
0.0372931 0.392981 0.224765
0.0525368 0.399939 0.209674
0.0665293 0.407385 0.193606
0.0785992 0.415396 0.176028
0.0894789 0.423804 0.156725
0.105196 0.431067 0.132784
0.132296 0.435218 0.104021
0.172961 0.434821 0.0762798
0.227436 0.429297 0.0565042
0.289281 0.420325 0.0498512
0.349538 0.410758 0.0548104
0.402716 0.402823 0.0650797
0.449409 0.396841 0.0758984
0.491203 0.392615 0.0847791
0.52958 0.389776 0.090898
0.566033 0.38793 0.0932784
0.601968 0.386648 0.0912642
0.637186 0.38584 0.0865187
0.672236 0.385199 0.0805524
0.708095 0.38439 0.0742504
0.744152 0.383536 0.0674907
0.779675 0.382818 0.0607614
0.81355 0.382376 0.0541543
0.846647 0.382086 0.0476539
0.878416 0.381918 0.0416114
0.909545 0.381811 0.0360571
0 0.38497 0.35082
0 0.387137 0.34873
0 0.39147 0.333791
0 0.396017 0.312795
0 0.401495 0.29575
0.00756847 0.407492 0.279973
0.0244602 0.413993 0.264576
0.0404822 0.420783 0.24921
0.0560616 0.42768 0.234058
0.0706798 0.434882 0.218647
0.08365 0.442496 0.20235
0.0949722 0.45066 0.18439
0.106081 0.458915 0.164691
0.123522 0.465629 0.139879
0.151019 0.469215 0.111955
0.190707 0.468803 0.0850385
0.244495 0.463569 0.0644694
0.306889 0.454673 0.0560006
0.369558 0.444617 0.0594034
0.426154 0.435843 0.0692912
0.475914 0.429084 0.0805219
0.51989 0.424292 0.0901656
0.559487 0.421088 0.0971847
0.596078 0.419043 0.101183
0.632181 0.417578 0.100893
0.667689 0.416632 0.097322
0.702785 0.415991 0.0917678
0.737957 0.415351 0.0857557
0.773571 0.414618 0.0793317
0.807095 0.414176 0.0736706
0.839658 0.413916 0.06804
0.870726 0.413901 0.0625925
0.901427 0.413947 0.0570993
0 0.412802 0.376547
0 0.415137 0.373724
0 0.419486 0.358602
0 0.423987 0.337819
0 0.429465 0.320592
0.0104372 0.435401 0.304448
0.0277104 0.44184 0.288853
0.0438544 0.448585 0.273564
0.0594949 0.455451 0.258549
0.0745403 0.462486 0.243534
0.0882277 0.46981 0.228092
0.100374 0.477607 0.211414
0.111208 0.485817 0.193194
0.123018 0.493828 0.172824
0.141527 0.499901 0.147738
0.170016 0.503059 0.119524
0.211734 0.502251 0.0915236
0.267811 0.496544 0.0701457
0.33196 0.487266 0.0612345
0.395712 0.476997 0.0642863
0.453559 0.467948 0.0741436
0.503822 0.461097 0.0853895
0.548821 0.456001 0.0955673
0.589364 0.452461 0.103349
0.62678 0.450126 0.108598
0.662989 0.448508 0.109911
0.698558 0.44744 0.107607
0.733394 0.446769 0.103075
0.767849 0.446296 0.0973831
0.800519 0.446052 0.0923323
0.83267 0.445823 0.0871748
0.86331 0.445823 0.0826123
0.894179 0.445838 0.0777295
0 0.44062 0.402319
0 0.443061 0.398611
0 0.447364 0.383291
0 0.451942 0.362402
0 0.45742 0.344991
0.0134585 0.46331 0.328847
0.0309606 0.469657 0.31339
0.0472114 0.476356 0.298238
0.0628672 0.483192 0.28333
0.078172 0.49012 0.268589
0.0923934 0.49723 0.253712
0.105333 0.504707 0.238041
0.116838 0.512657 0.220813
0.127459 0.520958 0.201892
0.140414 0.528527 0.17995
0.160952 0.534035 0.15314
0.192447 0.536553 0.123384
0.23682 0.535027 0.0952926
0.294026 0.528893 0.074815
0.358801 0.519432 0.0663157
0.422736 0.509209 0.0693675
0.481498 0.499977 0.0791638
0.532662 0.492912 0.0904402
0.578347 0.487587 0.100999
0.619547 0.483818 0.109407
0.657465 0.48127 0.115419
0.693355 0.479576 0.118441
0.728496 0.478431 0.117723
0.762814 0.477745 0.114549
0.794629 0.477638 0.110399
0.82562 0.477684 0.105989
0.855848 0.477791 0.101869
0.887526 0.477668 0.0968643
0 0.468254 0.427863
0 0.470954 0.423133
0 0.47512 0.407401
0 0.479896 0.386816
0 0.485374 0.369558
0.0164492 0.491218 0.353475
0.0341955 0.49749 0.338125
0.0506142 0.504128 0.323049
0.0663615 0.510933 0.308171
0.0817884 0.517845 0.293462
0.0964981 0.524834 0.278706
0.11017 0.532143 0.263172
0.122591 0.53991 0.246143
0.1337 0.54818 0.227268
0.144274 0.556298 0.207401
0.159411 0.563226 0.183413
0.182818 0.568032 0.155306
0.217609 0.56965 0.124941
0.264317 0.567315 0.0978256
0.322774 0.560723 0.0787518
0.387243 0.551308 0.0713512
0.451255 0.5411 0.0746166
0.509911 0.531929 0.0843061
0.561318 0.524819 0.0955825
0.607294 0.519371 0.106416
0.648676 0.51545 0.115404
0.686534 0.512779 0.122148
0.721889 0.511025 0.126787
0.756436 0.509834 0.127916
0.788754 0.509331 0.126619
0.820005 0.509178 0.123827
0.850111 0.509377 0.120089
0.881712 0.509361 0.115434
0 0.495872 0.453285
0 0.498817 0.447639
0 0.502953 0.431693
0 0.50782 0.411475
0 0.513313 0.394369
0.0194705 0.519127 0.378302
0.0374609 0.525322 0.362966
0.0541085 0.531899 0.347906
0.0700236 0.538689 0.332876
0.0856947 0.545647 0.317693
0.100938 0.552636 0.302388
0.115282 0.559884 0.286503
0.128405 0.567514 0.269627
0.140078 0.575586 0.251347
0.150408 0.583658 0.232425
0.162005 0.591455 0.211185
0.179751 0.597772 0.185504
0.206104 0.601785 0.156497
0.243214 0.602579 0.126833
0.291981 0.599557 0.100801
0.351492 0.592599 0.0830396
0.415961 0.583154 0.0765393
0.479103 0.57319 0.0799878
0.537102 0.564202 0.0894789
0.588022 0.557183 0.100649
0.633768 0.551705 0.111681
0.67512 0.547677 0.121218
0.712139 0.545022 0.128862
0.746868 0.543206 0.134661
0.78027 0.542031 0.137972
0.813336 0.541222 0.138354
0.845319 0.540856 0.136568
0.877531 0.540642 0.133059
0 0.523476 0.478584
0 0.52665 0.472145
0 0.53077 0.456199
0 0.535714 0.436301
0.00288396 0.541222 0.419303
0.0225834 0.547005 0.403174
0.0408637 0.553155 0.387671
0.0579232 0.559701 0.372152
0.0742657 0.566552 0.35639
0.0902724 0.573571 0.34049
0.105837 0.580575 0.324758
0.120562 0.587762 0.308858
0.134112 0.595224 0.292439
0.14641 0.603113 0.274601
0.156985 0.611017 0.256367
0.167163 0.619043 0.23714
0.180713 0.626368 0.214389
0.200931 0.632044 0.187533
0.229847 0.635294 0.158221
0.269276 0.63537 0.129076
0.319707 0.631785 0.104265
0.379202 0.624704 0.0879683
0.442222 0.615564 0.0822156
0.503761 0.606027 0.0855268
0.560815 0.597314 0.0945449
0.610361 0.590585 0.105425
0.655451 0.585153 0.116564
0.696635 0.581003 0.126696
0.734676 0.577951 0.13521
0.770321 0.575784 0.141985
0.804074 0.574334 0.147066
0.837095 0.573373 0.149233
0.869856 0.572717 0.148852
0 0.551095 0.503929
0 0.554421 0.497002
0 0.558541 0.481025
0 0.563546 0.461234
0.00607309 0.56907 0.444053
0.0260777 0.574853 0.427436
0.0448768 0.581018 0.411154
0.0624247 0.587594 0.394919
0.0790723 0.594491 0.378637
0.0952468 0.601541 0.362478
0.110872 0.60853 0.346746
0.125948 0.615671 0.330709
0.139864 0.623026 0.314565
0.152575 0.630671 0.297627
0.163485 0.638361 0.280186
0.173693 0.646326 0.261585
0.184573 0.654231 0.24152
0.200214 0.661021 0.21735
0.222629 0.666041 0.189929
0.253574 0.66865 0.160891
0.294347 0.668238 0.13283
0.344823 0.664469 0.109545
0.403082 0.657603 0.0942702
0.462989 0.649256 0.0888075
0.522194 0.64036 0.091371
0.578058 0.631968 0.099443
0.628748 0.624918 0.109972
0.675135 0.619089 0.121279
0.717525 0.614527 0.13193
0.756664 0.611063 0.141238
0.79321 0.60853 0.148943
0.827756 0.60676 0.155001
0.860899 0.605585 0.15906
0 0.578622 0.529015
0 0.582101 0.521508
0 0.586267 0.505348
0 0.591333 0.485267
0.0100557 0.596887 0.46746
0.0304417 0.602716 0.450126
0.0495766 0.608911 0.433326
0.0673533 0.615503 0.4168
0.0841077 0.6224 0.400504
0.100435 0.629465 0.384054
0.116136 0.636469 0.368246
0.131289 0.643519 0.35259
0.14548 0.650767 0.336721
0.158541 0.658259 0.320287
0.169863 0.665705 0.303624
0.180316 0.673548 0.285756
0.190387 0.681544 0.267079
0.202533 0.689082 0.246082
0.219867 0.695354 0.221454
0.243778 0.699855 0.194293
0.275898 0.702052 0.165911
0.315816 0.70161 0.139864
0.364431 0.698161 0.117983
0.42005 0.691951 0.102998
0.479179 0.683925 0.0964065
0.538369 0.675166 0.0976272
0.594858 0.666682 0.104646
0.647196 0.659144 0.114992
0.694286 0.653132 0.125994
0.73785 0.648173 0.136995
0.778088 0.644327 0.14696
0.81561 0.641428 0.155489
0.850935 0.639323 0.162478
0 0.605814 0.552239
0 0.609613 0.54284
0 0.613901 0.52546
0 0.619165 0.50486
0.016144 0.624796 0.487083
0.036408 0.630686 0.469856
0.055375 0.636912 0.4533
0.0729992 0.643503 0.437171
0.0896162 0.65037 0.421424
0.105592 0.657343 0.40589
0.121172 0.664302 0.390463
0.136309 0.671275 0.375296
0.150652 0.67837 0.360037
0.163943 0.685634 0.344472
0.175662 0.692821 0.328923
0.18645 0.700389 0.312352
0.196567 0.708202 0.294881
0.206592 0.71606 0.276768
0.219455 0.723293 0.255818
0.237339 0.729335 0.231403
0.261723 0.733715 0.204379
0.29395 0.735882 0.176165
0.334127 0.735439 0.149722
0.382025 0.732204 0.127718
0.43679 0.726314 0.112078
0.495552 0.718486 0.104387
0.554376 0.709957 0.104265
0.611368 0.701427 0.110201
0.664607 0.693675 0.11986
0.712902 0.687327 0.130739
0.757656 0.681987 0.142
0.798962 0.67776 0.152483
0.837446 0.67451 0.161715
0 0.633265 0.576394
0 0.637156 0.565698
0 0.641611 0.547555
0 0.646937 0.526894
0.0210117 0.652613 0.509163
0.0411688 0.658518 0.492164
0.060029 0.664729 0.475944
0.0776684 0.671275 0.46006
0.0944839 0.678141 0.444068
0.110613 0.685115 0.428305
0.126207 0.692088 0.412909
0.141421 0.699016 0.397818
0.155932 0.706035 0.382818
0.16939 0.71313 0.367819
0.181445 0.72015 0.352941
0.19263 0.727489 0.337346
0.202991 0.735119 0.320806
0.212894 0.742931 0.303487
0.223346 0.750652 0.285039
0.2374 0.757641 0.263111
0.256413 0.763394 0.238499
0.281163 0.767514 0.212406
0.312963 0.769589 0.185504
0.352377 0.769253 0.159792
0.399542 0.766247 0.137667
0.453513 0.760662 0.121431
0.511818 0.753063 0.112703
0.570245 0.744778 0.111315
0.627512 0.736263 0.116075
0.68159 0.728328 0.124987
0.730983 0.72166 0.135576
0.776867 0.715984 0.146929
0.819303 0.711376 0.157824
0 0.660655 0.600168
0 0.664561 0.587869
0 0.669306 0.569207
0.005066 0.674693 0.548791
0.0259251 0.680385 0.53138
0.0458839 0.68629 0.514748
0.0647898 0.6925 0.498573
0.0826429 0.699062 0.482414
0.0995346 0.705913 0.466438
0.115694 0.712886 0.450736
0.131289 0.719829 0.435431
0.146471 0.726741 0.420539
0.161059 0.733669 0.405936
0.17464 0.740612 0.391516
0.186969 0.747478 0.377279
0.19855 0.754604 0.362387
0.209293 0.762066 0.346548
0.219394 0.769772 0.329793
0.229191 0.777554 0.312688
0.240131 0.785046 0.294423
0.254826 0.791775 0.272847
0.274235 0.79733 0.2486
0.299443 0.801328 0.222477
0.33135 0.803342 0.195712
0.370565 0.803067 0.170077
0.417029 0.80029 0.147845
0.470207 0.79498 0.13106
0.527382 0.787823 0.121294
0.585962 0.779599 0.11873
0.643458 0.771115 0.122332
0.698177 0.763073 0.130343
0.749249 0.755901 0.140917
0.795621 0.750103 0.151873
0 0.68806 0.623545
0 0.691997 0.609735
0 0.696971 0.590707
0.0103914 0.702419 0.570459
0.0309606 0.708141 0.553506
0.0508431 0.714076 0.537026
0.0697337 0.720272 0.520958
0.087541 0.726802 0.505089
0.104753 0.7337 0.488579
0.120775 0.740612 0.47335
0.136278 0.747524 0.458366
0.151385 0.754406 0.443763
0.166018 0.761242 0.429511
0.179721 0.768063 0.415473
0.19234 0.774823 0.401587
0.204273 0.781826 0.387121
0.215396 0.789059 0.372183
0.225681 0.79649 0.356909
0.235508 0.804105 0.340841
0.245228 0.811841 0.324163
0.256809 0.819242 0.305272
0.272175 0.825833 0.283284
0.292134 0.831235 0.258885
0.317693 0.835126 0.232792
0.34966 0.83711 0.206149
0.388647 0.836896 0.180591
0.43447 0.834318 0.158236
0.48687 0.829297 0.140932
0.543389 0.822416 0.130251
0.601587 0.814404 0.126513
0.659175 0.806012 0.128939
0.714443 0.797894 0.136019
0.766384 0.790509 0.146014
0 0.71548 0.646754
0 0.719524 0.63183
0 0.72462 0.611795
0.0155489 0.730129 0.592554
0.0360876 0.735882 0.575647
0.0558785 0.741817 0.559289
0.0747692 0.748028 0.543313
0.0926833 0.754559 0.527367
0.109621 0.761364 0.511757
0.125673 0.768246 0.49659
0.141146 0.775143 0.481834
0.156207 0.781994 0.467399
0.170901 0.788815 0.453254
0.184771 0.795544 0.439399
0.197559 0.802182 0.425956
0.209613 0.808972 0.412619
0.221027 0.815976 0.398733
0.231724 0.823224 0.384131
0.241794 0.830701 0.368704
0.25156 0.838376 0.352529
0.261479 0.846113 0.335592
0.273655 0.853422 0.316197
0.289616 0.859846 0.293889
0.310048 0.865125 0.269383
0.335882 0.86891 0.24332
0.367941 0.870878 0.21677
0.406668 0.870726 0.191272
0.45185 0.868345 0.168826
0.503517 0.863584 0.151049
0.55935 0.856992 0.139513
0.617151 0.84921 0.134661
0.674739 0.840925 0.135912
0.730434 0.832746 0.142
0 0.742885 0.669917
0 0.747082 0.654093
0 0.752255 0.633814
0.0207218 0.757794 0.614801
0.0411841 0.763577 0.597986
0.0608682 0.769528 0.581857
0.0796826 0.775723 0.566125
0.0975204 0.782223 0.5505
0.114458 0.788983 0.535164
0.13051 0.79585 0.520195
0.145983 0.802716 0.505501
0.161074 0.809567 0.491081
0.175738 0.816342 0.477165
0.189502 0.822934 0.464164
0.20235 0.82945 0.451438
0.214694 0.836118 0.438422
0.226444 0.842985 0.424979
0.237568 0.85005 0.410986
0.24799 0.857374 0.396185
0.257954 0.864927 0.380591
0.267704 0.872648 0.364279
0.277882 0.880354 0.347066
0.290623 0.887541 0.32723
0.307103 0.893828 0.304677
0.327993 0.89897 0.280049
0.354086 0.902678 0.254032
0.386145 0.904631 0.227604
0.424598 0.904555 0.202182
0.46923 0.902358 0.179614
0.52015 0.897856 0.161395
0.575265 0.891554 0.14905
0.632624 0.884001 0.14313
0.690166 0.875822 0.143252
0 0.770306 0.693462
0 0.774639 0.674952
0.00480659 0.779889 0.654292
0.026627 0.785489 0.635782
0.0469978 0.791302 0.619089
0.0666667 0.797284 0.60293
0.0854505 0.80351 0.587228
0.103151 0.809995 0.571984
0.119783 0.816693 0.557473
