luts/Forest.cube
#Created by: Denver Riddle
#Copyright: (C) Copyright Color Grading Central LLC
#LUT Size
LUT_3D_SIZE 9
0.0431983 0.0588083 0.0671855
0.0866712 0.0748455 0.0730144
0.178103 0.101289 0.074815
0.286122 0.120531 0.0718395
0.395331 0.145708 0.0882582
0.521157 0.163485 0.119478
0.640269 0.18381 0.149691
0.757702 0.211933 0.169894
0.860548 0.241474 0.181491
0.0431983 0.114702 0.0675669
0.083299 0.119112 0.0714733
0.198184 0.123293 0.0627604
0.307652 0.148638 0.0609445
0.422034 0.17084 0.0794995
0.545327 0.187503 0.108949
0.66157 0.21033 0.132128
0.774899 0.238087 0.150713
0.876875 0.268925 0.162737
0.0431983 0.189425 0.0628519
0.0844892 0.207904 0.0543832
0.215961 0.190265 0.066041
0.354788 0.182544 0.0451057
0.489601 0.208133 0.0754864
0.607126 0.239002 0.0932174
0.71635 0.275013 0.104189
0.823651 0.320699 0.107668
0.909346 0.359182 0.108843
0.0431983 0.256153 0.0606546
0.084596 0.280156 0.0431983
0.234577 0.274647 0.0757305
0.381094 0.264195 0.0561227
0.541268 0.255573 0.0559396
0.673365 0.285954 0.081239
0.778012 0.325002 0.0884718
0.874632 0.374853 0.0842298
0.941802 0.419165 0.072755
0.0431983 0.31722 0.0679942
0.109178 0.344762 0.0431983
0.266484 0.359426 0.0660258
0.431815 0.38912 0.0439002
0.580667 0.371435 0.0444343
0.705867 0.358907 0.0431983
0.813291 0.382467 0.0524605
0.912703 0.433051 0.0461585
0.952895 0.473732 0.0431983
0.0431983 0.391699 0.0517739
0.14287 0.414176 0.0431983
0.299046 0.430762 0.0649424
0.448768 0.4692 0.0439612
0.59144 0.519081 0.0442054
0.722576 0.510246 0.0489204
0.834073 0.484276 0.0431983
0.930541 0.496559 0.0431983
0.952895 0.518044 0.0431983
0.0618296 0.456123 0.0701915
0.162921 0.478645 0.0632029
0.322621 0.495659 0.0834974
0.463081 0.534249 0.0580758
0.610895 0.601389 0.0442817
0.713573 0.656748 0.0444495
0.831083 0.660548 0.0447089
0.937728 0.604883 0.0469062
0.951324 0.590143 0.0448615
0.0758679 0.548653 0.071458
0.16408 0.588388 0.0491646
0.324651 0.607324 0.0438392
0.472801 0.660792 0.0431983
0.607019 0.709178 0.0444038
0.715877 0.747646 0.0444953
0.805203 0.784619 0.0446021
0.931746 0.787427 0.0449073
0.95082 0.728405 0.0452735
0.0433967 0.757595 0.0431983
0.086244 0.775174 0.0431983
0.295247 0.805646 0.0431983
0.469505 0.830259 0.0431983
0.611048 0.844404 0.0431983
0.71751 0.854444 0.0446937
0.811688 0.866453 0.0446937
0.906508 0.902739 0.0448768
0.951202 0.877897 0.0449073
0.0432288 0.0859388 0.102602
0.111406 0.0911727 0.116396
0.207752 0.10396 0.113283
0.318212 0.109255 0.101305
0.415961 0.13138 0.109071
0.532174 0.155322 0.136355
0.644205 0.18024 0.159823
0.755306 0.206134 0.179629
0.854505 0.231434 0.192859
0.0433051 0.113893 0.120333
0.0830701 0.121248 0.128023
0.191485 0.143359 0.124514
0.316426 0.156039 0.0962997
0.435019 0.164477 0.0882887
0.548394 0.173846 0.121004
0.659785 0.197574 0.142473
0.770687 0.226169 0.159518
0.874693 0.258137 0.170733
0.0431983 0.200671 0.118868
0.0570535 0.216724 0.10695
0.215045 0.202564 0.111055
0.354116 0.196109 0.0740673
0.47747 0.219883 0.0649882
0.587823 0.244678 0.082414
0.695781 0.273518 0.0983444
0.804288 0.307576 0.110597
0.906416 0.340749 0.121172
0.0431983 0.260533 0.0915694
0.0431983 0.290776 0.0772869
0.224079 0.290105 0.101472
0.385794 0.28043 0.0875105
0.551614 0.266728 0.0500343
0.669062 0.297505 0.0702068
0.765118 0.334279 0.0763714
0.859678 0.383536 0.0711528
0.933257 0.43093 0.0584115
0.0431983 0.312505 0.0921645
0.049958 0.366033 0.0527199
0.250446 0.374884 0.0864424
0.432044 0.400946 0.0444038
0.58262 0.388876 0.0463722
0.710658 0.3729 0.0431983
0.818341 0.394522 0.0437934
0.90631 0.445167 0.0431983
0.952895 0.48629 0.0431983
0.0431983 0.359762 0.115404
0.0968032 0.427665 0.0527962
0.277989 0.440375 0.0867018
0.440452 0.474769 0.0887465
0.592523 0.527672 0.0442054
0.722789 0.524178 0.0482643
0.833661 0.494774 0.0431983
0.934905 0.506493 0.0431983
0.952895 0.533455 0.0431983
0.0433509 0.4392 0.129488
0.133074 0.475593 0.0843214
0.300298 0.496483 0.0998703
0.454032 0.535607 0.109148
0.610941 0.609583 0.0442817
0.711772 0.659113 0.0444038
0.828275 0.661753 0.0446021
0.937789 0.610269 0.0483406
0.951354 0.596689 0.0448463
0.0431983 0.553658 0.118715
0.136141 0.592157 0.0680247
0.304219 0.616236 0.0641031
0.457969 0.645975 0.0456703
0.602472 0.71577 0.0444495
0.714778 0.752697 0.0444953
0.803677 0.783383 0.0446021
0.931899 0.785153 0.0449073
0.950805 0.729961 0.045304
0.0433967 0.773907 0.0431983
0.0465858 0.783047 0.0431983
0.278508 0.798993 0.0431983
0.447837 0.827771 0.0431983
0.598367 0.853178 0.0431983
0.712169 0.863722 0.0446937
0.809079 0.874174 0.0446937
0.901549 0.901503 0.0448615
0.951202 0.883635 0.0449073
0.0433356 0.12491 0.15259
0.0855573 0.126925 0.158602
0.243366 0.138918 0.169039
0.359762 0.147707 0.156741
0.491218 0.162203 0.155306
0.608896 0.173785 0.15021
0.682048 0.195377 0.154818
0.779767 0.218677 0.171847
0.870054 0.243595 0.183139
0.0433967 0.133318 0.157092
0.0712139 0.154192 0.180514
0.235325 0.162951 0.191333
0.361776 0.166491 0.172793
0.493492 0.171954 0.160891
0.616266 0.181506 0.155138
0.690562 0.200809 0.152071
0.779644 0.221653 0.168032
0.873732 0.246616 0.181613
0.0434577 0.196231 0.196094
0.0456703 0.215045 0.213245
0.175235 0.226688 0.233249
0.335256 0.234836 0.215442
0.47924 0.226841 0.185794
0.604379 0.222034 0.166827
0.711818 0.229999 0.154437
0.804181 0.266453 0.141299
0.903014 0.306081 0.144488
0.0434272 0.314504 0.247837
0.0431983 0.308156 0.208026
0.119295 0.331746 0.17409
0.36791 0.316609 0.18677
0.528344 0.30135 0.159411
0.64831 0.328664 0.147082
0.745357 0.359091 0.136828
0.845975 0.391455 0.111086
0.940108 0.436393 0.0928817
0.0431983 0.368475 0.223133
0.0431983 0.347478 0.184985
0.155612 0.405493 0.134127
0.396094 0.418814 0.172549
0.56466 0.419104 0.141573
0.701656 0.394888 0.0843214
0.798352 0.420554 0.05037
0.883696 0.46685 0.0432746
0.948333 0.509056 0.0431983
0.0431983 0.396994 0.223285
0.0431983 0.372061 0.176699
0.205753 0.464057 0.126818
0.409216 0.482628 0.180529
0.595087 0.547509 0.0944076
0.71603 0.545068 0.0481422
0.822919 0.506645 0.0437934
0.919661 0.521874 0.0431983
0.952895 0.55726 0.0431983
0.0431983 0.412055 0.232502
0.0434119 0.417044 0.193088
0.24004 0.513008 0.138766
0.427253 0.539391 0.173678
0.592416 0.610666 0.154467
0.714565 0.669963 0.0444038
0.827207 0.6654 0.0446021
0.930251 0.611566 0.0485389
0.949645 0.607156 0.046479
0.0431983 0.480888 0.224842
0.0431983 0.526879 0.192813
0.2309 0.647669 0.100847
0.432502 0.662745 0.117861
0.582208 0.711604 0.121462
0.707179 0.759441 0.104341
0.80592 0.789059 0.0446021
0.932586 0.782803 0.0449073
0.95079 0.733303 0.0453193
0.0433509 0.766415 0.0521859
0.0433967 0.787289 0.0431983
0.216297 0.812741 0.0431983
0.417197 0.83183 0.0431983
0.575433 0.861891 0.0431983
0.698634 0.876738 0.0446937
0.804211 0.886259 0.0446937
0.896178 0.901701 0.0553445
0.951202 0.891356 0.118425
0.0435035 0.168627 0.207431
0.079469 0.166766 0.206287
0.213855 0.173846 0.235981
0.398932 0.192813 0.212711
0.531243 0.194324 0.196033
0.648478 0.207996 0.19646
0.744335 0.229175 0.204959
0.833188 0.246189 0.206256
0.910704 0.268437 0.208362
0.0435035 0.174685 0.211719
0.0547494 0.192187 0.233753
0.173983 0.191989 0.254139
0.397101 0.209598 0.23122
0.530907 0.208972 0.212802
0.647929 0.218677 0.209094
0.743053 0.238834 0.216953
0.833173 0.252018 0.213352
0.910567 0.276234 0.214588
0.0435035 0.208667 0.236576
0.0435187 0.233143 0.262715
0.126085 0.251591 0.292165
0.374807 0.257923 0.280247
0.518456 0.255741 0.26038
0.63769 0.253193 0.244602
0.734401 0.260441 0.237903
0.832563 0.271107 0.229389
0.911315 0.296681 0.229664
0.043595 0.286564 0.287984
0.0436713 0.312718 0.307607
0.0667124 0.341039 0.338659
0.304723 0.351095 0.355993
0.488334 0.356146 0.33962
0.624826 0.357534 0.32047
0.732647 0.354238 0.299458
0.836591 0.368704 0.2795
0.928466 0.400076 0.271336
0.0438697 0.408759 0.351537
0.0439002 0.44152 0.36434
0.0433814 0.430854 0.330373
0.271397 0.450111 0.282383
0.535363 0.458244 0.294377
0.67129 0.443915 0.292332
0.773175 0.477302 0.285817
0.865568 0.511757 0.271489
0.946288 0.536126 0.259648
0.043473 0.513649 0.392096
0.0431983 0.476661 0.338476
0.0522011 0.46038 0.298085
0.319554 0.516747 0.250462
0.555886 0.559289 0.276081
0.695048 0.568505 0.239902
0.809903 0.530724 0.231739
0.899123 0.559884 0.2224
0.952895 0.591913 0.227344
0.0431983 0.517403 0.36495
0.0431983 0.483497 0.326009
0.0867475 0.483528 0.287327
0.361196 0.562707 0.240467
0.555352 0.606165 0.280583
0.709758 0.679713 0.234409
0.820691 0.677684 0.149859
0.921828 0.623957 0.153063
0.952895 0.637903 0.177584
0.0431983 0.575982 0.353323
0.0431983 0.556085 0.316045
0.0451057 0.583093 0.247288
0.347112 0.705226 0.18294
0.550515 0.722698 0.226795
0.687327 0.763836 0.258152
0.807462 0.799298 0.229328
0.92903 0.78381 0.0449073
0.946807 0.736095 0.222629
0.0431983 0.794629 0.295109
0.0431983 0.791623 0.228183
0.0431983 0.813886 0.139178
0.308217 0.941741 0.0531777
0.539284 0.92108 0.111406
0.679011 0.904036 0.201709
0.791989 0.89836 0.240467
0.894682 0.907454 0.259327
0.951202 0.899763 0.255772
0.0435035 0.215015 0.264332
0.0670634 0.210956 0.258732
0.170001 0.215137 0.282277
0.360372 0.241489 0.270314
0.576974 0.233295 0.225681
0.681834 0.240116 0.220752
0.763958 0.258122 0.226368
0.847761 0.285222 0.236622
0.907652 0.322805 0.264622
0.043595 0.220462 0.271107
0.0443885 0.233524 0.287602
0.14847 0.232944 0.293858
0.355413 0.252262 0.290959
0.572244 0.245945 0.243931
0.676036 0.2495 0.236698
0.761593 0.269062 0.243107
0.846769 0.295476 0.253727
0.90605 0.331212 0.278004
0.043595 0.241474 0.284291
0.0436408 0.262913 0.308949
0.105638 0.285756 0.345892
0.309987 0.272358 0.353582
0.55494 0.289189 0.298497
0.660197 0.284382 0.28217
0.752621 0.299718 0.284855
0.842252 0.321004 0.291341
0.903639 0.351049 0.306584
0.0437018 0.289723 0.324941
0.0437018 0.320363 0.356039
0.0574807 0.34696 0.390997
0.249592 0.364889 0.423957
0.521508 0.369863 0.38645
0.646082 0.372854 0.375189
0.745373 0.373068 0.363897
0.839963 0.36965 0.343511
0.904219 0.396765 0.356222
0.0437934 0.380041 0.388525
0.0438544 0.408087 0.408072
0.0439002 0.441794 0.441657
0.19176 0.475059 0.481147
0.478294 0.481712 0.484169
0.627649 0.49543 0.481239
0.746624 0.505699 0.470756
0.849088 0.506416 0.443015
0.926863 0.517968 0.429374
0.0440681 0.505211 0.45977
0.0440986 0.536355 0.470298
0.0442054 0.572824 0.49781
0.133806 0.558801 0.469322
0.458122 0.57052 0.430793
0.669535 0.598154 0.422568
0.782467 0.590249 0.442222
0.875212 0.622202 0.439338
0.949004 0.639033 0.42768
0.0442969 0.636652 0.545785
0.0442969 0.623621 0.516396
0.0440223 0.584176 0.461723
0.182071 0.568689 0.42504
0.492195 0.620005 0.395407
0.676356 0.678584 0.41474
0.803281 0.698451 0.349813
0.906966 0.657664 0.371298
0.952895 0.682887 0.383795
0.0440681 0.684794 0.525994
0.0431983 0.655909 0.461585
0.0431983 0.642222 0.417212
0.119417 0.697704 0.35378
0.473075 0.757504 0.318761
0.656153 0.768734 0.383444
0.792035 0.804547 0.401831
0.917769 0.793545 0.27277
0.94844 0.751812 0.383734
0.0431983 0.83212 0.451225
0.0431983 0.82681 0.413199
0.0431983 0.834287 0.36289
0.0431983 0.851621 0.267857
0.44332 0.951827 0.245792
0.639445 0.9393 0.307881
0.772656 0.910643 0.381262
0.895445 0.916075 0.397162
0.951598 0.908858 0.377569
0.0437018 0.257908 0.317205
0.0495766 0.253605 0.309941
0.154025 0.251331 0.312612
0.35111 0.273457 0.321492
0.532982 0.280491 0.280064
0.710735 0.281956 0.232166
0.790906 0.297704 0.235691
0.854948 0.315389 0.269459
0.895827 0.357946 0.335714
0.0437018 0.263523 0.326833
0.0437018 0.272892 0.338445
0.133913 0.270512 0.334401
0.322118 0.272297 0.352728
0.519677 0.297185 0.307622
0.704356 0.292317 0.253422
0.782315 0.305745 0.264118
0.851225 0.324468 0.294224
0.892409 0.371572 0.361318
0.0437018 0.27538 0.330892
0.0437018 0.291325 0.351049
0.0734112 0.313954 0.389731
0.246082 0.307088 0.395468
0.495003 0.331136 0.361379
0.687907 0.320287 0.30927
0.765423 0.330434 0.320806
0.842664 0.352972 0.349874
0.889052 0.412268 0.420798
0.0437781 0.319112 0.372641
0.0438087 0.347387 0.403784
0.0439002 0.3682 0.434638
0.217655 0.388067 0.479728
0.480461 0.379049 0.454978
0.665309 0.396216 0.423438
0.751598 0.409964 0.4309
0.838376 0.427146 0.449119
0.890822 0.46389 0.478447
0.0439002 0.376745 0.424262
0.0439002 0.41004 0.458305
0.044007 0.440238 0.496681
0.187381 0.464378 0.533516
0.41384 0.484627 0.568185
0.648096 0.498039 0.535637
0.747753 0.517693 0.543114
0.841428 0.517021 0.530266
0.899748 0.52697 0.527123
0.044007 0.478523 0.501656
0.0440833 0.503182 0.516793
0.0441596 0.535561 0.549386
0.0780957 0.570459 0.590951
0.360601 0.599084 0.623178
0.632837 0.613809 0.607782
0.753002 0.628092 0.610285
0.854536 0.630823 0.596124
0.927428 0.635157 0.584146
0.0442359 0.599481 0.581903
0.0442969 0.626093 0.591821
0.0443275 0.662531 0.614099
0.0444038 0.692195 0.641535
0.308721 0.666819 0.602487
0.631876 0.675181 0.572534
0.787747 0.722423 0.536263
0.885725 0.715282 0.568658
0.952453 0.739559 0.574777
0.0444953 0.732296 0.670634
0.0444953 0.754131 0.681468
0.0444953 0.748028 0.639338
0.0437781 0.731563 0.571572
0.271504 0.762814 0.516182
0.611185 0.793408 0.487572
0.771328 0.807706 0.537148
0.905684 0.809766 0.450904
0.952895 0.777478 0.529397
0.0446937 0.872328 0.70071
0.0431983 0.867475 0.631312
0.0431983 0.869001 0.552544
0.0431983 0.87538 0.505547
0.18613 0.952895 0.391333
0.583368 0.95259 0.420905
0.752651 0.938064 0.476829
0.887755 0.925597 0.520577
0.952102 0.918624 0.501884
0.0437934 0.298665 0.369131
0.0437171 0.295872 0.360357
0.142077 0.292332 0.352636
0.294362 0.301244 0.372198
0.50425 0.330999 0.334768
0.676539 0.327626 0.302129
0.798825 0.337942 0.318441
0.861006 0.359121 0.359792
0.886229 0.405875 0.423835
0.0437934 0.305562 0.382635
0.0437934 0.312688 0.391058
0.116335 0.308263 0.377874
0.252567 0.30988 0.39089
0.487343 0.342046 0.36144
0.661814 0.336675 0.334005
0.791226 0.34992 0.35108
0.854322 0.373678 0.389715
0.884398 0.419593 0.450965
0.0437934 0.31397 0.383978
0.0438087 0.326009 0.401389
0.0469368 0.343984 0.436667
0.212848 0.344656 0.436622
0.474937 0.356558 0.42031
0.635325 0.372198 0.40766
0.77496 0.383322 0.421332
0.843137 0.399619 0.441917
0.885969 0.448264 0.501198
0.0439002 0.355291 0.4271
0.0439002 0.379675 0.457038
0.044007 0.390036 0.476875
0.170764 0.409201 0.528954
0.396872 0.386221 0.521767
0.630289 0.418448 0.506722
0.771008 0.43595 0.514076
0.840803 0.455009 0.522759
0.892241 0.498756 0.56936
0.044007 0.405051 0.479835
0.0440986 0.434119 0.51313
0.0441291 0.459205 0.547509
0.149187 0.478202 0.581399
0.366857 0.501427 0.637629
0.614023 0.488624 0.628031
0.776135 0.51371 0.609171
0.846143 0.540764 0.611002
0.899931 0.574044 0.637644
0.0441444 0.475349 0.54844
0.0442054 0.508156 0.58117
0.0442664 0.534707 0.612406
0.0669718 0.554681 0.643107
0.343359 0.575296 0.671183
0.583139 0.604486 0.691966
0.771481 0.619165 0.678279
0.849195 0.638239 0.678462
0.906477 0.652201 0.680339
0.0442969 0.577066 0.626963
0.0442969 0.594781 0.634684
0.0443122 0.618921 0.657176
0.0444038 0.647593 0.689097
0.272709 0.678477 0.720577
0.545434 0.710292 0.735332
0.758953 0.734936 0.725567
0.859098 0.739071 0.721386
0.932326 0.74287 0.716228
0.0444038 0.68806 0.710231
0.044419 0.71368 0.718105
0.0444953 0.744839 0.733516
0.0446021 0.781491 0.75108
0.0817121 0.809873 0.761501
0.450675 0.809903 0.696071
0.749233 0.82237 0.672328
0.891798 0.829419 0.641352
0.952895 0.822766 0.680034
0.0446174 0.827192 0.790188
0.0446937 0.854841 0.797894
0.0447547 0.891051 0.80029
0.0448463 0.902831 0.751797
0.0433356 0.909682 0.671717
0.40296 0.952895 0.585184
0.716075 0.952819 0.593011
0.871824 0.932555 0.646174
0.952102 0.928527 0.638361
0.0439002 0.348592 0.431907
0.0439002 0.346166 0.42092
0.123552 0.342321 0.406867
0.252354 0.351125 0.409277
0.476402 0.38439 0.400351
0.631937 0.394018 0.419409
0.759976 0.406439 0.450446
0.866529 0.426963 0.50956
0.894194 0.467002 0.566629
0.0439002 0.355673 0.451377
0.0439002 0.361089 0.45716
0.0878004 0.356512 0.438239
0.219455 0.352148 0.427314
0.470924 0.376577 0.431647
0.62266 0.399374 0.449683
0.755016 0.411673 0.478996
0.867018 0.430213 0.532616
0.897398 0.471427 0.58262
0.0439002 0.362951 0.453742
0.044007 0.37116 0.469703
0.044007 0.385321 0.50248
0.179568 0.385534 0.491417
0.385565 0.366079 0.502541
0.619013 0.401633 0.51252
0.752468 0.421408 0.531975
0.872648 0.439216 0.578073
0.902785 0.484352 0.610513
0.044007 0.397467 0.494011
0.0440986 0.417365 0.521447
0.0440986 0.417945 0.530388
0.106615 0.436133 0.582971
0.322332 0.427848 0.600534
0.58706 0.423651 0.62681
0.757321 0.447913 0.617136
0.882826 0.469261 0.64715
0.910597 0.519341 0.65539
0.0441444 0.444892 0.55079
0.0442054 0.473381 0.58613
0.0442817 0.491249 0.611215
0.0603647 0.497215 0.62887
0.294911 0.518105 0.692927
0.51313 0.490257 0.690211
0.754299 0.511437 0.717281
0.889601 0.531044 0.71902
0.918151 0.58294 0.709911
0.0442817 0.50309 0.614511
0.0442969 0.532479 0.646403
0.0444038 0.55256 0.670146
0.0444038 0.567559 0.692485
0.279194 0.579919 0.717357
0.51783 0.606836 0.762356
0.728466 0.605356 0.760586
0.885344 0.617975 0.763409
0.921553 0.659739 0.75346
0.0444038 0.574731 0.682246
0.0444038 0.602365 0.707225
0.0444953 0.620432 0.72578
0.0444953 0.632456 0.742428
0.244617 0.646036 0.759213
0.497566 0.675563 0.781811
0.726146 0.721172 0.791852
0.872343 0.725567 0.797009
0.924132 0.74789 0.796139
0.0444953 0.666117 0.750408
0.0444953 0.683635 0.758038
0.0445869 0.703441 0.771572
0.0446021 0.725139 0.789319
0.102205 0.749828 0.808286
0.42797 0.779873 0.822477
0.689647 0.813825 0.82797
0.862837 0.843244 0.821393
0.945083 0.850568 0.822416
0.0446021 0.771786 0.824659
0.0446326 0.794858 0.830121
0.0446784 0.823194 0.840253
0.0446937 0.856703 0.851331
0.0447547 0.892164 0.86038
0.31426 0.924575 0.857862
0.583368 0.951247 0.79472
0.853376 0.952895 0.775265
0.952499 0.940826 0.784024
0.0440833 0.406134 0.507698
0.044007 0.403311 0.493126
0.0930953 0.399344 0.473121
0.22211 0.395926 0.452644
0.420569 0.40676 0.5028
0.625818 0.436683 0.530465
0.7523 0.451789 0.569162
0.872312 0.463111 0.630793
0.926558 0.504295 0.705272
0.0440986 0.413855 0.532906
0.0440986 0.418051 0.536965
0.0478981 0.412528 0.512505
0.196323 0.407477 0.490898
0.367208 0.402945 0.535241
0.624918 0.424903 0.581552
0.755566 0.445777 0.604959
0.876097 0.460395 0.659236
0.932296 0.507546 0.728603
0.0440986 0.419318 0.540002
0.0442054 0.426215 0.556832
0.0431983 0.441428 0.589914
0.147066 0.439918 0.579263
0.307256 0.417731 0.578637
0.556161 0.419699 0.644862
0.752316 0.441001 0.673198
0.879057 0.461448 0.708034
0.939666 0.51632 0.763317
0.0442054 0.442817 0.567147
0.0442054 0.460929 0.594537
0.0438849 0.457191 0.601129
0.0473793 0.48043 0.654383
0.268315 0.47744 0.676173
0.464195 0.437964 0.690517
0.710857 0.466651 0.747326
0.875471 0.483619 0.768978
0.945586 0.540597 0.801602
0.0442969 0.492805 0.628092
0.0443275 0.519326 0.6607
0.0444038 0.530114 0.679561
0.0444038 0.522591 0.682185
0.228687 0.546715 0.749203
0.434791 0.523583 0.775433
0.664408 0.522774 0.788708
0.860975 0.541527 0.821927
0.949218 0.584604 0.83653
0.0444038 0.543084 0.683391
0.0444038 0.56965 0.713863
0.0444953 0.585153 0.733883
0.0444953 0.592035 0.747829
0.219837 0.594858 0.7635
0.447364 0.619089 0.820203
0.658991 0.604547 0.811948
0.855695 0.618631 0.851881
0.950149 0.646021 0.860548
0.0444953 0.596811 0.737957
0.0445106 0.62118 0.761959
0.0446021 0.635904 0.777874
0.0446021 0.644968 0.789624
0.187427 0.652705 0.801816
0.431815 0.672251 0.825544
0.682536 0.714427 0.854109
0.844236 0.715846 0.861967
0.95024 0.724743 0.879606
0.0446021 0.658763 0.790616
0.0446021 0.680735 0.808759
0.0446021 0.696452 0.82269
0.0446479 0.706401 0.831815
0.1037 0.716411 0.841321
0.40795 0.734829 0.85272
0.657404 0.777401 0.87071
0.851987 0.835615 0.87393
0.94638 0.8327 0.895048
0.0446937 0.742107 0.850095
0.0446937 0.763836 0.861708
0.0446937 0.781476 0.871244
0.0446937 0.800885 0.881758
0.0447852 0.821317 0.892378
0.321981 0.84448 0.902907
0.601434 0.875105 0.907607
0.826276 0.91223 0.906355
0.948898 0.948104 0.908095
