luts/Forest.cube
#Created by: Denver Riddle
#Copyright: (C) Copyright Color Grading Central LLC
#LUT Size
LUT_3D_SIZE 5
0.0431983 0.0588083 0.0671855
0.178103 0.101289 0.074815
0.395331 0.145708 0.0882582
0.640269 0.18381 0.149691
0.860548 0.241474 0.181491
0.0431983 0.189425 0.0628519
0.215961 0.190265 0.066041
0.489601 0.208133 0.0754864
0.71635 0.275013 0.104189
0.909346 0.359182 0.108843
0.0431983 0.31722 0.0679942
0.266484 0.359426 0.0660258
0.580667 0.371435 0.0444343
0.813291 0.382467 0.0524605
0.952895 0.473732 0.0431983
0.0618296 0.456123 0.0701915
0.322621 0.495659 0.0834974
0.610895 0.601389 0.0442817
0.831083 0.660548 0.0447089
0.951324 0.590143 0.0448615
0.0433967 0.757595 0.0431983
0.295247 0.805646 0.0431983
0.611048 0.844404 0.0431983
0.811688 0.866453 0.0446937
0.951202 0.877897 0.0449073
0.0433356 0.12491 0.15259
0.243366 0.138918 0.169039
0.491218 0.162203 0.155306
0.682048 0.195377 0.154818
0.870054 0.243595 0.183139
0.0434577 0.196231 0.196094
0.175235 0.226688 0.233249
0.47924 0.226841 0.185794
0.711818 0.229999 0.154437
0.903014 0.306081 0.144488
0.0431983 0.368475 0.223133
0.155612 0.405493 0.134127
0.56466 0.419104 0.141573
0.798352 0.420554 0.05037
0.948333 0.509056 0.0431983
0.0431983 0.412055 0.232502
0.24004 0.513008 0.138766
0.592416 0.610666 0.154467
0.827207 0.6654 0.0446021
0.949645 0.607156 0.046479
0.0433509 0.766415 0.0521859
0.216297 0.812741 0.0431983
0.575433 0.861891 0.0431983
0.804211 0.886259 0.0446937
0.951202 0.891356 0.118425
0.0435035 0.215015 0.264332
0.170001 0.215137 0.282277
0.576974 0.233295 0.225681
0.763958 0.258122 0.226368
0.907652 0.322805 0.264622
0.043595 0.241474 0.284291
0.105638 0.285756 0.345892
0.55494 0.289189 0.298497
0.752621 0.299718 0.284855
0.903639 0.351049 0.306584
0.0437934 0.380041 0.388525
0.0439002 0.441794 0.441657
0.478294 0.481712 0.484169
0.746624 0.505699 0.470756
0.926863 0.517968 0.429374
0.0442969 0.636652 0.545785
0.0440223 0.584176 0.461723
0.492195 0.620005 0.395407
0.803281 0.698451 0.349813
0.952895 0.682887 0.383795
0.0431983 0.83212 0.451225
0.0431983 0.834287 0.36289
0.44332 0.951827 0.245792
0.772656 0.910643 0.381262
0.951598 0.908858 0.377569
0.0437934 0.298665 0.369131
0.142077 0.292332 0.352636
0.50425 0.330999 0.334768
0.798825 0.337942 0.318441
0.886229 0.405875 0.423835
0.0437934 0.31397 0.383978
0.0469368 0.343984 0.436667
0.474937 0.356558 0.42031
0.77496 0.383322 0.421332
0.885969 0.448264 0.501198
0.044007 0.405051 0.479835
0.0441291 0.459205 0.547509
0.366857 0.501427 0.637629
0.776135 0.51371 0.609171
0.899931 0.574044 0.637644
0.0442969 0.577066 0.626963
0.0443122 0.618921 0.657176
0.272709 0.678477 0.720577
0.758953 0.734936 0.725567
0.932326 0.74287 0.716228
0.0446174 0.827192 0.790188
0.0447547 0.891051 0.80029
0.0433356 0.909682 0.671717
0.716075 0.952819 0.593011
0.952102 0.928527 0.638361
0.0440833 0.406134 0.507698
0.0930953 0.399344 0.473121
0.420569 0.40676 0.5028
0.7523 0.451789 0.569162
0.926558 0.504295 0.705272
0.0440986 0.419318 0.540002
0.0431983 0.441428 0.589914
0.307256 0.417731 0.578637
0.752316 0.441001 0.673198
0.939666 0.51632 0.763317
0.0442969 0.492805 0.628092
0.0444038 0.530114 0.679561
0.228687 0.546715 0.749203
0.664408 0.522774 0.788708
0.949218 0.584604 0.83653
0.0444953 0.596811 0.737957
0.0446021 0.635904 0.777874
0.187427 0.652705 0.801816
0.682536 0.714427 0.854109
0.95024 0.724743 0.879606
0.0446937 0.742107 0.850095
0.0446937 0.781476 0.871244
0.0447852 0.821317 0.892378
0.601434 0.875105 0.907607
0.948898 0.948104 0.908095
