luts/Forest.cube
#Created by: Denver Riddle
#Copyright: (C) Copyright Color Grading Central LLC
#LUT Size
LUT_3D_SIZE 33
0.0431983 0.0588083 0.0671855
0.0434119 0.0618601 0.0688792
0.0513161 0.0656748 0.0704051
0.0675669 0.0697948 0.0717937
0.0866712 0.0748455 0.0730144
0.107698 0.0812695 0.0742046
0.130129 0.088365 0.0751507
0.153414 0.095491 0.0753338
0.178103 0.101289 0.074815
0.203616 0.106615 0.0737621
0.230472 0.111269 0.0727855
0.258137 0.11574 0.071809
0.286122 0.120531 0.0718395
0.311223 0.127626 0.0729992
0.335821 0.135729 0.0754864
0.365255 0.141314 0.0813916
0.395331 0.145708 0.0882582
0.426291 0.150042 0.095613
0.457862 0.154528 0.103334
0.489616 0.15903 0.111238
0.521157 0.163485 0.119478
0.552438 0.16817 0.127703
0.582467 0.173312 0.135134
0.611765 0.178592 0.142443
0.640269 0.18381 0.149691
0.669367 0.190188 0.155596
0.698955 0.197299 0.160693
0.728588 0.204578 0.16556
0.757702 0.211933 0.169894
0.786206 0.219562 0.1738
0.814679 0.227573 0.17705
0.842268 0.23563 0.179919
0.860548 0.241474 0.181491
0.0431983 0.0687114 0.0675669
0.0433661 0.0688487 0.0695506
0.052079 0.0702373 0.0699321
0.0673228 0.0755322 0.0720226
0.0867933 0.0800641 0.0737163
0.107942 0.0846418 0.0747234
0.130663 0.0892042 0.075349
0.154482 0.094728 0.0756237
0.179522 0.100359 0.0751812
0.205737 0.106126 0.0741436
0.232532 0.111498 0.0729992
0.260441 0.116182 0.0720226
0.288518 0.120912 0.0720836
0.313176 0.127459 0.0736858
0.338338 0.134112 0.0774243
0.367453 0.139345 0.0834669
0.397375 0.144396 0.0899367
0.42826 0.149477 0.0967727
0.459693 0.154421 0.104082
0.491249 0.159304 0.11162
0.523003 0.164279 0.119463
0.553979 0.169116 0.12723
0.583825 0.174533 0.134401
0.613001 0.179889 0.14136
0.642084 0.186221 0.14725
0.671244 0.193011 0.152575
0.701152 0.200092 0.157778
0.730297 0.207263 0.162615
0.759411 0.214588 0.167163
0.788083 0.2224 0.170855
0.816434 0.230564 0.174197
0.844053 0.238849 0.177111
0.862745 0.244724 0.178836
0.0431983 0.0813764 0.067689
0.0434272 0.081529 0.0705577
0.050782 0.0820325 0.0723583
0.0695048 0.0818647 0.0681926
0.0907759 0.085359 0.0700542
0.110399 0.0920882 0.0725567
0.132296 0.0983749 0.07364
0.156313 0.10341 0.0744335
0.182254 0.107347 0.0742657
0.209064 0.110384 0.0733501
0.236713 0.113512 0.0724804
0.265202 0.117082 0.071931
0.293507 0.121477 0.0722972
0.31754 0.128359 0.0745556
0.343664 0.13492 0.0786603
0.372839 0.14049 0.0844739
0.402716 0.146029 0.0905318
0.433341 0.151431 0.0970932
0.464698 0.156725 0.104036
0.496025 0.161944 0.111147
0.527184 0.166873 0.118685
0.557626 0.172045 0.125902
0.58735 0.178027 0.132174
0.616785 0.18439 0.137881
0.645838 0.190921 0.143435
0.674968 0.197543 0.148775
0.704067 0.204349 0.153933
0.73312 0.211383 0.158831
0.762066 0.218952 0.163256
0.790524 0.226825 0.166995
0.81886 0.235065 0.170336
0.846296 0.243503 0.173175
0.866056 0.249805 0.174914
0.0431983 0.0971847 0.0677348
0.0432441 0.0981918 0.0702678
0.049836 0.10161 0.0724193
0.0629892 0.101183 0.0722362
0.0931868 0.0953078 0.067628
0.116991 0.0971084 0.0679332
0.139635 0.103761 0.0687724
0.163012 0.110735 0.0693217
0.187594 0.117525 0.0694896
0.213474 0.122744 0.0695048
0.241428 0.125628 0.0688792
0.270787 0.12845 0.0682383
0.300481 0.132326 0.0685283
0.326574 0.138003 0.0707408
0.351949 0.144137 0.0749371
0.381353 0.149279 0.0811627
0.411399 0.15433 0.087602
0.442176 0.159518 0.0941939
0.473396 0.16466 0.101061
0.504372 0.169848 0.107897
0.535042 0.174655 0.115007
0.565194 0.180301 0.121447
0.594614 0.186389 0.127199
0.623743 0.192554 0.132891
0.652399 0.198734 0.138354
0.680797 0.204974 0.143786
0.709468 0.211673 0.148791
0.738201 0.218814 0.153475
0.766674 0.226322 0.157778
0.795132 0.234318 0.161501
0.823041 0.242405 0.16495
0.85005 0.250889 0.167727
0.870619 0.257618 0.169604
0.0431983 0.114702 0.0675669
0.0431983 0.117952 0.0683604
0.0477607 0.123751 0.0674449
0.0627298 0.121675 0.069688
0.083299 0.119112 0.0714733
0.118624 0.11133 0.0666209
0.14583 0.110887 0.0652781
0.172412 0.116686 0.0636454
0.198184 0.123293 0.0627604
0.224414 0.130129 0.0616312
0.250965 0.137041 0.0608072
0.278859 0.143252 0.0601205
0.307652 0.148638 0.0609445
0.336996 0.154223 0.0628519
0.361624 0.160922 0.0660716
0.391135 0.165972 0.0726024
0.422034 0.17084 0.0794995
0.452873 0.174731 0.0870069
0.483925 0.178973 0.0943313
0.514717 0.1832 0.101671
0.545327 0.187503 0.108949
0.575021 0.192798 0.11516
0.604562 0.198383 0.121233
0.633005 0.204105 0.126833
0.66157 0.21033 0.132128
0.689906 0.216785 0.137087
0.718502 0.223697 0.141848
0.746746 0.230762 0.14638
0.774899 0.238087 0.150713
0.802304 0.245731 0.154452
0.829236 0.253559 0.157839
0.855879 0.261906 0.160739
0.876875 0.268925 0.162737
0.0431983 0.132921 0.0664225
0.0431983 0.138338 0.0650034
0.0467536 0.145006 0.0617685
0.062089 0.143038 0.0638285
0.0859693 0.141558 0.0694438
0.11165 0.136156 0.0738079
0.147539 0.128344 0.0641184
0.177127 0.125719 0.0618753
0.207248 0.130587 0.0582437
0.236332 0.137148 0.055314
0.264744 0.143816 0.0528115
0.292882 0.150652 0.0526131
0.320745 0.157824 0.0546273
0.346807 0.165148 0.0575113
0.37258 0.172259 0.0613107
0.402136 0.178546 0.0670024
0.432547 0.18407 0.0735332
0.463386 0.189227 0.0803082
0.494621 0.194064 0.0873426
0.525719 0.198199 0.0947433
0.55642 0.203174 0.101488
0.586435 0.208942 0.107424
0.615824 0.214786 0.1131
0.644755 0.221164 0.118242
0.673182 0.227375 0.123369
0.701717 0.234058 0.128145
0.729915 0.24062 0.133043
0.758114 0.247684 0.13753
0.785626 0.25481 0.141604
0.812116 0.262058 0.145403
0.838224 0.269612 0.14873
0.863798 0.27747 0.151705
0.885451 0.284886 0.153689
0.0431983 0.151431 0.0646982
0.0431983 0.158511 0.0613565
0.0450141 0.166033 0.0563821
0.0605478 0.164599 0.0578927
0.087129 0.163333 0.0642557
0.114809 0.158373 0.0761883
0.14345 0.15378 0.0737621
0.178897 0.145235 0.062501
0.210956 0.141711 0.0587015
0.243641 0.145434 0.0530556
0.276173 0.151659 0.0471351
0.305837 0.158587 0.0469215
0.332448 0.166125 0.0509194
0.36054 0.173526 0.0556954
0.390356 0.180407 0.061326
0.42005 0.186648 0.0672007
0.448783 0.192706 0.072755
0.478355 0.198657 0.0785687
0.507942 0.204166 0.0846418
0.538415 0.210193 0.0906233
0.56791 0.217655 0.0951858
0.597604 0.224918 0.0999924
0.627344 0.2327 0.104387
0.656092 0.240604 0.1084
0.685206 0.248173 0.112718
0.714153 0.256001 0.116945
0.742824 0.263172 0.121401
0.770748 0.269963 0.125856
0.797711 0.276997 0.129946
0.823819 0.284001 0.133639
0.849134 0.291112 0.137057
0.874128 0.298955 0.139818
0.89575 0.30605 0.142077
0.0431983 0.170809 0.0632792
0.0431983 0.177661 0.0596017
0.0439918 0.18558 0.0535897
0.0583352 0.186404 0.0533913
0.0859693 0.185702 0.0595254
0.117784 0.180163 0.0717784
0.144274 0.175372 0.0843519
0.179324 0.172976 0.069749
0.213031 0.162493 0.0620737
0.247089 0.158373 0.0548104
0.28188 0.160647 0.04654
0.314031 0.167056 0.0435492
0.346105 0.17438 0.0489967
0.377325 0.18117 0.0557412
0.40795 0.188083 0.0616617
0.438712 0.194553 0.0677806
0.468971 0.200412 0.0740063
0.499275 0.206119 0.0802625
0.529198 0.212726 0.0856641
0.558251 0.220203 0.0901808
0.586511 0.228275 0.0939193
0.615442 0.236622 0.097673
0.642908 0.245319 0.10071
0.670771 0.254246 0.10367
0.699184 0.263615 0.1066
0.727275 0.273106 0.109255
0.755322 0.28249 0.112016
0.783001 0.292622 0.114076
0.809873 0.302129 0.116381
0.836408 0.31133 0.118654
0.860945 0.319142 0.12137
0.885161 0.326345 0.124407
0.903853 0.332479 0.126223
0.0431983 0.189425 0.0628519
0.0431983 0.195438 0.0590372
0.0432441 0.203952 0.0519417
0.0553445 0.208042 0.0487526
0.0844892 0.207904 0.0543832
0.117983 0.202945 0.0664683
0.150378 0.195392 0.0816052
0.179995 0.196429 0.0835279
0.215961 0.190265 0.066041
0.249409 0.179492 0.060502
0.285603 0.174975 0.0493782
0.320287 0.176669 0.0431983
0.354788 0.182544 0.0451057
0.390402 0.189258 0.0538643
0.425101 0.195682 0.0618448
0.457664 0.201999 0.0688792
0.489601 0.208133 0.0754864
0.520272 0.215778 0.0804456
0.551232 0.222919 0.0858015
0.579248 0.230961 0.0895399
0.607126 0.239002 0.0932174
0.634791 0.247456 0.0964828
0.662577 0.256046 0.0996567
0.689967 0.265293 0.102281
0.71635 0.275013 0.104189
0.74377 0.285283 0.106126
0.770901 0.296666 0.107088
0.796902 0.308614 0.107378
0.823651 0.320699 0.107668
0.848936 0.332677 0.107591
0.873014 0.344152 0.107454
0.897124 0.35523 0.107485
0.909346 0.359182 0.108843
0.0431983 0.206607 0.0626841
0.0431983 0.212222 0.0584878
0.0431983 0.220706 0.0508278
0.0527199 0.228717 0.0441291
0.0829175 0.229572 0.0489815
0.117723 0.225269 0.0603647
0.15256 0.21738 0.0760662
0.186038 0.212741 0.0840162
0.220874 0.218021 0.0751049
0.253071 0.206104 0.065156
0.288823 0.19649 0.0571756
0.32607 0.192248 0.0459144
0.360708 0.192966 0.0433051
0.397772 0.197528 0.0493629
0.435538 0.20351 0.0593576
0.473167 0.210254 0.0680552
0.509377 0.218311 0.074815
0.541848 0.225757 0.0804608
0.571893 0.233799 0.0849928
0.600549 0.242344 0.0885328
0.627482 0.250599 0.0917067
0.654246 0.259358 0.0945602
0.680552 0.267842 0.097261
0.707195 0.276951 0.0997482
0.733639 0.28687 0.101534
0.760052 0.297383 0.102876
0.785962 0.308751 0.103426
0.81265 0.321218 0.10338
0.837537 0.334096 0.102663
0.86273 0.347738 0.101152
0.885939 0.361196 0.0991836
0.908965 0.375418 0.0963302
0.915206 0.378195 0.096437
0.0431983 0.222904 0.062501
0.0431983 0.228077 0.0580148
0.0431983 0.236637 0.0499733
0.0537728 0.245106 0.0431983
0.08159 0.249775 0.0440223
0.117464 0.246677 0.0540322
0.154574 0.238605 0.0699168
0.189914 0.231098 0.0834821
0.229496 0.234379 0.0716716
0.261921 0.235569 0.0661173
0.29192 0.220996 0.0676127
0.329961 0.213001 0.0558175
0.367468 0.208774 0.0441596
0.404379 0.208713 0.0436713
0.443168 0.21297 0.054139
0.482872 0.220356 0.063447
0.521462 0.22855 0.0711681
0.557336 0.236362 0.0780499
0.590021 0.245151 0.0828565
0.619654 0.253666 0.0867628
0.647303 0.262364 0.0898909
0.672312 0.270909 0.092256
0.697948 0.280049 0.094255
0.723384 0.289174 0.0963607
0.748531 0.299092 0.0977035
0.774533 0.309865 0.0987716
0.800061 0.321538 0.0989548
0.826001 0.334051 0.0986648
0.851347 0.347189 0.0975967
0.875654 0.361624 0.0951095
0.899901 0.375906 0.0927749
0.921599 0.391058 0.0887312
0.92314 0.391852 0.0885634
0.0431983 0.239063 0.0619211
0.0431983 0.243275 0.057969
0.0431983 0.25214 0.0489204
0.0553445 0.259678 0.0431983
0.0832532 0.265263 0.0431983
0.116747 0.268605 0.0467842
0.157015 0.261463 0.061738
0.193637 0.253315 0.0783246
0.233524 0.254582 0.0727703
0.271458 0.258457 0.0563516
0.303075 0.259052 0.0626688
0.334905 0.240604 0.0652171
0.37406 0.233478 0.0502785
0.41268 0.229313 0.0431983
0.452262 0.229328 0.0439155
0.492348 0.234211 0.0551461
0.530694 0.239719 0.0656748
0.567422 0.247456 0.0730297
0.601541 0.256413 0.0783398
0.633524 0.26537 0.0828565
0.663203 0.274388 0.0865034
0.689433 0.283177 0.0890364
0.715145 0.292149 0.0912947
0.739147 0.301427 0.0927443
0.76347 0.311803 0.093431
0.788235 0.323156 0.0935988
0.812894 0.334661 0.0934768
0.837858 0.347112 0.0928817
0.862989 0.360418 0.0916152
0.887327 0.375525 0.0885481
0.912032 0.390616 0.0854505
0.933272 0.404974 0.0815595
0.933181 0.404623 0.0816968
0.0431983 0.256153 0.0606546
0.0431983 0.258381 0.0580911
0.0431983 0.266972 0.0487373
0.0563668 0.274418 0.0431983
0.084596 0.280156 0.0431983
0.118364 0.286946 0.0431983
0.160113 0.285389 0.05243
0.198474 0.278004 0.06804
0.234577 0.274647 0.0757305
0.280217 0.281895 0.0530556
0.313207 0.284886 0.0470741
0.346319 0.284886 0.0628824
0.381094 0.264195 0.0561227
0.422187 0.257862 0.0431983
0.462333 0.253498 0.0431983
0.502373 0.251713 0.0443885
0.541268 0.255573 0.0559396
0.577707 0.261448 0.0653697
0.611139 0.268757 0.0720836
0.642985 0.277028 0.0771191
0.673365 0.285954 0.081239
0.701915 0.295323 0.0842451
0.729351 0.304906 0.0865644
0.754711 0.314549 0.0882124
0.778012 0.325002 0.0884718
0.800748 0.335363 0.0886091
0.825711 0.347738 0.0880446
0.849271 0.361166 0.0860914
0.874632 0.374853 0.0842298
0.897948 0.389258 0.0810712
0.921889 0.404623 0.0776074
0.941924 0.419318 0.0726635
0.941802 0.419165 0.072755
0.0431983 0.272648 0.0600595
0.0431983 0.273747 0.0582132
0.0431983 0.281605 0.0489815
0.0565957 0.289219 0.0431983
0.0865797 0.295018 0.0431983
0.124437 0.301946 0.0431983
0.164874 0.306752 0.0461738
0.204532 0.301259 0.0600137
0.239612 0.295979 0.0740978
0.283406 0.303578 0.0591592
0.326421 0.308354 0.0437018
0.360143 0.314824 0.0464485
0.390997 0.309865 0.0569619
0.430457 0.288823 0.0452888
0.473075 0.282902 0.0431983
0.512978 0.278614 0.0431983
0.551934 0.276051 0.0433356
0.587716 0.278691 0.0541695
0.621027 0.284993 0.0621195
0.652399 0.291585 0.0687114
0.682109 0.298772 0.0741131
0.711192 0.307439 0.0779431
0.738735 0.317556 0.0800336
0.765606 0.327672 0.0819409
0.791058 0.338445 0.0825818
0.815366 0.349477 0.0826123
0.837888 0.361318 0.0816815
0.861173 0.374487 0.0793469
0.885664 0.389487 0.0763409
0.908339 0.404242 0.0725872
0.931975 0.420111 0.0679332
0.949798 0.433066 0.0632486
0.949737 0.432837 0.0634318
0.0431983 0.288472 0.0606546
0.0431983 0.289128 0.0587778
0.0431983 0.296147 0.0501564
0.0569162 0.304692 0.0431983
0.0924392 0.310735 0.0431983
0.131365 0.318196 0.0431983
0.171298 0.325734 0.0440681
0.211872 0.323095 0.0560616
0.247639 0.317784 0.0708324
0.28716 0.322759 0.0686503
0.334707 0.332555 0.0451514
0.370947 0.336278 0.0437476
0.40972 0.347173 0.0449531
0.436927 0.333379 0.0459297
0.482307 0.314611 0.0446937
0.524147 0.30927 0.0431983
0.561929 0.305074 0.0431983
0.59649 0.302968 0.0431983
0.629358 0.303029 0.0487526
0.660883 0.308858 0.0569467
0.690852 0.315663 0.0631266
0.7196 0.322698 0.0684215
0.746441 0.330571 0.0721599
0.77319 0.340658 0.0742046
0.79913 0.351675 0.0749065
0.825162 0.363394 0.0750286
0.85034 0.376349 0.0737926
0.87274 0.38912 0.0715648
0.895033 0.403586 0.0678264
0.917266 0.418418 0.0632486
0.941131 0.435615 0.0572518
0.952499 0.448325 0.0495918
0.952499 0.447608 0.050309
0.0431983 0.303304 0.0630198
0.0431983 0.304082 0.061326
0.0431983 0.311681 0.0517433
0.0613565 0.321309 0.0431983
0.100542 0.327657 0.0431983
0.139055 0.335637 0.0431983
0.179599 0.344732 0.0433204
0.220325 0.343511 0.0540932
0.256977 0.339117 0.0684062
0.293507 0.341939 0.0729076
0.339651 0.35375 0.0500191
0.384344 0.360372 0.0437934
0.414481 0.365454 0.0439002
0.458045 0.378408 0.0439155
0.486778 0.359609 0.0457771
0.533822 0.342153 0.0441749
0.571618 0.336873 0.0431983
0.606424 0.333486 0.0431983
0.63827 0.330953 0.0431983
0.669291 0.330114 0.0434119
0.698909 0.333776 0.0493019
0.726619 0.340993 0.0548409
0.754559 0.347875 0.0602121
0.780484 0.355993 0.0635996
0.806226 0.364508 0.0666667
0.831968 0.377234 0.0654002
0.857771 0.389975 0.0645762
0.88217 0.404181 0.0616159
0.904997 0.418402 0.0581369
0.927718 0.433021 0.0539406
0.950942 0.449241 0.0474556
0.952895 0.460685 0.0431983
0.952895 0.460502 0.0431983
0.0431983 0.31722 0.0679942
0.0431983 0.318868 0.0647135
0.0436561 0.330175 0.0491798
0.0704967 0.338186 0.0431983
0.109178 0.344762 0.0431983
0.147372 0.353002 0.0431983
0.18822 0.362524 0.0432288
0.229221 0.362448 0.0530861
0.266484 0.359426 0.0660258
0.30161 0.360693 0.0738689
0.344442 0.372 0.0560769
0.391699 0.383474 0.0437934
0.431815 0.38912 0.0439002
0.46569 0.399893 0.0439155
0.504295 0.408469 0.0440223
0.534051 0.387717 0.046891
0.580667 0.371435 0.0444343
0.615198 0.366323 0.0431983
0.647181 0.363027 0.0431983
0.677211 0.360571 0.0431983
0.705867 0.358907 0.0431983
0.733974 0.359747 0.0436103
0.761563 0.366278 0.044831
0.787839 0.374151 0.0491035
0.813291 0.382467 0.0524605
0.838697 0.391501 0.0548409
0.863447 0.403388 0.0544594
0.888182 0.418067 0.0508125
0.912703 0.433051 0.0461585
0.936965 0.448722 0.0437018
0.952834 0.464424 0.0431983
0.952895 0.47393 0.0431983
0.952895 0.473732 0.0431983
0.0431983 0.330724 0.0699474
0.0431983 0.337102 0.061387
0.0476844 0.348943 0.0454108
0.0805066 0.354833 0.0431983
0.117494 0.361486 0.0431983
0.156359 0.370077 0.0431983
0.197162 0.379614 0.0432898
0.238254 0.380163 0.0525368
0.275517 0.378241 0.0640726
0.310048 0.378943 0.0720836
0.34934 0.388693 0.0642405
0.396658 0.403296 0.0438239
0.44126 0.412238 0.0439002
0.473564 0.418219 0.0439765
0.515312 0.435355 0.0440986
0.548394 0.439918 0.0441749
0.577218 0.418723 0.0470588
0.621317 0.403204 0.0453498
0.654826 0.397238 0.0431983
0.684413 0.393835 0.0431983
0.712932 0.391058 0.0431983
0.740276 0.388602 0.0431983
0.767254 0.388098 0.0431983
0.793545 0.393286 0.0431983
0.819577 0.401373 0.0431983
0.844663 0.410132 0.043534
0.86894 0.419562 0.0441749
0.893706 0.431067 0.0434119
0.9187 0.446372 0.0431983
0.943481 0.462516 0.0431983
0.952895 0.479149 0.0431983
0.952895 0.485756 0.0431983
0.952895 0.485573 0.0431983
0.0431983 0.349966 0.0653544
0.0431983 0.357519 0.05449
0.0560769 0.366552 0.0431983
0.0905318 0.37145 0.0431983
0.127062 0.378393 0.0431983
0.16527 0.386816 0.0431983
0.206271 0.395804 0.0436866
0.246952 0.396796 0.0523842
0.284001 0.39559 0.0628672
0.318685 0.396689 0.0701152
0.356207 0.40589 0.0664225
0.400565 0.420661 0.0440528
0.446082 0.43328 0.0439002
0.48835 0.442115 0.044007
0.51545 0.449378 0.0440986
0.559274 0.471 0.0441901
0.587411 0.473213 0.0442054
0.615457 0.452842 0.0468147
0.658137 0.437186 0.0466621
0.690974 0.429648 0.0439155
0.719692 0.426108 0.0431983
0.747097 0.422995 0.0431983
0.773587 0.420325 0.0431983
0.798459 0.417853 0.0431983
0.824292 0.42118 0.0431983
0.849531 0.429587 0.0431983
0.874083 0.438758 0.0431983
0.898772 0.448386 0.0431983
0.922774 0.459831 0.0431983
0.947478 0.475776 0.0431983
0.952895 0.491966 0.0431983
0.952895 0.496162 0.0431983
0.952895 0.495872 0.0431983
0.0431983 0.370611 0.0582437
0.0449836 0.377951 0.0469215
0.0677043 0.383047 0.0431983
0.100893 0.388235 0.0431983
0.136294 0.394995 0.0431983
0.174594 0.403433 0.0431983
0.21561 0.411276 0.0446174
0.255802 0.412375 0.0534524
0.292378 0.412833 0.0621958
0.32665 0.41445 0.068864
0.362676 0.423011 0.0668193
0.402945 0.436301 0.0507362
0.448554 0.452354 0.0439155
0.491936 0.46421 0.044007
0.530144 0.47393 0.0440986
0.554849 0.483818 0.0441901
0.596582 0.506706 0.0442054
0.623117 0.508171 0.0442969
0.64976 0.488151 0.0464637
0.691325 0.473152 0.0483406
0.723857 0.464591 0.0454719
0.752453 0.460166 0.0436866
0.778775 0.456077 0.0431983
0.804196 0.452003 0.0431983
0.828611 0.448432 0.0431983
0.853361 0.449454 0.0431983
0.878264 0.458289 0.0431983
0.902571 0.467781 0.0431983
0.927092 0.477623 0.0431983
0.950683 0.489311 0.0431983
0.952895 0.50486 0.0431983
0.952895 0.5075 0.0431983
0.952895 0.506905 0.0431983
0.0431983 0.391699 0.0517739
0.0498054 0.397574 0.0432288
0.0763561 0.401099 0.0431983
0.107881 0.406699 0.0431983
0.14287 0.414176 0.0431983
0.180575 0.423316 0.0431983
0.221958 0.428061 0.0482185
0.262318 0.429511 0.0570687
0.299046 0.430762 0.0649424
0.332891 0.432303 0.0708476
0.368154 0.440497 0.0687266
0.405417 0.452369 0.0590982
0.448768 0.4692 0.0439612
0.493141 0.484657 0.0440223
0.5346 0.496727 0.0441138
0.565377 0.506325 0.0442054
0.59144 0.519081 0.0442054
0.630533 0.542428 0.0442969
0.656214 0.544213 0.0443122
0.682399 0.525414 0.0455482
0.722576 0.510246 0.0489204
0.753918 0.49897 0.0475013
0.782147 0.494102 0.0449073
0.809018 0.489601 0.0431983
0.834073 0.484276 0.0431983
0.857755 0.479362 0.0431983
0.882002 0.478691 0.0431983
0.90631 0.487282 0.0431983
0.930541 0.496559 0.0431983
0.952316 0.506874 0.0431983
0.952895 0.517876 0.0431983
0.952895 0.518227 0.0431983
0.952895 0.518044 0.0431983
0.0431983 0.412192 0.0529793
0.0487831 0.418418 0.0432593
0.0759594 0.422354 0.0431983
0.108751 0.428305 0.0431983
0.145144 0.435981 0.0431983
0.185092 0.442161 0.0458534
0.227939 0.443854 0.0541543
0.26804 0.445884 0.0619059
0.304967 0.448005 0.0683757
0.339239 0.450401 0.0732586
0.373327 0.457343 0.0715343
0.409918 0.469642 0.0629892
0.449821 0.484825 0.0463874
0.493599 0.502449 0.0440223
0.535515 0.517464 0.0441138
0.573449 0.529961 0.0442054
0.598184 0.53875 0.0442054
0.626261 0.555428 0.0442969
0.662058 0.578012 0.0443732
0.687236 0.580926 0.0444038
0.712627 0.563653 0.044831
0.752026 0.547997 0.0478523
0.782635 0.534554 0.0492866
0.80972 0.528008 0.0470436
0.836789 0.52195 0.0443275
0.862303 0.515969 0.0431983
0.885588 0.509361 0.0431983
0.909651 0.507591 0.0431983
0.933944 0.515923 0.0431983
0.952575 0.525292 0.0431983
0.952895 0.534966 0.0431983
0.952895 0.533364 0.0431983
0.952895 0.532723 0.0431983
0.0432593 0.432715 0.0538338
0.0502937 0.436942 0.0458991
0.0773785 0.441276 0.0454719
0.110903 0.447669 0.0451209
0.148959 0.454932 0.0457618
0.191379 0.456641 0.0527657
0.233417 0.45861 0.0603494
0.273381 0.461418 0.0670939
0.310704 0.464485 0.0726329
0.345327 0.468132 0.0760662
0.378912 0.473945 0.0754101
0.415442 0.487037 0.0651408
0.452415 0.500587 0.052018
0.493935 0.518288 0.0440986
0.536263 0.535973 0.0441138
0.574212 0.550118 0.0442054
0.609751 0.564019 0.0442969
0.629633 0.572183 0.0442969
0.65687 0.589441 0.0442969
0.690852 0.612345 0.0444038
0.715526 0.617197 0.044419
0.741268 0.603006 0.0444953
0.779309 0.585885 0.0466011
0.810117 0.569986 0.05037
0.835767 0.5617 0.0487373
0.86154 0.554223 0.0467842
0.888731 0.546639 0.0436561
0.9122 0.538918 0.0431983
0.935531 0.536614 0.0431983
0.952697 0.544823 0.0431983
0.952895 0.553658 0.0431983
0.952895 0.551232 0.0431983
0.952895 0.550912 0.0431983
0.0504921 0.446326 0.0604715
0.0598917 0.447761 0.0555581
0.0856641 0.452476 0.054963
0.118944 0.459495 0.0543221
0.155566 0.467399 0.0540475
0.197635 0.469856 0.0603037
0.239414 0.472419 0.0672007
0.278706 0.476249 0.0728466
0.316716 0.480491 0.0773632
0.351934 0.485298 0.0802625
0.38497 0.490776 0.0796063
0.420798 0.503395 0.0688029
0.457389 0.517632 0.0542458
0.494774 0.532799 0.0440986
0.536065 0.551965 0.0441291
0.575113 0.569085 0.0442054
0.609628 0.583017 0.0442969
0.641413 0.596368 0.0442969
0.659571 0.604883 0.0443122
0.685771 0.623224 0.0444038
0.718334 0.647166 0.0444495
0.743618 0.654414 0.0444953
0.767559 0.641657 0.0445716
0.806134 0.624292 0.0450599
0.837751 0.604837 0.0500649
0.860166 0.593652 0.051194
0.886763 0.584848 0.0484932
0.913298 0.576822 0.0452583
0.938827 0.56762 0.0434119
0.952743 0.565164 0.0431983
0.952895 0.573831 0.0431983
0.952895 0.570275 0.0431983
0.952895 0.570611 0.0431983
0.0618296 0.456123 0.0701915
0.0705882 0.45774 0.0658885
0.0956588 0.462852 0.0652781
0.127428 0.470146 0.0641184
0.162921 0.478645 0.0632029
0.204059 0.481987 0.0684977
0.245563 0.485313 0.0746471
0.28513 0.490257 0.0796826
0.322621 0.495659 0.0834974
0.358144 0.501396 0.0854963
0.391501 0.507103 0.0851606
0.426429 0.519051 0.0746929
0.463081 0.534249 0.0580758
0.499214 0.549249 0.0441444
0.53727 0.566934 0.0442054
0.575341 0.584909 0.0442054
0.610895 0.601389 0.0442817
0.6421 0.615549 0.0442969
0.672084 0.629618 0.0443732
0.689281 0.638697 0.0444038
0.713573 0.656748 0.0444495
0.744564 0.681788 0.0444953
0.768841 0.689982 0.0446021
0.790509 0.679423 0.0446021
0.831083 0.660548 0.0447089
0.865965 0.638682 0.047776
0.886442 0.625315 0.0513619
0.910857 0.613947 0.0501869
0.937728 0.604883 0.0469062
0.951202 0.596536 0.0449989
0.951263 0.5944 0.0449378
0.951293 0.590372 0.0449073
0.951324 0.590143 0.0448615
0.073991 0.465278 0.0805982
0.0827802 0.467231 0.0769665
0.10602 0.472343 0.0762036
0.136278 0.480003 0.0747692
0.171054 0.489509 0.0727398
0.210834 0.493599 0.0772564
0.251606 0.497566 0.0829175
0.291173 0.503227 0.0872206
0.328893 0.509316 0.0908675
0.364538 0.516258 0.0922255
0.398291 0.522866 0.0918288
0.432715 0.534035 0.0830091
0.469703 0.550301 0.0648814
0.505196 0.565896 0.0455482
0.53962 0.58117 0.0442054
0.575967 0.599283 0.0442054
0.611124 0.616999 0.0442969
0.643137 0.632868 0.0442969
0.673457 0.648539 0.0443732
0.701503 0.663294 0.0444038
0.717845 0.672496 0.0444495
0.737942 0.6878 0.0444953
0.768734 0.715099 0.0446021
0.793698 0.725368 0.0446021
0.813367 0.716564 0.0446021
0.855482 0.695598 0.0446937
0.892164 0.670512 0.0464637
0.914199 0.656733 0.0499275
0.935241 0.643946 0.052018
0.945922 0.633799 0.0501869
0.947707 0.626093 0.0484016
0.947829 0.617121 0.0482643
0.94786 0.616815 0.0482338
0.0874037 0.473899 0.0909743
0.0961318 0.476005 0.0887007
0.117968 0.481239 0.0877546
