luts/Formula B.cube
LUT_3D_SIZE 6
0.101915 0.096652 0.092203
0.200357 0.095054 0.090126
0.402744 0.075489 0.068212
0.611264 0.063845 0.054629
0.787030 0.059943 0.049865
0.903677 0.058756 0.048439
0.090532 0.192926 0.081738
0.199311 0.190573 0.074416
0.399431 0.199638 0.061077
0.609674 0.204172 0.052386
0.786281 0.198606 0.049089
0.903246 0.183735 0.048190
0.073192 0.385602 0.053547
0.205273 0.385308 0.052764
0.394343 0.384741 0.051082
0.606395 0.399345 0.048828
0.784399 0.389995 0.048064
0.902094 0.360341 0.047962
0.069578 0.597153 0.048228
0.211030 0.597076 0.047978
0.407610 0.596832 0.047968
0.604491 0.596655 0.048104
0.782672 0.583210 0.048428
0.900782 0.538744 0.048551
0.070157 0.777158 0.049401
0.206537 0.777122 0.049300
0.398390 0.777022 0.049523
0.590588 0.776828 0.050002
0.780395 0.775443 0.050751
0.899792 0.717578 0.050501
0.071341 0.897048 0.051456
0.192338 0.897084 0.051448
0.368925 0.897023 0.051660
0.546499 0.896911 0.052101
0.723117 0.896841 0.052783
0.898333 0.895883 0.053722
0.099516 0.097848 0.189776
0.200359 0.094387 0.185353
0.402933 0.072581 0.194645
0.611767 0.058078 0.196885
0.787537 0.052732 0.190508
0.904086 0.051104 0.175305
0.034814 0.217890 0.247209
0.198301 0.190252 0.183631
0.397275 0.187438 0.180516
0.620420 0.165464 0.156734
0.800113 0.146853 0.136485
0.916893 0.137331 0.125999
0.048866 0.398540 0.220418
0.175761 0.387588 0.157372
0.395184 0.385080 0.148366
0.613600 0.391117 0.133965
0.794186 0.377741 0.123974
0.912824 0.348424 0.118904
0.052505 0.599502 0.199110
0.146500 0.599958 0.121097
0.394966 0.598805 0.118419
0.605209 0.597110 0.114315
0.787230 0.580049 0.110901
0.907433 0.534971 0.109901
0.053771 0.777358 0.187502
0.134936 0.779469 0.106215
0.380353 0.779003 0.105309
0.585057 0.778163 0.103851
0.780850 0.775946 0.102059
0.902897 0.716601 0.102612
0.055325 0.897247 0.172653
0.130907 0.899149 0.100752
0.351361 0.898887 0.100466
0.539259 0.898434 0.099848
0.720761 0.897791 0.099026
0.898744 0.896271 0.098132
0.098217 0.091565 0.385811
0.214716 0.084737 0.388039
0.401767 0.069096 0.384187
0.611029 0.057104 0.394442
0.787164 0.052447 0.383250
0.903940 0.051009 0.352682
0.057958 0.216635 0.427581
0.197231 0.189924 0.381064
0.397864 0.185711 0.380451
0.619930 0.162381 0.389932
0.800189 0.142739 0.373497
0.917482 0.132463 0.341957
0.030544 0.417105 0.463763
0.083938 0.418336 0.466556
0.389237 0.385649 0.380617
0.607806 0.382406 0.374530
0.787962 0.379235 0.371286
0.919617 0.364080 0.355227
0.034392 0.625675 0.478931
0.084567 0.621745 0.454523
0.382594 0.598888 0.366030
0.605260 0.596919 0.355281
0.792511 0.577442 0.345479
0.916482 0.541099 0.340232
0.043939 0.792180 0.443674
0.102603 0.786448 0.395380
0.346257 0.783142 0.323878
0.574812 0.781183 0.317303
0.782236 0.776939 0.307979
0.910834 0.719278 0.310161
0.051259 0.902708 0.383573
0.110267 0.899943 0.332156
0.321835 0.904342 0.297054
0.528275 0.903043 0.294268
0.717450 0.901028 0.288596
0.900235 0.897568 0.281579
0.083991 0.075346 0.608080
0.218583 0.071359 0.606198
0.414810 0.062636 0.600586
0.610034 0.055470 0.595565
0.786536 0.051937 0.579292
0.903658 0.050836 0.533157
0.068876 0.210010 0.612491
0.196317 0.187824 0.596263
0.410407 0.176962 0.604323
0.618952 0.156553 0.604012
0.798839 0.139614 0.582575
0.916561 0.130716 0.533677
0.031158 0.432512 0.688291
0.093901 0.422706 0.683004
0.391174 0.384439 0.596631
0.607483 0.381596 0.592970
0.787893 0.378675 0.575834
0.919007 0.363894 0.540949
0.034649 0.626107 0.687811
0.070622 0.626983 0.689743
0.249984 0.629351 0.695562
0.589358 0.600502 0.604167
0.785041 0.594331 0.587644
0.910485 0.589076 0.582075
0.039375 0.799202 0.673861
0.068024 0.800167 0.671330
0.248905 0.799786 0.644392
0.597669 0.778095 0.586003
0.781195 0.776112 0.583649
0.902757 0.740515 0.582896
0.042934 0.912915 0.627449
0.074163 0.911915 0.612959
0.290467 0.908148 0.543005
0.590694 0.899214 0.575435
0.741645 0.898719 0.573170
0.899433 0.897022 0.566433
0.075026 0.064910 0.789607
0.211007 0.062977 0.788230
0.404009 0.058505 0.784079
0.595805 0.054038 0.779773
0.784461 0.051342 0.775391
0.903159 0.050627 0.715079
0.065942 0.200440 0.787878
0.187367 0.177888 0.793318
0.400056 0.166950 0.796514
0.601861 0.150831 0.793804
0.795476 0.135340 0.786190
0.915135 0.128151 0.721676
0.039085 0.414562 0.846780
0.131268 0.396429 0.829027
0.392103 0.382415 0.779429
0.591587 0.380916 0.778769
0.787834 0.375864 0.778599
0.918044 0.362143 0.726192
0.034957 0.613362 0.872426
0.070337 0.611976 0.876640
0.276817 0.606610 0.872170
0.600418 0.596049 0.779556
0.783914 0.594455 0.774659
0.909463 0.590313 0.739622
0.039909 0.798022 0.870802
0.067952 0.798722 0.872232
0.215714 0.802016 0.879044
0.483770 0.800830 0.877145
0.767783 0.779740 0.787007
0.901608 0.774636 0.770384
0.043297 0.912953 0.812065
0.068078 0.913731 0.811652
0.201307 0.917743 0.815618
0.503270 0.912743 0.806222
0.772447 0.898492 0.774826
0.899186 0.896650 0.768765
0.070904 0.059972 0.909989
0.194813 0.059036 0.909049
0.373243 0.056533 0.906306
0.551184 0.053573 0.902985
0.727334 0.051416 0.900048
0.901755 0.050446 0.897126
0.062924 0.184184 0.909245
0.178363 0.168005 0.923530
0.371650 0.160437 0.923443
0.556652 0.148553 0.920251
0.736687 0.135934 0.914590
0.912481 0.124986 0.907828
0.048106 0.373882 0.937387
0.153828 0.358275 0.926146
0.386759 0.376506 0.919567
0.563166 0.373479 0.917854
0.739851 0.367664 0.915148
0.915804 0.360042 0.910923
0.034596 0.570312 0.992841
0.078345 0.566459 0.990154
0.343103 0.558033 0.948000
0.600797 0.592439 0.909154
0.751990 0.592099 0.906306
0.907365 0.589863 0.902807
0.038784 0.742948 0.992645
0.068142 0.743328 0.995544
0.275830 0.747618 0.998115
0.509473 0.761197 0.983996
0.772961 0.777044 0.906025
0.901188 0.775475 0.896487
0.043845 0.912247 0.991590
0.068165 0.912834 0.992741
0.230054 0.914997 0.997368
0.479435 0.914723 0.997372
0.678939 0.914280 0.996348
0.893067 0.897765 0.901450
