luts/Formula B.cube
LUT_3D_SIZE 16
0.101915 0.096652 0.092203
0.113325 0.096529 0.091958
0.147116 0.096036 0.091255
0.200357 0.095054 0.090126
0.265645 0.089452 0.083832
0.333805 0.082082 0.075623
0.402744 0.075489 0.068212
0.472608 0.070337 0.062299
0.542885 0.066552 0.057828
0.611264 0.063845 0.054629
0.675750 0.062010 0.052401
0.735032 0.060755 0.050869
0.787030 0.059943 0.049865
0.831432 0.059402 0.049203
0.869340 0.059036 0.048759
0.903677 0.058756 0.048439
0.100555 0.108075 0.093266
0.112346 0.107756 0.092643
0.146980 0.107522 0.090974
0.200904 0.107174 0.088868
0.265713 0.103713 0.082256
0.333497 0.099170 0.074404
0.402431 0.095182 0.067373
0.472335 0.092291 0.061707
0.542668 0.090259 0.057410
0.611071 0.088766 0.054315
0.675604 0.087572 0.052157
0.734951 0.086430 0.050687
0.786935 0.085216 0.049716
0.831355 0.083811 0.049097
0.869275 0.082405 0.048674
0.903626 0.081068 0.048386
0.097097 0.141628 0.095101
0.110360 0.140956 0.093213
0.146819 0.139355 0.087853
0.201375 0.141300 0.083458
0.265145 0.141991 0.077230
0.332361 0.141849 0.070682
0.401302 0.141646 0.064800
0.471408 0.141673 0.059961
0.541981 0.141842 0.056205
0.610568 0.141707 0.053464
0.675253 0.140980 0.051550
0.734591 0.139563 0.050241
0.786662 0.137330 0.049393
0.831149 0.134405 0.048850
0.869169 0.131071 0.048503
0.903456 0.127708 0.048272
0.090532 0.192926 0.081738
0.106320 0.192451 0.080358
0.146573 0.191281 0.076944
0.199311 0.190573 0.074416
0.262966 0.194316 0.069911
0.330226 0.197244 0.065307
0.399431 0.199638 0.061077
0.469879 0.201733 0.057463
0.540839 0.203457 0.054557
0.609674 0.204172 0.052386
0.674510 0.203663 0.050841
0.734044 0.201890 0.049779
0.786281 0.198606 0.049089
0.830850 0.194148 0.048652
0.868884 0.188987 0.048373
0.903246 0.183735 0.048190
0.083152 0.252464 0.067123
0.101224 0.252383 0.066845
0.145052 0.252104 0.065982
0.201117 0.251578 0.064658
0.260339 0.250970 0.062806
0.327771 0.256059 0.059870
0.397317 0.260476 0.057097
0.468155 0.264264 0.054650
0.539407 0.267300 0.052624
0.608551 0.268814 0.051077
0.673665 0.268427 0.049966
0.733401 0.266171 0.049201
0.785740 0.261920 0.048704
0.830363 0.255977 0.048400
0.868501 0.249037 0.048207
0.902995 0.241967 0.048083
0.076939 0.317525 0.058822
0.097288 0.317467 0.058625
0.144502 0.317307 0.058121
0.202994 0.317006 0.057469
0.264033 0.316588 0.056539
0.325900 0.316283 0.055384
0.395446 0.322179 0.053672
0.466514 0.327513 0.052120
0.538075 0.331769 0.050818
0.607397 0.333937 0.049822
0.672721 0.333730 0.049109
0.732578 0.331051 0.048632
0.785104 0.325847 0.048332
0.829825 0.318410 0.048157
0.867996 0.309739 0.048056
0.902512 0.300967 0.047995
0.073192 0.385602 0.053547
0.095284 0.385604 0.053406
0.144954 0.385541 0.053079
0.205273 0.385308 0.052764
0.267782 0.385079 0.052305
0.330831 0.384732 0.051739
0.394343 0.384741 0.051082
0.465185 0.391054 0.050174
0.536849 0.396479 0.049399
0.606395 0.399345 0.048828
0.671870 0.399265 0.048440
0.731772 0.396145 0.048193
0.784399 0.389995 0.048064
0.829246 0.381136 0.047995
0.867513 0.370809 0.047971
0.902094 0.360341 0.047962
0.071078 0.455906 0.050432
0.094465 0.455909 0.050315
0.145955 0.455840 0.050084
0.207616 0.455736 0.049936
0.271419 0.455577 0.049728
0.335685 0.455378 0.049468
0.399912 0.455135 0.049172
0.464630 0.455382 0.048855
0.535879 0.461328 0.048466
0.605513 0.464967 0.048198
0.670992 0.465032 0.048049
0.731115 0.461564 0.047979
0.783774 0.454288 0.047960
0.828683 0.444014 0.047973
0.867007 0.431949 0.047994
0.901618 0.419582 0.048027
0.069993 0.527390 0.048811
0.094265 0.527414 0.048715
0.147074 0.527363 0.048527
0.209816 0.527278 0.048471
0.274566 0.527189 0.048397
0.339737 0.527045 0.048303
0.404910 0.526881 0.048193
0.470006 0.526749 0.048098
0.535643 0.527019 0.048017
0.604811 0.530627 0.047967
0.670391 0.530804 0.047974
0.730494 0.526863 0.048022
0.783128 0.518713 0.048075
0.828102 0.507047 0.048129
0.866499 0.493186 0.048165
0.901199 0.479154 0.048213
0.069578 0.597153 0.048228
0.094293 0.597144 0.048140
0.147739 0.597117 0.047987
0.211030 0.597076 0.047978
0.276263 0.597026 0.047972
0.341909 0.596918 0.047961
0.407610 0.596832 0.047968
0.473357 0.596712 0.047985
0.538839 0.596570 0.048028
0.604491 0.596655 0.048104
0.669856 0.596633 0.048216
0.729960 0.592293 0.048329
0.782672 0.583210 0.048428
0.827684 0.570054 0.048482
0.866085 0.554519 0.048518
0.900782 0.538744 0.048551
0.069580 0.663102 0.048298
0.094256 0.663094 0.048219
0.147708 0.663036 0.048095
0.210912 0.663035 0.048109
0.276159 0.662987 0.048138
0.341815 0.662923 0.048176
0.407504 0.662888 0.048235
0.473235 0.662794 0.048318
0.538791 0.662698 0.048430
0.604185 0.662584 0.048572
0.669242 0.662334 0.048745
0.729625 0.657780 0.048908
0.782292 0.647678 0.048999
0.827296 0.633067 0.049038
0.865703 0.615857 0.049040
0.900377 0.598319 0.049041
0.069809 0.723819 0.048755
0.094050 0.723811 0.048693
0.146827 0.723786 0.048585
0.209457 0.723752 0.048617
0.274148 0.723700 0.048659
0.339252 0.723627 0.048726
0.404412 0.723618 0.048813
0.469699 0.723513 0.048929
0.534757 0.723473 0.049067
0.599708 0.723469 0.049246
0.664409 0.723407 0.049461
0.728761 0.722782 0.049700
0.781927 0.712196 0.049792
0.826951 0.696193 0.049793
0.865365 0.677362 0.049741
0.900075 0.657987 0.049687
0.070157 0.777158 0.049401
0.093625 0.777153 0.049348
0.145047 0.777140 0.049267
0.206537 0.777122 0.049300
0.270104 0.777094 0.049348
0.334189 0.777069 0.049429
0.398390 0.777022 0.049523
0.462507 0.776965 0.049646
0.526605 0.776900 0.049803
0.590588 0.776828 0.050002
0.654344 0.776750 0.050220
0.718104 0.776751 0.050476
0.780395 0.775443 0.050751
0.826639 0.759280 0.050724
0.865059 0.738619 0.050611
0.899792 0.717578 0.050501
0.070554 0.822780 0.050095
0.092922 0.822776 0.050056
0.142492 0.822765 0.049993
0.202334 0.822751 0.050029
0.264343 0.822729 0.050082
0.326897 0.822699 0.050162
0.389633 0.822661 0.050259
0.452325 0.822651 0.050385
0.514991 0.822598 0.050541
0.577562 0.822538 0.050728
0.639985 0.822473 0.050957
0.702304 0.822480 0.051212
0.764403 0.822443 0.051500
0.824587 0.820401 0.051775
0.864812 0.800254 0.051639
0.899550 0.777409 0.051449
0.070951 0.861770 0.050779
0.092079 0.861766 0.050746
0.139490 0.861758 0.050702
0.197357 0.861746 0.050734
0.257564 0.861787 0.050794
0.318367 0.861762 0.050869
0.379310 0.861731 0.050967
0.440331 0.861693 0.051094
0.501335 0.861649 0.051242
0.562149 0.861599 0.051421
0.622828 0.861544 0.051631
0.683565 0.861485 0.051873
0.743980 0.861481 0.052149
0.804680 0.861416 0.052461
0.862941 0.859605 0.052763
0.899332 0.837036 0.052544
0.071341 0.897048 0.051456
0.091261 0.897045 0.051443
0.136451 0.897038 0.051411
0.192338 0.897084 0.051448
0.250676 0.897069 0.051498
0.309679 0.897049 0.051567
0.368925 0.897023 0.051660
0.428131 0.896991 0.051774
0.487389 0.896954 0.051927
0.546499 0.896911 0.052101
0.605485 0.896864 0.052299
0.664493 0.896814 0.052527
0.723117 0.896841 0.052783
0.782040 0.896784 0.053073
0.840648 0.896768 0.053392
0.898333 0.895883 0.053722
0.100765 0.097233 0.104283
0.112516 0.096909 0.103649
0.147102 0.096010 0.102668
0.199870 0.095320 0.102965
0.265057 0.090001 0.099484
0.333903 0.081618 0.093342
0.403264 0.073663 0.087667
0.473293 0.067183 0.083303
0.543643 0.062184 0.080243
0.611959 0.058548 0.077947
0.676465 0.055971 0.076179
0.735700 0.054185 0.074597
0.787662 0.052969 0.072969
0.831996 0.052163 0.071285
0.869949 0.051618 0.069502
0.904156 0.051201 0.067835
0.096712 0.110067 0.108486
0.109637 0.109157 0.106583
0.146970 0.106907 0.101868
0.199744 0.106538 0.101433
0.264340 0.102905 0.097308
0.333731 0.095701 0.089304
0.403734 0.088394 0.081171
0.474089 0.082227 0.074225
0.544588 0.077395 0.068691
0.612968 0.073840 0.064536
0.677449 0.071265 0.061486
0.736622 0.069414 0.059278
0.788495 0.068092 0.057719
0.832861 0.067191 0.056593
0.870762 0.066488 0.055776
0.904929 0.065927 0.055126
0.084429 0.147344 0.118100
0.102996 0.144536 0.112739
0.146544 0.139290 0.100848
0.200561 0.140741 0.097850
0.264920 0.140542 0.091784
0.333050 0.139050 0.084463
0.402642 0.137366 0.077399
0.473014 0.136071 0.071324
0.543689 0.135157 0.066435
0.612215 0.134247 0.062736
0.676820 0.133055 0.060035
0.736133 0.131408 0.058105
0.788130 0.129176 0.056776
0.832506 0.126420 0.055864
0.870499 0.123360 0.055225
0.904727 0.120356 0.054750
0.085288 0.195937 0.103966
0.102836 0.194224 0.100182
0.145736 0.191224 0.091291
0.199280 0.190539 0.088481
0.263341 0.193592 0.083418
0.331066 0.195769 0.077949
0.400659 0.197393 0.072711
0.471303 0.198816 0.068073
0.542265 0.199937 0.064217
0.611155 0.200252 0.061225
0.675968 0.199454 0.059001
0.735455 0.197472 0.057393
0.787647 0.194171 0.056274
0.832141 0.189780 0.055506
0.870102 0.184753 0.054969
0.904477 0.179646 0.054561
0.079793 0.252710 0.083337
0.096034 0.252653 0.080140
0.142123 0.252339 0.078681
0.200063 0.251740 0.077048
0.260474 0.251003 0.074748
0.328340 0.255484 0.071108
0.398212 0.259377 0.067553
0.469236 0.262689 0.064323
0.540572 0.265305 0.061548
0.609788 0.266476 0.059348
0.674845 0.265908 0.057681
0.734570 0.263497 0.056460
0.786894 0.259205 0.055609
0.831538 0.253257 0.055023
0.869651 0.246372 0.054611
0.904072 0.239413 0.054299
0.069494 0.317890 0.074801
0.088160 0.317871 0.069955
0.139595 0.317642 0.068850
0.200715 0.317284 0.067997
0.263211 0.316767 0.066774
0.326032 0.316323 0.065245
0.395923 0.321809 0.062960
0.467243 0.326699 0.060825
0.538928 0.330630 0.058955
0.608368 0.332579 0.057454
0.673710 0.332162 0.056311
0.733613 0.329383 0.055470
0.786058 0.324038 0.054889
0.830857 0.316637 0.054490
0.869039 0.308019 0.054219
0.903555 0.299234 0.054002
0.062549 0.386001 0.069663
0.083081 0.386001 0.063052
0.138546 0.385843 0.062141
0.202057 0.385610 0.061702
0.266211 0.385285 0.061064
0.330262 0.384905 0.060258
0.394462 0.384865 0.059312
0.465581 0.390738 0.057972
0.537431 0.395873 0.056778
0.607044 0.398568 0.055823
0.672552 0.398376 0.055103
0.732615 0.395114 0.054590
0.785189 0.388837 0.054236
0.830133 0.379942 0.054004
0.868418 0.369600 0.053845
0.902975 0.358998 0.053724
0.058108 0.456244 0.066870
0.079976 0.456257 0.058635
0.138513 0.456149 0.057838
0.203701 0.456017 0.057617
0.269233 0.455829 0.057290
0.334506 0.455570 0.056875
0.399521 0.455270 0.056393
0.464706 0.455424 0.055856
0.536204 0.461138 0.055151
0.605963 0.464497 0.054597
0.671577 0.464390 0.054191
0.731677 0.460792 0.053920
0.784428 0.453502 0.053742
0.829373 0.443213 0.053637
0.867748 0.431054 0.053574
0.902414 0.418731 0.053525
0.055477 0.527677 0.065589
0.078175 0.527696 0.055981
0.138937 0.527636 0.055271
0.205420 0.527526 0.055165
0.271966 0.527421 0.055008
0.338212 0.527285 0.054809
0.404096 0.527047 0.054583
0.469719 0.526829 0.054333
0.535724 0.527071 0.054085
0.605026 0.530489 0.053815
0.670686 0.530497 0.053633
0.731010 0.526456 0.053529
0.783704 0.518179 0.053479
0.828719 0.506525 0.053449
0.867103 0.492646 0.053445
0.901797 0.478569 0.053436
0.054114 0.597407 0.064920
0.077231 0.597422 0.054599
0.139171 0.597370 0.053953
0.206343 0.597316 0.053907
0.273403 0.597230 0.053847
0.340083 0.597120 0.053769
0.406509 0.596999 0.053681
0.472638 0.596839 0.053595
0.538636 0.596644 0.053519
0.604531 0.596715 0.053461
0.670049 0.596546 0.053434
0.730265 0.592052 0.053445
0.783079 0.582868 0.053452
0.828046 0.569711 0.053476
0.866545 0.554125 0.053487
0.901346 0.538347 0.053497
0.053600 0.663299 0.064552
0.076836 0.663316 0.054042
0.138919 0.663270 0.053464
0.206078 0.663230 0.053455
0.273114 0.663213 0.053450
0.339804 0.663130 0.053443
0.406255 0.663019 0.053431
0.472352 0.662897 0.053442
0.538345 0.662805 0.053455
0.604006 0.662666 0.053504
0.669371 0.662409 0.053577
0.729803 0.657647 0.053643
0.782476 0.647438 0.053692
0.827562 0.632889 0.053718
0.866051 0.615620 0.053719
0.900837 0.598042 0.053719
0.053612 0.724077 0.064128
0.076751 0.724021 0.054000
0.138044 0.724045 0.053506
0.204536 0.724002 0.053515
0.270988 0.723934 0.053535
0.337172 0.723840 0.053564
0.403033 0.723804 0.053601
0.468671 0.723667 0.053654
0.534142 0.723587 0.053730
0.599307 0.723495 0.053830
0.664330 0.723437 0.053959
0.728751 0.722829 0.054115
0.782062 0.712199 0.054175
0.827163 0.696140 0.054174
0.865609 0.677148 0.054142
0.900361 0.657792 0.054107
0.053921 0.777378 0.063412
0.076837 0.777392 0.054254
0.136444 0.777360 0.053839
0.201621 0.777337 0.053860
0.266956 0.777302 0.053890
0.332014 0.777253 0.053939
0.396845 0.777191 0.054002
0.461431 0.777116 0.054085
0.525867 0.777043 0.054185
0.590105 0.776948 0.054310
0.654104 0.776846 0.054470
0.718071 0.776754 0.054651
0.780434 0.775487 0.054853
0.826743 0.759222 0.054833
0.865226 0.738612 0.054749
0.900005 0.717397 0.054661
0.054369 0.822959 0.062420
0.077010 0.822970 0.054626
0.134190 0.822944 0.054308
0.197561 0.822962 0.054334
0.261237 0.822933 0.054371
0.324756 0.822894 0.054425
0.388092 0.822844 0.054501
0.451217 0.822783 0.054591
0.514202 0.822713 0.054698
0.576972 0.822670 0.054840
0.639597 0.822585 0.055004
0.702109 0.822493 0.055201
0.764277 0.822474 0.055420
0.824557 0.820439 0.055652
0.864941 0.800219 0.055537
0.899675 0.777398 0.055387
0.054844 0.861922 0.061224
0.077232 0.861931 0.055056
0.131581 0.861911 0.054816
0.192765 0.861896 0.054844
0.254536 0.861872 0.054883
0.316267 0.861840 0.054939
0.377780 0.861799 0.055016
0.439225 0.861807 0.055114
0.500491 0.861748 0.055223
0.561547 0.861741 0.055362
0.622430 0.861668 0.055529
0.683293 0.861589 0.055724
0.743776 0.861507 0.055946
0.804600 0.861478 0.056195
0.862985 0.859585 0.056437
0.899398 0.837013 0.056253
0.055365 0.897255 0.060049
0.077439 0.897262 0.055514
0.128977 0.897247 0.055349
0.187915 0.897234 0.055375
0.247754 0.897215 0.055419
0.307631 0.897188 0.055475
0.367371 0.897154 0.055555
0.426976 0.897112 0.055647
0.486508 0.897062 0.055764
0.545843 0.897060 0.055901
0.605099 0.896998 0.056061
0.664032 0.896931 0.056244
0.723006 0.896859 0.056457
0.781962 0.896783 0.056700
0.840580 0.896787 0.056972
0.898334 0.895868 0.057246
0.098147 0.098533 0.139299
0.111358 0.097767 0.137725
0.147166 0.095907 0.134195
0.199965 0.095041 0.136828
0.265184 0.089318 0.138120
0.333836 0.080969 0.137054
0.403166 0.073141 0.135620
0.473178 0.066739 0.134659
0.543536 0.061813 0.134133
0.611880 0.058227 0.133536
0.676373 0.055696 0.132491
0.735583 0.053947 0.130838
0.787595 0.052774 0.128436
0.831979 0.052008 0.125320
0.869900 0.051490 0.121813
0.904120 0.051118 0.118302
0.087315 0.115478 0.151628
0.103459 0.112404 0.146051
0.146996 0.106812 0.134011
0.199714 0.106177 0.135862
0.263657 0.102836 0.136626
0.333517 0.094843 0.134462
0.403971 0.086287 0.131431
0.474555 0.078800 0.128891
0.545154 0.072766 0.127038
0.613590 0.068198 0.125471
0.678029 0.064851 0.123797
0.737195 0.062440 0.121794
0.789056 0.060757 0.119283
0.833431 0.059586 0.116249
0.871292 0.058756 0.112913
0.905534 0.058123 0.109655
0.052913 0.159347 0.178598
0.082260 0.153613 0.165579
0.145772 0.139467 0.134058
0.199386 0.138735 0.132892
0.261285 0.138067 0.132185
0.330514 0.134374 0.128051
0.403465 0.126967 0.119895
0.476349 0.118869 0.111038
0.548333 0.111504 0.102933
0.617402 0.105450 0.096202
0.682085 0.100718 0.090870
0.741339 0.097094 0.086742
0.793151 0.094416 0.083651
0.837375 0.092407 0.081358
0.875145 0.090919 0.079599
0.909266 0.089685 0.078164
0.066368 0.204645 0.162192
0.085540 0.201869 0.154967
0.139549 0.193195 0.138134
0.198759 0.190308 0.130483
0.262435 0.191842 0.126367
0.331503 0.191966 0.120019
0.402808 0.190986 0.112615
0.474842 0.189532 0.105220
0.546665 0.188045 0.098485
0.615866 0.186309 0.092834
0.680826 0.184128 0.088315
0.740247 0.181363 0.084805
0.792225 0.177891 0.082184
0.836687 0.173800 0.080239
0.874559 0.169335 0.078767
0.908774 0.164951 0.077573
0.069149 0.257751 0.142478
0.084735 0.256917 0.136909
0.133331 0.254015 0.125405
0.197555 0.251840 0.118349
0.260583 0.250976 0.115035
0.329535 0.253770 0.109776
0.400493 0.255931 0.104123
0.472389 0.257528 0.098542
0.544339 0.258580 0.093397
0.613855 0.258486 0.089024
0.679090 0.257013 0.085451
0.738842 0.254039 0.082643
0.791084 0.249542 0.080520
0.835726 0.243712 0.078939
0.873716 0.237106 0.077735
0.908095 0.230565 0.076744
0.064067 0.321621 0.137280
0.077656 0.320719 0.128414
0.123622 0.318833 0.107192
0.193888 0.317975 0.104625
0.260747 0.317230 0.102515
0.326379 0.316441 0.099832
0.397435 0.320496 0.095836
0.469566 0.324037 0.091853
0.541824 0.326794 0.088132
0.611610 0.327757 0.084924
0.677196 0.326687 0.082278
0.737212 0.323447 0.080173
0.789668 0.317886 0.078578
0.834520 0.310449 0.077384
0.872756 0.301937 0.076478
0.907251 0.293394 0.075715
0.060141 0.388073 0.132250
0.071324 0.387627 0.122083
0.114916 0.386923 0.094556
0.191032 0.386556 0.093449
0.260914 0.386100 0.092184
0.328339 0.385399 0.090584
0.394782 0.384992 0.088669
0.466878 0.389728 0.085947
0.539369 0.393907 0.083313
0.609458 0.395780 0.081046
0.675248 0.394881 0.079183
0.735554 0.391243 0.077693
0.788289 0.384733 0.076570
0.833259 0.375813 0.075744
0.871625 0.365416 0.075119
0.906223 0.354981 0.074578
0.057228 0.457094 0.128588
0.066496 0.457117 0.118173
0.108225 0.457249 0.085944
0.189511 0.457028 0.085153
0.261611 0.456694 0.084426
0.330576 0.456251 0.083475
0.398004 0.455718 0.082336
0.465003 0.455522 0.081035
0.537254 0.460435 0.079247
0.607509 0.463062 0.077689
0.673498 0.462407 0.076416
0.734005 0.458330 0.075419
0.786852 0.450778 0.074685
0.831999 0.440375 0.074156
0.870466 0.428298 0.073774
0.905257 0.416016 0.073436
0.055232 0.527734 0.126850
0.063134 0.528003 0.116161
0.103702 0.528629 0.079876
0.188798 0.528502 0.079284
0.262546 0.528270 0.078860
0.332654 0.527989 0.078293
0.401193 0.527627 0.077615
0.468660 0.527227 0.076843
0.535975 0.527233 0.075985
0.605880 0.530006 0.074965
0.671997 0.529408 0.074127
0.732539 0.524968 0.073495
0.785546 0.516502 0.073042
0.830767 0.504562 0.072747
0.869368 0.490717 0.072547
0.904209 0.476654 0.072371
0.053931 0.597391 0.127014
0.060931 0.597695 0.115765
0.100773 0.598304 0.075822
0.188164 0.598194 0.075359
0.262782 0.598036 0.075112
0.333484 0.597832 0.074780
0.402502 0.597600 0.074378
0.470554 0.597304 0.073913
0.537841 0.596995 0.073408
0.604765 0.596846 0.072872
0.670687 0.596196 0.072355
0.731370 0.591293 0.071977
0.784398 0.581816 0.071727
0.829645 0.568499 0.071587
0.868349 0.552827 0.071513
0.903249 0.536999 0.071442
0.053441 0.663286 0.126782
0.059751 0.663620 0.115177
0.098910 0.664186 0.073208
0.187073 0.664062 0.072850
0.261745 0.663993 0.072706
0.332466 0.663839 0.072511
0.401415 0.663639 0.072276
0.469388 0.663488 0.072007
0.536645 0.663203 0.071707
0.603385 0.662918 0.071389
0.669544 0.662554 0.071081
0.730320 0.657524 0.070872
0.783388 0.646946 0.070753
0.828752 0.632065 0.070705
0.867433 0.614823 0.070699
0.902385 0.597170 0.070698
0.053475 0.724062 0.125758
0.059256 0.724225 0.114015
0.097762 0.724728 0.071596
0.185250 0.724630 0.071318
0.259257 0.724710 0.071239
0.329395 0.724535 0.071128
0.397758 0.724396 0.070993
0.465147 0.724218 0.070840
0.531853 0.724084 0.070669
0.598098 0.723837 0.070495
0.663984 0.723648 0.070322
0.728946 0.722943 0.070168
0.782522 0.712111 0.070115
0.827913 0.695666 0.070116
0.866622 0.676620 0.070141
0.901560 0.657307 0.070171
0.053804 0.777369 0.123830
0.059192 0.777520 0.112114
0.097089 0.777964 0.070661
0.182552 0.778010 0.070454
0.255207 0.777955 0.070410
0.324131 0.777862 0.070354
0.391270 0.777745 0.070275
0.457570 0.777621 0.070199
0.523248 0.777459 0.070104
0.588406 0.777393 0.070020
0.653173 0.777197 0.069938
0.717747 0.777001 0.069857
0.780575 0.775634 0.069812
0.827242 0.759208 0.069813
0.865936 0.738184 0.069838
0.900867 0.717099 0.069860
0.054275 0.822951 0.121061
0.059357 0.823210 0.109511
0.096700 0.823610 0.070154
0.179131 0.823568 0.070006
0.249751 0.823514 0.069987
0.316904 0.823487 0.069963
0.382491 0.823391 0.069928
0.447172 0.823276 0.069886
0.511282 0.823178 0.069848
0.574972 0.823104 0.069810
0.638197 0.822939 0.069778
0.701246 0.822798 0.069763
0.764023 0.822647 0.069762
0.824732 0.820553 0.069771
0.865315 0.800118 0.069763
0.900318 0.777359 0.069756
0.054782 0.861916 0.117818
0.059629 0.862112 0.106480
0.096462 0.862505 0.069896
0.175170 0.862530 0.069811
0.243482 0.862525 0.069804
0.308596 0.862463 0.069793
0.372300 0.862384 0.069777
0.435178 0.862289 0.069771
0.497427 0.862235 0.069757
0.559401 0.862108 0.069755
0.620923 0.861968 0.069762
0.682215 0.861874 0.069779
0.743329 0.861771 0.069805
0.804349 0.861660 0.069850
0.863097 0.859735 0.069904
0.899774 0.837077 0.069858
0.055316 0.897251 0.114537
0.059976 0.897420 0.103479
0.096329 0.897780 0.069770
0.171271 0.897756 0.069757
0.237208 0.897801 0.069761
0.300289 0.897749 0.069766
0.362005 0.897683 0.069763
0.422949 0.897602 0.069772
0.483407 0.897550 0.069777
0.543637 0.897495 0.069795
0.603403 0.897375 0.069829
0.663085 0.897325 0.069864
0.722312 0.897185 0.069910
0.781608 0.897091 0.069980
0.840478 0.896937 0.070052
0.898499 0.895976 0.070152
0.099516 0.097848 0.189776
0.113255 0.097177 0.188275
0.150215 0.095662 0.185097
0.200359 0.094387 0.185353
0.265317 0.088255 0.190763
0.333677 0.080139 0.193375
0.402933 0.072581 0.194645
0.472968 0.066376 0.195677
0.543379 0.061580 0.196654
0.611767 0.058078 0.196885
0.676276 0.055600 0.195972
0.735565 0.053884 0.193929
0.787537 0.052732 0.190508
0.831931 0.051975 0.185887
0.869860 0.051468 0.180583
0.904086 0.051104 0.175305
0.092027 0.114510 0.201503
0.107060 0.111090 0.195900
0.149251 0.106614 0.185016
0.199702 0.105998 0.184815
0.263980 0.101915 0.189524
0.333483 0.093972 0.191985
0.403756 0.085645 0.192680
0.474381 0.078366 0.192952
0.545028 0.072478 0.193169
0.613453 0.068007 0.192825
0.677919 0.064717 0.191569
0.737156 0.062349 0.189237
0.788985 0.060694 0.185727
0.833372 0.059541 0.181171
0.871243 0.058723 0.175913
0.905492 0.058099 0.170689
0.061347 0.159519 0.232518
0.085137 0.154727 0.221277
0.140666 0.141739 0.190878
0.199367 0.138598 0.184377
0.261224 0.137830 0.186518
0.329753 0.134565 0.187817
0.403030 0.126707 0.186748
0.476364 0.117698 0.184221
0.548721 0.109230 0.181461
0.618002 0.102106 0.178609
0.682846 0.096418 0.175597
0.742062 0.092016 0.172160
0.793985 0.088720 0.168177
0.838234 0.086273 0.163628
0.875980 0.084427 0.158800
0.910187 0.082932 0.154048
0.034814 0.217890 0.247209
0.042644 0.217863 0.247239
0.081042 0.214865 0.240515
0.198301 0.190252 0.183631
0.260680 0.189672 0.182946
0.327238 0.188991 0.182182
0.397275 0.187438 0.180516
0.472552 0.181737 0.174280
0.548298 0.173691 0.165617
0.620420 0.165464 0.156734
0.687068 0.158045 0.148720
0.747606 0.151789 0.141926
0.800113 0.146853 0.136485
0.844703 0.142963 0.132212
0.882701 0.139877 0.128866
0.916893 0.137331 0.125999
0.034729 0.279158 0.247858
0.047043 0.276680 0.241406
0.098926 0.268648 0.219956
0.193586 0.252407 0.185446
0.259762 0.250643 0.181129
0.327571 0.252085 0.178026
0.399557 0.252313 0.172456
0.473632 0.251183 0.165208
0.547785 0.249074 0.157314
0.618992 0.246042 0.149740
0.685394 0.242230 0.143049
0.745885 0.237776 0.137400
0.798486 0.232662 0.132875
0.843284 0.227000 0.129339
0.881454 0.221091 0.126550
0.915828 0.215493 0.124172
0.044835 0.336783 0.232809
0.058035 0.333517 0.222623
0.109302 0.324370 0.191983
0.187938 0.318431 0.175294
0.258536 0.317089 0.169941
0.326350 0.316316 0.166237
0.398435 0.318564 0.160650
0.471972 0.320198 0.154370
0.545638 0.320857 0.147932
0.616568 0.319970 0.141921
0.682995 0.317397 0.136641
0.743541 0.313202 0.132173
0.796455 0.307226 0.128604
0.841454 0.299876 0.125833
0.879836 0.291745 0.123630
0.914448 0.283762 0.121729
0.048866 0.398540 0.220418
0.060390 0.396152 0.210580
0.103531 0.389925 0.179453
0.175761 0.387588 0.157372
0.253695 0.386771 0.154602
0.325569 0.385911 0.151808
0.395184 0.385080 0.148366
0.468753 0.388167 0.143518
0.542499 0.390673 0.138537
0.613600 0.391117 0.133965
0.680148 0.389042 0.129972
0.741053 0.384611 0.126622
0.794186 0.377741 0.123974
0.839382 0.368749 0.121929
0.878050 0.358583 0.120325
0.912824 0.348424 0.118904
0.051644 0.463318 0.209106
0.061187 0.462039 0.200875
0.095889 0.459301 0.173496
0.163693 0.458497 0.142118
0.248732 0.457971 0.140548
0.324128 0.457291 0.138640
0.395566 0.456409 0.136325
0.465455 0.455817 0.133606
