luts/gLUT002.cube
TITLE "Generated by Resolve"
LUT_3D_SIZE 33
0.0413977 0 0.00717174
0.0576181 0 0.00991836
0.0728161 0 0.012192
0.114778 0 0.0141909
0.177966 0 0
0.240177 0 0
0.30248 0 0
0.366018 0 0
0.431861 0 0
0.498558 0 0
0.566445 0 0
0.635172 0 0
0.703975 0 0
0.771923 0 0
0.838117 0 0
0.902068 0 0
0.963882 0 0
0.997925 0 0
1 0 0
1 0 0
1 0 0
1 0 0
1 0 0
1 0 0
1 0 0
1 0 0
1 0 0
1 0 0
1 0.0113832 0
1 0.191684 0
1 0.288136 0
1 0.358541 0
1 0.417639 0
0.0413977 0 0.00717174
0.0413977 0 0.00717174
0.0413977 0 0.00717174
0.0909895 0 0
0.154894 0 0
0.217411 0 0
0.28014 0 0
0.34374 0 0
0.409079 0 0
0.475898 0 0
0.54345 0 0
0.611948 0 0
0.680888 0 0
0.749187 0 0
0.815976 0 0
0.881056 0 0
0.943938 0 0
0.994415 0 0
1 0 0
1 0 0
1 0 0
1 0 0
1 0 0
1 0 0
1 0 0
1 0 0
1 0 0
1 0 0
1 0.00450141 0
1 0.158679 0
1 0.269978 0
1 0.344015 0
1 0.405386 0
0.0413977 0 0.00717174
0.0413977 0 0.00717174
0.0413977 0 0.00717174
0.041413 0.03093 0
0.125124 0.0178073 0
0.193118 0 0
0.256947 0 0
0.320302 0 0
0.38555 0 0
0.452415 0 0
0.519554 0 0
0.588144 0 0
0.65658 0 0
0.725246 0 0
0.792676 0 0
0.858534 0 0
0.922683 0 0
0.981094 0 0
1 0 0
1 0 0
1 0 0
1 0 0
1 0 0
1 0 0
1 0 0
1 0 0
1 0 0
1 0 0
1 0 0
1 0.116533 0
1 0.246357 0
1 0.326772 0
1 0.390433 0
0 0.0482643 0
0 0.0858625 0
0 0.0859998 0
0 0.0824445 0
0.079408 0.0746014 0
0.157809 0.0626993 0
0.22678 0.0474403 0
0.292515 0.0319066 0
0.35906 0.0110018 0
0.426535 0.000488289 0
0.494118 0 0
0.562615 0 0
0.631693 0 0
0.700633 0 0
0.768719 0 0
0.835065 0 0
0.899794 0 0
0.962097 0 0
0.997589 0 0
1 0 0
1 0 0
1 0 0
1 0 0
1 0 0
1 0 0
1 0 0
1 0 0
1 0 0
1 0 0
1 0.0541085 0
1 0.216754 0
1 0.305882 0
1 0.373648 0
0 0.126024 0
0 0.140688 0
0 0.135027 0
0 0.129366 0
0 0.123705 0
0.115084 0.114046 0
0.192782 0.103563 0
0.262608 0.0915084 0
0.330694 0.0746166 0
0.399054 0.0505989 0
0.467658 0.0209506 0
0.536309 0.00442512 0
0.605859 0.00030518 0
0.675334 0 0
0.744091 0 0
0.811688 0 0
0.876967 0 0
0.9402 0 0
0.993088 0 0
1 0 0
1 0 0
1 0 0
1 0 0
1 0 0
1 0 0
1 0 0
1 0 0
1 0 0
1 0 0
1 0.0081178 0
1 0.17731 0
1 0.281178 0
1 0.353887 0
0 0.184543 0
0 0.187442 0
0 0.181643 0
0 0.175967 0
0 0.170306 0
0.0412757 0.162692 0
0.150851 0.154162 0
0.228489 0.14406 0
0.300008 0.132357 0
0.369924 0.117464 0
0.439811 0.097673 0
0.509239 0.0703899 0
0.579019 0.0337377 0
0.649027 0.00854505 0
0.718456 0.000640879 0
0.786679 0 0
0.852995 0 0
0.917235 0 0
0.97644 0 0
1 0 0
1 0 0
1 0 0
1 0 0
1 0 0
1 0 0
1 0 0
1 0 0
1 0 0
1 0 0
1 0 0
1 0.124697 0
1 0.25243 0
1 0.331609 0
0 0.240635 0
0 0.234958 0
0 0.228992 0
0 0.223209 0
0 0.217426 0
0 0.211505 0
0.0890059 0.203326 0
0.18735 0.194537 0
0.265476 0.184604 0
0.338476 0.173327 0
0.410163 0.159701 0
0.480507 0.142733 0
0.55111 0.120729 0
0.621408 0.0896162 0
0.691661 0.0487678 0
0.76054 0.0119936 0
0.827695 6.10361e-05 0
0.892912 0 0
0.955932 0 0
0.996063 0 0
1 0 0
1 0 0
1 0 0
1 0 0
1 0 0
1 0 0
1 0 0
1 0 0
1 0 0
1 0 0
1 0.0569009 0
1 0.218692 0
1 0.307576 0
0 0.289799 0
0 0.283848 0
0 0.277592 0
0 0.271489 0
0 0.265446 0
0 0.259464 0
0.00456245 0.252262 0
0.131411 0.244541 0
0.224598 0.236088 0
0.303181 0.226383 0
0.377813 0.215396 0
0.450385 0.20238 0
0.521706 0.18703 0
0.592981 0.168154 0
0.663844 0.143862 0
0.733227 0.111818 0
0.801541 0.0731975 0
0.86743 0.0252842 0
0.93164 0.0039826 0
0.988647 0 0
1 0 0
1 0 0
1 0 0
1 0 0
1 0 0
1 0 0
1 0 0
1 0 0
1 0 0
1 0 0
1 0.0090486 0
1 0.180896 0
1 0.282643 0
0 0.340719 0
0 0.334325 0
0 0.328084 0
0 0.321843 0
0 0.31545 0
0 0.309209 0
0 0.303075 0
0.0275883 0.295399 0
0.171145 0.287541 0
0.262089 0.278767 0
0.341955 0.269123 0
0.417777 0.258167 0
0.490745 0.24593 0
0.563027 0.231388 0
0.634455 0.214557 0
0.704952 0.194095 0
0.773556 0.169772 0
0.840742 0.140414 0
0.905837 0.106706 0
0.96701 0.0736706 0
1 0.0434577 0
1 0.020264 0
1 0.00796521 0
1 0.00494392 0
1 0.0031281 0
1 0.0012665 0
1 0 0
1 0 0
1 0 0
1 0 0
1 0 0
1 0.138094 0
1 0.258976 0
0 0.393164 0
0 0.386633 0
0 0.380148 0
0 0.373831 0
0 0.367346 0
0 0.360861 0
0 0.354391 0
0 0.347112 0
0.0792401 0.339605 0
0.210101 0.331731 0
0.300298 0.322713 0
0.38143 0.312886 0
0.457038 0.302098 0
0.530907 0.289906 0
0.603555 0.276005 0
0.675044 0.26041 0
0.7449 0.242512 0
0.812955 0.222858 0
0.87895 0.201373 0
0.942748 0.17789 0
0.991379 0.152895 0
1 0.125154 0
1 0.0973068 0
1 0.0766003 0
1 0.0597086 0
1 0.0441138 0
1 0.0285039 0
1 0.0125124 0
1 0.0106508 0
1 0.00894179 0
1 0.00723278 0
1 0.0944991 0
1 0.233494 0
0 0.446082 0
0 0.439338 0
0 0.432746 0
0 0.42649 0
0 0.419791 0
0 0.413413 0
0 0.406714 0
0 0.400336 0
0.00167849 0.392416 0
0.131624 0.384817 0
0.249226 0.376577 0
0.339254 0.367208 0
0.420157 0.357336 0
0.496437 0.346288 0
0.570855 0.334264 0
0.643381 0.32076 0
0.714488 0.306157 0
0.783749 0.290272 0
0.850645 0.273472 0
0.915587 0.255772 0
0.975875 0.238163 0
0.999878 0.221103 0
1 0.204913 0
1 0.187945 0
1 0.173709 0
1 0.15967 0
1 0.146593 0
1 0.133852 0
1 0.121431 0
1 0.108507 0
1 0.0941024 0
1 0.0785077 0
1 0.212375 0
0 0.498741 0
0 0.492012 0
0 0.48542 0
0 0.479164 0
0 0.472435 0
0 0.466011 0
0 0.459419 0
0 0.453147 0
0 0.445838 0
0.00914015 0.438071 0
0.178103 0.430167 0
0.288823 0.421485 0
0.378271 0.4121 0
0.458412 0.401572 0
0.53518 0.390417 0
0.609689 0.378576 0
0.682368 0.365621 0
0.752804 0.351995 0
0.82121 0.337697 0
0.886992 0.322652 0
0.949981 0.307958 0
0.997696 0.293477 0
1 0.279713 0
1 0.267659 0
1 0.256672 0
1 0.246845 0
1 0.236896 0
1 0.227192 0
1 0.217716 0
1 0.208743 0
1 0.199756 0
1 0.188098 0
1 0.194629 0
0 0.550622 0
0 0.544091 0
0 0.53756 0
0 0.531029 0
0 0.524483 0
0 0.51812 0
0 0.511894 0
0 0.505318 0
0 0.498741 0
0 0.490806 0
0.0453956 0.483131 0
0.221942 0.474845 0
0.328527 0.465965 0
0.416159 0.456138 0
0.497002 0.445502 0
0.573938 0.434592 0
0.648371 0.422858 0
0.720394 0.410483 0
0.789868 0.397513 0
0.857435 0.38439 0
0.921721 0.37116 0
0.980514 0.35819 0
0.999985 0.34583 0
1 0.334569 0
1 0.324285 0
1 0.315923 0
1 0.307362 0
1 0.298711 0
1 0.290471 0
1 0.282231 0
1 0.274418 0
1 0.266392 0
1 0.258015 0
0 0.601053 0
0 0.594751 0
0 0.58851 0
0 0.582071 0
0 0.575631 0
0 0.569345 0
0 0.563226 0
0 0.556771 0
0 0.550622 0
0 0.543328 0
0.000213626 0.535454 0
0.108614 0.527337 0
0.265324 0.518959 0
0.36759 0.509789 0
0.454673 0.499886 0
0.535317 0.489387 0
0.612284 0.478248 0
0.686198 0.466621 0
0.757275 0.454719 0
0.825986 0.442451 0
0.892134 0.43035 0
0.955169 0.418204 0
0.997803 0.406806 0
1 0.395727 0
1 0.385595 0
1 0.377111 0
1 0.369635 0
1 0.36202 0
1 0.354269 0
1 0.346914 0
1 0.339162 0
1 0.331807 0
1 0.324437 0
0 0.650385 0
0 0.643946 0
0 0.637797 0
0 0.631952 0
0 0.62565 0
0 0.619348 0
0 0.613352 0
0 0.607202 0
0 0.601053 0
0 0.594751 0
0 0.58674 0
0.00712596 0.579004 0
0.173388 0.570993 0
0.309071 0.562249 0
0.406943 0.552972 0
0.493767 0.542962 0
0.573999 0.532387 0
0.650324 0.521477 0
0.723445 0.509941 0
0.793469 0.498497 0
0.860929 0.486824 0
0.925475 0.475486 0
0.984314 0.464256 0
1 0.45359 0
1 0.443458 0
1 0.434409 0
1 0.427008 0
1 0.419898 0
1 0.413291 0
1 0.406119 0
1 0.399191 0
1 0.391897 0
1 0.384955 0
0 0.697643 0
0 0.691676 0
0 0.685725 0
0 0.679759 0
0 0.673793 0
0 0.66807 0
0 0.661921 0
0 0.656077 0
0 0.649927 0
0 0.644083 0
0 0.637201 0
0 0.629435 0
0.0419928 0.621561 0
0.232807 0.61323 0
0.352346 0.604196 0
0.447868 0.595071 0
0.533074 0.584909 0
0.612589 0.57438 0
0.687953 0.563622 0
0.759808 0.552499 0
0.828748 0.541268 0
0.894591 0.530144 0
0.957198 0.519417 0
0.99762 0.508965 0
1 0.498817 0
1 0.489448 0
1 0.481422 0
1 0.474937 0
1 0.468284 0
1 0.461631 0
1 0.455299 0
1 0.448356 0
1 0.441596 0
0 0.743053 0
0 0.737301 0
0 0.731533 0
0 0.72578 0
0 0.720302 0
0 0.714549 0
0 0.708934 0
0 0.703166 0
0 0.697353 0
0 0.691539 0
0 0.685863 0
0 0.678172 0
0 0.670451 0
0.114641 0.662593 0
0.287129 0.654231 0
0.396567 0.64509 0
0.489006 0.635554 0
0.572946 0.625498 0
0.651057 0.615183 0
0.724804 0.604425 0
0.79556 0.593668 0
0.862928 0.582666 0
0.926986 0.572137 0
0.983948 0.561761 0
0.999969 0.551797 0
1 0.542229 0
1 0.533593 0
1 0.527184 0
1 0.520623 0
1 0.514382 0
1 0.507973 0
1 0.501564 0
1 0.495384 0
0 0.786145 0
0 0.780819 0
0 0.775525 0
0 0.769985 0
0 0.764431 0
0 0.759167 0
0 0.753613 0
0 0.748333 0
0 0.742779 0
0 0.737301 0
0 0.731533 0
0 0.725017 0
0 0.717372 0
0.0034638 0.709834 0
0.199496 0.702022 0
0.338628 0.693309 0
0.441672 0.684337 0
0.531151 0.674556 0
0.612665 0.664698 0
0.688914 0.654185 0
0.761196 0.643885 0
0.830091 0.633204 0
0.895903 0.622812 0
0.958282 0.612512 0
0.999283 0.602502 0
1 0.592905 0
1 0.583795 0
1 0.576944 0
1 0.570932 0
1 0.564767 0
1 0.558602 0
1 0.55259 0
1 0.546578 0
0 0.827283 0
0 0.822065 0
0 0.816953 0
0 0.811963 0
0 0.806683 0
0 0.801358 0
0 0.796277 0
0 0.790951 0
0 0.785885 0
0 0.780697 0
0 0.775402 0
0 0.769985 0
0 0.76257 0
0 0.755215 0
0.0696422 0.747631 0
0.271077 0.739742 0
0.389838 0.731029 0
0.486595 0.721828 0
0.572656 0.7122 0
0.652064 0.70222 0
0.726482 0.691981 0
0.796994 0.681712 0
0.863996 0.67158 0
0.9281 0.661463 0
0.985885 0.651331 0
1 0.641596 0
1 0.632242 0
1 0.624582 0
1 0.618982 0
1 0.612833 0
1 0.607187 0
1 0.601236 0
1 0.595285 0
0 0.866087 0
0 0.861173 0
0 0.856275 0
0 0.851484 0
0 0.846693 0
0 0.841871 0
0 0.836759 0
0 0.831907 0
0 0.826917 0
0 0.821927 0
0 0.816953 0
0 0.811963 0
0 0.805936 0
0 0.79852 0
0.00184634 0.791211 0
0.175036 0.783658 0
0.333028 0.775402 0
0.440467 0.766918 0
0.531579 0.757763 0
0.614252 0.748043 0
0.691127 0.738125 0
0.763653 0.728038 0
0.831968 0.718135 0
0.896941 0.708095 0
0.959457 0.698344 0
0.997559 0.688624 0
1 0.679118 0
1 0.670161 0
1 0.664591 0
1 0.659068 0
1 0.653529 0
1 0.647669 0
1 0.642222 0
0 0.903273 0
0 0.898558 0
0 0.893965 0
0 0.88925 0
0 0.88455 0
0 0.880064 0
0 0.875349 0
0 0.870756 0
0 0.865843 0
0 0.861173 0
0 0.856275 0
0 0.851606 0
0 0.846693 0
0 0.839918 0
0 0.832792 0
0.0534829 0.825544 0
0.266789 0.817899 0
0.391318 0.809583 0
0.489799 0.801068 0
0.576242 0.79176 0
0.655421 0.782376 0
0.729778 0.772564 0
0.799756 0.762676 0
0.866011 0.752834 0
0.92874 0.743145 0
0.986664 0.733715 0
1 0.724239 0
1 0.715099 0
1 0.708217 0
1 0.702892 0
1 0.697566 0
1 0.692226 0
1 0.686976 0
0 0.937209 0
0 0.934112 0
0 0.929793 0
0 0.925261 0
0 0.920729 0
0 0.916197 0
0 0.911879 0
0 0.907362 0
0 0.903044 0
0 0.898451 0
0 0.893858 0
0 0.889143 0
0 0.884657 0
0 0.879377 0
0 0.872404 0
0.00601205 0.865522 0
0.176226 0.858091 0
0.33814 0.850156 0
0.446555 0.842008 0
0.537987 0.833356 0
0.619974 0.824491 0
0.695888 0.815045 0
0.766949 0.805539 0
0.834211 0.79585 0
0.897841 0.786145 0
0.958892 0.776745 0
0.999863 0.767514 0
1 0.758434 0
1 0.750149 0
1 0.744869 0
1 0.739727 0
1 0.734707 0
1 0.729564 0
0 0.968093 0
0 0.967697 0
0 0.963668 0
0 0.959731 0
0 0.955444 0
0 0.95108 0
0 0.946914 0
0 0.942535 0
0 0.938277 0
0 0.933898 0
0 0.929671 0
0 0.925139 0
0 0.920729 0
0 0.916411 0
0 0.910048 0
0 0.903578 0
0.0729686 0.896635 0
0.278614 0.889265 0
0.400443 0.8813 0
0.497597 0.873152 0
0.582834 0.864439 0
0.660792 0.855772 0
0.733394 0.846632 0
0.802106 0.837232 0
0.867414 0.827726 0
0.929397 0.818326 0
0.984817 0.808972 0
1 0.800015 0
1 0.790997 0
1 0.785321 0
1 0.780346 0
1 0.775479 0
1 0.770626 0
0 0.992187 0
0 0.992615 0
0 0.990906 0
0 0.988495 0
0 0.986038 0
0 0.983337 0
0 0.979309 0
0 0.975464 0
0 0.971328 0
0 0.967498 0
0 0.963668 0
0 0.95964 0
0 0.955337 0
0 0.951186 0
0 0.946914 0
0 0.940002 0
0.0103914 0.933455 0
0.195239 0.926467 0
0.350011 0.919158 0
0.455512 0.911177 0
0.545068 0.903044 0
0.625711 0.894484 0
0.700282 0.885801 0
0.770245 0.876783 0
0.836698 0.867628 0
0.899977 0.858427 0
0.960357 0.849058 0
0.999298 0.840024 0
1 0.831144 0
1 0.824063 0
1 0.819379 0
1 0.81471 0
1 0.809888 0
0 0.999863 0
0 0.999878 0
0 0.999878 0
0 0.999802 0
0 0.999741 0
0 0.99968 0
0 0.999603 0
0 0.998337 0
0 0.995819 0
0 0.993423 0
0 0.990906 0
0 0.988495 0
0 0.985977 0
0 0.983429 0
0 0.9794 0
0 0.974411 0
0 0.968292 0
0.101656 0.961944 0
0.295369 0.955154 0
0.412879 0.947753 0
0.507103 0.939834 0
0.590875 0.931807 0
0.667216 0.923247 0
0.738674 0.914534 0
0.80618 0.905806 0
0.870283 0.896941 0
0.931823 0.887846 0
0.988327 0.878798 0
1 0.869902 0
1 0.861402 0
1 0.856748 0
1 0.852323 0
1 0.847776 0
0 1 0
0 1 0
0 1 0
0 1 0
0 1 0
0 1 0
0 1 0
0 1 0
0 1 0
0 0.999939 0
0 0.999878 0
0 0.999817 0
0 0.999741 0
0 0.99968 0
0 0.999603 0
0 0.998337 0
0 0.995285 0
0.0203555 0.991562 0
0.233082 0.987213 0
0.369375 0.981689 0
0.469749 0.974945 0
0.556115 0.967468 0
0.634592 0.959457 0
0.707118 0.951003 0
0.775631 0.942535 0
0.840772 0.933913 0
0.902861 0.925093 0
0.962371 0.91635 0
0.998199 0.907469 0
1 0.898772 0
1 0.892912 0
1 0.888502 0
1 0.884215 0
0.00192264 1 0
0.00222782 1 0
0.00222782 1 0
0.0019379 1 0
0.00180056 1 0
0.00149538 1 0
0.00117494 1 0
0.000869764 1 0
0.000564584 1 0
0.000244144 1 0
0 1 0
0 1 0
0 1 0
0 1 0
0 1 0
0 1 0
0 1 0
0 0.999893 0
0.153613 0.999695 0
0.322957 0.999344 0
0.431525 0.997894 0
0.521691 0.995102 0
0.601602 0.991165 0
0.675822 0.985122 0
0.745235 0.977356 0
0.81117 0.969451 0
0.874189 0.961181 0
0.934279 0.952636 0
0.989425 0.943938 0
1 0.935317 0
1 0.92781 0
1 0.923629 0
1 0.919219 0
0.063386 1 0
0.063386 1 0
0.063386 1 0
0.063386 1 0
0.063386 1 0
0.063386 1 0
0.0545052 1 0
0.0446784 1 0
0.0350805 1 0
