luts/gLUT002.cube
TITLE "Generated by Resolve"
LUT_3D_SIZE 5
0.0413977 0 0.00717174
0.431861 0 0
0.963882 0 0
1 0 0
1 0.417639 0
0 0.340719 0
0.171145 0.287541 0
0.773556 0.169772 0
1 0.0031281 0
1 0.258976 0
0 0.743053 0
0 0.697353 0
0.489006 0.635554 0
0.999969 0.551797 0
1 0.495384 0
0 0.999863 0
0 0.995819 0
0 0.968292 0
0.80618 0.905806 0
1 0.847776 0
0.063386 1 0
0.063386 1 0
0.063386 1 0
0.581918 1 0
0.999496 1 0.116014
0 0 0.473594
0.390723 0 0.38294
0.932464 0 0.269047
1 0 0.153079
1 0.392813 0
0 0.30193 0.229374
0.210101 0.245991 0.178332
0.763867 0.105272 0.0403906
1 0 0
1 0.240772 0
0 0.721843 0
0 0.672969 0
0.530556 0.608576 0
1 0.523217 0
1 0.463462 0
0 0.99971 0
0 0.985321 0
0.247562 0.946868 0
0.850889 0.882963 0
1 0.825818 0
0.063386 1 0
0.063386 1 0
0.296757 1 0
0.705852 1 0
1 1 0.141451
0 0 1
0.0264744 0 0.987686
0.841047 0 0.894194
1 0 0.815641
1 0.358389 0.74052
0 0.177127 0.879927
0 0.0956588 0.832181
0.686824 0 0.739879
1 0 0.639475
1 0.182513 0.574121
0 0.662196 0.623392
0 0.614435 0.572274
0.485451 0.550591 0.504448
0.997375 0.467689 0.414099
1 0.407538 0.348516
0 0.991791 0.347692
0 0.959762 0.27863
0.183948 0.918013 0.178958
0.824109 0.858183 0.0321813
1 0.800839 0
0 1 0.193057
0.00900282 1 0.0274205
0.287327 1 0
0.690791 1 0
1 1 0.141451
0.522545 0 1
0.525399 0 1
0.776547 0 1
1 0.182223 1
1 0.48336 1
0 0.195056 1
0 0.155337 1
0.640284 0.00907912 1
1 0 1
1 0.265614 1
0 0.594507 1
0 0.533822 1
0.374624 0.452567 1
0.945876 0.36492 0.967895
1 0.291768 0.922713
0 0.933913 0.908278
0 0.898726 0.878202
0 0.859754 0.841337
0.756039 0.798108 0.788464
1 0.740902 0.738064
0 1 0.753948
0 1 0.714794
0.0392767 1 0.671855
0.632929 1 0.630411
1 1 0.625376
0.77879 0.0865034 1
0.773083 0.0667887 1
0.840665 0.242222 1
0.971679 0.442863 1
1 0.608194 1
0.735561 0 1
0.725689 0 1
0.773938 0.0692912 1
0.904402 0.348119 1
1 0.515038 1
0 0.568032 1
0.27396 0.522698 1
0.443107 0.478859 1
0.888518 0.416083 1
1 0.435111 1
0 0.888136 1
0.00788891 0.853574 1
0.29633 0.815747 1
0.739315 0.765942 1
1 0.706279 1
0.300572 1 1
0.300572 1 1
0.416541 1 1
0.670115 1 1
0.999725 0.99115 0.978958
