luts/gLUT002.cube
TITLE "Generated by Resolve"
LUT_3D_SIZE 9
0.0413977 0 0.00717174
0.177966 0 0
0.431861 0 0
0.703975 0 0
0.963882 0 0
1 0 0
1 0 0
1 0.0113832 0
1 0.417639 0
0 0.126024 0
0 0.123705 0
0.330694 0.0746166 0
0.605859 0.00030518 0
0.876967 0 0
1 0 0
1 0 0
1 0 0
1 0.353887 0
0 0.340719 0
0 0.31545 0
0.171145 0.287541 0
0.490745 0.24593 0
0.773556 0.169772 0
1 0.0434577 0
1 0.0031281 0
1 0 0
1 0.258976 0
0 0.550622 0
0 0.524483 0
0 0.498741 0
0.328527 0.465965 0
0.648371 0.422858 0
0.921721 0.37116 0
1 0.324285 0
1 0.290471 0
1 0.258015 0
0 0.743053 0
0 0.720302 0
0 0.697353 0
0 0.670451 0
0.489006 0.635554 0
0.79556 0.593668 0
0.999969 0.551797 0
1 0.520623 0
1 0.495384 0
0 0.903273 0
0 0.88455 0
0 0.865843 0
0 0.846693 0
0.266789 0.817899 0
0.655421 0.782376 0
0.92874 0.743145 0
1 0.708217 0
1 0.686976 0
0 0.999863 0
0 0.999741 0
0 0.995819 0
0 0.985977 0
0 0.968292 0
0.507103 0.939834 0
0.80618 0.905806 0
1 0.869902 0
1 0.847776 0
0.063386 1 0
0.063386 1 0
0.063386 1 0
0.063386 1 0
0.0350805 1 0
0.38732 1 0
0.686854 1 0
0.936294 0.998413 0
1 0.985611 0
0.063386 1 0
0.063386 1 0
0.063386 1 0
0.063386 1 0
0.063386 1 0
0.176974 1 0
0.581918 1 0
0.82211 1 0
0.999496 1 0.116014
0.0284276 0 0.177691
0.171801 0 0.139666
0.420523 0 0.0766918
0.691127 0 0.00106813
0.952575 0 0
1 0 0
1 0 0
1 0.00703441 0
1 0.409949 0
0 0.117006 0.0137179
0.095613 0.104845 0
0.336034 0.0501717 0
0.60322 0 0
0.870695 0 0
1 0 0
1 0 0
1 0 0
1 0.34963 0
0 0.327611 0
0.000167849 0.300832 0
0.220432 0.271321 0
0.50338 0.227298 0
0.777508 0.144488 0
1 0.0213016 0
1 0 0
1 0 0
1 0.255833 0
0 0.537881 0
0 0.510506 0
0.000244144 0.482719 0
0.375723 0.449042 0
0.668406 0.404593 0
0.932113 0.35082 0
1 0.301549 0
1 0.265965 0
1 0.226459 0
0 0.731823 0
0 0.708507 0
0 0.683314 0
0.128954 0.654902 0
0.538888 0.618906 0
0.82121 0.576379 0
1 0.534218 0
1 0.502846 0
1 0.475257 0
0 0.894316 0
0 0.87512 0
0 0.854307 0
0 0.831754 0
0.392676 0.802838 0
0.704173 0.766674 0
0.957992 0.727443 0
1 0.69369 0
1 0.671351 0
0 0.999817 0
0 0.999603 0
0 0.990051 0
0 0.976684 0
0.25771 0.95436 0
0.597665 0.924956 0
0.853925 0.891203 0
1 0.855756 0
1 0.835157 0
0.063386 1 0
0.063386 1 0
0.063386 1 0
0.141451 1 0
0.267201 1 0
0.515648 1 0
0.755581 0.999969 0
0.979583 0.994415 0
1 0.975494 0
0.063386 1 0
0.063386 1 0
0.063386 1 0
0.063386 1 0
0.172839 1 0
0.454597 1 0
0.677363 1 0
0.875471 1 0
1 1 0.141451
0 0 0.473594
0.0575113 0 0.436179
0.390723 0 0.38294
0.670359 0 0.329809
0.932464 0 0.269047
1 0 0.196597
1 0 0.153079
1 1.5259e-05 0.0747845
1 0.392813 0
0 0.0682689 0.364675
0.0347753 0.030457 0.334432
0.313436 0.000579843 0.290044
0.585199 0 0.239109
0.853666 0 0.173373
1 0 0.0675822
1 0 0.000350958
1 0 0.000335698
1 0.335393 0
0 0.30193 0.229374
0.00204471 0.275532 0.206332
0.210101 0.245991 0.178332
0.489723 0.201755 0.129671
0.763867 0.105272 0.0403906
0.996567 0.00349432 0
1 0 0
1 0 0
1 0.240772 0
0 0.521904 0.0122225
0 0.494942 0.000350958
0.000259403 0.467231 0.000167849
0.366751 0.434791 0
0.658671 0.39147 0
0.923445 0.338628 0
1 0.287007 0
1 0.250004 0
1 0.209705 0
0 0.721843 0
0 0.698222 0
0 0.672969 0
0.115785 0.644511 0
0.530556 0.608576 0
0.813184 0.565835 0
1 0.523217 0
1 0.491234 0
1 0.463462 0
0 0.886152 0
0 0.866804 0
0 0.845624 0
0 0.822965 0
0.384741 0.794079 0
0.696788 0.757824 0
0.951431 0.718456 0
1 0.683925 0
1 0.660853 0
0 0.99971 0
0 0.996246 0
0 0.985321 0
0 0.96939 0
0.247562 0.946868 0
0.591211 0.917479 0
0.850889 0.882963 0
1 0.847227 0
1 0.825818 0
0.063386 1 0
0.063386 1 0
0.0803998 1 0
0.107317 1 0
0.25832 1 0
0.519173 1 0
0.763745 0.999847 0
0.985412 0.99028 0
1 0.967056 0
0.063386 1 0
0.063386 1 0
0.063386 1 0
0.190372 1 0
0.296757 1 0
0.501701 1 0
0.705852 1 0
0.895277 1 0
1 1 0.141451
0 0 0.795621
0 0 0.769482
0.268528 0 0.721462
0.61619 0 0.667277
0.892668 0 0.611154
1 0 0.555596
1 0 0.523445
1 0.000213626 0.485344
1 0.371344 0.431632
0 9.15541e-05 0.700069
0 0 0.667872
0.185245 0 0.625299
0.539773 0 0.570703
0.821637 0 0.514916
1 0 0.457496
1 0 0.414572
1 0 0.385367
1 0.31281 0.324514
0 0.249439 0.567468
0 0.221515 0.537194
0.101701 0.189746 0.507179
0.460136 0.135393 0.460365
0.739651 0.0214237 0.409155
0.986511 0 0.352712
1 0 0.297185
1 0 0.268513
1 0.20824 0.207919
0 0.488945 0.424033
0 0.462089 0.397284
0 0.436057 0.368627
0.349767 0.401266 0.332952
0.641047 0.357427 0.286137
0.905058 0.30164 0.227588
1 0.246143 0.144183
1 0.204913 0.0924849
1 0.160159 0.0537575
0 0.69987 0.255161
0 0.676646 0.229618
0 0.65211 0.192279
0.109789 0.620935 0.15317
0.518349 0.587228 0.0770581
0.799985 0.545922 0.00851453
0.999954 0.50396 0
1 0.472084 0
1 0.444923 0
0 0.872618 0
0 0.853361 3.0518e-05
0 0.832502 0
0 0.809735 0
0.371695 0.781491 0
0.686046 0.74638 0
0.942245 0.707729 0
1 0.672969 0
1 0.650462 0
0 0.999435 0
0 0.991882 0
0 0.979614 0
0 0.962448 0
0.220127 0.939666 0
0.57998 0.910384 0
0.842115 0.875593 0
1 0.839597 0
1 0.817487 0
0.063386 1 0
0.063386 1 0
0.0569162 1 0
0.0549325 1 0
0.213794 1 0
0.502815 1 0
0.754665 0.999786 0
0.979599 0.9841 0
1 0.960006 0
0.063386 1 0
0.063386 1 0
0.063386 1 0
0.195727 1 0
0.292103 1 0
0.494896 1 0
0.698741 1 0
0.888457 1 0
1 1 0.141451
0 0 1
0 0 0.999313
0.0264744 0 0.987686
0.547662 0 0.944503
0.841047 0 0.894194
1 0 0.843854
1 0 0.815641
1 0.000518807 0.78085
1 0.358389 0.74052
0 0 0.976211
0 0 0.954284
0 0 0.923583
0.453712 0 0.876417
0.766186 0 0.824063
0.998795 0 0.771634
1 0 0.733059
1 0 0.70454
1 0.297932 0.661524
0 0.177127 0.879927
0 0.143389 0.856306
0 0.0956588 0.832181
0.363516 0.0129244 0.791501
0.686824 0 0.739879
0.950698 0 0.687404
1 0 0.639475
1 0 0.614893
1 0.182513 0.574121
0 0.437797 0.757244
0 0.41004 0.732738
0 0.382925 0.707973
0.253208 0.345998 0.678645
0.599496 0.299245 0.632273
0.870222 0.235126 0.583719
1 0.164782 0.534386
1 0.105516 0.504173
1 0.0657206 0.478798
0 0.662196 0.623392
0 0.63859 0.600381
0 0.614435 0.572274
0.0137026 0.587076 0.542107
0.485451 0.550591 0.504448
0.771679 0.509667 0.461357
0.997375 0.467689 0.414099
1 0.435096 0.374685
1 0.407538 0.348516
0 0.846494 0.486168
0 0.827665 0.46157
0 0.806714 0.430365
0 0.784527 0.398291
0.345312 0.752239 0.365087
0.662654 0.718975 0.318456
0.920134 0.68159 0.265232
1 0.646891 0.201572
1 0.624567 0.166201
0 0.991791 0.347692
0 0.978119 0.315206
0 0.959762 0.27863
0 0.942382 0.235401
0.183948 0.918013 0.178958
0.559869 0.890593 0.101991
0.824109 0.858183 0.0321813
1 0.82295 0
1 0.800839 0
0 1 0.310109
0 1 0.272816
0 1 0.19527
0.0052491 1 0.0525368
0.142107 1 0.00444038
0.485084 1 0
0.741054 0.99939 0
0.968704 0.974716 0
1 0.949767 1.5259e-05
0 1 0.193057
0.000762951 1 0.0993362
0.00900282 1 0.0274205
0.192294 1 0
0.287327 1 0
0.487282 1 0
0.690791 1 0
0.881102 1 0
1 1 0.141451
0 0 1
0 0 1
0.305867 0 1
0.566888 0 1
0.80351 0 1
1 0 1
1 0 1
1 0.052079 0.990768
1 0.370031 0.963424
0 0 1
0 0 1
0.0190738 0 1
0.428244 0 1
0.722606 0 1
0.975677 0 0.996658
1 0 0.970718
1 0 0.940368
1 0.308995 0.905715
0 0.135988 1
0 0.0695811 1
0 0.00972 1
0.254902 0 1
0.63418 0 0.98822
0.905852 0 0.946288
1 0 0.901473
1 0 0.880232
1 0.194354 0.843198
0 0.384405 0.995132
0 0.355291 0.987915
0 0.325551 0.97319
0.054963 0.282383 0.95346
0.539467 0.224521 0.914794
0.825422 0.130663 0.869184
1 0.042649 0.823819
1 4.57771e-05 0.798032
1 0.0720836 0.773953
0 0.617639 0.897292
0 0.593011 0.880034
0 0.56817 0.860975
0 0.539956 0.840421
0.418479 0.501228 0.813687
0.730907 0.459892 0.772595
0.977569 0.417639 0.731624
1 0.384298 0.699229
1 0.354177 0.679759
0 0.809842 0.784421
0 0.790982 0.767849
0 0.768765 0.745022
0 0.747524 0.723217
0.256764 0.719356 0.695415
0.622095 0.683543 0.662364
0.884077 0.646296 0.625818
1 0.611536 0.58909
1 0.588785 0.568658
0 0.966476 0.673609
0 0.951064 0.654994
0 0.932464 0.631678
0 0.915465 0.606928
0.0627909 0.891768 0.579217
0.522164 0.860517 0.550378
0.790982 0.829267 0.513527
0.999649 0.795209 0.475334
1 0.772961 0.44744
0 1 0.59411
0 1 0.572732
0 1 0.53431
0.000228885 1 0.498482
0.0153964 1 0.468452
0.446418 0.998169 0.437339
0.710536 0.982193 0.397436
0.942321 0.952941 0.353979
1 0.92752 0.316213
0 1 0.519097
0 1 0.488502
0 1 0.46392
0.0705882 1 0.437507
0.217426 1 0.411185
0.452171 1 0.385855
0.668101 1 0.369482
0.865156 1 0.36965
1 1 0.393668
0.522545 0 1
0.507256 0 1
0.525399 0 1
0.596796 0 1
0.776547 0 1
0.957595 0 1
1 0.182223 1
1 0.351125 1
1 0.48336 1
0.403723 0 1
0.388693 0 1
0.387472 0 1
0.462272 0 1
0.711437 0 1
0.930571 0 1
1 0.00877394 1
1 0.283207 1
1 0.434958 1
0 0.195056 1
0 0.176776 1
0 0.155337 1
0.387427 0.099321 1
0.640284 0.00907912 1
0.864317 0 1
1 0 1
1 0.0486458 1
1 0.265614 1
0 0.410712 1
0 0.385016 1
0 0.358999 1
0.311849 0.328649 1
0.551797 0.267247 1
0.79176 0.127321 1
1 0.0024567 1
1 0 0.999985
1 0.145037 0.986633
0 0.594507 1
0 0.565805 1
0 0.533822 1
0.0018616 0.498634 1
0.374624 0.452567 1
0.694942 0.408362 0.998978
0.945876 0.36492 0.967895
1 0.325628 0.938384
1 0.291768 0.922713
0 0.771359 0.995712
0 0.751934 0.989532
0 0.729366 0.975814
0 0.707561 0.961318
0.181384 0.678599 0.941619
0.580362 0.641825 0.917906
0.852003 0.605264 0.882551
1 0.571191 0.848402
1 0.547585 0.833249
0 0.933913 0.908278
0 0.9178 0.895277
0 0.898726 0.878202
0 0.881422 0.861357
0 0.859754 0.841337
0.472862 0.831388 0.816876
0.756039 0.798108 0.788464
0.985534 0.764172 0.757961
1 0.740902 0.738064
0 1 0.817349
0 1 0.801968
0 1 0.783749
0 1 0.76495
0.000122072 0.997192 0.744335
0.390616 0.983917 0.721172
0.675837 0.955032 0.696468
0.908766 0.925811 0.667094
1 0.900572 0.641321
0 1 0.753948
0 1 0.733272
0 1 0.714794
0 1 0.693385
0.0392767 1 0.671855
0.392599 1 0.649927
0.632929 1 0.630411
0.842725 1 0.618799
1 1 0.625376
0.680568 0 1
0.671336 0 1
0.678126 0 1
0.714504 0 1
0.773571 0.0682994 1
0.848783 0.257145 1
1 0.342763 1
1 0.442115 1
1 0.543542 1
0.647395 0 1
0.643961 0 1
0.645747 0 1
0.679072 0 1
0.73959 0 1
0.851469 0.16321 1
1 0.274891 1
1 0.388769 1
1 0.499779 1
0.548348 0 1
0.557824 0 1
0.549584 0 1
0.583108 0 1
0.662364 0.000396735 1
0.837842 4.57771e-05 1
0.998123 0.160464 1
1 0.311742 1
1 0.438773 1
0 0.385199 1
0.209598 0.363684 1
0.217227 0.338766 1
0.305547 0.317861 1
0.531136 0.288701 1
0.769985 0.245762 1
0.982498 0.195422 1
1 0.238376 1
1 0.381506 1
0 0.590555 1
0 0.567178 1
0 0.543542 1
0.11986 0.518303 1
0.454261 0.489311 1
0.693568 0.45716 1
0.90985 0.42208 1
1 0.385931 1
1 0.358877 1
0 0.755367 1
0 0.735485 1
0 0.714321 1
0.0561227 0.693095 1
0.380209 0.668696 1
0.61471 0.64094 1
0.830961 0.609628 1
1 0.556481 1
1 0.50721 1
0.000106813 0.895033 1
0 0.878096 1
0.127855 0.860151 1
0.101747 0.844022 1
0.148013 0.824308 1
0.465721 0.79765 0.999985
0.729305 0.762402 0.995682
0.966827 0.729519 0.971633
1 0.705699 0.953841
0.0196384 1 0.999878
0.00448615 1 0.992844
0 0.998093 0.984848
0 0.993957 0.971038
0 0.979294 0.95581
0.359808 0.957214 0.937072
0.645197 0.929854 0.915099
0.882918 0.89865 0.890288
1 0.872633 0.869169
0 1 0.951156
0 1 0.936309
0 1 0.920455
0 1 0.900725
0 1 0.882124
0.294865 1 0.860899
0.586923 1 0.838636
0.818173 1 0.819867
0.999695 0.999466 0.81503
0.77879 0.0865034 1
0.770748 0.0592203 1
0.773083 0.0667887 1
0.796551 0.144121 1
0.840665 0.242222 1
0.900877 0.342885 1
0.971679 0.442863 1
1 0.528756 1
1 0.608194 1
0.750652 0.00202945 1
0.747677 0.0015259 1
0.746685 0.00134279 1
0.767803 0.0489662 1
0.810956 0.179812 1
0.871763 0.296986 1
0.943786 0.404685 1
1 0.484535 1
1 0.56875 1
0.735561 0 1
0.734813 0 1
0.725689 0 1
0.737316 0 1
0.773938 0.0692912 1
0.832044 0.225559 1
0.904402 0.348119 1
1 0.424002 1
1 0.515038 1
0.618555 0.303304 1
0.648081 0.277333 1
0.643671 0.245808 1
0.661112 0.217792 1
0.718502 0.201541 1
0.810864 0.203464 1
0.916991 0.293141 1
1 0.369818 1
1 0.464363 1
0 0.568032 1
0.234195 0.546029 1
0.27396 0.522698 1
0.317937 0.499428 1
0.443107 0.478859 1
0.662104 0.451057 1
0.888518 0.416083 1
1 0.3785 1
1 0.435111 1
0 0.748028 1
0 0.72813 1
0 0.707774 1
0 0.686519 1
0.322652 0.661906 1
0.585458 0.63389 1
0.811688 0.602762 1
0.999756 0.565347 1
1 0.541192 1
0 0.888136 1
0 0.871397 1
0.00788891 0.853574 1
0.0492714 0.835615 1
0.29633 0.815747 1
0.525628 0.792569 1
0.739315 0.765942 1
0.945037 0.733562 1
1 0.706279 1
0.287785 0.997635 1
0.253239 0.991241 1
0.27779 0.977859 1
0.3093 0.962692 1
0.356435 0.946609 1
0.506874 0.928359 1
0.686854 0.907378 1
0.875288 0.882399 1
1 0.853407 1
0.300572 1 1
0.300572 1 1
0.300572 1 1
0.39472 1 1
0.416541 1 1
0.521462 1 1
0.670115 1 1
0.816495 1 0.994125
0.999725 0.99115 0.978958
