luts/Glut 1 cinematiclook.cube
LUT_3D_SIZE 16
0.006352 0.013934 0.020341
0.023899 0.013506 0.016220
0.091454 0.012005 0.011756
0.216337 0.018332 0.008140
0.300494 0.027131 0.007176
0.369748 0.038890 0.007367
0.435427 0.053193 0.007842
0.501873 0.068814 0.008718
0.566526 0.085668 0.009931
0.622331 0.101208 0.011560
0.668451 0.115594 0.012840
0.709129 0.130165 0.016106
0.747292 0.143698 0.019827
0.779136 0.157823 0.023159
0.802029 0.167829 0.026598
0.806489 0.171342 0.028351
0.003875 0.020768 0.027054
0.016368 0.021616 0.018428
0.067834 0.022700 0.012416
0.198143 0.029337 0.008665
0.294801 0.044142 0.007765
0.378055 0.059058 0.008487
0.458999 0.079859 0.009829
0.539399 0.102498 0.012041
0.609038 0.123625 0.014637
0.663364 0.140667 0.017240
0.706234 0.154519 0.019391
0.743586 0.167696 0.022145
0.776084 0.178021 0.024590
0.799861 0.187197 0.026276
0.812896 0.192518 0.028072
0.814019 0.193942 0.028914
0.001931 0.031225 0.035949
0.008936 0.034141 0.027571
0.040337 0.037968 0.017688
0.164582 0.049588 0.009943
0.286509 0.068551 0.008051
0.387868 0.089907 0.009460
0.481822 0.114883 0.012308
0.567154 0.140101 0.014605
0.632958 0.160081 0.016873
0.681377 0.174393 0.018805
0.719725 0.185170 0.020926
0.752084 0.195626 0.021266
0.782506 0.204338 0.022594
0.805469 0.211746 0.023962
0.818367 0.215930 0.025152
0.819617 0.216559 0.025681
0.000484 0.066209 0.043939
0.005586 0.079249 0.040089
0.023789 0.089364 0.041047
0.120635 0.094692 0.022964
0.247248 0.108705 0.012946
0.357786 0.127159 0.010247
0.457671 0.147318 0.010744
0.545578 0.168675 0.011691
0.615661 0.187411 0.012763
0.668802 0.201410 0.013803
0.711014 0.212520 0.015041
0.742433 0.220716 0.015337
0.770747 0.228034 0.016750
0.796800 0.235492 0.017195
0.817022 0.240588 0.017545
0.824125 0.242239 0.017994
0.000551 0.135178 0.076149
0.005738 0.146588 0.069385
0.021468 0.152565 0.066466
0.091593 0.161068 0.056807
0.215635 0.160723 0.030681
0.324708 0.172497 0.018159
0.424180 0.189673 0.012480
0.515333 0.206281 0.010538
0.593092 0.221369 0.010145
0.654667 0.234638 0.010074
0.695989 0.242614 0.010145
0.731076 0.251045 0.010074
0.761099 0.257155 0.011172
0.786806 0.264195 0.011321
0.811141 0.270672 0.011172
0.827345 0.274811 0.011321
0.000940 0.211088 0.115309
0.005725 0.218249 0.105283
0.019497 0.218816 0.095441
0.066568 0.216318 0.090327
0.193121 0.226649 0.064215
0.306081 0.224365 0.036849
0.403516 0.233404 0.022977
0.494838 0.248492 0.015303
0.578920 0.266145 0.011324
0.643513 0.277189 0.009820
0.692151 0.284496 0.009190
0.728469 0.289737 0.009121
0.758833 0.294001 0.008553
0.783711 0.299447 0.008607
0.808845 0.304603 0.008553
0.829916 0.310046 0.008607
0.000823 0.286254 0.157731
0.004974 0.289192 0.143433
0.016909 0.287205 0.130088
0.056572 0.275679 0.121793
0.157884 0.282526 0.105262
0.293674 0.287172 0.071463
0.391890 0.285434 0.043812
0.483328 0.291986 0.027117
0.568700 0.307692 0.018652
0.635859 0.323527 0.015154
0.688506 0.334750 0.011705
0.729250 0.342867 0.012128
0.760217 0.346778 0.011143
0.785041 0.349834 0.010253
0.810180 0.354500 0.009716
0.832288 0.358513 0.009547
0.004106 0.357482 0.197082
0.007863 0.358987 0.183244
0.021018 0.357482 0.170630
0.053862 0.344510 0.154405
0.126267 0.336111 0.145120
0.268996 0.352890 0.116059
0.386714 0.349614 0.078394
0.475664 0.340340 0.046880
0.561515 0.350571 0.030807
0.630717 0.367748 0.024023
0.687015 0.382367 0.019621
0.730683 0.393808 0.018216
0.761736 0.400906 0.016957
0.789000 0.405692 0.017162
0.812726 0.410549 0.016957
0.835174 0.415352 0.017162
0.012138 0.424578 0.231322
0.014475 0.425214 0.220151
0.025011 0.424578 0.209675
0.051753 0.413636 0.192520
0.107604 0.394372 0.177941
0.229109 0.406870 0.161677
0.370858 0.422365 0.132268
0.480941 0.420423 0.092708
0.556744 0.403238 0.055120
0.627113 0.410289 0.039022
0.686949 0.423509 0.031939
0.730940 0.439254 0.028923
0.761048 0.452141 0.029608
0.791883 0.463755 0.030813
0.815817 0.472420 0.031405
0.838096 0.478247 0.031715
0.023561 0.487813 0.261244
0.024453 0.487558 0.252865
0.032788 0.486848 0.245620
0.052937 0.483676 0.231223
0.106120 0.462362 0.213108
0.195043 0.458874 0.202044
0.338243 0.485529 0.185459
0.477738 0.500191 0.151148
0.563575 0.478631 0.101273
0.628565 0.468276 0.068739
0.688094 0.470894 0.052285
0.731503 0.483733 0.047149
0.765289 0.494213 0.046158
0.793785 0.506527 0.048057
0.819023 0.516404 0.050116
0.840956 0.524847 0.052054
0.034653 0.538742 0.286663
0.034534 0.537844 0.279094
0.038958 0.537792 0.273435
0.056484 0.537844 0.264664
0.095961 0.526383 0.246913
0.162677 0.511727 0.233923
0.299836 0.536671 0.230849
0.461805 0.571571 0.208686
0.569982 0.565879 0.166601
0.637645 0.540941 0.116630
0.687934 0.520502 0.079352
0.732871 0.527418 0.068952
0.768855 0.535977 0.066252
0.797080 0.545167 0.067461
0.821717 0.555297 0.069448
0.843326 0.564444 0.071741
0.044301 0.582528 0.312203
0.044024 0.581738 0.308129
0.045184 0.581549 0.305019
0.059140 0.580786 0.297329
0.086515 0.577833 0.274699
0.157750 0.568553 0.267615
0.266380 0.581132 0.265351
0.431832 0.615597 0.248014
0.562759 0.633003 0.223170
0.646047 0.617043 0.178368
0.697713 0.586662 0.127012
0.735738 0.574561 0.099440
0.771816 0.577016 0.090211
0.800820 0.583497 0.088243
0.823734 0.588615 0.087944
0.845080 0.596046 0.089371
0.052554 0.620529 0.335580
0.052399 0.619803 0.334756
0.052554 0.618574 0.334358
0.061377 0.619803 0.331144
0.085470 0.617574 0.314440
0.137061 0.612742 0.296894
0.227899 0.619506 0.294033
0.391057 0.649134 0.282842
0.537358 0.679828 0.267442
0.643996 0.683553 0.236261
0.708124 0.654727 0.184502
0.741094 0.625636 0.140102
0.771311 0.615770 0.116094
0.802143 0.618262 0.108050
0.825133 0.620605 0.106626
0.846494 0.625961 0.106877
0.059725 0.654435 0.373356
0.059614 0.653722 0.373630
0.059725 0.653466 0.373356
0.063232 0.652753 0.372424
0.084065 0.652758 0.359722
0.116028 0.649460 0.324520
0.194389 0.650798 0.321290
0.337583 0.673512 0.314991
0.497023 0.708467 0.302036
0.624242 0.730012 0.282447
0.714895 0.724549 0.244240
0.748808 0.682752 0.193496
0.776018 0.659722 0.149584
0.802320 0.650329 0.130108
0.825979 0.651978 0.125547
0.847631 0.655178 0.124091
0.065516 0.684807 0.407460
0.065443 0.684129 0.407810
0.065516 0.683910 0.408645
0.066358 0.684129 0.408984
0.080818 0.682600 0.400391
0.110599 0.679607 0.366151
0.161845 0.679718 0.340243
0.261572 0.692116 0.343317
0.438333 0.727179 0.331447
0.583392 0.755150 0.315806
0.690971 0.764109 0.287577
0.752303 0.738693 0.244887
0.783184 0.707657 0.197918
0.803593 0.685751 0.156820
0.825687 0.680509 0.142642
0.847904 0.681874 0.138791
0.070271 0.711715 0.439212
0.070250 0.711255 0.439432
0.070271 0.710768 0.439212
0.071167 0.710343 0.439432
0.078958 0.709892 0.436254
0.101986 0.707916 0.414135
0.138258 0.705940 0.362911
0.232217 0.710824 0.362466
0.381442 0.739198 0.360887
0.529621 0.767944 0.343332
0.651010 0.788659 0.323041
0.737275 0.787180 0.292852
0.787361 0.760396 0.249165
0.811569 0.727638 0.202156
0.828820 0.713006 0.167436
0.847471 0.707435 0.152873
0.006433 0.013945 0.039841
0.022833 0.013392 0.035907
0.088735 0.012017 0.028802
0.218871 0.017252 0.021749
0.304203 0.027394 0.018591
0.372491 0.038045 0.019022
0.439151 0.051527 0.019403
0.505556 0.067005 0.020660
0.569579 0.083502 0.022481
0.625493 0.098941 0.024874
0.671525 0.112457 0.028530
0.712290 0.125979 0.031945
0.748279 0.144443 0.036841
0.780820 0.159174 0.042415
0.801111 0.168580 0.046428
0.805397 0.171706 0.048276
0.004438 0.021726 0.041936
0.015511 0.021687 0.038302
0.069499 0.021726 0.027211
0.205620 0.030376 0.020552
0.303238 0.043923 0.016079
0.387222 0.059874 0.018066
0.466481 0.078672 0.020093
0.545728 0.100420 0.023016
0.612917 0.120529 0.026145
0.665769 0.137314 0.029179
0.709208 0.152381 0.032373
0.744089 0.164342 0.035541
0.775451 0.178635 0.039176
0.799014 0.187736 0.041981
0.812230 0.193116 0.043969
0.813205 0.194500 0.044889
0.000527 0.031536 0.065880
0.007654 0.033785 0.062511
0.039024 0.040120 0.037686
0.174278 0.054056 0.023292
0.295999 0.072055 0.019190
0.396568 0.094538 0.020871
0.492264 0.118390 0.022501
0.575872 0.142812 0.025097
0.638790 0.161262 0.027515
0.685246 0.174611 0.029466
0.721850 0.186360 0.031076
0.754192 0.194887 0.033993
0.784298 0.204250 0.034684
0.808202 0.211687 0.036227
0.819177 0.215817 0.037476
0.820462 0.216531 0.038101
0.000000 0.066198 0.106963
0.005025 0.077093 0.097277
0.018196 0.091303 0.072002
0.120848 0.100265 0.041032
0.258479 0.114021 0.021151
0.370068 0.130325 0.019027
0.467955 0.148783 0.019503
0.554102 0.169896 0.020666
0.621623 0.188044 0.022002
0.672972 0.201462 0.023230
0.712215 0.211221 0.023690
0.745674 0.219794 0.024936
0.773210 0.227435 0.025782
0.798842 0.235777 0.027171
0.818497 0.240000 0.027526
0.825292 0.241565 0.028050
0.000506 0.136773 0.158854
0.005799 0.150608 0.144747
0.017353 0.158003 0.108479
0.076975 0.162648 0.083112
0.219513 0.166911 0.043810
0.333038 0.176097 0.026648
0.432749 0.191030 0.020350
0.522714 0.206034 0.018248
0.598650 0.220320 0.017940
0.658359 0.232859 0.017985
0.699671 0.242508 0.017940
0.732888 0.249267 0.017985
0.763541 0.255233 0.018645
0.788776 0.262032 0.018819
0.812671 0.268745 0.019457
0.828381 0.272650 0.019632
0.001548 0.221045 0.214940
0.006392 0.227955 0.190256
0.016299 0.229730 0.150046
0.045880 0.218299 0.116958
0.180260 0.229517 0.087278
0.309277 0.228469 0.048875
0.409566 0.236274 0.031898
0.500843 0.249710 0.022989
0.584467 0.265508 0.018539
0.647779 0.275193 0.017016
0.693891 0.282896 0.016939
0.731755 0.287756 0.015446
0.761256 0.291681 0.015924
0.787692 0.297551 0.015926
0.810329 0.302283 0.015924
0.831010 0.307209 0.015926
0.003499 0.297315 0.258299
0.007617 0.299746 0.228864
0.015483 0.299236 0.192187
0.038615 0.285286 0.153129
0.136851 0.280205 0.132269
0.287170 0.290441 0.090967
0.395461 0.289333 0.055453
0.488146 0.294313 0.035822
0.573558 0.308683 0.026360
0.639772 0.323079 0.022413
0.693387 0.333809 0.020425
0.732252 0.339505 0.018294
0.762794 0.343498 0.017249
0.787689 0.347678 0.016309
0.811841 0.351239 0.016459
0.833971 0.355421 0.016309
0.008496 0.366485 0.293455
0.011422 0.367881 0.263133
0.019447 0.368456 0.234570
0.036920 0.356284 0.194629
0.097256 0.337510 0.175605
0.248253 0.353197 0.141874
0.385063 0.354884 0.095631
0.479538 0.343692 0.057562
0.565629 0.353134 0.039461
0.634497 0.368820 0.031755
0.690194 0.383071 0.027565
0.733547 0.392961 0.025554
0.764613 0.397955 0.024534
0.790761 0.402746 0.023034
0.814595 0.407613 0.023679
0.836953 0.412377 0.023884
0.016626 0.432368 0.326992
0.017947 0.432816 0.295628
0.023120 0.433323 0.270492
0.041501 0.428965 0.242756
0.085571 0.407544 0.211397
0.205832 0.403424 0.189501
0.354430 0.425893 0.157298
0.481280 0.426150 0.109412
0.560325 0.407140 0.066230
0.630630 0.412587 0.047866
0.689595 0.424548 0.039066
0.733454 0.439611 0.037265
0.766001 0.454003 0.038596
0.793695 0.464167 0.038573
0.817852 0.471392 0.038596
0.839983 0.476710 0.038573
0.027862 0.494583 0.359146
0.027350 0.494081 0.328414
0.031234 0.493624 0.306215
0.048920 0.494081 0.288763
0.078968 0.482449 0.251973
0.156417 0.461260 0.231296
0.310687 0.484399 0.214886
0.469716 0.507611 0.174808
0.564956 0.484112 0.117221
0.631922 0.472050 0.080279
0.689522 0.471563 0.059999
0.734805 0.484621 0.055805
0.767905 0.495794 0.055952
0.795499 0.507947 0.055533
0.820794 0.517034 0.058004
0.842671 0.525295 0.059646
0.038682 0.546260 0.386374
0.037644 0.544980 0.356803
0.038682 0.543365 0.335907
0.051673 0.544014 0.324351
0.079712 0.540589 0.292746
0.146238 0.521355 0.269017
0.258349 0.535534 0.263415
0.437202 0.572905 0.235756
0.564894 0.573536 0.189209
0.639930 0.547202 0.132944
0.690419 0.523342 0.089182
0.737085 0.529854 0.078248
0.769464 0.536532 0.075214
0.799440 0.547430 0.076071
0.823208 0.556821 0.077399
0.844712 0.565804 0.079360
0.048479 0.590969 0.411328
0.047530 0.589413 0.382288
0.047597 0.588083 0.365644
0.057325 0.587480 0.358270
0.083276 0.585936 0.334023
0.129890 0.578641 0.300538
0.222847 0.581113 0.296760
0.399093 0.611478 0.276063
0.547373 0.637998 0.247642
0.645700 0.625571 0.198575
0.700243 0.589752 0.139461
0.739163 0.578266 0.109725
0.771458 0.579436 0.098903
0.801111 0.582841 0.095355
0.825288 0.590058 0.095450
0.846419 0.597323 0.096505
0.056726 0.628859 0.430802
0.055967 0.627451 0.405703
0.055829 0.625023 0.391160
0.060467 0.625522 0.386463
0.084032 0.625485 0.371592
0.116734 0.619813 0.326280
0.199085 0.618706 0.321113
0.353816 0.642346 0.308865
0.515823 0.677748 0.289962
0.637219 0.691819 0.259129
0.709911 0.662331 0.200354
0.743832 0.630066 0.150947
0.772326 0.618070 0.124279
0.802979 0.617381 0.115557
0.826037 0.621905 0.113494
0.847306 0.627037 0.113176
0.062998 0.660874 0.446625
0.062202 0.659242 0.427926
0.062092 0.658015 0.416578
0.064015 0.657342 0.413481
0.082134 0.656877 0.401285
0.111904 0.653728 0.361776
0.171669 0.651096 0.339983
0.294352 0.669152 0.338575
0.471073 0.705303 0.320906
0.610539 0.732285 0.301280
0.709775 0.729427 0.259131
0.752034 0.688865 0.203911
0.777865 0.662602 0.157756
0.803055 0.652085 0.135387
0.826918 0.652977 0.131313
0.848327 0.655964 0.129375
0.068353 0.690478 0.463772
0.067641 0.688761 0.450249
0.066532 0.687611 0.442140
0.067641 0.687764 0.439428
0.080368 0.686350 0.432581
0.106766 0.684516 0.400826
0.148180 0.680517 0.354435
0.245481 0.688405 0.359952
0.416487 0.720928 0.349886
0.566588 0.752094 0.328546
0.682329 0.765173 0.299841
0.750625 0.744458 0.256417
0.785080 0.711460 0.207460
0.805946 0.687274 0.163331
0.826579 0.681546 0.147361
0.848384 0.682504 0.142895
0.072470 0.716301 0.482520
0.072055 0.715072 0.471922
0.071552 0.714365 0.463262
0.072055 0.713221 0.461124
0.078683 0.713266 0.458952
0.101090 0.710995 0.439617
0.136097 0.708479 0.385604
0.219984 0.709063 0.371129
0.366915 0.735399 0.372412
0.516838 0.764820 0.352928
0.642751 0.787014 0.331271
0.733894 0.787957 0.301236
0.789883 0.763275 0.256940
0.812862 0.730048 0.207403
0.829509 0.713992 0.171592
0.847755 0.707796 0.155729
0.005544 0.014380 0.090723
0.021608 0.013429 0.084240
0.081993 0.011486 0.069776
0.221256 0.014394 0.058439
0.308982 0.022046 0.050340
0.375860 0.031808 0.044578
0.440145 0.043279 0.043449
0.504175 0.056907 0.044578
0.565936 0.071163 0.046744
0.621111 0.086634 0.049659
0.666895 0.102050 0.053732
0.707883 0.113656 0.058791
0.743442 0.128855 0.064767
0.774201 0.145027 0.071732
0.795377 0.157817 0.075488
0.799652 0.161429 0.077165
0.004571 0.024722 0.085544
0.014682 0.023397 0.083582
0.062375 0.021827 0.068056
0.210284 0.026293 0.052737
0.311773 0.038966 0.046899
0.392099 0.051396 0.044167
0.470276 0.069862 0.046899
0.546810 0.090968 0.050082
0.612091 0.111301 0.053267
0.662979 0.126695 0.057128
0.704564 0.140259 0.061484
0.740474 0.157590 0.067581
0.770889 0.172902 0.070636
0.796402 0.184938 0.074360
0.808647 0.190261 0.076051
0.809584 0.191675 0.076536
0.002614 0.038264 0.080407
0.009569 0.042866 0.088611
0.034267 0.047913 0.085961
0.170081 0.056379 0.059373
0.300908 0.077132 0.048592
0.406490 0.096498 0.044794
0.498116 0.118640 0.044661
0.580121 0.140906 0.046757
0.640993 0.157442 0.048454
0.686572 0.170584 0.050197
0.724050 0.182550 0.052452
0.755508 0.192789 0.056263
0.784762 0.203401 0.058269
0.808618 0.210891 0.059721
0.818712 0.215931 0.061381
0.819901 0.216702 0.061800
0.000495 0.077245 0.123749
0.003099 0.088025 0.146305
0.018116 0.098485 0.140574
0.115670 0.104756 0.086837
0.262780 0.119876 0.051054
0.377206 0.132578 0.041499
0.476034 0.151734 0.038399
0.561221 0.172165 0.038644
0.627308 0.188522 0.039329
0.677357 0.200669 0.039969
0.716035 0.209753 0.040277
0.747153 0.218046 0.040920
0.775012 0.225499 0.041584
0.803232 0.233361 0.043327
0.820325 0.239011 0.044484
0.826811 0.241077 0.045272
0.000452 0.146984 0.197267
0.001914 0.156442 0.215859
0.012445 0.170142 0.210508
0.041968 0.162241 0.148554
0.205549 0.172732 0.082183
0.342094 0.179781 0.044457
0.443023 0.191117 0.035083
0.531756 0.203909 0.032212
0.605470 0.216851 0.031628
0.662973 0.228540 0.031546
0.703587 0.237116 0.031628
0.735687 0.244945 0.032453
0.765518 0.250471 0.032456
0.789276 0.258306 0.032614
0.814617 0.264949 0.032456
0.829843 0.268925 0.032614
0.000592 0.229933 0.277478
0.003602 0.235875 0.281982
0.014275 0.244410 0.263049
0.032942 0.231045 0.202663
0.152425 0.223251 0.135857
0.305591 0.232337 0.074687
0.416535 0.239120 0.046872
0.509397 0.249717 0.035211
0.592453 0.262793 0.030094
0.653403 0.270720 0.028672
0.698161 0.277263 0.028316
0.734587 0.282323 0.027787
0.762235 0.286295 0.027190
0.789281 0.292194 0.027039
0.812222 0.297863 0.027190
0.832724 0.302829 0.027039
0.004287 0.303441 0.340989
0.009555 0.308692 0.332894
0.018799 0.312149 0.302531
0.034825 0.301901 0.247556
0.079592 0.276880 0.189466
0.269576 0.290895 0.128045
0.396488 0.293318 0.074990
0.494733 0.296812 0.048592
0.580107 0.308819 0.037568
0.645591 0.320687 0.032882
0.697089 0.330058 0.030224
0.736215 0.334199 0.028390
0.764260 0.336540 0.026954
0.789807 0.340217 0.025837
0.814278 0.345241 0.026084
0.836083 0.349890 0.025837
0.012473 0.370234 0.386781
0.018189 0.374681 0.370668
0.026204 0.377932 0.337507
0.038293 0.374681 0.291318
0.067438 0.347126 0.228702
0.217872 0.341781 0.189505
0.372730 0.359686 0.126534
0.483363 0.347142 0.072867
0.571311 0.356145 0.051274
0.639954 0.369609 0.041960
0.694895 0.382221 0.036727
0.737129 0.387923 0.033507
0.766523 0.393197 0.032205
0.794210 0.398097 0.032388
0.817457 0.401916 0.032205
0.839422 0.406777 0.032388
0.021139 0.433301 0.418287
0.025980 0.437227 0.400284
0.031130 0.441985 0.371407
0.043076 0.442047 0.331789
0.066384 0.425875 0.279593
0.143309 0.397778 0.240912
0.326160 0.422082 0.199533
0.477351 0.434497 0.136339
0.564601 0.412699 0.081804
0.635656 0.415418 0.059246
0.692894 0.426216 0.049136
0.736647 0.440536 0.048110
0.768712 0.452553 0.047358
0.796182 0.460381 0.047178
0.820608 0.467993 0.047358
0.842426 0.472938 0.047178
0.031162 0.493617 0.445473
0.034110 0.496597 0.426152
0.038875 0.500405 0.401040
0.048030 0.502391 0.366036
0.072497 0.497215 0.329607
0.126995 0.463313 0.278621
0.263415 0.472863 0.259630
0.445329 0.509011 0.209299
0.565039 0.493146 0.141248
0.636166 0.476965 0.095177
0.694331 0.475767 0.072710
0.738962 0.487558 0.066477
0.772053 0.498176 0.066270
0.799835 0.509018 0.065769
0.823911 0.517488 0.068397
0.845081 0.525385 0.070024
0.041028 0.546721 0.467946
0.041838 0.548132 0.447424
0.043648 0.549653 0.424687
0.049752 0.551034 0.394505
0.078292 0.552263 0.369299
0.118204 0.531843 0.315797
0.208354 0.531000 0.304356
0.400446 0.561524 0.270561
0.549498 0.580767 0.221879
0.643910 0.559216 0.157737
0.695750 0.526714 0.103148
0.740071 0.533134 0.091228
0.774843 0.540413 0.088406
0.803110 0.550187 0.088173
0.826649 0.559741 0.089531
0.847478 0.568520 0.091557
0.050744 0.593799 0.488033
0.050542 0.593737 0.467513
0.050744 0.593799 0.444771
0.055896 0.593737 0.419398
0.079648 0.595553 0.399991
0.115335 0.587075 0.348804
0.187074 0.577201 0.331476
0.355143 0.598482 0.312651
0.521588 0.633893 0.278663
0.641114 0.637168 0.229149
0.706037 0.600664 0.163261
0.741123 0.582155 0.124590
0.777397 0.583967 0.113526
0.804943 0.587412 0.108732
0.828383 0.593612 0.108791
0.849366 0.600929 0.109905
0.058793 0.631879 0.504551
0.058273 0.631388 0.484288
0.057894 0.630926 0.461276
0.060077 0.630436 0.442206
0.078778 0.630716 0.427389
0.111655 0.627580 0.382362
0.162604 0.616232 0.349259
0.296753 0.632675 0.348537
0.480689 0.668535 0.323633
0.623641 0.697555 0.290457
0.710306 0.673074 0.229711
0.748655 0.638341 0.170216
0.777593 0.622960 0.140743
0.806801 0.622350 0.129684
0.829469 0.625852 0.127511
0.850156 0.631049 0.127285
0.065291 0.665037 0.519046
0.064760 0.664052 0.500927
0.063471 0.664139 0.481772
0.064760 0.662149 0.462464
0.078682 0.661660 0.450238
0.107989 0.661162 0.420496
0.149301 0.653971 0.368471
0.243866 0.660195 0.373630
0.429364 0.693221 0.358329
0.582695 0.727431 0.328848
0.694722 0.731982 0.287785
0.754703 0.700597 0.232024
0.782136 0.667780 0.174493
0.805836 0.655210 0.149676
0.830229 0.657169 0.145647
0.851156 0.660037 0.143667
0.070658 0.694927 0.533661
0.070128 0.693808 0.517928
0.069741 0.692026 0.499999
0.070128 0.690948 0.484254
0.076183 0.690183 0.474557
0.100790 0.690234 0.454600
0.138257 0.687274 0.397645
0.220636 0.684473 0.383669
0.380881 0.710928 0.380778
0.533988 0.743984 0.354734
0.661080 0.763522 0.327164
0.744326 0.751726 0.286256
0.789839 0.721412 0.230272
0.809323 0.692166 0.180944
0.829462 0.685711 0.161765
0.850809 0.686455 0.156904
0.074800 0.721006 0.547393
0.074299 0.719720 0.533979
0.073879 0.718144 0.516173
0.073384 0.717795 0.505151
0.076609 0.716658 0.497956
0.095356 0.715631 0.486792
0.132091 0.713704 0.433070
0.193498 0.706988 0.391841
0.328328 0.728324 0.401047
0.485466 0.758040 0.381990
0.623308 0.782517 0.353299
0.721369 0.789915 0.324284
0.787465 0.771132 0.283206
0.815370 0.737872 0.229815
0.832783 0.719032 0.188254
0.850270 0.711812 0.169726
0.004557 0.024229 0.173601
0.017348 0.017900 0.164498
0.064172 0.011681 0.143551
0.203076 0.015005 0.128448
0.309479 0.023275 0.123680
0.380869 0.031509 0.117482
0.443455 0.039684 0.108176
0.505456 0.048884 0.096373
0.565134 0.058615 0.095171
0.616434 0.067702 0.097250
0.659484 0.076954 0.100936
0.696610 0.084112 0.106543
0.727816 0.093153 0.113670
0.757996 0.107104 0.122473
0.779740 0.120177 0.126856
0.784422 0.124478 0.128479
0.003898 0.041147 0.172028
0.011807 0.033486 0.169810
0.047201 0.022807 0.151592
0.196433 0.025765 0.128942
0.317534 0.037561 0.124448
0.400278 0.048138 0.118566
0.475113 0.060728 0.110109
0.546533 0.074199 0.109057
0.605472 0.086432 0.106738
0.651649 0.095849 0.106976
0.689477 0.103811 0.110266
0.722383 0.119019 0.116449
0.755404 0.135738 0.120833
0.781941 0.149989 0.124537
0.794110 0.156980 0.126847
0.795156 0.158666 0.126944
0.002526 0.064773 0.163597
0.010045 0.067210 0.170467
0.029053 0.062842 0.168418
0.161233 0.057557 0.135609
0.308378 0.071243 0.123805
0.406087 0.083983 0.110744
0.496169 0.101172 0.103616
0.572179 0.116800 0.099062
0.629148 0.129902 0.097748
0.673287 0.142652 0.098862
0.710306 0.156939 0.101218
0.742178 0.171616 0.103505
0.772179 0.186360 0.105865
0.797419 0.197310 0.108212
0.809898 0.204703 0.110567
0.811501 0.205988 0.110570
0.001147 0.104609 0.171983
0.007168 0.114634 0.189663
0.020658 0.117153 0.193604
0.097861 0.116625 0.164248
0.257151 0.125054 0.123008
0.359815 0.144218 0.108280
0.465006 0.163090 0.095356
0.555139 0.179930 0.084210
0.624154 0.193149 0.078204
0.675231 0.203031 0.076408
0.713866 0.211488 0.077106
0.745089 0.217493 0.076408
0.773229 0.225211 0.077452
0.800548 0.233445 0.078667
0.818516 0.239689 0.080755
0.825103 0.243094 0.081978
0.000513 0.171333 0.232555
0.002876 0.181299 0.253335
0.014988 0.191613 0.267412
0.037164 0.178419 0.234104
0.187861 0.177389 0.160573
0.326208 0.190318 0.110799
0.434586 0.197311 0.086801
0.528137 0.207709 0.073360
0.605967 0.219312 0.065020
0.664190 0.229435 0.061607
0.703170 0.236696 0.059790
0.736886 0.241989 0.058495
0.764745 0.248356 0.059150
0.791404 0.255439 0.058957
0.815724 0.261873 0.059150
0.830988 0.267023 0.059994
0.000517 0.244734 0.305495
0.001961 0.250150 0.323056
0.012652 0.259211 0.336729
0.032542 0.254980 0.311024
0.081980 0.228192 0.229952
0.290807 0.233661 0.143176
0.409315 0.241728 0.090200
0.510473 0.248195 0.066499
0.597375 0.257087 0.056624
0.658059 0.263539 0.053140
0.704007 0.268664 0.050552
0.737319 0.273194 0.050133
0.767376 0.278033 0.049863
0.791295 0.283352 0.048974
0.814576 0.289613 0.048866
0.834689 0.294924 0.048974
0.003950 0.309926 0.371448
0.006590 0.312149 0.382231
0.016007 0.317624 0.388284
0.034839 0.318902 0.367827
0.062007 0.294930 0.295436
0.230994 0.279779 0.204700
0.380288 0.294930 0.124759
0.495237 0.297181 0.076343
0.586400 0.305969 0.060247
0.654087 0.313604 0.052696
0.705317 0.318534 0.050061
0.741806 0.321318 0.046722
0.769670 0.323595 0.046365
0.795209 0.327725 0.045265
0.817769 0.332278 0.044410
0.838636 0.337371 0.044294
0.011728 0.369492 0.430127
0.015800 0.371563 0.434154
0.026232 0.377232 0.431310
0.041776 0.384136 0.408913
0.064530 0.368242 0.346046
0.122611 0.332301 0.268263
0.348824 0.351570 0.193912
0.477394 0.347736 0.103835
