luts/gLUT006.cube
TITLE "Generated by Resolve"
LUT_3D_SIZE 5
0 0.0207065 0
0 0.0205386 0
0 0.0198367 0
0 0.0237888 0
0.0137331 0.024033 0
0 0.0276799 0
0.0111238 0.0355535 0
0.107759 0.0313573 0
0.256031 0.012253 0
0.320317 0.000442512 0
0 0.18117 0
0 0.30135 0
0.300435 0.28957 0
0.494255 0.281285 0
0.685817 0.259998 0
0 0.40943 0
0 0.510903 0
0.395377 0.597101 0
0.637003 0.611612 0
0.781643 0.630106 0.0256504
0 0.624277 0
0.00950637 0.690242 0
0.47303 0.794537 0.0750286
0.823255 0.899031 0.438453
0.970962 0.936141 0.652873
0 0.0210422 0
0 0.0186923 0
0.00976577 0.0229038 0
0.00334173 0.0252689 0
0.031281 0.0233616 0
0 0.0338293 0
0.00238041 0.0261845 0
0.128313 0.0166323 0
0.289738 0 0
0.420157 0 0
0 0.258152 0
0 0.290532 0
0.28632 0.300008 0
0.650752 0.230945 0
0.825299 0.212146 0
0 0.47985 0
0 0.517784 0
0.291646 0.637736 0
0.677775 0.643137 0
0.879042 0.618982 0.174838
0 0.679667 0.00619516
0.0144503 0.710628 0.0201724
0.245701 0.783246 0.0921798
0.817838 0.905516 0.466133
0.974044 0.936126 0.69865
0 0.0224765 0
0.00671397 0.0160983 0
0.051667 0.0116732 0
0.113313 0.0131228 0
0.309926 0 0
0.0100252 0.0186465 0
0.0241703 0.0114595 0.0196689
0.218723 0 0.0562905
0.460578 0 0.0179751
0.509178 0 0
0 0.239719 0.10042
0 0.228046 0.105119
0.227161 0.210056 0.130007
0.695094 0.139483 0.0390021
0.809125 0.094316 0.0227665
0 0.544488 0.153063
0 0.603311 0.176669
0.0251011 0.651713 0.126955
0.641688 0.628473 0.153277
0.91458 0.570184 0.286793
0.0471656 0.725994 0.284047
0.11751 0.769497 0.336538
0.101457 0.766567 0.284031
0.74728 0.900954 0.480354
0.964248 0.932265 0.684672
0 0.018143 0
0.0209659 0.0119783 0
0.0989395 0 0.0387274
0.174487 0 0.0359197
0.226322 0 0
0.0243534 0.00936904 0.0448463
0.0320745 0.00689708 0.087541
0.23447 0 0.238193
0.398093 0 0.214618
0.577508 0 0.19324
0.0120241 0.177554 0.269108
0.0521248 0.171389 0.342153
0.302953 0.14255 0.544869
0.69456 0.0531624 0.460838
0.793332 0.00572213 0.339223
0.0295262 0.518456 0.381292
0.0615702 0.553429 0.429175
0.100313 0.546899 0.444587
0.576883 0.545296 0.463142
0.930159 0.488655 0.371298
0.132052 0.732265 0.459098
0.1897 0.77438 0.50753
0.213123 0.79559 0.511955
0.608225 0.911177 0.591333
0.941512 0.920287 0.658335
0.0223545 0.0106966 0.0173037
0.0307469 0.00729381 0.0798657
0.143999 0 0.211505
0.252522 0 0.213062
0.321492 0 0.175937
0.0357214 0.00604257 0.105715
0.0458991 0.00389105 0.139315
0.207401 0 0.320821
0.369558 0 0.330129
0.503624 0 0.330648
0.0884718 0.0953689 0.370398
0.131365 0.0737011 0.415717
0.312505 0.0531319 0.650614
0.574914 0 0.609659
0.687694 0 0.486793
0.118349 0.46096 0.501183
0.120729 0.465904 0.581765
0.230045 0.446403 0.665614
0.605051 0.477119 0.80734
0.990723 0.385321 0.777188
0.216663 0.737713 0.60473
0.295338 0.794629 0.671702
0.376928 0.830076 0.72311
0.6309 0.896941 0.791028
0.90341 0.874601 0.787747
