luts/gLUT006.cube
TITLE "Generated by Resolve"
LUT_3D_SIZE 33
0 0.0207065 0
0 0.0207065 0
0 0.0207065 0
0 0.0206912 0
0 0.0205997 0
0 0.0205081 0
0 0.0204013 0
0 0.020325 0
0 0.0205386 0
0 0.0207065 0
0 0.020798 0
0 0.0208896 0
0 0.0208743 0
0 0.0207065 0
0 0.0203708 0
0 0.0200198 0
0 0.0198367 0
0 0.0198978 0
0 0.0205692 0
0 0.0213779 0
0 0.0221103 0
0 0.0225528 0
0 0.0229038 0
0 0.023331 0
0 0.0237888 0
0 0.0242924 0
0 0.0247959 0
0 0.0253452 0
0 0.025864 0
0 0.0264591 0
0 0.0268101 0
0.00622568 0.0254368 0
0.0137331 0.024033 0
0 0.0223545 0
0 0.0207218 0
0 0.0207065 0
0 0.0206607 0
0 0.0205997 0
0 0.0204776 0
0 0.0203403 0
0 0.0202182 0
0 0.0205234 0
0 0.0208286 0
0 0.0209659 0
0 0.0209201 0
0 0.0205997 0
0 0.0201572 0
0 0.0198825 0
0 0.019852 0
0 0.0202792 0
0 0.0211185 0
0 0.0218662 0
0 0.022446 0
0 0.0228275 0
0 0.0232395 0
0 0.0236667 0
0 0.0241093 0
0 0.0246128 0
0 0.0251621 0
0 0.0257267 0
0 0.0263218 0
0 0.0269169 0
0 0.0275273 0
0 0.027863 0
0.00727855 0.0264591 0
0.0157473 0.0248112 0
0 0.0225528 0
0 0.0207218 0
0 0.0207065 0
0 0.020676 0
0 0.0205844 0
0 0.0204623 0
0 0.0202792 0
0 0.0200656 0
0 0.020264 0
0 0.0209354 0
0 0.0210422 0
0 0.020676 0
0 0.0201572 0
0 0.0198672 0
0 0.0199283 0
0 0.0207675 0
0 0.0217441 0
0 0.0224918 0
0 0.0229953 0
0 0.0235447 0
0 0.0241398 0
0 0.0247959 0
0 0.0254063 0
0 0.0259251 0
0 0.0264286 0
0 0.0269017 0
0 0.0273594 0
0 0.0278477 0
0 0.0283818 0
0 0.0289158 0
0.0018616 0.0291295 0
0.00965896 0.0275425 0
0.0196994 0.025452 0
0 0.022797 0
0 0.0207218 0
0 0.0207218 0
0 0.020676 0
0 0.0205844 0
0 0.0204318 0
0 0.0201724 0
0 0.019852 0
0 0.0196384 0
0 0.020325 0
0 0.0204623 0
0 0.0200046 0
0 0.0198672 0
0 0.0204929 0
0 0.0215457 0
0 0.022446 0
0 0.0230716 0
0 0.0238499 0
0 0.0247349 0
0 0.0256962 0
0 0.0267033 0
0 0.0276799 0
0 0.0284886 0
0.000518807 0.0291752 0
0.0015259 0.029633 0
0.00309758 0.0299535 0
0.00390631 0.0301366 0
0.00469978 0.0302281 0
0.0059205 0.0302739 0
0.00675975 0.0303197 0
0.00898756 0.030045 0
0.0177615 0.027985 0
0.0291142 0.0252384 0
0 0.0230869 0
0 0.0208286 0
0 0.020798 0
0 0.020737 0
0 0.0206302 0
0 0.0204929 0
0 0.0202029 0
0 0.0196231 0
0 0.0189975 0
0 0.018677 0
0 0.0194553 0
0 0.0205081 0
0 0.0217746 0
0 0.0227054 0
0 0.0234684 0
0 0.0242771 0
0 0.0252689 0
0 0.0263981 0
0 0.0276493 0
0 0.0288396 0
0.0018616 0.0297093 0
0.00576791 0.0301976 0
0.0108797 0.0301366 0
0.017792 0.0294804 0
0.024445 0.0286259 0
0.0300755 0.0279698 0
0.0362402 0.0272679 0
0.0400397 0.0268254 0
0.0437781 0.0262913 0
0.0458228 0.025864 0
0.048127 0.0253147 0
0.052079 0.0241245 0
0.0610513 0.0217136 0
0 0.0233463 0
0 0.0211032 0
0 0.0210727 0
0 0.0210422 0
0 0.0208896 0
0 0.0206455 0
0 0.0203403 0
0 0.0198062 0
0 0.0187381 0
0.00137331 0.0180056 0
0.000823987 0.0198672 0
0 0.0229801 0
0 0.0249485 0
0 0.0260624 0
0 0.0271153 0
0 0.0282902 0
0 0.0292973 0
0.00164797 0.0300755 0
0.00579843 0.030457 0
0.0127413 0.0301366 0
0.0211185 0.0291447 0
0.03093 0.0279698 0
0.0429389 0.026566 0
0.0548257 0.0252689 0
0.067155 0.0238956 0
0.0812848 0.0221561 0
0.0958114 0.0199588 0
0.107408 0.0179294 0
0.116533 0.0164034 0
0.120516 0.0157931 0
0.123507 0.0153201 0
0.124132 0.015198 0
0.130922 0.0127108 0
0 0.0237888 0
0 0.0215763 0
0 0.0216678 0
0 0.0216526 0
0 0.0214694 0
0 0.0212253 0
0 0.02121 0
0 0.0215305 0
0 0.0214542 0
0.00503548 0.021149 0
0.00407416 0.0227207 0
0.00433356 0.0245975 0
0.00332647 0.0274205 0
0.00314336 0.0299535 0
0.00640879 0.0311437 0
0.0122072 0.0313115 0
0.020737 0.030457 0
0.0309148 0.0288548 0
0.0436713 0.026978 0
0.0570382 0.0251469 0
0.0714885 0.0233921 0
0.0867475 0.0217136 0
0.103227 0.0194095 0
0.118303 0.0167849 0
0.134401 0.0135195 0
0.150851 0.0102846 0
0.164935 0.00814832 0
0.176013 0.0069276 0
0.184649 0.00619516 0
0.190372 0.00579843 0
0.195621 0.00549325 0
0.198444 0.00535592 0
0.20647 0.00311284 0
0 0.0238041 0
0 0.0238346 0
0 0.0231785 0
0 0.0240177 0
0 0.0244755 0
0 0.0249638 0
0 0.0257572 0
0 0.026154 0
0.00505074 0.0265202 0
0.0104524 0.0270542 0
0.00743114 0.0297704 0
0.00619516 0.0319829 0
0.00976577 0.0328985 0
0.0142061 0.0343633 0
0.0243381 0.0340581 0
0.039765 0.032929 0
0.0581521 0.0308995 0
0.0758679 0.0285954 0
0.097734 0.0254215 0
0.115557 0.0222171 0
0.133577 0.0189975 0
0.150408 0.0160372 0
0.165469 0.0136263 0
0.180987 0.0111849 0
0.194278 0.00843824 0
0.206729 0.00611887 0
0.217105 0.004654 0
0.227115 0.00381476 0
0.23537 0.00326543 0
0.243793 0.00291447 0
0.251575 0.00268559 0
0.25771 0.00250248 0
0.267948 0.000213626 0
0 0.0276799 0
0 0.0284428 0
0 0.0285649 0
0 0.0307164 0
0 0.0319982 0
0 0.0327916 0
0 0.0337987 0
0.000946059 0.0350652 0
0.0111238 0.0355535 0
0.0201572 0.0361486 0
0.0182803 0.0396124 0
0.00735485 0.0448463 0
0.0134737 0.0450446 0
0.0299077 0.0419623 0
0.054963 0.0378729 0
0.0797589 0.0349126 0
0.107759 0.0313573 0
0.132601 0.0289769 0
0.155032 0.027039 0
0.17586 0.0247959 0
0.193027 0.0224918 0
0.209949 0.0203403 0
0.224231 0.0180514 0
0.240513 0.0152438 0
0.256031 0.012253 0
0.266972 0.0100099 0
0.274449 0.00799573 0
0.282155 0.00630198 0
0.28751 0.00451667 0
0.294514 0.00347906 0
0.301442 0.00277714 0
0.309651 0.00265507 0
0.320317 0.000442512 0
0 0.0369116 0
0 0.0375982 0
0 0.0394141 0
0 0.0445869 0
0 0.0476692 0
0 0.0484321 0
0 0.0484016 0
0.00170901 0.0501564 0
0.0146487 0.0514992 0
0.0302434 0.0514839 0
0.0383917 0.0530709 0
0.0220951 0.0612192 0
0.0198215 0.0641642 0
0.0414282 0.059617 0
0.076585 0.0535897 0
0.116121 0.0467384 0
0.148669 0.0412451 0
0.176638 0.0376745 0
0.201221 0.0349126 0
0.223545 0.0320287 0
0.24358 0.0300298 0
0.260578 0.0289158 0
0.277256 0.0277562 0
0.294194 0.0254215 0
0.309972 0.0229038 0
0.323674 0.0213474 0
0.335134 0.019852 0
0.342885 0.0181888 0
0.350912 0.0162966 0
0.356146 0.0145418 0
0.362112 0.0126955 0
0.366583 0.0110628 0
0.378027 0.0080415 0
0 0.051606 0
0 0.0527047 0
0 0.0580148 0
0 0.0670787 0
0 0.0739452 0
0 0.0758068 0
0 0.0746624 0
0 0.0761273 0
0.0128481 0.0787671 0
0.0308385 0.079942 0
0.0518654 0.0784772 0
0.0597086 0.0806439 0
0.0411231 0.0902876 0
0.0536049 0.0899825 0
0.0916609 0.0836652 0
0.132158 0.0752728 0
0.170077 0.0671092 0
0.203922 0.0601053 0
0.231785 0.0546273 0
0.25626 0.0504005 0
0.278538 0.0470436 0
0.299504 0.0440223 0
0.318853 0.0416114 0
0.338445 0.0384222 0
0.355917 0.0362402 0
0.369024 0.0345006 0
0.383337 0.0334325 0
0.396002 0.0319829 0
0.407431 0.0306249 0
0.41825 0.0290379 0
0.42884 0.0259861 0
0.44271 0.0221408 0
0.457633 0.0172427 0
0 0.0687419 0
0 0.0722515 0
0 0.0819104 0
0 0.0959945 0
0 0.107637 0
0 0.113436 0
0 0.112108 0
0 0.111101 0
0.00292973 0.11136 0
0.032105 0.112337 0
0.0597391 0.110613 0
0.0893721 0.107668 0
0.104356 0.108568 0
0.0942092 0.115999 0
0.106966 0.116533 0
0.141268 0.11104 0
0.178515 0.103365 0
0.215137 0.0960098 0
0.248692 0.0887465 0
0.277836 0.0820935 0
0.303075 0.0767834 0
0.327306 0.0723125 0
0.351003 0.0676585 0
0.369558 0.0645762 0
0.386404 0.0623178 0
0.403326 0.0607919 0
0.421057 0.0580758 0
0.445243 0.0521248 0
0.470695 0.0450599 0
0.493324 0.0392004 0
0.510323 0.0365148 0
0.521645 0.0348974 0
0.532418 0.0333104 0
0 0.0881514 0
0 0.0967269 0
0 0.107225 0
0 0.121859 0
0 0.137682 0
0 0.148943 0
0 0.151751 0
0 0.151232 0
0 0.148547 0
0.0301213 0.1467 0
0.063035 0.146471 0
0.0978561 0.143648 0
0.130037 0.139696 0
0.152178 0.138842 0
0.151125 0.145068 0
0.156558 0.147738 0
0.186435 0.14313 0
0.219364 0.135241 0
0.254154 0.127749 0
0.286229 0.120607 0
0.316838 0.114015 0
0.344228 0.108309 0
0.369238 0.104097 0
0.391012 0.100481 0
0.411536 0.0983597 0
0.433631 0.0948348 0
0.463264 0.0868849 0
0.494194 0.0794232 0
0.514824 0.0749676 0
0.530419 0.0740673 0
0.544991 0.0744488 0
0.558648 0.0738384 0
0.572351 0.0733349 0
0 0.108476 0
0 0.118273 0
0 0.130053 0
0 0.147387 0
0 0.166354 0
0 0.182818 0
0 0.190219 0
0 0.190433 0
0 0.190555 0
0.0198062 0.186114 0
0.0646067 0.184512 0
0.103944 0.183185 0
0.138018 0.180163 0
0.170855 0.174945 0
0.197787 0.172869 0
0.204471 0.176608 0
0.209201 0.180285 0
0.230655 0.177951 0
0.262257 0.170977 0
0.294484 0.163455 0
0.32546 0.15668 0
0.354376 0.150103 0
0.381567 0.143816 0
0.407095 0.139498 0
0.43125 0.135729 0
0.461982 0.129335 0
0.496117 0.121157 0
0.523751 0.115877 0
0.542382 0.114946 0
0.559319 0.115175 0
0.574319 0.115297 0
0.590341 0.116472 0
0.60499 0.116747 0
0 0.128939 0
0 0.139376 0
0 0.153674 0
0 0.172229 0
0 0.193072 0
0 0.213794 0
0 0.226291 0
0 0.228321 0
0 0.231205 0
0 0.228794 0
0.0607156 0.223972 0
0.108461 0.222431 0
0.144167 0.220539 0
0.177111 0.216632 0
0.211337 0.211872 0
0.241352 0.208179 0
0.257847 0.21062 0
0.265568 0.214221 0
0.27924 0.215122 0
0.306096 0.210681 0
0.336645 0.203571 0
0.365789 0.197024 0
0.394308 0.191333 0
0.421958 0.186175 0
0.448157 0.180331 0
0.482765 0.171984 0
0.522194 0.162844 0
0.548211 0.157931 0
0.567575 0.157794 0
0.584207 0.157702 0
0.601099 0.159518 0
0.617929 0.160998 0
0.634653 0.16231 0
0 0.153475 0
0 0.162783 0
0 0.177737 0
0 0.196811 0
0 0.218067 0
0 0.241321 0
0 0.257313 0
0 0.264958 0
0 0.267842 0
0 0.26981 0
0.0501717 0.263859 0
0.111925 0.261112 0
0.151751 0.259968 0
0.185657 0.259113 0
0.218235 0.254871 0
0.255238 0.249897 0
0.28777 0.247135 0
0.308629 0.246983 0
0.321447 0.250843 0
0.334218 0.253513 0
0.353277 0.252384 0
0.381552 0.247501 0
0.411002 0.242359 0
0.437781 0.236698 0
0.466941 0.231022 0
0.507652 0.22034 0
0.546593 0.210422 0
0.570703 0.206485 0
0.590158 0.204761 0
0.609125 0.205722 0
0.626566 0.207279 0
0.643107 0.20914 0
0.660624 0.2112 0
0 0.18117 0
0 0.189227 0
0 0.203204 0
0 0.222751 0
0 0.243946 0
0 0.266789 0
0 0.286091 0
0 0.2963 0
0 0.30135 0
0 0.308034 0
0.0282292 0.305196 0
0.108812 0.299428 0
0.161074 0.297627 0
0.198215 0.298054 0
0.22948 0.298009 0
0.26511 0.294835 0
0.300435 0.28957 0
0.334417 0.2869 0
0.359808 0.287633 0
0.376608 0.290639 0
0.392569 0.295064 0
0.407889 0.296498 0
0.430716 0.294942 0
0.458747 0.28986 0
0.494255 0.281285 0
0.537102 0.269825 0
0.567956 0.262013 0
0.590539 0.258579 0
0.610742 0.256535 0
0.631205 0.257008 0
0.649607 0.257099 0
0.667552 0.258503 0
0.685817 0.259998 0
0 0.210468 0
0 0.217105 0
0 0.230289 0
0 0.250996 0
0 0.270558 0
0 0.292561 0
0 0.311559 0
0 0.325841 0
0 0.331441 0
0 0.341894 0
0.000213626 0.345159 0
0.0982681 0.339132 0
0.165393 0.336355 0
0.209293 0.336751 0
0.245686 0.337804 0
0.278096 0.338552 0
0.312566 0.335515 0
0.349065 0.33225 0
0.383474 0.330114 0
0.410941 0.331014 0
0.432624 0.33463 0
0.449485 0.337713 0
0.466926 0.34052 0
0.494423 0.336217 0
0.533333 0.326436 0
0.564385 0.320394 0
0.587137 0.316533 0
0.608728 0.31252 0
0.630472 0.309606 0
0.65182 0.308278 0
0.672892 0.307256 0
0.692027 0.307698 0
0.709392 0.308064 0
0 0.238376 0
0 0.245075 0
0 0.259922 0
0 0.279057 0
0 0.297429 0
0 0.318334 0
0 0.337316 0
0 0.351141 0
0 0.359289 0
0 0.369528 0
0 0.381735 0
0.079469 0.380392 0
0.163958 0.375921 0
0.219623 0.375906 0
0.260548 0.379629 0
0.295842 0.380514 0
0.328771 0.381216 0
0.362387 0.379095 0
0.399268 0.376104 0
0.432578 0.375067 0
0.458747 0.375128 0
0.483177 0.378119 0
0.507591 0.379797 0
0.533272 0.378439 0
0.558907 0.37583 0
0.582498 0.372671 0
0.604257 0.368414 0
0.625681 0.364858 0
0.647959 0.362676 0
0.669139 0.359213 0
0.688807 0.357763 0
0.707362 0.358587 0
0.724865 0.359121 0
0 0.268116 0
0 0.275608 0
0 0.288533 0
0 0.306691 0
0 0.325704 0
0 0.34519 0
0 0.362203 0
0 0.377249 0
0 0.386725 0
0 0.394537 0
0 0.413901 0
0.057847 0.419303 0
0.157626 0.415427 0
0.22385 0.415946 0
0.273259 0.419303 0
0.312016 0.421927 0
0.346807 0.424155 0
0.378958 0.423667 0
0.412726 0.422415 0
0.447028 0.419867 0
0.47834 0.418143 0
0.504677 0.419776 0
0.527855 0.421561 0
0.550713 0.423362 0
0.573846 0.424018 0
0.596094 0.421836 0
0.618097 0.419059 0
0.639872 0.415976 0
0.661143 0.412284 0
0.681819 0.40972 0
0.701045 0.40911 0
0.719356 0.408545 0
0.738308 0.408759 0
0 0.29662 0
0 0.30515 0
0 0.317372 0
0 0.3346 0
0 0.352789 0
0 0.37023 0
0 0.387259 0
0 0.402472 0
0 0.412833 0
0 0.419654 0
0 0.438575 0
0.0381628 0.455161 0
0.148241 0.455787 0
0.224598 0.45539 0
0.281895 0.457786 0
0.324056 0.461402 0
0.359945 0.464469 0
0.392813 0.465156 0
0.426398 0.465293 0
0.458106 0.462593 0
0.489708 0.461143 0
0.520027 0.460792 0
0.543618 0.46157 0
0.565286 0.463706 0
0.586419 0.466178 0
0.607416 0.46688 0
0.628916 0.466758 0
0.649912 0.464515 0
0.672099 0.460945 0
0.692973 0.459586 0
0.710948 0.458396 0
0.730175 0.457664 0
0.750088 0.458061 0
0 0.324529 0
0 0.33434 0
0 0.346151 0
0 0.361227 0
0 0.3794 0
0 0.395636 0
0 0.410925 0
0 0.426459 0
0 0.438651 0
0 0.447868 0
0 0.459861 0
0.0173648 0.486076 0
0.133089 0.493187 0
0.21944 0.494026 0
0.284642 0.494591 0
0.332006 0.497047 0
0.370932 0.502037 0
0.405219 0.503594 0
0.437675 0.504952 0
0.468284 0.50396 0
0.49958 0.502297 0
0.529595 0.500877 0
0.555627 0.500633 0
0.578622 0.502098 0
0.599542 0.504051 0
0.618692 0.506706 0
0.639048 0.508553 0
0.660777 0.507942 0
0.682445 0.506493 0
0.701778 0.506081 0
0.719936 0.504295 0
0.738552 0.504295 0
0.756939 0.504738 0
0 0.353597 0
0 0.363317 0
0 0.374365 0
0 0.387228 0
0 0.404456 0
0 0.421454 0
0 0.435264 0
0 0.449897 0
0 0.462745 0
0 0.474037 0
0 0.484184 0
0 0.508675 0
0.11194 0.528267 0
0.209308 0.52929 0
0.28188 0.529763 0
0.338262 0.531548 0
0.382177 0.535515 0
0.416541 0.538674 0
0.447852 0.541314 0
0.479088 0.541466 0
0.509239 0.540963 0
0.538109 0.539391 0
0.566659 0.538369 0
0.591394 0.539055 0
0.611933 0.540917 0
0.631861 0.544427 0
0.650675 0.546105 0
0.671885 0.548333 0
0.692119 0.549172 0
0.71014 0.548562 0
0.728069 0.548424 0
0.746868 0.54847 0
0.764431 0.54815 0
0 0.382025 0
0 0.391928 0
0 0.400931 0
0 0.413077 0
0 0.430076 0
0 0.446326 0
0 0.459403 0
0 0.473274 0
0 0.486793 0
0 0.498543 0
0 0.510628 0
0 0.532189 0
0.0843061 0.554116 0
0.200717 0.562402 0
0.27747 0.563394 0
0.340566 0.563485 0
0.389822 0.567208 0
0.428214 0.57052 0
0.461448 0.573724 0
0.490517 0.57557 0
0.519493 0.577081 0
0.547768 0.576608 0
0.576181 0.576028 0
0.601724 0.575265 0
0.626047 0.576959 0
0.647181 0.578927 0
0.66659 0.580835 0
0.684138 0.584222 0
0.701335 0.586984 0
0.719219 0.588769 0
0.737118 0.589227 0
0.755322 0.589761 0
0.772366 0.590417 0
0 0.40943 0
0 0.418524 0
0 0.427207 0
0 0.438636 0
0 0.455543 0
0 0.471473 0
0 0.484428 0
0 0.497765 0
0 0.510903 0
0 0.522347 0
0 0.536065 0
0 0.556222 0
0.0623331 0.578088 0
0.189975 0.590967 0
0.274662 0.593622 0
0.34197 0.595697 0
0.395377 0.597101 0
0.438773 0.599313 0
0.475364 0.603967 0
0.504433 0.607553 0
0.532036 0.609903 0
0.559411 0.61178 0
0.585626 0.611902 0
0.611536 0.610971 0
0.637003 0.611612 0
0.659998 0.612497 0
0.679225 0.614527 0
0.6963 0.617578 0
0.712352 0.620768 0
0.727962 0.623392 0
0.745357 0.625757 0
0.763302 0.628153 0.00959792
0.781643 0.630106 0.0256504
0 0.436469 0
0 0.445243 0
0 0.453788 0
0 0.465888 0
0 0.481941 0
0 0.496818 0
0 0.509865 0
0 0.522576 0
0 0.535286 0
0 0.546395 0
0 0.557412 0
0 0.578058 0
0.0543679 0.601785 0
0.181369 0.616556 0
0.274083 0.622354 0
0.343603 0.623941 0
0.401251 0.626184 0
0.449058 0.62855 0
0.487175 0.632761 0
0.519173 0.636286 0
0.546502 0.639551 0
0.572015 0.6421 0
0.596414 0.643992 0
0.62031 0.643565 0
0.645197 0.643854 0
0.667979 0.644053 0
0.689143 0.645655 0
0.708415 0.649302 0
0.724269 0.652827 0.000320439
0.739773 0.65716 0.0132143
0.75523 0.660868 0.0268406
0.773129 0.665171 0.0450752
0.791272 0.668269 0.0669566
0 0.463371 0
0 0.472496 0
0 0.481361 0
0 0.49189 0
0 0.507347 0
0 0.522362 0
0 0.535195 0
0 0.547524 0
0 0.558312 0
0 0.569085 0
0 0.579049 0
0 0.596521 0
0.0577707 0.623758 0
0.17409 0.639689 0
0.275074 0.648768 0
0.346838 0.651102 0
0.407218 0.653422 0
0.457984 0.655558 0
0.498802 0.659541 0
0.532876 0.663157 0
0.561379 0.666667 0
0.585306 0.669093 0
0.608682 0.67097 0
0.630976 0.672679 0
0.6542 0.674372 0
0.676982 0.675959 0
0.699886 0.678538 0.00747692
0.720516 0.681926 0.021561
0.738659 0.686427 0.0370794
0.755383 0.69189 0.0559091
0.771054 0.697581 0.0778668
0.787488 0.703609 0.104814
0.80441 0.709041 0.133486
0 0.490623 0
0 0.499321 0
0 0.508385 0
0 0.518547 0
0 0.534112 0
0 0.548165 0
0 0.561624 0
0 0.572015 0
0 0.582116 0
