luts/gLUT008.cube
TITLE "Generated by Resolve"
LUT_3D_SIZE 33
0 0.0593271 0.0920272
0.0681163 0.0826276 0.0977493
0.163577 0.104341 0.100038
0.246403 0.123781 0.110643
0.334295 0.158343 0.130465
0.41236 0.193332 0.145983
0.479774 0.222431 0.15761
0.539971 0.246937 0.165942
0.596841 0.268437 0.171359
0.652354 0.28716 0.173587
0.710628 0.304036 0.172183
0.771603 0.317876 0.165026
0.83151 0.327169 0.150912
0.884596 0.331365 0.130663
0.928939 0.332403 0.105882
0.964034 0.331823 0.076936
0.993103 0.330327 0.0217594
1 0.328054 0
1 0.325765 0
1 0.323018 0
1 0.319844 0
1 0.31635 0
1 0.312306 0
1 0.30779 0
1 0.303456 0
1 0.298405 0
1 0.293477 0
1 0.288533 0
1 0.298238 0
1 0.312749 0
1 0.32726 0
1 0.34255 0
1 0.357565 0
0 0.0644694 0.0938582
0 0.0781109 0.0982834
0.11928 0.0930953 0.0973068
0.19791 0.113939 0.100008
0.28455 0.137652 0.116503
0.369146 0.17615 0.13489
0.443198 0.209583 0.148516
0.508003 0.237232 0.158282
0.565545 0.259998 0.16408
0.620233 0.279774 0.166537
0.677745 0.298421 0.166308
0.737819 0.314458 0.160281
0.799405 0.326726 0.146273
0.856626 0.33373 0.123247
0.90547 0.336675 0.0906539
0.944549 0.33669 0.0241398
0.976226 0.335821 0
1 0.334295 0
1 0.332311 0
1 0.330129 0
1 0.327047 0
1 0.324147 0
1 0.320333 0
1 0.316548 0
1 0.312505 0
1 0.308141 0
1 0.303899 0
1 0.299077 0
1 0.294667 0
1 0.305272 0
1 0.319875 0
1 0.335439 0
1 0.350744 0
0 0.0977493 0.109728
0 0.0893111 0.103044
0.0537118 0.0911727 0.0972457
0.153246 0.104585 0.0934615
0.232822 0.121981 0.0987716
0.318502 0.152987 0.118105
0.397787 0.189181 0.132952
0.467124 0.220188 0.143847
0.52903 0.246372 0.151217
0.586938 0.268986 0.155062
0.643671 0.28896 0.155276
0.703395 0.307317 0.150301
0.766323 0.322896 0.137118
0.826398 0.333089 0.111025
0.879683 0.338354 0.0631418
0.923888 0.340093 0
0.958877 0.339956 0
0.987762 0.338613 0
1 0.337255 0
1 0.335271 0
1 0.332769 0
1 0.330068 0
1 0.326818 0
1 0.323201 0
1 0.319814 0
1 0.315587 0
1 0.311742 0
1 0.307622 0
1 0.303304 0
1 0.299779 0
1 0.312139 0
1 0.327703 0
1 0.343496 0
0 0.124041 0.122042
0 0.112306 0.112398
0 0.104402 0.1037
0.107942 0.106096 0.0934005
0.184588 0.11873 0.0870222
0.267338 0.135225 0.0961624
0.349523 0.168841 0.114687
0.424033 0.201511 0.125734
0.489525 0.229465 0.133196
0.549752 0.253971 0.137469
0.608881 0.276539 0.138552
0.66775 0.29659 0.133898
0.730373 0.314641 0.120775
0.793484 0.328634 0.0905318
0.851789 0.337209 0
0.900862 0.340871 0
0.940352 0.341924 0
0.972549 0.341588 0
0.999741 0.340581 0
1 0.338796 0
1 0.336828 0
1 0.334447 0
1 0.331731 0
1 0.32845 0
1 0.325246 0
1 0.321523 0
1 0.317647 0
1 0.314229 0
1 0.310552 0
1 0.308003 0
1 0.305547 0
1 0.322042 0
1 0.338628 0
0 0.15288 0.138033
0 0.141085 0.126101
0 0.128283 0.114916
0.0385901 0.121309 0.107332
0.142489 0.123613 0.0948653
0.220035 0.132311 0.0772564
0.301518 0.154421 0.0904555
0.379171 0.185763 0.10518
0.449165 0.214618 0.112612
0.512444 0.240024 0.116213
0.572213 0.26276 0.116152
0.631647 0.283879 0.111009
0.694179 0.303685 0.095613
0.759625 0.320989 0.0523537
0.821439 0.332906 0
0.876188 0.339544 0
0.920775 0.342214 0
0.956085 0.342824 0
0.985382 0.342046 0
1 0.340932 0
1 0.339208 0
1 0.337179 0
1 0.33492 0
1 0.332021 0
1 0.329076 0
1 0.326635 0
1 0.323735 0
1 0.321157 0
1 0.31812 0
1 0.315618 0
1 0.313237 0
1 0.318303 0
1 0.335668 0
0 0.188968 0.159945
0 0.174731 0.144121
0 0.158724 0.128359
0 0.146136 0.121736
0.0964828 0.140139 0.11252
0.172519 0.142779 0.0986038
0.255756 0.153643 0.0811322
0.335897 0.177859 0.0781415
0.408133 0.204547 0.0879988
0.474754 0.229541 0.0908522
0.536828 0.252461 0.0881819
0.597086 0.27361 0.0796979
0.658473 0.293202 0.0539712
0.72433 0.31165 0
0.790509 0.326543 0
0.849851 0.335668 0
0.899535 0.340307 0
0.939055 0.342321 0
0.969909 0.342672 0
0.997955 0.342702 0
1 0.34168 0
1 0.340169 0
1 0.33817 0
1 0.33611 0
1 0.333379 0
1 0.331228 0
1 0.328588 0
1 0.325872 0
1 0.323415 0
1 0.320851 0
1 0.318425 0
1 0.31693 0
1 0.333486 0
0 0.241016 0.189456
0 0.225742 0.168536
0.0392309 0.203754 0.14815
0 0.180682 0.137209
0.0547951 0.167086 0.1299
0.13109 0.162951 0.119112
0.209079 0.168124 0.103624
0.29337 0.183413 0.0879225
0.36907 0.204257 0.0734569
0.438285 0.226078 0.0521706
0.50222 0.247456 0.0441596
0.5626 0.266987 0
0.624704 0.286229 0
0.690227 0.304311 0
0.758144 0.32018 0
0.822385 0.331579 0
0.876875 0.338827 0
0.92015 0.342168 0
0.955108 0.34345 0
0.984192 0.343679 0
1 0.343221 0
1 0.342123 0
1 0.340475 0
1 0.338293 0
1 0.336004 0
1 0.333471 0
1 0.331029 0
1 0.328573 0
1 0.325917 0
1 0.323522 0
1 0.321248 0
1 0.319417 0
1 0.331624 0
0 0.298634 0.221393
0 0.284977 0.19556
0 0.265232 0.172641
0 0.23949 0.154498
0 0.212711 0.147936
0.0846265 0.198718 0.138674
0.164477 0.196414 0.126131
0.252094 0.203693 0.109224
0.331777 0.217853 0.0929122
0.402564 0.23447 0.0749828
0.467552 0.251789 0.0475624
0.530434 0.269368 0
0.592309 0.286091 0
0.657206 0.302785 0
0.725902 0.318303 0
0.793103 0.330755 0
0.852766 0.338537 0
0.902312 0.342794 0
0.94052 0.344305 0
0.972549 0.344671 0
1 0.344228 0
1 0.34313 0
1 0.34168 0
1 0.33962 0
1 0.336919 0
1 0.334722 0
1 0.33228 0
1 0.329397 0
1 0.326711 0
1 0.324285 0
1 0.321889 0
1 0.319738 0
1 0.330068 0
0 0.355291 0.251514
0 0.343343 0.219287
0 0.325505 0.19176
0.049485 0.305089 0.171389
0 0.279179 0.167941
0 0.255985 0.160769
0.117662 0.243351 0.148821
0.209369 0.241047 0.132311
0.29604 0.245197 0.1131
0.371481 0.256519 0.0948653
0.437766 0.269154 0.0732433
0.500862 0.282826 0.0317235
0.563302 0.29688 0
0.62707 0.310399 0
0.695506 0.323796 0
0.766079 0.335103 0
0.830396 0.342412 0
0.884855 0.346441 0
0.927459 0.347829 0
0.962051 0.348104 0
0.992172 0.347601 0
1 0.34641 0
1 0.34464 0
1 0.34255 0
1 0.340185 0
1 0.337453 0
1 0.334859 0
1 0.33228 0
1 0.329625 0
1 0.326955 0
1 0.324483 0
1 0.322652 0
1 0.329671 0
0 0.41033 0.279377
0 0.39884 0.237873
0 0.383062 0.204288
0.0671397 0.365255 0.186435
0 0.344839 0.183536
0 0.323018 0.181552
0 0.304677 0.172869
0.169024 0.294942 0.157168
0.267674 0.291341 0.135653
0.346502 0.29395 0.115053
0.415717 0.301411 0.0935073
0.479438 0.310628 0.0654154
0.54229 0.321111 0
0.604242 0.330602 0
0.671351 0.340169 0
0.74229 0.348241 0
0.80972 0.353475 0
0.867658 0.355596 0
0.91429 0.356252 0
0.951629 0.355978 0
0.98378 0.355154 0
1 0.353811 0
1 0.35201 0
1 0.34963 0
1 0.347051 0
1 0.344564 0
1 0.341772 0
1 0.338994 0
1 0.336355 0
1 0.333516 0
1 0.33135 0
1 0.329503 0
1 0.330022 0
0 0.463035 0.303761
0 0.450797 0.25098
0 0.435462 0.21561
0.0885634 0.420386 0.199329
0.106966 0.40502 0.194324
0 0.388373 0.195865
0 0.371344 0.192706
0.132769 0.359518 0.180285
0.248157 0.350637 0.15903
0.333883 0.347585 0.136522
0.404257 0.348989 0.114214
0.467765 0.353246 0.0886549
0.528542 0.358618 0.0467231
0.589029 0.364355 0
0.652781 0.368811 0
0.721355 0.371878 0
0.790097 0.373144 0
0.851179 0.372671 0
0.90045 0.371374 0
0.940032 0.369924 0
0.973129 0.368353 0
1 0.366552 0
1 0.364538 0
1 0.362127 0
1 0.359365 0
1 0.356451 0
1 0.354009 0
1 0.351141 0
1 0.348363 0
1 0.345724 0
1 0.343526 0
1 0.34226 0
1 0.341405 0
0 0.50454 0.295079
0 0.500069 0.270481
0 0.484062 0.231586
0.112627 0.469749 0.209888
0.175937 0.457832 0.201038
0.151736 0.446281 0.200855
0.0966049 0.435386 0.202579
0.151446 0.423774 0.195178
0.247578 0.414023 0.177935
0.331899 0.407767 0.156252
0.401389 0.405539 0.134081
0.463142 0.40528 0.109865
0.520821 0.406043 0.0780652
0.578241 0.407156 0
0.637949 0.407187 0
0.703502 0.405158 0
0.770977 0.401526 0
0.834058 0.397543 0
0.88603 0.393622 0
0.927184 0.390524 0
0.961685 0.388022 0
0.992493 0.385687 0
1 0.383291 0
1 0.380758 0
1 0.377615 0
1 0.374517 0
1 0.371817 0
1 0.369284 0
1 0.366949 0
1 0.364996 0
1 0.363195 0
1 0.361883 0
1 0.361959 0
0 0.543496 0.298054
0 0.545556 0.287083
0 0.52813 0.241199
0.151614 0.515068 0.217762
0.225498 0.505486 0.206348
0.231739 0.497276 0.20322
0.205921 0.489326 0.205158
0.214282 0.480934 0.201846
0.267903 0.472282 0.190265
0.337301 0.46537 0.172229
0.403464 0.461494 0.151522
0.461189 0.458869 0.129274
0.515511 0.45655 0.102281
0.569375 0.454063 0.0593423
0.625116 0.450431 0
0.686732 0.444617 0
0.753079 0.437201 0
0.815579 0.428977 0
0.869627 0.422156 0
0.91284 0.417212 0
0.948409 0.413214 0
0.980194 0.409964 0
1 0.407309 0
1 0.404547 0
1 0.401572 0
1 0.399176 0
1 0.396902 0
1 0.394598 0
1 0.392477 0
1 0.390555 0
1 0.388922 0
1 0.387854 0
1 0.387411 0
0 0.581048 0.300298
0 0.582467 0.289387
0 0.566384 0.245792
0.195392 0.555383 0.222492
0.264225 0.546593 0.210269
0.280461 0.540352 0.205753
0.269139 0.534646 0.206363
0.267613 0.528862 0.205249
0.298558 0.522133 0.197238
0.351324 0.515999 0.183001
0.406943 0.511116 0.165576
0.459098 0.506889 0.145968
0.509865 0.503441 0.122393
0.559503 0.499214 0.0912947
0.611978 0.493797 0
0.670451 0.486 0
0.734005 0.47567 0
0.797345 0.464607 0
0.852689 0.454902 0
0.898116 0.448264 0
0.936065 0.443793 0
0.968704 0.440177 0
0.999222 0.437507 0
1 0.434897 0
1 0.432258 0
1 0.429572 0
1 0.427131 0
1 0.424613 0
1 0.422217 0
1 0.419791 0
1 0.417548 0
1 0.41529 0
1 0.41387 0
0 0.615503 0.301595
0 0.612955 0.283207
0 0.599435 0.246708
0.235767 0.589578 0.225269
0.29688 0.582528 0.213107
0.316304 0.577142 0.207706
0.312673 0.57258 0.207416
0.308797 0.568276 0.207019
0.327901 0.563119 0.201556
0.366735 0.557626 0.190509
0.41265 0.552789 0.175845
0.459174 0.548638 0.158907
0.504646 0.544594 0.138842
0.550729 0.540078 0.113573
0.599344 0.534142 0.073518
0.654154 0.525765 0
0.715862 0.514412 0
0.780346 0.50219 0
0.838575 0.491539 0
0.886015 0.483787 0
0.924773 0.478355 0
0.95877 0.474434 0
0.98967 0.471 0
1 0.468132 0
1 0.465309 0
1 0.462669 0
1 0.459083 0
1 0.455436 0
1 0.451774 0
1 0.448432 0
1 0.445274 0
1 0.442496 0
1 0.440085 0
0 0.646525 0.302266
0 0.639704 0.275044
0.110872 0.628214 0.245304
0.271275 0.619852 0.226551
0.322957 0.613458 0.215213
0.342504 0.608911 0.209827
0.34284 0.605142 0.208881
0.339345 0.601663 0.208881
0.352468 0.597467 0.204562
0.382254 0.592981 0.195773
0.420325 0.588281 0.183627
0.461769 0.584558 0.168643
0.502739 0.58088 0.151324
0.545525 0.576867 0.129793
0.591485 0.571908 0.0984054
0.643763 0.564416 0
0.704463 0.553567 0
0.76849 0.540795 0
0.827207 0.528923 0
0.875486 0.519615 0
0.914885 0.513375 0
0.94902 0.508659 0
0.979751 0.504921 0
1 0.501305 0
1 0.497093 0
1 0.492927 0
1 0.488579 0
1 0.484413 0
1 0.479988 0
1 0.475563 0
1 0.471595 0
1 0.468269 0
1 0.465156 0
0 0.674998 0.302388
0 0.664256 0.268193
0.20441 0.65449 0.243412
0.304082 0.647334 0.226993
0.346639 0.64155 0.216846
0.364752 0.63769 0.211688
0.365866 0.634256 0.210636
0.362844 0.631006 0.210422
0.372808 0.627466 0.207111
0.39794 0.623529 0.199451
0.432471 0.619791 0.188205
0.4701 0.616846 0.174884
0.508553 0.614374 0.15906
0.548424 0.61117 0.139696
0.591165 0.60679 0.112856
0.640314 0.599954 0.0618906
0.697673 0.589471 0
0.759472 0.576486 0
0.818158 0.563729 0
0.866972 0.553597 0
0.90605 0.546075 0
0.939086 0.540093 0
0.969131 0.535042 0
0.997757 0.53051 0
1 0.525643 0
1 0.520607 0
1 0.515846 0
1 0.510781 0
1 0.506096 0
1 0.501534 0
1 0.497032 0
1 0.493217 0
1 0.490013 0
0 0.698161 0.292744
0 0.687877 0.26302
0.255253 0.679591 0.242115
0.3299 0.673259 0.227741
0.365988 0.668101 0.218448
0.381064 0.664225 0.213886
0.383825 0.661631 0.212619
0.382605 0.659129 0.21239
0.392935 0.656291 0.209049
0.416327 0.653086 0.20177
0.448371 0.650263 0.191196
0.482338 0.6477 0.178698
0.517098 0.645136 0.164508
0.553185 0.642115 0.146883
0.592355 0.637858 0.123156
0.637919 0.631617 0.0835737
0.691203 0.621515 0
0.749493 0.608392 0
0.805341 0.594827 0
0.854749 0.583429 0
0.894347 0.574472 0
0.928298 0.567651 0
0.958556 0.561669 0
0.986786 0.5561 0
1 0.550927 0
1 0.545678 0
1 0.540429 0
1 0.535698 0
1 0.53051 0
1 0.525826 0
1 0.521416 0
1 0.517418 0
1 0.514153 0
0 0.721508 0.318364
0.0999008 0.712566 0.282628
0.286656 0.705242 0.251835
0.352407 0.699596 0.228763
0.38349 0.695384 0.220569
0.397345 0.69247 0.216403
0.399756 0.690532 0.215351
0.399847 0.688151 0.214664
0.410163 0.685359 0.211154
0.431022 0.681987 0.204395
0.459922 0.679179 0.19472
0.490761 0.676555 0.183413
0.522622 0.673884 0.170077
0.55523 0.670634 0.157122
0.589715 0.666224 0.141939
0.62948 0.659586 0.119295
0.677272 0.649897 0.078233
0.732586 0.637507 0
0.78822 0.623606 0
0.83827 0.610574 0
0.880888 0.600671 0
0.915694 0.59263 0
0.946731 0.586023 0
0.975387 0.580179 0
1 0.574639 0
1 0.569421 0
1 0.564111 0
1 0.558846 0
1 0.553979 0
1 0.549371 0
1 0.544533 0
1 0.540871 0
1 0.537438 0
0 0.747829 0.354726
0.131777 0.740719 0.328695
0.288502 0.7346 0.30576
0.350622 0.729915 0.287144
0.383505 0.726146 0.271153
0.399649 0.723018 0.256153
0.405264 0.720577 0.242451
0.40679 0.718242 0.238529
0.416312 0.715007 0.23389
0.435218 0.711299 0.227207
0.460349 0.707225 0.21886
0.487724 0.703746 0.210391
0.516304 0.700114 0.201129
0.546487 0.696635 0.191211
0.578546 0.691951 0.178882
0.614511 0.685588 0.162585
0.657938 0.676753 0.138811
0.708812 0.664698 0.100526
0.76463 0.651194 0
0.817624 0.637568 0
0.862623 0.626062 0
0.900725 0.617304 0
0.932784 0.609888 0
0.962692 0.603937 0
0.99089 0.598032 0
1 0.592706 0
1 0.587152 0
1 0.582071 0
1 0.577188 0
1 0.572412 0
1 0.568139 0
1 0.564065 0
1 0.560647 0
0 0.779965 0.398489
0.110262 0.77351 0.376913
0.275807 0.768048 0.357809
0.338949 0.76347 0.341054
0.372641 0.759213 0.325292
0.390738 0.755657 0.309926
0.398398 0.752514 0.294759
0.404334 0.747997 0.272786
0.413016 0.743603 0.262379
0.428367 0.73875 0.255558
0.450752 0.733913 0.247547
0.477104 0.729915 0.239475
0.503655 0.725475 0.230594
0.531868 0.721141 0.221164
0.562341 0.716381 0.210468
0.595575 0.71043 0.19733
0.634821 0.702663 0.179889
0.682414 0.69192 0.154757
0.736385 0.678798 0.11899
0.791012 0.664866 0.0595407
0.840467 0.652247 0
0.881834 0.642283 0
0.916609 0.634119 0
0.947951 0.627527 0
0.977081 0.621561 0
1 0.615946 0
1 0.610605 0
1 0.605264 0
1 0.600381 0
1 0.595987 0
1 0.591806 0
1 0.587747 0
1 0.584558 0
0 0.815427 0.427863
0.0848402 0.809537 0.409461
0.265354 0.803922 0.392584
0.329168 0.798215 0.376486
0.364538 0.792554 0.359808
0.384619 0.787106 0.342016
0.395453 0.782574 0.323003
0.402289 0.777264 0.298817
0.406546 0.771466 0.289509
0.417609 0.765423 0.282475
0.437079 0.760159 0.274952
0.460929 0.754681 0.266407
0.486839 0.750042 0.258076
0.513817 0.745373 0.249256
0.542535 0.740307 0.239445
0.573785 0.73489 0.228443
0.6103 0.727901 0.214282
0.654078 0.718547 0.195163
0.705318 0.706188 0.168933
0.760662 0.692378 0.135393
0.813519 0.67892 0.0923781
0.85977 0.667826 0
0.897963 0.658854 0
0.930831 0.651331 0
0.962066 0.645258 0
0.990982 0.63949 0
1 0.634272 0
1 0.629358 0
1 0.624445 0
1 0.619638 0
1 0.615747 0
1 0.611765 0
1 0.608667 0
0 0.853559 0.450538
0 0.846189 0.430426
0.254795 0.83917 0.412421
0.323964 0.832486 0.395087
0.362585 0.825498 0.377203
0.385153 0.818875 0.359228
0.398123 0.811841 0.335882
0.400763 0.805508 0.321416
0.400153 0.799176 0.31574
0.407019 0.792721 0.309071
0.421866 0.78616 0.301289
0.442924 0.780102 0.293034
0.467781 0.774762 0.284703
0.493767 0.769848 0.276387
0.521538 0.764981 0.267567
0.551171 0.759472 0.257557
0.584848 0.75317 0.245716
0.624567 0.744915 0.230274
0.672801 0.733883 0.209369
0.727016 0.72076 0.183124
0.783017 0.707256 0.152789
0.833371 0.694377 0.11899
0.876036 0.684398 0.0820478
0.912291 0.676234 0
0.945006 0.669673 0
0.975586 0.663813 0
1 0.658778 0
1 0.653483 0
1 0.649042 0
1 0.644251 0
1 0.640269 0
1 0.636698 0
1 0.634058 0
0 0.889525 0.463554
0 0.884291 0.448447
0.244068 0.875746 0.427893
0.320638 0.866926 0.407584
0.364019 0.858701 0.387671
0.390768 0.850446 0.365072
0.399969 0.842985 0.355108
0.400046 0.835752 0.348669
0.396216 0.828229 0.342336
0.398093 0.820844 0.335531
0.407965 0.813489 0.327855
0.425101 0.806455 0.319539
0.447623 0.800198 0.311116
0.472663 0.794797 0.302937
0.499535 0.789822 0.294682
0.527687 0.78439 0.285557
0.559121 0.778698 0.275425
0.595315 0.771145 0.262364
0.63949 0.761715 0.245533
0.691447 0.749752 0.223819
0.748394 0.736095 0.197787
0.802625 0.722713 0.17026
0.850401 0.711604 0.144106
0.890257 0.702495 0.119066
0.925704 0.695476 0.0939956
0.958267 0.689586 0.0632334
0.989822 0.684276 0
1 0.679271 0
1 0.674662 0
1 0.670237 0
1 0.666697 0
1 0.663142 0
1 0.660075 0
0 0.923156 0.469718
0 0.920714 0.460472
0.231128 0.912596 0.440589
0.318898 0.902785 0.417777
0.363485 0.893645 0.402792
0.386053 0.884276 0.392752
0.397436 0.875776 0.384283
0.399771 0.86743 0.37673
0.39559 0.859037 0.369741
0.392416 0.850599 0.3626
0.39649 0.842237 0.354788
0.408896 0.834302 0.346456
0.42858 0.827466 0.338201
0.451469 0.821042 0.329778
0.477165 0.815656 0.321736
0.504005 0.810285 0.313329
0.533761 0.8047 0.304097
0.567544 0.798505 0.293462
0.607553 0.790143 0.279423
0.656001 0.779187 0.260929
0.711498 0.766339 0.238468
0.768109 0.752667 0.213657
0.821042 0.740658 0.18996
0.865507 0.730861 0.169055
0.904341 0.723537 0.151186
0.939132 0.71725 0.134295
0.972305 0.711681 0.117281
1 0.706737 0.0994736
1 0.702296 0.0793011
1 0.698482 0.0531777
1 0.694545 0
1 0.691905 0
1 0.688914 0
0.219928 0.956771 0.475654
0.226368 0.953323 0.463615
0.218418 0.949187 0.45864
0.299474 0.940108 0.447059
0.350591 0.930159 0.435218
0.379599 0.920241 0.424491
0.394705 0.910414 0.41474
0.400275 0.900954 0.406027
0.397833 0.891859 0.398306
0.391699 0.882658 0.390829
0.389868 0.873487 0.382971
0.396353 0.864439 0.374426
0.411612 0.856535 0.365972
0.431952 0.849271 0.357412
0.456031 0.843519 0.34963
0.481682 0.838041 0.341711
0.509743 0.832624 0.333318
0.540963 0.826535 0.323674
0.577935 0.819486 0.312062
0.621851 0.809918 0.296696
0.674846 0.798123 0.277195
0.732647 0.784619 0.254429
0.788907 0.77203 0.231983
0.838544 0.761517 0.212039
0.880964 0.753338 0.195392
0.918486 0.747036 0.181399
0.953124 0.741299 0.1682
0.986786 0.736782 0.156451
1 0.73283 0.145266
1 0.729244 0.134432
1 0.72604 0.123827
1 0.723018 0.113436
1 0.720623 0.104112
0.314473 0.990738 0.489052
0.307362 0.987167 0.486442
0.29752 0.982361 0.482918
0.285618 0.97673 0.478798
0.335241 0.967544 0.468162
0.371908 0.957153 0.456794
0.391485 0.946792 0.446403
0.400702 0.936385 0.436698
0.400854 0.926284 0.427955
0.394965 0.916564 0.420035
0.388083 0.906554 0.411948
0.388479 0.896895 0.40351
0.397604 0.887724 0.39472
0.414481 0.879667 0.386099
0.436042 0.873014 0.378103
0.460563 0.867491 0.370626
0.487404 0.862257 0.362966
0.516609 0.856352 0.354208
0.550622 0.850156 0.34432
0.590417 0.841718 0.33135
0.640238 0.831434 0.314809
0.696757 0.818662 0.294377
0.755199 0.805859 0.272938
0.809567 0.794537 0.253086
0.85594 0.785779 0.236744
0.897139 0.779522 0.223758
0.934051 0.774197 0.212406
0.969192 0.769726 0.202304
1 0.766415 0.193591
1 0.762707 0.18471
1 0.759579 0.176715
1 0.757198 0.169848
1 0.755138 0.163836
0.376379 1 0.513787
0.36994 1 0.51107
0.362158 1 0.50782
0.351598 1 0.503471
0.339498 1 0.498634
0.360296 0.994965 0.48983
0.387304 0.983963 0.478584
0.400839 0.973053 0.468223
0.40444 0.962509 0.4589
