luts/gLUT006.cube
TITLE "Generated by Resolve"
LUT_3D_SIZE 9
0 0.0207065 0
0 0.0205997 0
0 0.0205386 0
0 0.0208743 0
0 0.0198367 0
0 0.0221103 0
0 0.0237888 0
0 0.025864 0
0.0137331 0.024033 0
0 0.0230869 0
0 0.0206302 0
0 0.0189975 0
0 0.0217746 0
0 0.0252689 0
0.0018616 0.0297093 0
0.024445 0.0286259 0
0.0437781 0.0262913 0
0.0610513 0.0217136 0
0 0.0276799 0
0 0.0319982 0
0.0111238 0.0355535 0
0.0134737 0.0450446 0
0.107759 0.0313573 0
0.193027 0.0224918 0
0.256031 0.012253 0
0.28751 0.00451667 0
0.320317 0.000442512 0
0 0.0881514 0
0 0.137682 0
0 0.148547 0
0.130037 0.139696 0
0.186435 0.14313 0
0.316838 0.114015 0
0.411536 0.0983597 0
0.514824 0.0749676 0
0.572351 0.0733349 0
0 0.18117 0
0 0.243946 0
0 0.30135 0
0.161074 0.297627 0
0.300435 0.28957 0
0.392569 0.295064 0
0.494255 0.281285 0
0.610742 0.256535 0
0.685817 0.259998 0
0 0.29662 0
0 0.352789 0
0 0.412833 0
0.148241 0.455787 0
0.359945 0.464469 0
0.489708 0.461143 0
0.586419 0.466178 0
0.672099 0.460945 0
0.750088 0.458061 0
0 0.40943 0
0 0.455543 0
0 0.510903 0
0.0623331 0.578088 0
0.395377 0.597101 0
0.532036 0.609903 0
0.637003 0.611612 0
0.712352 0.620768 0
0.781643 0.630106 0.0256504
0 0.518517 0
0 0.559655 0
0 0.607095 0
0.0454414 0.656321 0
0.421332 0.704143 0
0.587961 0.716106 0
0.685313 0.738384 0.0624247
0.776059 0.765011 0.177172
0.854948 0.799695 0.314488
0 0.624277 0
0 0.655833 0
0.00950637 0.690242 0
0.087541 0.729244 0
0.47303 0.794537 0.0750286
0.67837 0.836439 0.245258
0.823255 0.899031 0.438453
0.906508 0.93019 0.54377
0.970962 0.936141 0.652873
0 0.0207218 0
0 0.0204929 0
0 0.0198672 0
0 0.0200046 0
0 0.0199893 0
0 0.021973 0
0 0.023331 0
0.00303655 0.0252232 0
0.0218357 0.0229496 0
0 0.022858 0
0 0.0206149 0
0 0.0181582 0
0 0.0217746 0
0.00349432 0.0250858 0
0.0170596 0.0276341 0
0.0585336 0.0232395 0
0.098909 0.0182345 0
0.130343 0.0112001 0
0 0.0340429 0
0 0.0345769 0
0.00822461 0.0357824 0
0.0183566 0.039704 0
0.116793 0.0285191 0
0.197253 0.0149386 0
0.258 0.0043946 0
0.307881 0 0
0.363958 0 0
0 0.107805 0
0 0.12311 0
0 0.156176 0
0.111055 0.139834 0
0.191562 0.131884 0
0.342214 0.10222 0
0.459815 0.0803388 0
0.557137 0.058854 0
0.629786 0.0573281 0
0 0.205447 0
0 0.251789 0
0 0.30518 0
0.127733 0.308049 0
0.305547 0.302663 0
0.409491 0.304646 0
0.556039 0.263142 0
0.655406 0.250095 0
0.750134 0.250767 0
0 0.315709 0
0 0.354467 0
0 0.406302 0
0.0207523 0.474174 0
0.362371 0.484443 0
0.504906 0.484123 0
0.609232 0.480446 0
0.711574 0.458915 0
0.808911 0.451942 0
0 0.427817 0
0 0.463554 0
0 0.50547 0
0 0.564858 0
0.368246 0.619684 0
0.544152 0.629969 0
0.655741 0.627985 0
0.740414 0.636423 0.0075227
0.827588 0.634287 0.0978256
0 0.536446 0
0 0.566064 0
0 0.597238 0
0 0.634745 0
0.369863 0.719554 0
0.589364 0.73547 0.0185092
0.706767 0.762783 0.136461
0.80061 0.786435 0.254002
0.874922 0.810498 0.369665
0 0.638911 0
0 0.661952 0
0.00263981 0.685603 0
0.0214694 0.71014 0
0.408637 0.797848 0.092958
0.658228 0.846815 0.272694
0.825971 0.904234 0.456001
0.919066 0.93373 0.577951
0.973159 0.937469 0.679744
0 0.0210422 0
0 0.0201877 0
0 0.0186923 0
0.00111391 0.0200046 0
0.00976577 0.0229038 0
0.00291447 0.0243229 0
0.00334173 0.0252689 0
0.00730907 0.0270542 0
0.031281 0.0233616 0
0 0.022446 0
0 0.0201724 0
0.00354009 0.0169985 0
0.0160067 0.0211948 0
0.0187686 0.0267491 0
0.0456397 0.0242924 0
0.108293 0.016968 0
0.166812 0.0075227 0
0.201587 0.00047303 0
0 0.0338293 0
0 0.0289616 0
0.00238041 0.0261845 0
0.0361791 0.0278172 0
0.128313 0.0166323 0
0.224781 0.000411994 0
0.289738 0 0
0.35787 0 0
0.420157 0 0
0 0.117769 0
0 0.129961 0
0 0.133318 0
0.0918441 0.124483 0
0.248234 0.103899 0
0.422492 0.070573 0
0.562524 0.0332799 0
0.618616 0.0204166 0
0.635203 0.0105287 0
0 0.258152 0
0 0.285359 0
0 0.290532 0
0.041886 0.311437 0
0.28632 0.300008 0
0.421225 0.291981 0
0.650752 0.230945 0
0.751553 0.217182 0
0.825299 0.212146 0
0 0.373602 0
0 0.390143 0
0 0.413993 0
0 0.450614 0
0.33193 0.487739 0
0.497841 0.489418 0
0.638117 0.470863 0
0.809277 0.425788 0
0.882368 0.42179 0.0545357
0 0.47985 0
0 0.499535 0
0 0.517784 0
0 0.542596 0
0.291646 0.637736 0
0.545373 0.646586 0
0.677775 0.643137 0
0.800015 0.636271 0.0827955
0.879042 0.618982 0.174838
0 0.584085 0
0 0.603296 0
0 0.623255 0
0 0.635996 0
0.253651 0.730617 0
0.567849 0.761547 0.0563211
0.723812 0.784497 0.206226
0.820371 0.79881 0.307713
0.89247 0.815381 0.405783
0 0.679667 0.00619516
0 0.693767 0.012314
0.0144503 0.710628 0.0201724
0.018204 0.716686 0
0.245701 0.783246 0.0921798
0.618387 0.857939 0.3019
0.817838 0.905516 0.466133
0.923186 0.934768 0.600183
0.974044 0.936126 0.69865
0 0.0228428 0
0 0.0198978 0
0.00225834 0.0173953 0
0.00932326 0.0174563 0
0.0281376 0.018967 0
0.0440681 0.0223697 0
0.115892 0.0137789 0
0.125429 0.0135348 0
0.0992752 0.0157321 0
0 0.0194705 0
0 0.0188296 0
0.015198 0.0137484 0
0.0448157 0.0142977 0
0.104601 0.0149691 0
0.213336 0 0
0.249943 0 0
0.26659 0 0
0.289296 0 0
0 0.0310826 0
0.00134279 0.0223087 0
0.0180056 0.0168765 0
0.0748302 0.0120241 0
0.158694 0.00563058 0
0.340261 0 0
0.370626 0 0
0.410834 0 0
0.472663 0 0
0 0.108904 0
0 0.105272 0
0 0.0929274 0
0.0889601 0.0816968 0
0.282185 0.0533303 0
0.474739 0.0225528 0
0.53434 0.0109712 0
0.546105 0.00520333 0
0.561486 0.00450141 0
0 0.265156 0
0 0.281437 0
0 0.272267 0
0 0.291966 0
0.273198 0.276371 0
0.502556 0.230869 0
0.726696 0.170565 0
0.817319 0.165515 0
0.854932 0.154421 0.0274968
0 0.411475 0
0 0.449226 0
0 0.454795 0
0 0.459281 0
0.235111 0.513741 0
0.488075 0.485618 0
0.665782 0.447471 0
0.849088 0.390967 0.0571908
0.923873 0.386801 0.15584
0 0.538827 0.00515755
0 0.571054 0.00648508
0 0.572351 0
0 0.570733 0
0.129793 0.658579 0
0.500267 0.656626 0
0.675624 0.645045 0.0138552
0.83209 0.609903 0.12723
0.907103 0.598718 0.224781
0 0.637827 0.0646372
0 0.659785 0.0763561
0 0.673884 0.0620432
0 0.6692 0.0174411
0 0.684138 0
0.497887 0.783871 0.106783
0.726925 0.791363 0.253285
0.837446 0.810544 0.360876
0.90164 0.81355 0.426947
0.00698863 0.711192 0.163058
0.0332189 0.726604 0.181765
0.0606241 0.746715 0.202747
0.060441 0.752056 0.181201
0.0807202 0.761334 0.151827
0.54432 0.858473 0.318151
0.787457 0.900465 0.460334
0.916747 0.930632 0.60296
0.969131 0.936034 0.695445
0 0.0224765 0
0 0.0192874 0
0.00671397 0.0160983 0
0.0284276 0.0125582 0
0.051667 0.0116732 0
0.0623636 0.0156558 0
0.113313 0.0131228 0
0.206058 0 0
0.309926 0 0
0 0.0200198 0
0.00456245 0.0167697 0
0.0215763 0.0118715 0
0.086183 0.00389105 0.00605783
0.156893 0 0.0189517
0.266621 0 0.00939956
0.315358 0 0
0.359426 0 0
0.404578 0 0
0.0100252 0.0186465 0
0.018143 0.013489 0.0171817
0.0241703 0.0114595 0.0196689
0.112306 0 0.0454108
0.218723 0 0.0562905
0.373007 0 0.0632029
0.460578 0 0.0179751
0.469627 0 0
0.509178 0 0
0 0.0999619 0.0639353
0 0.0924086 0.0927749
0 0.0797284 0.0937972
0.124224 0.0525063 0.181125
0.303761 0.0075227 0.136309
0.43415 0 0.0989395
0.522515 0 0.0755932
0.587427 0 0
0.596582 0.00177005 0
0 0.239719 0.10042
0 0.243824 0.111772
0 0.228046 0.105119
0 0.227588 0.122484
0.227161 0.210056 0.130007
0.487831 0.17908 0.0702373
0.695094 0.139483 0.0390021
0.784543 0.115206 0.0150759
0.809125 0.094316 0.0227665
0 0.39881 0.128557
0 0.422568 0.139422
0 0.419791 0.128435
0 0.406577 0.118975
0.101549 0.474907 0.0847639
0.450996 0.449638 0.0969406
0.652506 0.408591 0.0785687
0.870542 0.336065 0.184878
0.917769 0.327016 0.174685
0 0.544488 0.153063
0 0.582132 0.179034
0 0.603311 0.176669
0 0.599878 0.165972
0.0251011 0.651713 0.126955
0.42501 0.657618 0.0878462
0.641688 0.628473 0.153277
0.769619 0.609491 0.181506
0.91458 0.570184 0.286793
0 0.650996 0.209949
0.0109865 0.686229 0.25098
0.0271458 0.706264 0.254505
0.0148775 0.703288 0.215015
0 0.691814 0.168185
0.395499 0.785946 0.183169
0.696635 0.786679 0.279408
0.831174 0.809689 0.378439
0.896864 0.806607 0.414221
0.0471656 0.725994 0.284047
0.0938735 0.752438 0.325704
0.11751 0.769497 0.336538
0.124361 0.776135 0.327443
0.101457 0.766567 0.284031
0.358495 0.826154 0.296895
0.74728 0.900954 0.480354
0.9028 0.927199 0.604288
0.964248 0.932265 0.684672
0 0.0214237 0
0.000366217 0.0179904 0
0.0107424 0.0149538 0
0.0389563 0.0108339 0
0.0714427 0.00787366 0
0.0898604 0.00883497 0
0.0950179 0.0139773 0
0.180545 0 0
0.264408 0 0
0.0055848 0.0164797 0
0.0138705 0.0140536 0
0.0251164 0.0104829 0.00892653
0.0906081 0 0.0643168
0.166049 0 0.0754406
0.239918 0 0.0793622
0.334066 0 0.0731365
0.415335 0 0.0706798
0.45565 0 0.0480354
0.0178073 0.0129854 0.0153506
0.0236667 0.00961318 0.0400397
0.0254368 0.00892653 0.0503853
0.12343 0 0.139956
0.229587 0 0.144244
0.325322 0 0.14728
0.451301 0 0.142412
0.527001 0 0.129519
0.570077 0 0.080354
0 0.0663767 0.165499
0.0154879 0.0602579 0.208927
0.0346075 0.0332952 0.219181
0.166522 0.013489 0.339132
0.321874 0 0.280674
0.39585 0 0.207477
0.506798 0 0.187716
0.588846 0 0.177584
0.666285 0 0.112642
0 0.211612 0.194064
0 0.22269 0.229007
0 0.208148 0.233921
0.0214542 0.205234 0.263676
0.262287 0.180804 0.37261
0.516838 0.120623 0.347906
0.701579 0.0743267 0.292714
0.792081 0.0415503 0.259098
0.825162 0.0336156 0.216068
0 0.380011 0.246693
0 0.400214 0.275502
0 0.394461 0.279622
0 0.373571 0.266102
0.135195 0.415061 0.328878
0.408179 0.382132 0.311269
0.623117 0.359548 0.2551
0.824948 0.326604 0.218387
0.939498 0.281895 0.257511
0 0.538552 0.295109
0 0.564858 0.319341
0 0.573495 0.32015
0 0.560418 0.298085
0.0116426 0.577493 0.285084
0.316625 0.617578 0.285908
0.613382 0.596933 0.318914
0.792386 0.563134 0.309483
0.962188 0.495079 0.366033
0.0191958 0.65185 0.331121
0.052018 0.681208 0.361135
0.0721141 0.704814 0.371908
0.0786603 0.71635 0.368795
0.0685893 0.70869 0.356176
0.303807 0.78555 0.354833
0.621561 0.795483 0.348409
0.826627 0.796841 0.415381
0.902434 0.782803 0.447929
0.0856794 0.728389 0.372778
0.132403 0.757458 0.414969
0.163561 0.780148 0.436316
0.182757 0.794186 0.443122
0.16495 0.787427 0.41503
0.262287 0.814466 0.396841
0.652003 0.889677 0.477531
0.887266 0.924224 0.617517
0.947341 0.92604 0.660777
0 0.018143 0
0.0118563 0.0146334 0
0.0209659 0.0119783 0
0.049897 0.00596628 0.0305333
0.0989395 0 0.0387274
0.139971 0 0.0439765
0.174487 0 0.0359197
0.198032 0 0.00740063
0.226322 0 0
0.0183108 0.0127565 0
0.0223087 0.0111391 0.00665293
0.0231937 0.00993362 0.0339818
0.0780804 0 0.108141
0.17792 0 0.145296
0.236423 0 0.144259
0.30396 0 0.138598
0.382818 0 0.121996
0.459709 0 0.117586
0.0243534 0.00936904 0.0448463
0.0280919 0.00801099 0.0653391
0.0320745 0.00689708 0.087541
0.121843 0 0.193835
0.23447 0 0.238193
0.316121 0 0.224628
0.398093 0 0.214618
0.498131 0 0.197024
0.577508 0 0.19324
0.0382849 0.0278019 0.21709
0.057969 0.0182345 0.243107
0.0774243 0.00468452 0.249393
0.163622 0 0.347662
0.275563 0 0.34139
0.3776 0 0.28043
0.46302 0 0.267048
0.580667 0 0.258366
0.658045 0 0.249271
0.0120241 0.177554 0.269108
0.0331121 0.184512 0.313466
0.0521248 0.171389 0.342153
0.0887465 0.154269 0.378988
0.302953 0.14255 0.544869
0.534722 0.0911727 0.517052
0.69456 0.0531624 0.460838
0.810788 0.0415045 0.408347
0.793332 0.00572213 0.339223
0.0262913 0.349401 0.326909
0.0421149 0.37084 0.362203
0.0531472 0.377462 0.383536
0.0533455 0.350164 0.375006
0.192172 0.38854 0.505943
0.428489 0.361715 0.498222
0.660777 0.311238 0.487022
0.855329 0.284916 0.444968
0.963012 0.229679 0.4336
0.0295262 0.518456 0.381292
0.0506905 0.542931 0.413169
0.0615702 0.553429 0.429175
0.0554055 0.533089 0.420264
0.100313 0.546899 0.444587
0.324498 0.569528 0.475349
0.576883 0.545296 0.463142
0.753964 0.535668 0.409064
0.930159 0.488655 0.371298
0.0717784 0.647913 0.423682
0.103044 0.670985 0.453437
0.119066 0.689021 0.467857
0.116121 0.689815 0.462196
0.0920882 0.673136 0.433829
0.203418 0.739391 0.431693
0.497124 0.783383 0.44892
0.799481 0.774029 0.495628
0.930556 0.736797 0.509651
0.132052 0.732265 0.459098
0.166125 0.755337 0.491753
0.1897 0.77438 0.50753
0.208728 0.789502 0.51635
0.213123 0.79559 0.511955
0.319463 0.833997 0.535592
0.608225 0.911177 0.591333
0.857862 0.929107 0.634867
0.941512 0.920287 0.658335
0.0201877 0.0118868 0.00935378
0.0226444 0.0101778 0.0299382
0.0250401 0.00910964 0.0479744
0.0431983 0.00436408 0.0841077
0.130159 0 0.125551
0.178683 0 0.121141
0.218784 0 0.118822
0.246357 0 0.0944076
0.259251 0 0.0529488
0.0211032 0.0109407 0.0251011
0.024445 0.00932326 0.0446632
0.0277562 0.00813306 0.063386
0.053315 0.00149538 0.124697
0.176867 0 0.215564
0.244984 0 0.210559
0.298604 0 0.208301
0.362173 0 0.197971
0.432074 0 0.175937
0.0294347 0.00762951 0.072755
0.0335088 0.00654612 0.0950027
0.0377203 0.00556954 0.114977
0.0995041 0 0.196857
0.222065 0 0.29456
0.309178 0 0.285496
0.376822 0 0.281498
0.453468 0 0.271305
0.5411 0 0.254124
0.0589456 0.00605783 0.211276
0.0698863 0.00228885 0.218479
0.0767681 0.000137331 0.222965
0.129641 0 0.295216
0.262211 0 0.39585
0.356252 0 0.353475
0.448188 0 0.343099
0.53106 0 0.334112
0.63061 0 0.318975
0.0477302 0.138262 0.329717
0.0750439 0.137102 0.367132
0.105684 0.122545 0.401175
0.132082 0.100099 0.428077
0.321508 0.105974 0.645197
0.488396 0.0571756 0.635019
0.651484 0.0132143 0.556573
0.676219 0 0.456336
0.748379 0 0.405188
0.0644236 0.318074 0.38436
0.0881056 0.331014 0.422004
0.108049 0.329839 0.452979
0.12697 0.298146 0.472709
0.271855 0.32488 0.661479
0.457145 0.329137 0.66305
0.682414 0.298634 0.648417
0.871931 0.223026 0.631876
0.981018 0.172473 0.574472
0.0767071 0.490089 0.447944
0.100679 0.50985 0.481331
0.119692 0.520119 0.508888
0.135225 0.515129 0.531212
0.149111 0.483803 0.545937
0.374716 0.543008 0.679652
0.594064 0.526284 0.642573
0.812116 0.490242 0.626993
0.988739 0.449775 0.597116
0.118135 0.631022 0.495399
0.146914 0.657038 0.53019
0.167712 0.676905 0.556786
0.183963 0.688624 0.579095
0.184588 0.681468 0.583307
0.277684 0.71577 0.636515
0.486671 0.733776 0.639933
0.750301 0.724666 0.633082
0.931624 0.714809 0.594491
0.17879 0.734524 0.541207
0.218128 0.765103 0.577264
0.25156 0.787823 0.603754
0.273411 0.802289 0.619028
0.283543 0.810208 0.622919
0.296132 0.815747 0.62063
0.563485 0.902739 0.684779
0.776944 0.915206 0.691249
0.927108 0.902388 0.7131
0.0223545 0.0106966 0.0173037
0.0248112 0.00920119 0.0466926
0.0307469 0.00729381 0.0798657
0.038529 0.00538643 0.11339
0.143999 0 0.211505
0.210163 0 0.222126
0.252522 0 0.213062
0.288075 0 0.201083
0.321492 0 0.175937
0.0281987 0.00801099 0.0658122
0.0313726 0.00709545 0.0836805
0.0358282 0.00602731 0.106218
0.0429847 0.00444038 0.129763
0.16849 0 0.262516
0.247898 0 0.283879
0.304753 0 0.270756
0.357809 0 0.270542
0.418845 0 0.261952
0.0357214 0.00604257 0.105715
0.040528 0.0049897 0.125063
0.0458991 0.00389105 0.139315
0.0783246 0 0.186297
0.207401 0 0.320821
0.292439 0 0.337346
0.369558 0 0.330129
0.431739 0 0.335729
0.503624 0 0.330648
0.0517586 0.00320439 0.155459
0.0609751 0.00117494 0.171771
0.0707408 0 0.190478
0.100649 0 0.228901
0.232242 0 0.369558
0.324514 0 0.392752
0.427192 0 0.39263
0.50605 0 0.400061
0.586084 0 0.396201
0.0884718 0.0953689 0.370398
0.113466 0.0901503 0.400305
0.131365 0.0737011 0.415717
0.14876 0.0582742 0.429297
0.312505 0.0531319 0.650614
0.447593 0.0275883 0.673396
0.574914 0 0.609659
0.643626 0 0.539162
0.687694 0 0.486793
0.102235 0.278676 0.429023
0.124437 0.283589 0.464073
0.144625 0.274098 0.494697
0.167483 0.238636 0.5234
0.298878 0.230274 0.705455
0.474388 0.269276 0.788678
0.648539 0.232792 0.804883
0.844648 0.168383 0.774365
0.90692 0.107515 0.696529
0.118349 0.46096 0.501183
0.138476 0.472343 0.532464
0.120729 0.465904 0.581765
0.18471 0.467826 0.603555
0.230045 0.446403 0.665614
0.423651 0.415335 0.817945
0.605051 0.477119 0.80734
0.829648 0.443854 0.805097
0.990723 0.385321 0.777188
0.157427 0.613428 0.559106
0.181521 0.633997 0.593317
0.207187 0.656245 0.630991
0.230091 0.676219 0.664805
0.249439 0.692653 0.689693
0.345418 0.705501 0.746273
0.514366 0.679454 0.845365
0.744366 0.698528 0.803143
0.960586 0.671138 0.787091
0.216663 0.737713 0.60473
0.255131 0.767727 0.63946
0.295338 0.794629 0.671702
0.345281 0.821485 0.709651
0.376928 0.830076 0.72311
0.508629 0.867613 0.761685
0.6309 0.896941 0.791028
0.741009 0.886702 0.782925
0.90341 0.874601 0.787747
