luts/Glut 1 cinematiclook.cube
LUT_3D_SIZE 6
0.006352 0.013934 0.020341
0.216337 0.018332 0.008140
0.435427 0.053193 0.007842
0.622331 0.101208 0.011560
0.747292 0.143698 0.019827
0.806489 0.171342 0.028351
0.000484 0.066209 0.043939
0.120635 0.094692 0.022964
0.457671 0.147318 0.010744
0.668802 0.201410 0.013803
0.770747 0.228034 0.016750
0.824125 0.242239 0.017994
0.000823 0.286254 0.157731
0.056572 0.275679 0.121793
0.391890 0.285434 0.043812
0.635859 0.323527 0.015154
0.760217 0.346778 0.011143
0.832288 0.358513 0.009547
0.023561 0.487813 0.261244
0.052937 0.483676 0.231223
0.338243 0.485529 0.185459
0.628565 0.468276 0.068739
0.765289 0.494213 0.046158
0.840956 0.524847 0.052054
0.052554 0.620529 0.335580
0.061377 0.619803 0.331144
0.227899 0.619506 0.294033
0.643996 0.683553 0.236261
0.771311 0.615770 0.116094
0.846494 0.625961 0.106877
0.070271 0.711715 0.439212
0.071167 0.710343 0.439432
0.138258 0.705940 0.362911
0.529621 0.767944 0.343332
0.787361 0.760396 0.249165
0.847471 0.707435 0.152873
0.004557 0.024229 0.173601
0.203076 0.015005 0.128448
0.443455 0.039684 0.108176
0.616434 0.067702 0.097250
0.727816 0.093153 0.113670
0.784422 0.124478 0.128479
0.001147 0.104609 0.171983
0.097861 0.116625 0.164248
0.465006 0.163090 0.095356
0.675231 0.203031 0.076408
0.773229 0.225211 0.077452
0.825103 0.243094 0.081978
0.003950 0.309926 0.371448
0.034839 0.318902 0.367827
0.380288 0.294930 0.124759
0.654087 0.313604 0.052696
0.769670 0.323595 0.046365
0.838636 0.337371 0.044294
0.033043 0.488321 0.517268
0.059898 0.504924 0.464997
0.191903 0.464447 0.317725
0.641820 0.485887 0.123009
0.778020 0.500472 0.084831
0.849397 0.522763 0.086153
0.061044 0.632583 0.579745
0.067204 0.634932 0.521600
0.145437 0.625842 0.401294
0.599049 0.692353 0.322018
0.785060 0.632492 0.162918
0.854696 0.637040 0.147716
0.077074 0.724488 0.617131
0.074790 0.721739 0.567214
0.125985 0.719677 0.492559
0.452196 0.749886 0.420665
0.782895 0.777442 0.309835
0.853906 0.717524 0.187669
0.003818 0.107637 0.383382
0.130169 0.013696 0.280349
0.415023 0.050011 0.277589
0.631844 0.092626 0.302144
0.740891 0.120442 0.342239
0.791018 0.142267 0.370001
0.003289 0.212757 0.392719
0.058451 0.187398 0.406051
0.436764 0.148182 0.314644
0.662453 0.169455 0.301946
0.749858 0.174821 0.295592
0.799044 0.187313 0.299864
0.013948 0.350333 0.459035
0.052179 0.353333 0.470366
0.279937 0.304982 0.367312
0.609944 0.325314 0.260829
0.747763 0.335628 0.219016
0.822422 0.344729 0.199804
0.034206 0.502399 0.585235
0.035408 0.492457 0.608181
0.126810 0.487881 0.594923
0.597869 0.490450 0.329241
0.776052 0.481123 0.191326
0.851566 0.479457 0.171431
0.063627 0.628170 0.720089
0.069791 0.624666 0.727842
0.154413 0.650460 0.684787
0.386102 0.643155 0.529560
0.781062 0.648911 0.278645
0.866491 0.657197 0.249775
0.087234 0.730279 0.803486
0.107707 0.735579 0.789742
0.153963 0.741236 0.717961
0.257910 0.724589 0.563090
0.734826 0.794427 0.465182
0.865461 0.741673 0.294784
0.012271 0.171666 0.562004
0.116456 0.046521 0.448858
0.351319 0.054562 0.433944
0.631863 0.113876 0.463166
0.749501 0.141407 0.486940
0.796427 0.162108 0.505964
0.015625 0.299618 0.595665
0.073072 0.259561 0.612180
0.331657 0.136071 0.485747
0.651032 0.185015 0.481770
0.761847 0.206245 0.479682
0.812813 0.226328 0.485343
0.028363 0.410618 0.627434
0.072460 0.408429 0.636873
0.177722 0.356872 0.592131
0.570993 0.304077 0.450650
0.737927 0.312103 0.407294
0.804791 0.312146 0.395564
0.043450 0.521674 0.660808
0.075735 0.526129 0.669472
0.152830 0.513721 0.660087
0.466685 0.506249 0.582219
0.743838 0.510409 0.454609
0.823458 0.506659 0.417254
0.068654 0.647082 0.757940
0.067201 0.640105 0.760929
0.096030 0.630947 0.787005
0.242273 0.644420 0.778279
0.754930 0.683263 0.550422
0.859728 0.676598 0.461858
0.087955 0.732785 0.843172
0.086653 0.724372 0.848704
0.095381 0.712361 0.862524
0.229508 0.743449 0.851140
0.561363 0.770304 0.730537
0.856967 0.772292 0.514039
0.020992 0.208600 0.683334
0.125241 0.075306 0.573499
0.353194 0.065515 0.545666
0.606162 0.121448 0.574273
0.751293 0.151444 0.588389
0.795911 0.167393 0.599841
0.027086 0.351766 0.729176
0.083737 0.292434 0.735824
0.332490 0.139475 0.590231
0.595172 0.180020 0.588964
0.758662 0.210627 0.590417
0.812733 0.229849 0.588059
0.038907 0.458316 0.751465
0.081697 0.451885 0.758014
0.160446 0.393555 0.734650
0.456785 0.291609 0.598932
0.724391 0.307483 0.548405
0.814052 0.322770 0.541569
0.052785 0.548667 0.773379
0.092059 0.550073 0.780597
0.164878 0.536745 0.773379
0.353104 0.519107 0.743138
0.718957 0.484457 0.595473
0.813296 0.481376 0.560084
0.073801 0.652747 0.808129
0.101358 0.655534 0.812576
0.176045 0.663201 0.819467
0.303281 0.666331 0.814916
0.686073 0.706282 0.761144
0.834721 0.696305 0.680790
0.089674 0.741880 0.872942
0.088520 0.738649 0.875037
0.092582 0.731777 0.881474
0.183306 0.732998 0.910215
0.413503 0.759466 0.905149
0.834935 0.815620 0.748146
0.023675 0.244943 0.769915
0.143752 0.086137 0.649626
0.379247 0.078343 0.627068
0.607242 0.129026 0.636855
0.756934 0.164688 0.640347
0.798423 0.179238 0.640442
0.035747 0.384056 0.817014
0.089488 0.330820 0.816896
0.345654 0.166734 0.662253
0.575587 0.194032 0.647060
0.746958 0.226107 0.645077
0.808924 0.239626 0.644958
0.048000 0.492040 0.841881
0.089086 0.480633 0.844277
0.161737 0.409144 0.821729
0.423001 0.292633 0.687681
0.686831 0.301717 0.636733
0.806172 0.321517 0.631640
0.061435 0.578230 0.863489
0.100813 0.574956 0.867404
0.168401 0.555593 0.861692
0.306916 0.518644 0.834397
0.648747 0.455357 0.688496
0.804714 0.459749 0.639328
0.079515 0.664734 0.888463
0.114690 0.667617 0.893318
0.186356 0.660417 0.892001
0.289858 0.665644 0.896333
0.590760 0.689742 0.863793
0.814024 0.669470 0.768810
0.095290 0.744259 0.909033
0.119944 0.745151 0.911632
0.185507 0.752807 0.918788
0.267965 0.756208 0.919573
0.486755 0.784303 0.928372
0.787769 0.835110 0.888717
