luts/gLUT008.cube
TITLE "Generated by Resolve"
LUT_3D_SIZE 9
0 0.0593271 0.0920272
0.334295 0.158343 0.130465
0.596841 0.268437 0.171359
0.83151 0.327169 0.150912
0.993103 0.330327 0.0217594
1 0.319844 0
1 0.303456 0
1 0.298238 0
1 0.357565 0
0 0.15288 0.138033
0.142489 0.123613 0.0948653
0.449165 0.214618 0.112612
0.694179 0.303685 0.095613
0.920775 0.342214 0
1 0.339208 0
1 0.329076 0
1 0.31812 0
1 0.335668 0
0 0.355291 0.251514
0 0.279179 0.167941
0.29604 0.245197 0.1131
0.563302 0.29688 0
0.830396 0.342412 0
0.992172 0.347601 0
1 0.340185 0
1 0.329625 0
1 0.329671 0
0 0.543496 0.298054
0.225498 0.505486 0.206348
0.267903 0.472282 0.190265
0.515511 0.45655 0.102281
0.753079 0.437201 0
0.948409 0.413214 0
1 0.401572 0
1 0.392477 0
1 0.387411 0
0 0.674998 0.302388
0.346639 0.64155 0.216846
0.372808 0.627466 0.207111
0.508553 0.614374 0.15906
0.697673 0.589471 0
0.90605 0.546075 0
1 0.525643 0
1 0.506096 0
1 0.490013 0
0 0.779965 0.398489
0.372641 0.759213 0.325292
0.413016 0.743603 0.262379
0.503655 0.725475 0.230594
0.634821 0.702663 0.179889
0.840467 0.652247 0
0.977081 0.621561 0
1 0.600381 0
1 0.584558 0
0 0.923156 0.469718
0.363485 0.893645 0.402792
0.39559 0.859037 0.369741
0.42858 0.827466 0.338201
0.533761 0.8047 0.304097
0.711498 0.766339 0.238468
0.904341 0.723537 0.151186
1 0.702296 0.0793011
1 0.688914 0
0.431067 1 0.538277
0.398581 1 0.523461
0.40737 1 0.491188
0.386007 0.957321 0.455879
0.450797 0.928283 0.425238
0.582162 0.904479 0.390036
0.80592 0.860273 0.319951
0.971771 0.839994 0.27895
1 0.83032 0.254414
0.520958 1 0.582605
0.520958 1 0.582605
0.520958 1 0.582605
0.518578 1 0.581384
0.47451 1 0.559152
0.523705 1 0.544274
0.714778 1 0.493202
0.914229 1 0.446159
1 0.998779 0.42089
0 0.0847486 0.173404
0.318029 0.151095 0.168887
0.58053 0.260929 0.200336
0.815671 0.32253 0.183856
0.984695 0.328511 0.138537
1 0.319173 0.0950332
1 0.302815 0
1 0.299794 0
1 0.358267 0
0 0.157671 0.153948
0.130373 0.11519 0.114519
0.439109 0.210666 0.156207
0.680461 0.303181 0.184222
0.907683 0.346502 0.156237
1 0.346014 0.112749
1 0.337804 0
1 0.325612 0
1 0.343114 0
0 0.342092 0.304463
0.109468 0.27071 0.217487
0.323568 0.239673 0.16936
0.567361 0.296117 0.176043
0.824994 0.3449 0.141924
0.988907 0.351583 0.0447852
1 0.346334 0
1 0.336263 0
1 0.338628 0
0 0.545419 0.438575
0.28751 0.496864 0.316304
0.348409 0.463798 0.273884
0.5393 0.452155 0.232044
0.757046 0.435874 0.164584
0.950927 0.413046 0
1 0.405325 0
1 0.396567 0
1 0.38996 0
0 0.674815 0.469718
0.32903 0.639765 0.38587
0.379965 0.624445 0.356634
0.509682 0.613138 0.33051
0.691402 0.590097 0.279973
0.901884 0.545449 0.180774
1 0.523613 0.123461
1 0.503182 0
1 0.485634 0
0 0.780331 0.494499
0.331899 0.759625 0.451087
0.366934 0.742473 0.433783
0.475105 0.72224 0.402365
0.614679 0.699733 0.359075
0.831632 0.648966 0.254078
0.975143 0.616129 0.167254
1 0.594049 0.0387274
1 0.576791 0
0 0.920577 0.552926
0.316045 0.887434 0.506508
0.375662 0.852689 0.471763
0.422263 0.819959 0.434363
0.533776 0.797131 0.397589
0.712505 0.759579 0.317983
0.914183 0.714137 0.181521
1 0.69308 0.0446937
1 0.680461 0
0.362387 1 0.594522
0.338415 1 0.569726
0.44004 0.990814 0.518044
0.441749 0.947463 0.465507
0.50692 0.916854 0.414496
0.622202 0.894713 0.376318
0.830945 0.851087 0.307668
0.992248 0.830564 0.266926
1 0.821424 0.243778
0.520958 1 0.582605
0.520958 1 0.582605
0.520958 1 0.582605
0.515862 1 0.579965
0.511864 1 0.551827
0.589151 1 0.529747
0.756039 1 0.481178
0.945922 0.999481 0.434058
1 0.989487 0.410117
0.26244 0.139834 0.338094
0.379858 0.18613 0.336782
0.581659 0.26656 0.353109
0.794644 0.320684 0.324224
0.971405 0.326741 0.254917
1 0.316655 0.204089
1 0.299702 0.146197
1 0.297032 0.0551308
1 0.353902 0
0.14728 0.151614 0.283711
0.166583 0.121324 0.222995
0.431296 0.213397 0.249928
0.661707 0.302541 0.260685
0.894011 0.346441 0.208835
1 0.346166 0.15874
1 0.337728 0.106355
1 0.325841 0
1 0.342031 0
0 0.205768 0.214572
0.100084 0.279149 0.237079
0.304051 0.222553 0.189364
0.554833 0.288334 0.202747
0.814878 0.344106 0.188632
0.983734 0.353277 0.150011
1 0.347784 0.105608
1 0.337453 0
1 0.339315 0
0 0.52903 0.458412
0.274952 0.49218 0.349004
0.342168 0.459312 0.318273
0.533867 0.449195 0.282643
0.749416 0.436103 0.237644
0.946639 0.414694 0.183062
1 0.406714 0.140154
1 0.396857 0.0682383
1 0.388739 0
0 0.679927 0.503563
0.318441 0.638422 0.416495
0.369162 0.624384 0.403784
0.503273 0.613214 0.375906
0.684245 0.590387 0.325933
0.895476 0.54406 0.250172
1 0.52076 0.204044
1 0.499229 0.155566
1 0.48127 0.0888838
0 0.780468 0.50547
0.327214 0.757748 0.463188
0.362081 0.739757 0.451408
0.468605 0.718257 0.42649
0.605615 0.696101 0.390097
0.81915 0.645945 0.314412
0.966842 0.61207 0.25713
1 0.589914 0.212238
1 0.572335 0.164446
0 0.914122 0.567147
0.299504 0.880934 0.525856
0.366995 0.84596 0.499672
0.409186 0.81326 0.475761
0.522927 0.790387 0.446479
0.697093 0.755306 0.392355
0.902373 0.7093 0.314382
1 0.688533 0.269093
1 0.676158 0.229038
0.296635 1 0.623285
0.254704 1 0.609003
0.420722 0.982345 0.566735
0.418952 0.940703 0.535943
0.483116 0.910384 0.505898
0.603555 0.889143 0.473915
0.822736 0.844953 0.395315
0.990478 0.823728 0.343679
1 0.814496 0.308614
0.482948 1 0.633982
0.488243 1 0.627405
0.490196 1 0.624964
0.519005 1 0.613977
0.527443 1 0.582284
0.602502 1 0.55938
0.767437 1 0.501366
0.960922 0.990906 0.433982
1 0.980896 0.401022
0.440238 0.221714 0.497139
0.488167 0.234684 0.479469
0.623178 0.281193 0.481529
0.793072 0.319371 0.453803
0.964065 0.324361 0.388067
1 0.315053 0.344533
1 0.298451 0.301518
1 0.30724 0.263813
1 0.359503 0.234607
0.3626 0.212497 0.446204
0.34432 0.183261 0.398306
0.491997 0.246738 0.409537
0.665324 0.310689 0.410452
0.879225 0.34931 0.355077
1 0.349416 0.302678
1 0.341482 0.261601
1 0.329747 0.219974
1 0.347768 0.18677
0 0.22742 0.4168
0.295293 0.264714 0.39234
0.349828 0.232624 0.338415
0.557214 0.292226 0.350515
0.800092 0.346746 0.325963
0.973846 0.356954 0.27306
1 0.352087 0.238697
1 0.341802 0.201892
1 0.344991 0.166812
0 0.372473 0.399558
0 0.506767 0.427741
0.30428 0.458 0.388388
0.526543 0.44239 0.381018
0.737377 0.433173 0.331289
0.940078 0.413886 0.265156
1 0.406729 0.233097
1 0.396979 0.1991
1 0.387076 0.156802
0 0.670542 0.535927
0.236042 0.645808 0.474601
0.36466 0.620264 0.456794
0.496483 0.609079 0.429404
0.673686 0.587015 0.378698
0.887984 0.539651 0.291707
1 0.514626 0.241093
1 0.49276 0.192569
1 0.474235 0.136782
0 0.795911 0.572549
0.310323 0.755291 0.505577
0.356054 0.733104 0.484703
0.45977 0.711635 0.452735
0.594873 0.690013 0.412131
0.807507 0.64126 0.32987
0.959747 0.605676 0.267933
1 0.583505 0.223392
1 0.566049 0.178485
0 0.908248 0.583017
0.277821 0.871199 0.534585
0.362692 0.837415 0.504646
0.402594 0.805936 0.480217
0.517159 0.783032 0.450645
0.686244 0.750195 0.400748
0.895872 0.703456 0.328176
1 0.682246 0.285847
1 0.670161 0.249989
0.254963 1 0.62388
0.204669 1 0.611017
0.410712 0.973251 0.571283
0.411597 0.933135 0.546807
0.475349 0.902602 0.521126
0.59527 0.882124 0.491981
0.813611 0.839063 0.426108
0.98529 0.817197 0.378561
1 0.808316 0.345296
0.469429 1 0.649927
0.471336 1 0.647745
0.469001 1 0.650401
0.510201 1 0.638651
0.516564 1 0.614328
0.592645 1 0.593378
0.75462 1 0.546578
0.95314 0.984466 0.488731
1 0.974044 0.454612
0.576364 0.27512 0.625742
0.58584 0.271366 0.593988
0.672557 0.294575 0.578851
0.804456 0.318532 0.546471
0.965347 0.320546 0.479026
1 0.310948 0.436164
1 0.29514 0.397406
1 0.320058 0.369055
1 0.370016 0.349432
0.495293 0.259312 0.563561
0.479347 0.241367 0.527016
0.56379 0.276249 0.520592
0.692103 0.31957 0.515099
0.877989 0.349569 0.460929
1 0.349859 0.41091
1 0.342748 0.375128
1 0.332708 0.342397
1 0.361364 0.323095
0.312963 0.317906 0.568124
0.432929 0.289998 0.50721
0.456046 0.265064 0.470619
0.601282 0.306233 0.476005
0.803082 0.349355 0.449577
0.971679 0.359579 0.39678
1 0.355108 0.365667
1 0.345739 0.336126
1 0.360403 0.317266
0 0.192966 0.311009
0 0.49044 0.537682
0.432502 0.440253 0.528237
0.55906 0.436698 0.500359
0.740978 0.43006 0.458106
0.93875 0.414099 0.39411
1 0.407202 0.364401
1 0.397238 0.336446
1 0.387259 0.309819
0 0.633036 0.534447
0 0.664622 0.535637
0.349447 0.608606 0.476661
0.455604 0.60679 0.511162
0.671946 0.580575 0.490562
0.880446 0.533883 0.40679
1 0.508782 0.359945
1 0.48687 0.320058
1 0.468177 0.280354
0 0.782589 0.585184
0 0.765454 0.566339
0.361639 0.730892 0.563134
0.459983 0.702129 0.543511
0.587701 0.681132 0.505013
0.792248 0.635035 0.422477
0.948913 0.59794 0.353735
1 0.575555 0.306569
1 0.557443 0.261738
0 0.907958 0.63975
0.0936904 0.876753 0.60676
0.358419 0.82855 0.565789
0.392782 0.795132 0.536538
0.507454 0.772702 0.503471
0.670771 0.74165 0.449897
0.885115 0.694972 0.366522
1 0.673945 0.319661
1 0.661738 0.280995
0.0917983 1 0.662776
0 1 0.643183
0.394736 0.960494 0.591806
0.401068 0.921004 0.560311
0.465141 0.891722 0.531395
0.584741 0.872526 0.50161
0.802976 0.831388 0.433478
0.978607 0.808331 0.382818
1 0.799695 0.349386
0.455253 1 0.66569
0.459907 1 0.660487
0.459953 1 0.660441
0.503731 1 0.639155
0.508507 1 0.615106
0.584848 1 0.594507
0.744503 1 0.551766
0.947341 0.977264 0.495445
1 0.966918 0.461311
0.735653 0.312261 0.789151
0.725414 0.304082 0.755383
0.76141 0.307088 0.725048
0.840803 0.313909 0.682185
0.975921 0.310491 0.607324
1 0.301518 0.554452
1 0.298177 0.508583
1 0.337224 0.475364
1 0.383825 0.450416
0.652033 0.303502 0.714153
0.629862 0.29369 0.676371
0.658351 0.305638 0.648478
0.735775 0.327642 0.625498
0.885878 0.347814 0.564981
1 0.347646 0.508247
1 0.341482 0.468742
1 0.33228 0.43447
1 0.376562 0.418555
0.526162 0.33814 0.676204
0.555489 0.314809 0.618341
0.560235 0.295109 0.584894
0.657038 0.320409 0.57821
0.817899 0.350774 0.545937
0.977157 0.359213 0.489586
1 0.35494 0.456641
1 0.346456 0.426749
1 0.376684 0.41294
0 0.388891 0.695018
0.477974 0.458213 0.640986
0.516503 0.437827 0.609232
0.606409 0.433219 0.587518
0.758495 0.427848 0.550042
0.946624 0.413352 0.485939
1 0.406302 0.454856
1 0.395895 0.426596
1 0.386511 0.402197
0 0.618265 0.588144
0 0.672328 0.615198
0.371008 0.60264 0.549218
0.519081 0.588342 0.612375
0.685084 0.574182 0.573159
0.882246 0.528817 0.493736
1 0.503349 0.450004
1 0.482078 0.415259
1 0.463661 0.384863
0 0.765194 0.580896
0 0.770779 0.586892
0.32369 0.715053 0.541329
0.392279 0.68893 0.561303
0.553399 0.676875 0.572549
0.787686 0.628519 0.515297
0.944396 0.59086 0.452079
1 0.568872 0.412863
1 0.55082 0.377279
0 0.88719 0.637354
0 0.886259 0.653864
0.34197 0.832929 0.619715
0.394095 0.79147 0.615122
0.513237 0.761791 0.588724
0.665675 0.732998 0.543877
0.87686 0.686503 0.464469
1 0.665553 0.420722
1 0.653239 0.385962
0 1 0.705531
0 1 0.708629
0.372015 0.962966 0.663584
0.398947 0.911452 0.628367
0.457038 0.879515 0.598428
0.574746 0.861112 0.570123
0.788434 0.820844 0.501274
0.967422 0.796857 0.448554
1 0.788403 0.416403
0.397864 1 0.718929
0.402533 1 0.71519
0.423774 1 0.713619
0.492622 1 0.677714
0.494911 1 0.648524
0.571191 1 0.626032
0.727596 0.998077 0.581155
0.934417 0.964996 0.518929
1 0.954635 0.48397
0.907103 0.286397 0.825757
0.882887 0.285863 0.818494
0.883085 0.289891 0.820447
0.90573 0.298253 0.830884
1 0.293431 0.768536
1 0.314916 0.726757
1 0.340017 0.688289
1 0.371466 0.651774
1 0.41265 0.622202
0.821256 0.306661 0.811978
0.791791 0.312016 0.807324
0.780102 0.321401 0.805814
0.817441 0.329244 0.77969
0.917906 0.338293 0.723888
1 0.337102 0.667948
1 0.332357 0.627588
1 0.355627 0.596887
1 0.405249 0.578424
0.71104 0.343801 0.80856
0.71458 0.333608 0.776257
0.708537 0.322759 0.74905
0.754345 0.331823 0.733028
0.85832 0.34757 0.697414
0.993973 0.353582 0.641016
1 0.349981 0.604623
1 0.350011 0.572747
1 0.405081 0.562158
0.456977 0.462257 0.832746
0.650904 0.439567 0.771572
0.645747 0.423728 0.736889
0.69546 0.420066 0.719478
0.802319 0.417304 0.687739
0.964126 0.404654 0.626383
1 0.399023 0.59202
1 0.389807 0.556451
1 0.401007 0.527749
0 0.632578 0.809064
0.184695 0.623682 0.750072
0.576074 0.573922 0.753338
0.62295 0.573983 0.730495
0.720836 0.55848 0.688594
0.893233 0.518013 0.607767
1 0.494011 0.555245
1 0.474876 0.513542
1 0.458167 0.477775
0 0.752926 0.658839
0 0.771893 0.676936
0.29015 0.710719 0.617273
0.429679 0.667521 0.637125
0.595087 0.653346 0.671168
0.79234 0.621118 0.601068
0.94754 0.5841 0.534508
1 0.563104 0.494408
1 0.546014 0.460197
0 0.852491 0.617807
0 0.861189 0.631586
0 0.820859 0.604898
0.368109 0.772061 0.599603
0.447181 0.750729 0.618647
0.656977 0.729915 0.617624
0.878279 0.680568 0.542931
1 0.659983 0.503075
1 0.648341 0.47364
0 0.999908 0.69929
0 1 0.721401
0.264149 0.974029 0.709422
0.42002 0.918746 0.68809
0.466117 0.87509 0.6663
0.583902 0.85359 0.642802
0.786755 0.814649 0.581155
0.96614 0.789166 0.532464
1 0.78088 0.506569
0.347433 1 0.754513
0.336492 1 0.761135
0.343008 1 0.772625
0.497551 1 0.740719
0.495079 1 0.71191
0.569329 1 0.692058
0.718761 0.98941 0.651545
0.926665 0.954803 0.590387
1 0.944518 0.559243
0.989776 0.330327 0.869993
0.975448 0.318151 0.860151
0.971908 0.315114 0.85771
0.979492 0.321599 0.862928
1 0.345907 0.88278
1 0.370031 0.897307
1 0.389105 0.864607
1 0.4159 0.833417
1 0.45388 0.808804
0.955444 0.300862 0.846403
0.944839 0.291539 0.839124
0.938109 0.286076 0.83473
0.941344 0.297444 0.840757
0.975402 0.318105 0.860121
1 0.342 0.830854
1 0.367269 0.804181
1 0.401511 0.781491
1 0.448234 0.767102
0.895582 0.306065 0.831846
0.884199 0.308354 0.829831
0.867445 0.307897 0.825025
0.878416 0.317128 0.832792
0.921889 0.334279 0.848051
1 0.338796 0.801526
1 0.358587 0.777523
1 0.397024 0.75996
1 0.449195 0.753277
0.77821 0.414343 0.871672
0.797345 0.40972 0.87187
0.784283 0.399939 0.862409
0.80528 0.397559 0.860258
0.875441 0.396124 0.838941
1 0.385641 0.789609
1 0.381704 0.760143
1 0.395346 0.733227
1 0.438712 0.712886
0 0.61088 0.982147
0.699382 0.554711 0.918242
0.712428 0.548745 0.890822
0.731167 0.541756 0.864286
0.793393 0.529717 0.834958
0.927489 0.495064 0.76701
1 0.4748 0.717617
1 0.458549 0.675135
1 0.445274 0.635142
0 0.770047 0.915663
0 0.731792 0.869444
0.614633 0.661631 0.861341
0.648295 0.643061 0.85211
0.70071 0.633738 0.811856
0.822019 0.601495 0.745541
0.963043 0.568154 0.675151
1 0.550103 0.627283
1 0.536141 0.58526
0 0.824247 0.698482
0 0.844541 0.715846
0 0.818479 0.701091
0.401633 0.755215 0.677714
0.475212 0.71812 0.707652
0.686839 0.705119 0.730892
0.88986 0.670619 0.649805
1 0.651789 0.603494
1 0.64213 0.569406
0 0.941512 0.667353
0 0.964538 0.68452
0 0.959335 0.701381
0.354986 0.902586 0.67155
0.413199 0.858885 0.681514
0.532174 0.844587 0.698619
0.796139 0.807935 0.662608
0.973846 0.783108 0.611719
1 0.775753 0.585458
0.323354 1 0.768963
0.299016 1 0.781689
0.234012 1 0.807828
0.501457 1 0.800855
0.510536 1 0.778561
0.581994 1 0.755947
0.724422 0.984512 0.718212
0.930159 0.948898 0.65716
1 0.938964 0.628733
1 0.385428 0.915953
1 0.372595 0.905074
1 0.36733 0.900633
1 0.369268 0.902266
1 0.384497 0.91516
1 0.405112 0.932784
1 0.430671 0.95494
1 0.464927 0.984985
1 0.505684 0.993194
1 0.357656 0.892531
1 0.349493 0.88574
1 0.342367 0.87985
1 0.344579 0.881666
1 0.359731 0.89427
1 0.387503 0.917708
1 0.41796 0.943893
1 0.455848 0.961532
1 0.501747 0.95555
0.990311 0.33077 0.870359
0.986419 0.327474 0.867689
0.978119 0.320424 0.861982
0.984024 0.325444 0.866041
1 0.34403 0.881224
1 0.379538 0.910933
1 0.414282 0.940719
1 0.452842 0.943206
1 0.504311 0.944518
0.967239 0.354131 0.875944
0.972442 0.352102 0.876249
0.962249 0.34435 0.86949
0.97142 0.343359 0.871427
1 0.348028 0.882856
1 0.381003 0.912184
1 0.414084 0.929931
1 0.446036 0.914
1 0.486946 0.899046
0.840879 0.519799 0.962585
0.88806 0.512169 0.963485
0.868986 0.507805 0.957198
0.867094 0.50161 0.952148
0.89337 0.493736 0.950347
0.98323 0.466316 0.913024
1 0.448997 0.871778
1 0.436881 0.836423
1 0.455543 0.811078
0 0.725383 1
0.736706 0.656703 1
0.78143 0.630045 1
0.768658 0.614725 0.977615
0.795804 0.601938 0.943282
0.879789 0.575372 0.892622
0.99939 0.545174 0.8309
1 0.530739 0.789502
1 0.520348 0.752148
0 0.828443 0.92018
0 0.865721 0.977935
0.480323 0.775448 0.91809
0.66656 0.715602 0.937819
0.705104 0.701228 0.921569
0.776333 0.687648 0.877256
0.924865 0.651255 0.806119
1 0.635218 0.761639
1 0.628809 0.727779
0 0.898741 0.736828
0 0.93611 0.760388
0 0.944183 0.78436
0.22707 0.892531 0.754391
0.457862 0.832761 0.751598
0.521492 0.800381 0.781933
0.825879 0.788876 0.807767
0.996399 0.768795 0.751675
1 0.76376 0.72253
0 1 0.741634
0.228717 1 0.765576
0.205371 1 0.784833
0.214313 1 0.79353
0.483894 1 0.774411
0.505089 0.989197 0.787076
0.665507 0.968109 0.802594
0.944549 0.937118 0.765774
1 0.927382 0.732769
