luts/gLUT008.cube
TITLE "Generated by Resolve"
LUT_3D_SIZE 5
0 0.0593271 0.0920272
0.596841 0.268437 0.171359
0.993103 0.330327 0.0217594
1 0.303456 0
1 0.357565 0
0 0.355291 0.251514
0.29604 0.245197 0.1131
0.830396 0.342412 0
1 0.340185 0
1 0.329671 0
0 0.674998 0.302388
0.372808 0.627466 0.207111
0.697673 0.589471 0
1 0.525643 0
1 0.490013 0
0 0.923156 0.469718
0.39559 0.859037 0.369741
0.533761 0.8047 0.304097
0.904341 0.723537 0.151186
1 0.688914 0
0.520958 1 0.582605
0.520958 1 0.582605
0.47451 1 0.559152
0.714778 1 0.493202
1 0.998779 0.42089
0.26244 0.139834 0.338094
0.581659 0.26656 0.353109
0.971405 0.326741 0.254917
1 0.299702 0.146197
1 0.353902 0
0 0.205768 0.214572
0.304051 0.222553 0.189364
0.814878 0.344106 0.188632
1 0.347784 0.105608
1 0.339315 0
0 0.679927 0.503563
0.369162 0.624384 0.403784
0.684245 0.590387 0.325933
1 0.52076 0.204044
1 0.48127 0.0888838
0 0.914122 0.567147
0.366995 0.84596 0.499672
0.522927 0.790387 0.446479
0.902373 0.7093 0.314382
1 0.676158 0.229038
0.482948 1 0.633982
0.490196 1 0.624964
0.527443 1 0.582284
0.767437 1 0.501366
1 0.980896 0.401022
0.576364 0.27512 0.625742
0.672557 0.294575 0.578851
0.965347 0.320546 0.479026
1 0.29514 0.397406
1 0.370016 0.349432
0.312963 0.317906 0.568124
0.456046 0.265064 0.470619
0.803082 0.349355 0.449577
1 0.355108 0.365667
1 0.360403 0.317266
0 0.633036 0.534447
0.349447 0.608606 0.476661
0.671946 0.580575 0.490562
1 0.508782 0.359945
1 0.468177 0.280354
0 0.907958 0.63975
0.358419 0.82855 0.565789
0.507454 0.772702 0.503471
0.885115 0.694972 0.366522
1 0.661738 0.280995
0.455253 1 0.66569
0.459953 1 0.660441
0.508507 1 0.615106
0.744503 1 0.551766
1 0.966918 0.461311
0.907103 0.286397 0.825757
0.883085 0.289891 0.820447
1 0.293431 0.768536
1 0.340017 0.688289
1 0.41265 0.622202
0.71104 0.343801 0.80856
0.708537 0.322759 0.74905
0.85832 0.34757 0.697414
1 0.349981 0.604623
1 0.405081 0.562158
0 0.632578 0.809064
0.576074 0.573922 0.753338
0.720836 0.55848 0.688594
1 0.494011 0.555245
1 0.458167 0.477775
0 0.852491 0.617807
0 0.820859 0.604898
0.447181 0.750729 0.618647
0.878279 0.680568 0.542931
1 0.648341 0.47364
0.347433 1 0.754513
0.343008 1 0.772625
0.495079 1 0.71191
0.718761 0.98941 0.651545
1 0.944518 0.559243
1 0.385428 0.915953
1 0.36733 0.900633
1 0.384497 0.91516
1 0.430671 0.95494
1 0.505684 0.993194
0.990311 0.33077 0.870359
0.978119 0.320424 0.861982
1 0.34403 0.881224
1 0.414282 0.940719
1 0.504311 0.944518
0.840879 0.519799 0.962585
0.868986 0.507805 0.957198
0.89337 0.493736 0.950347
1 0.448997 0.871778
1 0.455543 0.811078
0 0.828443 0.92018
0.480323 0.775448 0.91809
0.705104 0.701228 0.921569
0.924865 0.651255 0.806119
1 0.628809 0.727779
0 1 0.741634
0.205371 1 0.784833
0.483894 1 0.774411
0.665507 0.968109 0.802594
1 0.927382 0.732769
