luts/GOLDEN FEVE3R.cube
TITLE "Generated by Resolve"
LUT_3D_SIZE 9
0.0204471 0.0374914 0.0431525
0.0229038 0.0413672 0.0466773
0.0319829 0.0437324 0.0491035
0.0531319 0.0435645 0.0497749
0.0803082 0.0457465 0.0492714
0.114778 0.047837 0.048249
0.162936 0.0484932 0.0465858
0.242924 0.0425116 0.0434577
0.378256 0.0179294 0.0361791
0.0318608 0.051545 0.0554208
0.0364385 0.0565499 0.0593576
0.0440681 0.0616312 0.0619364
0.0687419 0.062562 0.0599832
0.10454 0.059556 0.0590372
0.147845 0.0592813 0.0574655
0.210575 0.0574044 0.0549325
0.312673 0.0437934 0.0497292
0.464912 0.0169528 0.0391394
0.0443427 0.0719768 0.0664988
0.0572366 0.0780652 0.0720226
0.0690166 0.0860456 0.0733806
0.0920729 0.092668 0.0710918
0.131716 0.0944686 0.0686046
0.192477 0.0880903 0.0665446
0.285054 0.0675975 0.0640574
0.406195 0.0433509 0.0549935
0.570291 0.00779736 0.039292
0.0528878 0.100008 0.076997
0.0734874 0.110887 0.0805524
0.0959793 0.123033 0.0826429
0.1234 0.134096 0.0812085
0.171771 0.144305 0.0768444
0.249332 0.14229 0.0725414
0.368017 0.117037 0.0679179
0.529366 0.0486 0.0596628
0.700954 0.0129549 0.0352483
0.061738 0.138964 0.0894942
0.0869612 0.15465 0.0913863
0.11928 0.173526 0.0922713
0.16286 0.196048 0.0893416
0.221149 0.215427 0.0823529
0.324331 0.230564 0.0703899
0.469764 0.210101 0.0614481
0.661341 0.145998 0.0514687
0.837308 0.0892195 0.0243687
0.065507 0.196567 0.102113
0.0963455 0.219333 0.103075
0.139635 0.246571 0.102419
0.198825 0.278218 0.0976577
0.284932 0.315145 0.0843061
0.401297 0.34287 0.0601816
0.58587 0.360479 0.0263981
0.775509 0.339376 0.0164645
0.937896 0.295964 0.00959792
0.0441444 0.293843 0.103258
0.10367 0.312078 0.115114
0.163104 0.348104 0.114137
0.243778 0.391043 0.109117
0.358648 0.441596 0.092256
0.516152 0.500038 0.0459754
0.673976 0.540322 7.62951e-05
0.844419 0.570855 0
0.97937 0.562844 0
0.0301671 0.448951 0.0926833
0.148119 0.475456 0.117174
0.25333 0.508873 0.143206
0.363226 0.560998 0.142962
0.493507 0.613504 0.131731
0.636164 0.663691 0.104082
0.773266 0.711437 0.0361181
0.886946 0.740612 0
0.99881 0.765377 0
0.228733 0.661082 0.10547
0.348577 0.688029 0.154147
0.462486 0.714015 0.211719
0.56939 0.741863 0.265721
0.664195 0.782727 0.27541
0.757534 0.822705 0.270756
0.860609 0.854734 0.241978
0.955688 0.880186 0.165591
1 0.899992 0.0317082
0.021149 0.0387274 0.044419
0.0239567 0.042649 0.0479744
0.0300603 0.0459907 0.0519112
0.0492714 0.0468757 0.0554818
0.0751507 0.0498207 0.0564889
0.108736 0.0523079 0.0565347
0.155367 0.0534829 0.0557717
0.231861 0.049485 0.0531319
0.364126 0.0237583 0.0464027
0.0333104 0.0530861 0.0567941
0.0382849 0.0582437 0.0607156
0.0441901 0.06392 0.0648814
0.0610666 0.0674754 0.0674754
0.0970016 0.0648661 0.0678111
0.139376 0.0653239 0.0673686
0.199786 0.0645609 0.0656443
0.297459 0.0542 0.0611124
0.446647 0.0187839 0.0509804
0.0494545 0.0736706 0.070573
0.0618296 0.0800641 0.0757305
0.0707713 0.0886397 0.0810864
0.0840467 0.0979934 0.0848249
0.122408 0.100145 0.0821851
0.182315 0.0941482 0.0804761
0.269245 0.0793774 0.0779126
0.386725 0.0599222 0.0691691
0.548852 0.0178225 0.0539101
0.0576333 0.102953 0.0858167
0.0847028 0.11426 0.0918746
0.106111 0.124819 0.100664
0.124575 0.137087 0.102739
0.165148 0.149523 0.0983902
0.237446 0.14963 0.0935683
0.351675 0.128801 0.0883192
0.50837 0.0747082 0.0790875
0.680125 0.0287633 0.0555123
0.066865 0.142351 0.102296
0.0964675 0.159106 0.106722
0.133211 0.178393 0.112383
0.175189 0.200656 0.114885
0.224323 0.218769 0.11191
0.317754 0.236118 0.102449
0.456031 0.221759 0.0925002
0.644404 0.167361 0.0818189
0.822828 0.121981 0.05626
0.0709239 0.202457 0.117082
0.107469 0.224491 0.122301
0.156298 0.252644 0.126024
0.218738 0.284657 0.126741
0.302129 0.321248 0.119783
0.409674 0.348669 0.104311
0.584192 0.369543 0.0807355
0.767422 0.356497 0.0592813
0.929366 0.321614 0.0419013
0.053727 0.30161 0.119921
0.120272 0.318288 0.137606
0.184695 0.355367 0.141573
0.271336 0.399664 0.142611
0.389212 0.45153 0.134203
0.53959 0.510185 0.106096
0.687114 0.552148 0.0599985
0.8448 0.582193 0.0169375
0.976028 0.578378 0.00344854
0.0491951 0.458686 0.113603
0.172091 0.485115 0.143328
0.280583 0.518196 0.17499
0.394125 0.570596 0.181079
0.524651 0.623026 0.178058
0.659983 0.67248 0.163348
0.78703 0.720317 0.126314
0.893462 0.74902 0.0507973
0.999237 0.775647 0
0.251926 0.669734 0.134112
0.372229 0.695827 0.18613
0.485679 0.720684 0.245136
0.590814 0.748791 0.297398
0.682948 0.790265 0.309346
0.775265 0.829664 0.309239
0.874861 0.860426 0.28809
0.963226 0.885893 0.228244
1 0.906126 0.159396
0.0208591 0.0402533 0.0495308
0.0259556 0.0436255 0.0506447
0.0340887 0.0464332 0.0557412
0.0489052 0.049897 0.0605325
0.072694 0.0536507 0.0633555
0.104509 0.0568551 0.0648203
0.149477 0.0590066 0.0650645
0.222858 0.0563363 0.0634318
0.351202 0.0357977 0.057557
0.0331579 0.0552377 0.0595102
0.0397955 0.0601358 0.0619669
0.0461128 0.06598 0.0662394
0.057969 0.0713359 0.0711833
0.0932326 0.0687572 0.075639
0.132906 0.0713817 0.0770275
0.19057 0.0720226 0.0769055
0.28365 0.0646525 0.0733806
0.428565 0.0336614 0.0641184
0.0475471 0.076585 0.0748608
0.0649577 0.0829175 0.0775769
0.0742199 0.0917678 0.0829938
0.0843366 0.101457 0.0892195
0.111025 0.107759 0.0934768
0.171695 0.101488 0.0945296
0.254734 0.090135 0.0932479
0.367193 0.0763256 0.0852674
0.526528 0.0362707 0.0707256
0.0593423 0.106249 0.0944381
0.0937514 0.117159 0.0983139
0.113268 0.128328 0.10663
0.128206 0.141833 0.115358
0.151385 0.155901 0.121096
0.221164 0.159899 0.115984
0.332631 0.142016 0.111604
0.483894 0.100465 0.10219
0.655894 0.0667582 0.079408
0.0699321 0.146426 0.115618
0.105272 0.164248 0.120912
0.15491 0.18468 0.130648
0.191577 0.200809 0.143893
0.229023 0.224231 0.14609
0.305806 0.244236 0.138201
0.43595 0.236606 0.127855
0.621607 0.191379 0.117113
0.803922 0.155184 0.0926528
0.0738689 0.210666 0.132448
0.118044 0.230381 0.142596
0.176181 0.260105 0.150301
0.247745 0.293126 0.157809
0.325277 0.327031 0.159899
0.419989 0.356481 0.152834
0.57702 0.380896 0.136645
0.754513 0.376043 0.119722
0.916793 0.348394 0.105638
0.0589303 0.311849 0.138399
0.135836 0.326497 0.162112
0.208331 0.364034 0.172076
0.304646 0.409949 0.179156
0.427405 0.462882 0.178744
0.567117 0.521065 0.165591
0.697719 0.562676 0.143618
0.842817 0.595132 0.115831
0.969467 0.595361 0.0943313
0.0675669 0.470817 0.137835
0.194003 0.497063 0.172045
0.308751 0.527642 0.210651
0.427924 0.580575 0.221057
0.559075 0.632975 0.224781
0.686763 0.681758 0.219898
0.802121 0.729564 0.201144
0.899611 0.758022 0.164126
0.999695 0.78648 0.0937972
0.272282 0.679408 0.166339
0.393896 0.70457 0.220081
0.508522 0.728038 0.280232
0.612512 0.756039 0.331746
0.702678 0.797772 0.346349
0.794583 0.836225 0.350134
0.889433 0.865919 0.336583
0.970535 0.891844 0.289326
1 0.912047 0.252491
0.01944 0.0427863 0.0602426
0.0270695 0.0453651 0.0609445
0.0376898 0.0481117 0.0632792
0.0533608 0.05066 0.0665904
0.0768444 0.052903 0.069398
0.107591 0.0557565 0.0717174
0.14931 0.060029 0.0739147
0.217273 0.0623484 0.0744488
0.340444 0.0475471 0.069749
0.0285039 0.0580148 0.0702678
0.0413062 0.06215 0.0683604
0.0504005 0.0674907 0.0696574
0.0659342 0.0713664 0.076051
0.0932937 0.0731823 0.0829175
0.129549 0.0775006 0.0871138
0.183764 0.0796521 0.0888838
0.272786 0.0748608 0.0869917
0.413001 0.0512245 0.078645
0.0420996 0.0793164 0.0848249
0.0648508 0.0861067 0.0813764
0.0774853 0.0948348 0.0850996
0.0879377 0.104952 0.0914931
0.10663 0.114321 0.0992294
0.166125 0.10753 0.106874
0.242802 0.100969 0.10869
0.350088 0.0915694 0.102724
0.505135 0.0624094 0.0893721
0.0570077 0.109255 0.106065
0.0901656 0.121752 0.104875
0.118578 0.132586 0.109377
0.134356 0.146456 0.118425
0.152743 0.162066 0.127901
0.202121 0.173648 0.133913
0.313375 0.157031 0.13402
0.459998 0.124331 0.126436
0.63061 0.0993515 0.105562
0.0686351 0.153216 0.128923
0.107576 0.169223 0.13434
0.17113 0.188907 0.140856
0.208301 0.207782 0.152605
0.237095 0.230838 0.163836
0.282246 0.256092 0.171099
0.408728 0.256886 0.161563
0.594553 0.218387 0.152926
0.782071 0.187625 0.13106
0.0706493 0.222156 0.148043
0.125353 0.236789 0.163012
0.194995 0.268772 0.170947
0.290547 0.303563 0.182666
0.362554 0.32961 0.200458
0.432242 0.365148 0.202518
0.56257 0.396551 0.190433
0.733883 0.400259 0.175753
0.899306 0.379171 0.16434
0.0572518 0.32459 0.157626
0.14757 0.337301 0.185672
0.231235 0.374212 0.201175
0.345571 0.422934 0.2121
0.480339 0.477241 0.220249
0.600427 0.531228 0.222248
0.710643 0.575509 0.216342
0.836667 0.609934 0.201434
0.958755 0.614832 0.185962
0.0777752 0.485664 0.163043
0.213046 0.511406 0.200763
0.336324 0.538582 0.245151
0.463157 0.591592 0.258778
0.598871 0.643732 0.267765
0.718532 0.692027 0.272389
0.820325 0.739528 0.266621
0.905943 0.768414 0.249165
0.996826 0.797894 0.207828
0.290883 0.690654 0.198596
0.413993 0.714565 0.253193
0.530434 0.736599 0.314565
0.633829 0.764019 0.367514
0.723918 0.805524 0.383993
0.816617 0.842466 0.392172
0.904692 0.871229 0.386267
0.978271 0.897749 0.349996
1 0.918639 0.336583
0.0188449 0.0452277 0.0730602
0.0270237 0.0489357 0.0734112
0.038117 0.05066 0.0761883
0.0561685 0.0519875 0.0787823
0.0820783 0.0522927 0.0806744
0.115892 0.0510109 0.0812238
0.161151 0.0492561 0.080354
0.228122 0.0515297 0.0825055
0.337804 0.0514992 0.0826123
0.0242313 0.0612192 0.0835737
0.0390173 0.0651102 0.0836805
0.0554971 0.0686198 0.083711
0.0728923 0.073106 0.0870985
0.0956436 0.0785077 0.0929274
0.129549 0.0831159 0.098497
0.180636 0.0869001 0.102434
0.265095 0.0845502 0.101961
0.4 0.0674144 0.0951247
0.0308232 0.0855268 0.0973068
0.0578775 0.0905165 0.0978256
0.0796368 0.0977188 0.0947127
0.0944991 0.107836 0.0970016
0.11928 0.114107 0.107225
0.170275 0.110338 0.119127
0.236744 0.110933 0.123842
0.338094 0.105455 0.120439
0.488609 0.0840314 0.108965
0.0467842 0.118898 0.118364
0.0801099 0.125521 0.120821
0.119188 0.137667 0.115572
0.139712 0.151308 0.121401
0.158373 0.167575 0.131228
0.194644 0.184146 0.142519
0.303532 0.168902 0.152468
0.442023 0.144244 0.148867
0.609583 0.126558 0.130785
0.0578622 0.165469 0.142626
0.103014 0.173754 0.151675
0.166323 0.197208 0.149935
0.216037 0.214694 0.156542
0.247745 0.239109 0.167987
0.285313 0.267567 0.179843
0.376043 0.28217 0.186892
0.566644 0.247181 0.185
0.76112 0.217731 0.168261
0.0576944 0.236408 0.164111
0.127474 0.243793 0.183978
0.202106 0.277012 0.189014
0.320546 0.308858 0.196811
0.392996 0.339162 0.212009
0.451392 0.37879 0.227176
0.530541 0.419074 0.236789
0.703151 0.430747 0.224765
0.876753 0.41323 0.21767
0.0450752 0.340032 0.17731
0.151781 0.352773 0.20621
0.248188 0.384787 0.22855
0.383993 0.437537 0.239857
0.546853 0.491997 0.253056
0.647944 0.535943 0.277104
0.72221 0.588647 0.282475
0.824216 0.627588 0.27274
0.94258 0.637247 0.260731
0.079881 0.503044 0.188602
0.226764 0.528527 0.227878
0.360296 0.552361 0.276219
0.496574 0.603876 0.29305
0.642039 0.655772 0.305287
0.758358 0.703731 0.319371
0.841764 0.747448 0.329152
0.911116 0.778393 0.32607
0.991562 0.810315 0.297963
0.306172 0.703365 0.230625
0.431556 0.726375 0.284962
0.549371 0.746944 0.347707
0.653239 0.772869 0.40499
0.74583 0.813748 0.422934
0.84152 0.848341 0.434104
0.92137 0.876295 0.43714
0.986557 0.903838 0.416968
1 0.925277 0.425696
0.0179904 0.0483101 0.0903792
0.0269932 0.0518807 0.0905013
0.0396735 0.056199 0.0922408
0.0569009 0.0562753 0.0971542
0.0814069 0.0565042 0.100511
0.116609 0.0554208 0.102434
0.168643 0.0495918 0.100771
0.246632 0.0337835 0.0917678
0.357366 0.0255894 0.0907912
0.0209354 0.0652171 0.101915
0.0366674 0.068864 0.102205
0.0532845 0.0731975 0.104158
0.0757916 0.0749218 0.105623
0.10399 0.0773938 0.108339
0.141711 0.078233 0.111879
0.195575 0.077409 0.113802
0.276036 0.0774395 0.114717
0.39649 0.0754406 0.111604
0.0226902 0.0886549 0.118486
0.0501869 0.0954604 0.120974
0.0793164 0.0998856 0.119844
0.106432 0.104845 0.120134
0.136538 0.110063 0.12604
0.17586 0.116197 0.134356
0.235843 0.120562 0.13962
0.332845 0.117876 0.138079
0.47808 0.102449 0.128466
0.0180209 0.125902 0.136278
0.0713817 0.13167 0.144396
0.107286 0.143252 0.140871
0.144671 0.156939 0.136461
0.171618 0.172488 0.139269
0.218189 0.183948 0.154086
0.313695 0.171664 0.169497
0.434638 0.160723 0.16878
0.596414 0.149035 0.154589
0.0243076 0.180056 0.157214
0.0953994 0.181842 0.173602
0.148608 0.202579 0.171817
0.218341 0.223774 0.164584
0.260365 0.248981 0.172
0.29781 0.275578 0.18439
0.365576 0.300938 0.198734
0.551888 0.269932 0.210651
0.746014 0.244755 0.202228
0.0264134 0.254185 0.18294
0.1196 0.258625 0.202884
0.194247 0.283589 0.212116
0.314595 0.323568 0.208713
0.412512 0.352422 0.216953
0.470939 0.391226 0.232639
0.535164 0.43563 0.249104
0.664698 0.467399 0.259236
0.851225 0.449683 0.261845
0.0238041 0.358328 0.19884
0.147051 0.371786 0.227054
0.255787 0.394842 0.256641
0.400244 0.450904 0.263233
0.591318 0.50222 0.27158
0.684047 0.553552 0.292805
0.736599 0.602564 0.313848
0.798199 0.650263 0.330037
0.918685 0.663859 0.321126
0.0652171 0.522713 0.214511
0.232288 0.548012 0.254139
0.376394 0.57055 0.302342
0.521019 0.616693 0.324971
0.678828 0.66923 0.336934
0.804822 0.715007 0.357092
0.869123 0.747799 0.393652
0.915312 0.789364 0.407004
0.979583 0.823728 0.387686
0.315969 0.717494 0.262333
0.444129 0.740124 0.315801
0.564584 0.759915 0.380713
0.669169 0.782834 0.445243
0.766445 0.822675 0.46244
0.867857 0.854475 0.47509
0.941329 0.881254 0.487541
0.994232 0.908217 0.489799
0.999344 0.932921 0.517159
0.0178531 0.0516823 0.114122
0.023209 0.0553597 0.114382
0.0405432 0.0600137 0.11574
0.058381 0.064332 0.119738
0.0821241 0.0625772 0.126543
0.116091 0.0609445 0.130098
0.170687 0.0553902 0.12961
0.260227 0.033875 0.11902
0.383246 0.0129091 0.0997177
0.0179599 0.0692302 0.126833
0.0315099 0.0723735 0.127291
0.0528878 0.0791028 0.128756
0.074052 0.0825055 0.133898
0.102464 0.0831311 0.138277
0.145678 0.0827497 0.140932
0.209506 0.0758068 0.138506
0.301976 0.0560311 0.12639
0.421195 0.0465705 0.122881
0.0181125 0.0934157 0.142596
0.0422217 0.0993057 0.146639
0.0713512 0.108095 0.149538
0.102388 0.110796 0.149859
0.137881 0.116121 0.149722
0.180484 0.122148 0.153719
0.241932 0.125948 0.157259
0.334859 0.126406 0.156024
0.47364 0.118853 0.148394
0.0170901 0.129717 0.167346
0.0462196 0.139208 0.171069
0.0995499 0.149584 0.175982
0.146456 0.158831 0.171878
0.195377 0.167529 0.172152
0.252811 0.173022 0.179644
0.33138 0.173693 0.188876
0.436866 0.174929 0.187991
0.593317 0.167987 0.17702
0.00302129 0.185534 0.183719
0.0599985 0.200137 0.193179
0.135882 0.207614 0.205325
0.203052 0.233921 0.197971
0.269429 0.255467 0.191989
0.32256 0.284321 0.19527
0.407233 0.298116 0.214176
0.569635 0.275608 0.234379
0.742458 0.267414 0.230961
3.0518e-05 0.270878 0.199161
0.0939498 0.280003 0.224338
0.185367 0.288991 0.24332
0.284794 0.330266 0.238941
0.414618 0.364431 0.228305
0.492271 0.405615 0.23801
0.557992 0.45211 0.254826
0.652552 0.49601 0.274617
0.836408 0.480018 0.295644
0.000610361 0.379263 0.22356
0.127993 0.39408 0.250431
0.256001 0.409552 0.284428
0.391882 0.461555 0.292912
0.585061 0.522957 0.287129
0.703456 0.571313 0.299611
0.753109 0.618875 0.321706
0.798596 0.663813 0.346365
0.88838 0.694484 0.364553
0.0273136 0.544488 0.243
0.225391 0.569833 0.280522
0.382055 0.59202 0.326253
0.530907 0.62858 0.358434
0.693217 0.682048 0.366735
0.83299 0.720897 0.382147
0.891432 0.762417 0.416602
0.921584 0.801526 0.452857
0.955627 0.835538 0.477119
0.317052 0.732662 0.294087
0.449485 0.75555 0.346792
0.572198 0.77554 0.412909
0.679622 0.793606 0.490501
0.780789 0.832227 0.505241
0.889158 0.861646 0.51368
0.965576 0.885283 0.528771
0.985168 0.908309 0.572961
0.995987 0.939742 0.598383
0.0174411 0.0555581 0.144091
0.0180056 0.0591135 0.144533
0.0368658 0.0639506 0.146136
0.0597238 0.0703136 0.149477
0.0847028 0.0726329 0.157046
0.120607 0.0678569 0.16611
0.173877 0.061677 0.165881
0.268605 0.0400702 0.154498
0.410239 0.00268559 0.127062
0.0176852 0.0730297 0.157733
0.0224765 0.0766461 0.158495
0.0490578 0.0832227 0.16051
0.0755474 0.0918898 0.164965
0.105837 0.0926375 0.174029
0.146426 0.0901656 0.177752
0.215488 0.082475 0.176333
0.321324 0.0552071 0.160647
0.455299 0.0151522 0.135149
0.0175937 0.0998398 0.174075
0.0321965 0.104753 0.178698
0.0655528 0.111864 0.181796
0.0985122 0.12314 0.186328
0.136767 0.122683 0.190249
0.193179 0.12108 0.187823
0.270512 0.111955 0.18024
0.367773 0.101884 0.171527
0.49662 0.102235 0.165911
0.0116121 0.134127 0.198047
0.0333867 0.142992 0.202274
0.0862135 0.155413 0.209796
0.137804 0.167407 0.214389
0.192599 0.174289 0.208484
0.25626 0.181094 0.209491
0.334264 0.186923 0.211139
0.441871 0.188922 0.209384
0.596277 0.185519 0.200412
0 0.191211 0.226749
0.0190738 0.205341 0.230655
0.108995 0.225055 0.238453
0.191791 0.24213 0.243839
0.276173 0.260365 0.239033
0.363806 0.272908 0.238605
0.467765 0.278355 0.248676
0.605203 0.273533 0.260975
0.749828 0.2869 0.256901
0 0.276585 0.23537
0.0157168 0.299001 0.247425
0.168383 0.310933 0.273106
0.263722 0.335607 0.281392
0.387747 0.377966 0.272496
0.512428 0.420081 0.26508
0.594751 0.46569 0.269062
0.700862 0.497124 0.295323
0.84831 0.492943 0.32665
0 0.399466 0.241047
0.0704662 0.420005 0.278355
0.242374 0.436652 0.309468
0.37789 0.469856 0.33135
0.55111 0.535943 0.324056
0.704509 0.585977 0.313939
0.769345 0.63505 0.329793
0.813123 0.678431 0.355367
0.877546 0.718868 0.386679
0.000228885 0.56817 0.275044
0.198291 0.593561 0.309453
0.37528 0.615579 0.351629
0.530922 0.638117 0.39823
0.683345 0.692424 0.405554
0.829572 0.742245 0.404929
0.902388 0.77615 0.428794
0.930282 0.813748 0.465187
0.95436 0.845258 0.503029
0.301274 0.749249 0.327626
0.442451 0.77258 0.37966
0.570703 0.793332 0.44831
0.683574 0.807568 0.533333
0.785641 0.842084 0.553796
0.896086 0.870115 0.55375
0.977295 0.887312 0.553399
0.985794 0.916335 0.597971
0.992813 0.941009 0.632486
0.0083772 0.0600595 0.181598
0.0173648 0.0638437 0.182666
0.0260471 0.0685893 0.18471
0.0559243 0.0749523 0.188647
0.0874189 0.0830396 0.195377
0.125597 0.0808881 0.206485
0.179934 0.0699016 0.211002
0.279545 0.0461433 0.203006
0.426215 0.00448615 0.172259
0.0084535 0.0776074 0.196475
0.0177615 0.0817121 0.197772
0.0390784 0.088304 0.200351
0.0740063 0.0971084 0.205676
0.110399 0.107301 0.213962
0.157366 0.101778 0.225742
0.221134 0.0912642 0.223728
0.333227 0.0631876 0.207675
0.48896 0.00427253 0.174197
0.0107729 0.107881 0.215351
0.0181888 0.10988 0.219028
0.0537728 0.117113 0.222416
0.0976577 0.129381 0.227481
0.14078 0.13933 0.235096
0.193896 0.133043 0.238453
0.279637 0.121904 0.231281
0.399847 0.0899367 0.209537
0.544121 0.0369268 0.182513
0.000549325 0.1411 0.234989
0.0199741 0.150423 0.240818
0.0747845 0.162036 0.250492
0.131777 0.177172 0.256626
0.187274 0.185718 0.262119
0.265888 0.181338 0.252186
0.356085 0.176776 0.239567
0.461219 0.183337 0.233768
0.603052 0.195743 0.225498
0 0.194858 0.267384
0.0101625 0.208835 0.273671
0.0815442 0.228092 0.283101
0.178729 0.252735 0.295186
0.275593 0.26334 0.293233
0.377874 0.268498 0.288502
0.48925 0.277119 0.287373
0.61767 0.288808 0.287587
0.759472 0.304646 0.284169
0 0.280232 0.290318
0 0.30248 0.296422
0.0815442 0.331014 0.305745
0.255512 0.347463 0.330251
0.37673 0.389792 0.328466
0.52369 0.424765 0.324712
0.651881 0.453971 0.325856
0.764828 0.479026 0.340825
0.884886 0.483452 0.368856
0 0.410864 0.28716
0 0.442237 0.304158
0.195041 0.468452 0.340825
0.369268 0.483894 0.37319
0.522225 0.54316 0.375402
0.678218 0.60148 0.366476
0.782498 0.648447 0.364034
0.838529 0.691768 0.375677
0.909941 0.720958 0.416022
0 0.593271 0.294911
0.104433 0.619379 0.342763
0.346136 0.640864 0.382879
0.524041 0.656107 0.436683
0.665919 0.700206 0.461662
0.800946 0.754391 0.461128
0.902068 0.788983 0.45211
0.938842 0.825269 0.478553
0.962509 0.85481 0.515068
0.245426 0.767697 0.366583
0.41323 0.791653 0.419944
0.555032 0.812772 0.488884
0.677455 0.827146 0.56762
0.783795 0.851118 0.607416
0.888609 0.879332 0.603906
0.980133 0.903624 0.582879
0.988052 0.926574 0.612161
0.992111 0.941146 0.639414
