luts/GoldenFace.cube
TITLE "Generated by Resolve"
LUT_3D_SIZE 33
0 0 0
0 0 0
0.00187686 0 0
0.02533 0 0
0.067277 0 0
0.109224 0 0
0.139239 0 0
0.157778 0 0
0.174289 0 0
0.19028 0 0
0.205219 0 0
0.219242 0 0
0.233127 0 0
0.248157 0 0
0.267155 0 0
0.289921 0 0
0.316121 0 0
0.345647 0 0
0.378897 0 0
0.41503 0 0
0.454398 0 0
0.497765 0 0
0.543923 0 0
0.593652 0 0
0.647669 0 0
0.707057 0 0
0.771984 0 0
0.840681 0 0
0.903258 0 0
0.951965 0 0
0.990799 0 0
0.998962 0 0
1 0 0
0 0 0
0 0 0
0.00622568 0 0
0.0329442 0 0
0.063386 0 0
0.0907607 0 0
0.114 0 0
0.135271 0 0
0.15465 0 0
0.17229 0 0
0.188891 0 0
0.204486 0 0
0.220493 0 0
0.239826 0 0
0.26154 0 0
0.286748 0 0
0.314412 0 0
0.345235 0 0
0.379461 0 0
0.416495 0 0
0.456291 0 0
0.49958 0 0
0.546136 0 0
0.596323 0 0
0.650553 0 0
0.710536 0 0
0.776074 0 0
0.844556 0 0
0.906065 0 0
0.954131 0 0
0.991165 0 0
0.999298 0 0
1 0 0
0 0.00511177 0
0 0.00238041 0
0 0 0
0.0181888 0 0
0.0430304 0 0
0.0687877 0 0
0.0942855 0 0
0.117205 0 0
0.138201 0 0
0.157122 0 0
0.174777 0 0
0.192569 0 0
0.211994 0 0
0.233921 0 0
0.25774 0 0
0.284566 0 0
0.313588 0 0
0.345525 0 0
0.380377 0 0
0.417685 0 0
0.457771 0 0
0.50135 0 0
0.548302 0 0
0.598672 0 0
0.653407 0 0
0.71368 0 0
0.779492 0 0
0.848081 0 0
0.908614 0 0
0.955932 0 0
0.991531 0 0
0.999588 0 0
1 0 0
0 0.0173037 0
0 0.0140993 0
0 0.0108492 0
0.00816358 0.00773632 0
0.0277867 0.00466926 0
0.0521859 0.00172427 0
0.0779431 0 0
0.101991 0 0
0.123812 0 0
0.143984 0 0
0.163378 0 0
0.183993 0 0
0.205982 0 0
0.229664 0 0
0.255146 0 0
0.28307 0 0
0.31313 0 0
0.345617 0 0
0.381079 0 0
0.418891 0 0
0.459297 0 0
0.502876 0 0
0.55021 0 0
0.601282 0 0
0.656245 0 0
0.716533 0 0
0.78291 0 0
0.851286 0 0
0.910933 0 0
0.957534 0 0
0.991821 0 0
0.999893 0 0
1 0 0
0 0.0278325 0
0 0.0242008 0
0 0.0209354 0
0.000671397 0.0182498 0
0.0171969 0.0154879 0
0.0389715 0.0125582 0
0.062562 0.00965896 0
0.0871443 0.0069276 0
0.110018 0.00428779 0
0.132174 0.00213626 0
0.154604 0.000442512 0
0.177447 0 0
0.201358 0 0
0.226551 0 0
0.253529 0 0
0.282429 0 0
0.31339 0 0
0.346441 0 0
0.382376 0 0
0.420493 0 0
0.461051 0 0
0.50486 0 0
0.552605 0 0
0.603891 0 0
0.659678 0 0
0.720241 0 0
0.786648 0 0
0.855131 0 0
0.913481 0 0
0.959518 0 0
0.992172 0 0
1 0 0
1 0 0
0 0.0397345 0
0 0.0367895 0
0 0.0335241 0
0 0.0302586 0
0.0103456 0.0267185 0
0.0272374 0.0226749 0
0.0493782 0.0195163 0
0.0738537 0.0170596 0
0.0988785 0.0149691 0
0.12343 0.0131533 0
0.147997 0.0116579 0
0.172564 0.0104219 0
0.198001 0.00946059 0
0.224567 0.00862135 0
0.252552 0.00793469 0
0.28246 0.00730907 0
0.314183 0.00669871 0
0.347814 0.00598154 0
0.384237 0.005066 0
0.422522 0.00402838 0
0.463233 0.00280766 0
0.507515 0.00125124 0
0.555749 0.000366217 0
0.607828 0 0
0.663951 0 0
0.724865 0 0
0.791318 0 0
0.859617 0 0
0.916716 0 0
0.961837 0 0
0.992569 0 0
1 0 0
1 0 0
0 0.0504616 0
0 0.0480201 0
0 0.045594 0
0 0.043183 0
0.00537118 0.040589 0
0.0196078 0.0378729 0
0.0413214 0.0352636 0
0.0651408 0.032639 0
0.0916304 0.0302129 0
0.117647 0.0281224 0
0.143557 0.0263828 0
0.169558 0.0248112 0
0.196231 0.0234073 0
0.223911 0.0222934 0
0.252735 0.0212863 0
0.283543 0.0202182 0
0.315724 0.0189822 0
0.349737 0.0178073 0
0.386313 0.0161593 0
0.425177 0.0143435 0
0.466346 0.0123293 0
0.511086 0.00967422 0
0.559853 0.00823987 0
0.612314 0.00720226 0
0.669398 0.00631724 0
0.730465 0.00491341 0
0.796933 0.00292973 0
0.865385 0.000671397 0
0.920668 0 0
0.964721 0 0
0.993088 0 0
1 0 0
1 0 0
0 0.0648966 0
0 0.0631418 0
0 0.0614176 0
0 0.0595407 0
0.00309758 0.0576333 0
0.0168917 0.0555581 0
0.0369116 0.0537118 0
0.0603799 0.052018 0
0.0873426 0.0505226 0
0.114366 0.0489509 0
0.141436 0.0477302 0
0.168246 0.0466621 0
0.19588 0.0457618 0
0.224231 0.044892 0
0.253895 0.0439918 0
0.285145 0.0430304 0
0.317998 0.0420233 0
0.352041 0.0408484 0
0.388952 0.0394293 0
0.428458 0.0376745 0
0.470359 0.0357214 0
0.515373 0.0333104 0
0.564721 0.0304417 0
0.618112 0.0268101 0
0.675425 0.0221866 0
0.737026 0.0168307 0
0.80322 0.0104372 0
0.871824 0.00367742 0
0.924849 0.00238041 0
0.967773 0.00164797 0
0.993667 0.000701915 0
1 0 0
1 0 0
0 0.0855268 0
0 0.0845808 0
0 0.08336 0
0 0.0821393 0
0.00207523 0.0808881 0
0.0153811 0.0796216 0
0.0345312 0.078172 0
0.0578927 0.0770275 0
0.0855268 0.0757916 0
0.113222 0.0746624 0
0.140826 0.0737926 0
0.168444 0.0728161 0
0.19675 0.0723735 0
0.225681 0.0716716 0
0.255695 0.0711376 0
0.287404 0.0702525 0
0.320424 0.0695048 0
0.355047 0.0685588 0
0.392386 0.067277 0
0.432364 0.0658579 0
0.475044 0.0640574 0
0.520943 0.0618601 0
0.570535 0.0591897 0
0.62443 0.0557412 0
0.682292 0.0514992 0
0.744503 0.0461433 0
0.810605 0.0399329 0
0.878889 0.0322118 0
0.929747 0.0242313 0
0.971023 0.0143893 0
0.994263 0.00541695 0
1 0 0
1 0 0
0 0.109697 0
0 0.109071 0
0 0.108507 0
0 0.107637 0
0.00227359 0.106752 0
0.0151827 0.105989 0
0.0341955 0.105058 0
0.0575875 0.10425 0
0.0853895 0.10338 0
0.113298 0.10277 0
0.141573 0.102083 0
0.169558 0.10164 0
0.198245 0.101076 0
0.227588 0.100572 0
0.257801 0.10013 0
0.28983 0.0994736 0
0.323384 0.0988022 0
0.358831 0.0981003 0
0.396368 0.0973068 0
0.43711 0.0960098 0
0.480629 0.0945602 0
0.527245 0.092958 0
0.577096 0.0908675 0
0.631281 0.0878462 0
0.689738 0.0842451 0
0.7523 0.0795911 0
0.818616 0.0736248 0
0.885649 0.0663615 0
0.934386 0.0569467 0
0.974426 0.0452125 0
0.994919 0.0330358 0
1 0.0211032 0
1 0.00994888 0
0 0.136584 0
0 0.136263 0
0 0.135744 0
0 0.135225 0
0.00311284 0.134691 0
0.0155947 0.133974 0
0.0349584 0.13341 0
0.0586252 0.132799 0
0.0864576 0.132311 0
0.114733 0.131914 0
0.143053 0.131472 0
0.171237 0.130953 0
0.200168 0.130648 0
0.229801 0.130266 0
0.260441 0.129961 0
0.292912 0.129793 0
0.327062 0.129488 0
0.363195 0.129 0
0.401343 0.128634 0
0.442664 0.127901 0
0.48687 0.127016 0
0.53402 0.12578 0
0.584131 0.124132 0
0.638651 0.121828 0
0.697475 0.118578 0
0.760708 0.114458 0
0.826627 0.109499 0
0.890745 0.102953 0
0.939498 0.0942245 0
0.978027 0.0835889 0
0.995544 0.0706951 0
1 0.0548867 0
1 0.0371252 0
0 0.165103 0
0 0.164797 0
0 0.164446 0
0 0.163958 0
0.0043183 0.163455 0
0.0162051 0.162936 0
0.0362249 0.162554 0
0.0601663 0.162142 0
0.0880293 0.1617 0
0.116396 0.161196 0
0.144762 0.160967 0
0.173327 0.160662 0
0.202502 0.160433 0
0.232609 0.160281 0
0.263798 0.160204 0
0.296651 0.160143 0
0.331441 0.160098 0
0.368292 0.160052 0
0.407034 0.159854 0
0.448631 0.159548 0
0.493324 0.15877 0
0.541024 0.157839 0
0.592004 0.156558 0
0.646296 0.154864 0
0.70547 0.152453 0
0.768795 0.149187 0
0.834302 0.144915 0
0.896071 0.139681 0
0.944274 0.133043 0
0.981445 0.124346 0
0.996262 0.11313 0
1 0.0987106 0
1 0.0806897 0
0 0.19472 0
0 0.194415 0
0 0.194247 0
0 0.193774 0
0.00567636 0.193439 0
0.0168307 0.19295 0
0.0377966 0.192599 0
0.0620737 0.19237 0
0.0901503 0.191959 0
0.118456 0.191806 0
0.147189 0.191623 0
0.176013 0.191546 0
0.205432 0.191531 0
0.236042 0.191455 0
0.267811 0.191623 0
0.300862 0.191852 0
0.336324 0.191913 0
0.373571 0.192004 0
0.412955 0.191943 0
0.454566 0.191699 0
0.499977 0.191287 0
0.548241 0.190448 0
0.599588 0.189456 0
0.654551 0.188067 0
0.713161 0.186038 0
0.776547 0.183139 0
0.841978 0.179538 0
0.901381 0.175128 0
0.947845 0.169604 0
0.984848 0.162402 0
0.996887 0.153292 0
1 0.141863 0
1 0.127733 0
0 0.226017 0
0 0.225711 0
0 0.225559 0
0 0.225238 0
0.00695811 0.224933 0
0.0180362 0.224613 0
0.0398566 0.224277 0
0.0646525 0.224079 0
0.092607 0.224018 0
0.12137 0.223911 0
0.150164 0.223926 0
0.179126 0.223896 0
0.208927 0.224125 0
0.24007 0.224292 0
0.272114 0.224537 0
0.305547 0.224704 0
0.341176 0.224918 0
0.378988 0.224979 0
0.419028 0.225055 0
0.461311 0.224979 0
0.5066 0.224674 0
0.555184 0.224063 0
0.607141 0.223163 0
0.662211 0.221942 0
0.720592 0.220188 0
0.783948 0.217777 0
0.849302 0.214557 0
0.906233 0.210651 0
0.951415 0.205936 0
0.988067 0.199969 0
0.997482 0.192142 0
1 0.182589 0
1 0.170703 0
0 0.259373 0
0 0.259236 0
0 0.259098 0
0 0.258808 0
0.00827039 0.258503 0
0.0204318 0.258366 0
0.0421149 0.258228 0
0.067689 0.258045 0
0.0957351 0.258 0
0.124498 0.258091 0
0.153506 0.258137 0
0.182788 0.258137 0
0.21268 0.258274 0
0.244038 0.258503 0
0.276524 0.258854 0
0.310491 0.258946 0
0.346349 0.259297 0
0.384573 0.259495 0
0.424872 0.259556 0
0.467643 0.25948 0
0.512963 0.25922 0
0.561852 0.258671 0
0.61387 0.257862 0
0.668956 0.256764 0
0.727642 0.255146 0
0.791028 0.253208 0
0.855665 0.250324 0
0.910597 0.246998 0
0.95462 0.242573 0
0.990387 0.237522 0
0.998093 0.230854 0
1 0.222538 0
1 0.212573 0
0 0.295628 0
0 0.295506 0
0 0.295384 0
0.00106813 0.295079 0
0.009308 0.294972 0
0.0228122 0.294682 0
0.0443732 0.294545 0
0.0706188 0.29456 0
0.0989853 0.294362 0
0.127947 0.294499 0
0.156847 0.294575 0
0.186313 0.294636 0
0.216556 0.294804 0
0.248066 0.294926 0
0.281025 0.29514 0
0.315358 0.295445 0
0.351202 0.295521 0
0.3897 0.295628 0
0.430442 0.295598 0
0.473472 0.295445 0
0.51902 0.295125 0
0.567758 0.294591 0
0.620035 0.293782 0
0.675395 0.292775 0
0.734371 0.291249 0
0.797147 0.289555 0
0.861997 0.287068 0
0.914717 0.283864 0
0.957809 0.279988 0
0.990951 0.275654 0
0.998611 0.26981 0
1 0.262669 0
1 0.253925 0
0 0.33434 0
0 0.334234 0
0 0.333928 0
0.00265507 0.333822 0
0.00976577 0.333532 0
0.0251774 0.333425 0
0.0466316 0.333303 0
0.0737774 0.333165 0
0.101869 0.333165 0
0.131075 0.333165 0
0.16022 0.333104 0
0.189883 0.333196 0
0.220386 0.33344 0
0.25182 0.33344 0
0.284916 0.333547 0
0.319768 0.333593 0
0.35581 0.333745 0
0.394354 0.333806 0
0.435294 0.33373 0
0.478553 0.333516 0
0.52433 0.333165 0
0.573098 0.332647 0
0.625605 0.331655 0
0.681224 0.330632 0
0.740414 0.32932 0
0.802991 0.327504 0
0.867658 0.325353 0
0.918593 0.32253 0
0.960449 0.318929 0
0.991394 0.314946 0
0.999146 0.309606 0
1 0.303151 0
1 0.295689 0
0 0.375494 0
0 0.375189 0
0 0.375082 0
0.00367742 0.374792 0
0.00952163 0.374701 0
0.0273747 0.374411 0
0.0494545 0.374105 0
0.0764935 0.373968 0
0.104723 0.374014 0
0.133928 0.373831 0
0.163119 0.373816 0
0.193149 0.373754 0
0.223758 0.373861 0
0.255146 0.373922 0
0.288701 0.373907 0
0.323339 0.373831 0
0.35993 0.373693 0
0.398352 0.373663 0
0.439673 0.37351 0
0.483131 0.373236 0
0.529107 0.372824 0
0.577798 0.372274 0
0.63061 0.371466 0
0.686412 0.370428 0
0.7458 0.369146 0
0.80824 0.367376 0
0.872663 0.365179 0
0.921981 0.362707 0
0.962722 0.359319 0
0.991882 0.355566 0
0.999573 0.350896 0
1 0.345159 0
1 0.33814 0
0 0.41857 0
0 0.418463 0
0 0.418158 0
0.00396735 0.417868 0
0.0093843 0.417578 0
0.029099 0.417273 0
0.0517586 0.417166 0
0.0786297 0.416846 0
0.107164 0.416693 0
0.136446 0.416526 0
0.165682 0.416556 0
0.195773 0.416312 0
0.226505 0.416266 0
0.258198 0.416159 0
0.291676 0.416007 0
0.326635 0.416007 0
0.363378 0.415717 0
0.402106 0.415579 0
0.443336 0.41532 0
0.487175 0.414939 0
0.533318 0.41445 0
0.582437 0.413825 0
0.63476 0.412985 0
0.690974 0.411917 0
0.7505 0.410636 0
0.812818 0.409079 0
0.876982 0.406958 0
0.92488 0.404593 0
0.964782 0.401572 0
0.992203 0.397803 0
0.999924 0.393698 0
1 0.388327 0
1 0.382086 0
0 0.463935 0
0 0.463615 0
4.57771e-05 0.463539 0
0.00337224 0.463233 0
0.0109865 0.462699 0
0.0304417 0.462394 0
0.0534981 0.462074 0
0.0800946 0.461967 0
0.109194 0.461601 0
0.138567 0.461448 0
0.167956 0.461051 0
0.19791 0.461067 0
0.228916 0.460822 0
0.260929 0.460533 0
0.294179 0.460441 0
0.329641 0.460029 0
0.366522 0.459815 0
0.405417 0.45951 0
0.446494 0.459129 0
0.490455 0.458625 0
0.536965 0.458015 0
0.585946 0.457496 0
0.6383 0.456596 0
0.694621 0.455467 0
0.754543 0.454109 0
0.816709 0.452537 0
0.880308 0.450446 0
0.927062 0.448142 0
0.966491 0.444953 0
0.992477 0.441779 0
1 0.437842 0
1 0.433082 0
1 0.427253 0
0 0.511833 0
0 0.511513 0
0.000350958 0.511208 0
0.00164797 0.510918 0
0.012253 0.510399 0
0.0313115 0.510094 0
0.0549477 0.509789 0
0.0813916 0.509453 0
0.110826 0.509102 0
0.140246 0.508736 0
0.169772 0.508583 0
0.199832 0.508156 0
0.230793 0.507927 0
0.262943 0.507439 0
0.296529 0.507134 0
0.33193 0.506767 0
0.368948 0.506355 0
0.40795 0.506111 0
0.449119 0.505547 0
0.493172 0.504875 0
0.539773 0.504326 0
0.589105 0.503441 0
0.641245 0.502403 0
0.697902 0.501152 0
0.757549 0.499947 0
0.819577 0.498299 0
0.883009 0.496406 0
0.928985 0.494102 0
0.967803 0.491173 0
0.992676 0.487846 0
1 0.484062 0
1 0.479515 0
1 0.474235 0
0 0.562325 0
0 0.562249 0
0.00015259 0.561685 0
0.000442512 0.561379 0
0.0138857 0.561074 0
0.0313878 0.560525 0
0.0554971 0.559945 0
0.0821088 0.559853 0
0.112093 0.559243 0
0.141405 0.558877 0
0.171145 0.55848 0
0.201144 0.558053 0
0.232242 0.557839 0
0.264744 0.557351 0
0.298268 0.556832 0
0.333654 0.556252 0
0.370993 0.555871 0
0.410117 0.555428 0
0.451209 0.554681 0
0.495308 0.554055 0
0.542229 0.553094 0
0.591623 0.55227 0
0.643656 0.551095 0
0.699931 0.54995 0
0.759869 0.548379 0
0.822049 0.546868 0
0.88455 0.544884 0
0.930419 0.542535 0
0.968719 0.539834 0
0.992828 0.536751 0
1 0.533043 0
1 0.528618 0
1 0.523537 0
0 0.615717 0
0 0.615381 0
0 0.615061 0
0.0011902 0.614466 0
0.015198 0.614145 0
0.0315557 0.61355 0
0.0555886 0.613214 0
0.0824292 0.612604 0
0.112428 0.612238 0
0.141878 0.611582 0
0.171695 0.61117 0
0.201862 0.610742 0
0.233295 0.610285 0
0.26598 0.609522 0
0.299474 0.609003 0
0.335027 0.608438 0
0.372473 0.607813 0
0.411719 0.607141 0
0.452903 0.606409 0
0.497093 0.60557 0
0.543816 0.604654 0
0.593774 0.603357 0
0.645533 0.602502 0
0.701885 0.600931 0
0.761471 0.599451 0
0.823819 0.597787 0
0.885588 0.595666 0
0.931334 0.5935 0
0.969253 0.590723 0
0.992844 0.58761 0
1 0.583841 0
1 0.579797 0
1 0.575113 0
0 0.671611 0
0 0.67126 0
0 0.670619 0
0.00407416 0.670283 0
0.0154879 0.669657 0
0.031342 0.669306 0
0.0547646 0.668666 0
0.0821088 0.668299 0
0.112474 0.667628 0
0.14197 0.666941 0
0.172061 0.666514 0
0.202319 0.665797 0
0.233921 0.665034 0
0.26659 0.664546 0
0.300465 0.663737 0
0.335821 0.663172 0
0.373602 0.662257 0
0.413169 0.661295 0
0.453986 0.660578 0
0.498299 0.659495 0
0.545296 0.658305 0
0.594736 0.657328 0
0.646754 0.655955 0
0.702876 0.654429 0
0.762997 0.652735 0
0.824857 0.650889 0
0.886091 0.648844 0
0.931975 0.64654 0
0.969589 0.64361 0
0.992798 0.640696 0
1 0.637156 0
1 0.633082 0
1 0.628138 0
0 0.730312 0
0 0.72961 0
0 0.729259 0
0.00537118 0.728588 0
0.0137636 0.727901 0
0.0301213 0.72755 0
0.053727 0.726848 0
0.0816968 0.726146 0
0.111711 0.725444 0
0.141512 0.724712 0
0.171756 0.723964 0
0.202472 0.723507 0
0.234073 0.722728 0
0.266972 0.721904 0
0.300847 0.72105 0
0.336233 0.72018 0
0.374121 0.719249 0
0.413794 0.718288 0
0.454917 0.717327 0
0.499123 0.716274 0
0.546151 0.714839 0
0.595575 0.713634 0
0.647837 0.712322 0
0.703761 0.710597 0
0.763149 0.708995 0
0.825162 0.706966 0
0.886061 0.704753 0
0.931868 0.702296 0
0.969528 0.69955 0
0.992615 0.696254 0
1 0.693248 0
1 0.689158 0
1 0.68455 0
0 0.79202 0
0 0.791653 0
0 0.790982 0
0.00468452 0.790311 0
0.00955215 0.78996 0
0.0282444 0.789273 0
0.0510414 0.788602 0
0.0800183 0.7879 0
0.110079 0.787182 0
0.140352 0.786465 0
0.170611 0.785733 0
0.201755 0.78497 0
0.23357 0.784192 0
0.266545 0.783078 0
0.300649 0.782254 0
0.336278 0.781384 0
0.373922 0.780163 0
0.413672 0.779217 0
0.455344 0.777905 0
0.499001 0.776852 0
0.546029 0.775402 0
0.595682 0.773861 0
0.647578 0.772564 0
0.703593 0.77052 0
0.763149 0.768643 0
0.824689 0.766629 0
0.885679 0.764462 0
0.931456 0.761746 0
0.968856 0.759106 0
0.992416 0.755871 0
1 0.752377 0
1 0.74847 0
1 0.744076 0
0 0.854475 0
0 0.853788 0
0.000244144 0.853437 0
0.00204471 0.852766 0
0.00585946 0.852079 0
0.0257572 0.851392 0
0.0477913 0.851026 0
0.0771801 0.850004 0
0.107393 0.849302 0
0.138354 0.848585 0
0.16907 0.847837 0
0.200504 0.846769 0
0.232654 0.846006 0
0.265721 0.844877 0
0.300084 0.844068 0
0.335927 0.842908 0
0.373632 0.842039 0
0.413108 0.840803 0
0.454841 0.839521 0
0.498924 0.838193 0
0.545708 0.836789 0
0.594797 0.835325 0
0.647166 0.833448 0
0.703014 0.831479 0
0.762402 0.829709 0
0.824109 0.827482 0
0.884749 0.825132 0
0.930755 0.822553 0
0.968154 0.81976 0
0.992096 0.816739 0
1 0.813474 0
1 0.810147 0
1 0.805707 0
0 0.907378 0
0 0.906889 0
0 0.90663 0
0 0.906142 0
0.00656138 0.905653 0
0.0231479 0.90515 0
0.0443732 0.904662 0
0.073167 0.904143 0
0.103975 0.903639 0
