luts/GoldenFace.cube
TITLE "Generated by Resolve"
LUT_3D_SIZE 9
0 0 0
0.067277 0 0
0.174289 0 0
0.233127 0 0
0.316121 0 0
0.454398 0 0
0.647669 0 0
0.903258 0 0
1 0 0
0 0.0278325 0
0.0171969 0.0154879 0
0.110018 0.00428779 0
0.201358 0 0
0.31339 0 0
0.461051 0 0
0.659678 0 0
0.913481 0 0
1 0 0
0 0.0855268 0
0.00207523 0.0808881 0
0.0855268 0.0757916 0
0.19675 0.0723735 0
0.320424 0.0695048 0
0.475044 0.0640574 0
0.682292 0.0514992 0
0.929747 0.0242313 0
1 0 0
0 0.19472 0
0.00567636 0.193439 0
0.0901503 0.191959 0
0.205432 0.191531 0
0.336324 0.191913 0
0.499977 0.191287 0
0.713161 0.186038 0
0.947845 0.169604 0
1 0.127733 0
0 0.33434 0
0.00976577 0.333532 0
0.101869 0.333165 0
0.220386 0.33344 0
0.35581 0.333745 0
0.52433 0.333165 0
0.740414 0.32932 0
0.960449 0.318929 0
1 0.295689 0
0 0.511833 0
0.012253 0.510399 0
0.110826 0.509102 0
0.230793 0.507927 0
0.368948 0.506355 0
0.539773 0.504326 0
0.757549 0.499947 0
0.967803 0.491173 0
1 0.474235 0
0 0.730312 0
0.0137636 0.727901 0
0.111711 0.725444 0
0.234073 0.722728 0
0.374121 0.719249 0
0.546151 0.714839 0
0.763149 0.708995 0
0.969528 0.69955 0
1 0.68455 0
0 0.949722 0
0.00746166 0.948394 0
0.0991989 0.94667 0
0.228595 0.944671 0
0.371206 0.941512 0
0.54374 0.93753 0
0.759152 0.932677 0
0.966583 0.92636 0
1 0.917632 0
0 1 0
0 1 0
0.066865 1 0
0.211276 1 0
0.359838 1 0
0.535271 1 0
0.752895 1 0
0.963531 1 0
1 1 0
0 0 0.00976577
0.0707713 0 0.0594339
0.166781 0 0.0201267
0.228138 0 0.00296025
0.317082 0 0
0.457633 0 0
0.652155 0 0
0.907164 0 0
1 0 0
0 0.0215305 0.0174258
0.0158846 0.0121614 0.00846876
0.110674 0.00199893 0
0.203159 0 0
0.316609 0 0
0.465187 0 0
0.665049 0 0
0.917632 0 0
1 0 0
0 0.084123 0
0 0.0810559 0
0.0849012 0.0749981 0
0.199435 0.0708324 0
0.324071 0.0678416 0
0.479912 0.0622263 0
0.688273 0.0495918 0
0.933913 0.0226444 0
1 0 0
0 0.194965 0
0.0043183 0.194217 0
0.0871595 0.192782 0
0.205615 0.191531 0
0.338552 0.191196 0
0.503746 0.190158 0
0.718303 0.184558 0
0.950729 0.167697 0
1 0.124849 0
0 0.335058 0
0.00875868 0.334646 0
0.0988785 0.33431 0
0.218616 0.334234 0
0.356054 0.333974 0
0.526482 0.332601 0
0.744152 0.328466 0
0.962798 0.317525 0
1 0.29398 0
0 0.512642 0
0.0105592 0.511452 0
0.107836 0.510185 0
0.228565 0.508797 0
0.367636 0.50724 0
0.539986 0.504051 0
0.759121 0.498955 0
0.969253 0.490089 0
1 0.472984 0
0 0.730587 0
0.0130922 0.728511 0
0.109331 0.72668 0
0.231327 0.723674 0
0.372076 0.71989 0
0.54464 0.71516 0
0.763149 0.708705 0
0.970077 0.69894 0
1 0.683543 0
0 0.949905 0
0.00704967 0.94876 0
0.0969253 0.947219 0
0.226032 0.94522 0
0.368643 0.942229 0
0.541192 0.937789 0
0.757549 0.932692 0
0.966583 0.925856 0
1 0.917098 0
0 1 0
0 1 0
0.0645457 1 0
0.208377 1 0
0.357366 1 0
0.532906 1 0
0.750301 1 0
0.962768 1 0
1 1 0
0.00143435 0 0.137392
0.053193 0 0.194049
0.149935 0 0.135012
0.219409 0 0.0869612
0.316915 0 0.0675669
0.460914 0 0.0593729
0.657099 0 0.0466621
0.911711 0 0.0213779
1 0 0
0 0.0151064 0.126238
0.0116579 0.00796521 0.112947
0.103883 0.000274662 0.0877699
0.203159 0 0.0688792
0.319402 0 0.0610513
0.469383 0 0.0540169
0.671443 0 0.04065
0.922667 0 0.0162051
1 0 0
0 0.0809644 0.0709239
0 0.078294 0.0680705
0.0831311 0.0728771 0.0622873
0.203922 0.0676127 0.0566567
0.328725 0.0650034 0.053315
0.485481 0.0597848 0.0469978
0.694972 0.0467994 0.0327001
0.938735 0.0199893 0.0103761
1 0 0
0 0.194278 0.0639353
0.00355535 0.194003 0.0588235
0.081529 0.193744 0.0501259
0.205631 0.191028 0.0443122
0.342504 0.189731 0.0436255
0.509331 0.188357 0.0375677
0.724819 0.182467 0.0213931
0.954269 0.164843 0.0043183
1 0.120653 0
0 0.335225 0.0604868
0.00732433 0.335195 0.0545357
0.0941787 0.335637 0.0466773
0.215427 0.33521 0.0385901
0.356329 0.333791 0.0322881
0.529595 0.331182 0.0232853
0.749264 0.326711 0.00474556
0.965621 0.315526 0
1 0.291493 0
0 0.512245 0.0474708
0.00814832 0.5122 0.0410163
0.103639 0.511177 0.0333562
0.224765 0.510033 0.0256962
0.365087 0.507561 0.0181277
0.539864 0.503655 0.00920119
0.761395 0.498238 3.0518e-05
0.971191 0.488319 0
1 0.470985 0
0 0.730617 0.0184329
0.0114443 0.728862 0.0139315
0.10515 0.727672 0.0106661
0.227741 0.724666 0.00671397
0.368627 0.720897 0.00247196
0.54226 0.715496 1.5259e-05
0.76289 0.708446 0
0.970932 0.697734 0
1 0.68162 0
0 0.949798 0
0.00643931 0.948653 0
0.0932021 0.947295 0
0.222461 0.945678 0
0.365179 0.942855 0
0.538064 0.938186 0
0.75639 0.932601 0
0.96614 0.92578 0
1 0.916442 0
0 1 0
0 1 0
0.0609751 1 0
0.205432 1 0
0.354025 1 0
0.529473 1 0
0.747845 1 0
0.961761 1 0
1 1 0
0.025452 0 0.258335
0.0309453 0 0.292714
0.127672 0 0.236469
0.208652 0 0.190845
0.315908 0 0.177157
0.463737 0 0.174945
0.662745 0 0.171237
0.916671 0 0.159289
1 0 0.121035
0 0.00889601 0.224399
0.00784314 0.00418097 0.208911
0.0927291 0 0.192004
0.199481 0 0.179828
0.320775 0 0.175341
0.473579 0 0.173159
0.678553 0 0.168841
0.928344 0 0.154726
1 0 0.112474
0 0.0773785 0.178164
0.00204471 0.0745403 0.179324
0.0813764 0.0700999 0.182483
0.203525 0.0650797 0.180194
0.332143 0.0621958 0.174777
0.491295 0.0570077 0.171801
0.702388 0.0434577 0.166217
0.944289 0.0167239 0.14873
1 0 0.100481
0 0.193103 0.178714
0.00408942 0.192935 0.17818
0.0796826 0.192447 0.177813
0.204913 0.189715 0.174472
0.34931 0.187106 0.17116
0.516564 0.186221 0.168841
0.733257 0.17998 0.160601
0.958297 0.161593 0.138888
1 0.11574 0.0836805
0 0.334874 0.184054
0.00575265 0.33521 0.181186
0.0906539 0.336049 0.176501
0.209552 0.336812 0.167651
0.356741 0.333486 0.160601
0.534997 0.329763 0.158679
0.756466 0.324529 0.148836
0.969329 0.313283 0.123278
1 0.28809 0.0612039
0 0.512078 0.181262
0.00827039 0.511574 0.176822
0.0998245 0.511498 0.170672
0.219806 0.511315 0.161837
0.361059 0.508415 0.15169
0.540078 0.503304 0.142947
0.765148 0.496849 0.12932
0.973999 0.486748 0.0996414
1 0.468421 0.0344854
0 0.72987 0.16492
0.00943008 0.729061 0.159777
0.101579 0.728527 0.153109
0.223514 0.726177 0.14406
0.36408 0.722744 0.132738
0.539467 0.715999 0.11931
0.76286 0.707454 0.100023
0.972107 0.696361 0.0646983
1 0.679515 0.0128481
0 0.949294 0.130495
0.00595102 0.948501 0.124544
0.0894026 0.947509 0.116945
0.218799 0.946075 0.106981
0.360525 0.943557 0.0940566
0.533928 0.938994 0.0771496
0.75346 0.932464 0.0535286
0.966217 0.925109 0.0177615
1 0.91519 0.00102235
0 1 0.0613565
0 1 0.0544137
0.0569009 1 0.0461433
0.201648 1 0.0358282
0.350256 1 0.0221103
0.525246 1 0.00875868
0.743893 1 0.00030518
0.960876 1 0
1 1 0
0.0416266 0 0.326314
0.0311894 0 0.364324
0.104356 0 0.328527
0.19942 0 0.295705
0.315053 0 0.289998
0.466392 0 0.293492
0.669261 0 0.297581
0.922423 0 0.297856
1 0 0.28333
0 0.00396735 0.316243
0.005066 0.00178531 0.305303
0.0845808 0 0.295827
0.195239 0 0.291707
0.320439 0 0.293233
0.476448 0 0.295705
0.685069 0 0.299123
0.933898 0 0.296742
1 0 0.278904
0 0.0737621 0.287907
0.00318914 0.0712596 0.290608
0.0804761 0.0679942 0.295109
0.198993 0.0641489 0.299168
0.331563 0.0596475 0.300053
0.495277 0.0533303 0.301305
0.709484 0.0390173 0.30164
0.94818 0.0121004 0.295262
1 0 0.273228
0 0.191882 0.297337
0.00418097 0.191165 0.299519
0.0825055 0.190066 0.303807
0.204257 0.187884 0.311696
0.350057 0.185 0.312001
0.522438 0.183291 0.307301
0.741024 0.176532 0.302586
0.962417 0.157443 0.291234
1 0.10927 0.265171
0 0.334752 0.312215
0.00250248 0.334508 0.312123
0.0899825 0.33492 0.312306
0.207874 0.335439 0.312581
0.355901 0.331716 0.308141
0.543908 0.326085 0.301808
0.765545 0.321447 0.295628
0.973663 0.309911 0.281895
1 0.284337 0.252735
0 0.511406 0.317327
0.00874342 0.511147 0.314611
0.0970779 0.510826 0.311025
0.2159 0.511589 0.304967
0.353658 0.51043 0.293126
0.540108 0.502968 0.283497
0.772091 0.494194 0.278843
0.977996 0.483406 0.264881
1 0.464973 0.233783
0 0.729091 0.308309
0.00601205 0.728298 0.304417
0.0974441 0.727764 0.299214
0.219303 0.72607 0.291691
0.358038 0.724285 0.280919
0.533959 0.71722 0.268727
0.762539 0.706752 0.257694
0.974304 0.694026 0.241306
1 0.676661 0.207431
0 0.948837 0.286168
0.0053254 0.948058 0.281407
0.0850843 0.94725 0.275669
0.214542 0.945998 0.267918
0.355444 0.944045 0.257877
0.528374 0.939712 0.245197
0.749279 0.933425 0.230426
0.966018 0.924575 0.20972
1 0.914275 0.170855
0 1 0.247623
0 1 0.242618
0.052903 1 0.23653
0.197452 1 0.228443
0.345418 1 0.218265
0.519783 1 0.205203
0.738689 1 0.1879
0.959335 1 0.162081
1 1 0.112444
0.0580606 0 0.388678
0.0476387 0 0.41825
0.0866255 0 0.431434
0.19295 0 0.416968
0.3149 0 0.421042
0.46923 0 0.431327
0.676402 0 0.443687
0.928695 0 0.454185
1 0 0.452644
0 0.00138857 0.422965
0.00283818 0.00062562 0.418647
0.0782483 3.0518e-05 0.41677
0.192432 0 0.420523
0.319814 0 0.428809
0.479011 0 0.438178
0.691325 0 0.449012
0.939269 0 0.456199
1 0 0.450568
0 0.0692607 0.415167
0.00227359 0.0665446 0.41973
0.0777905 0.0636759 0.426337
0.196429 0.0603647 0.434546
0.329686 0.0556954 0.442786
0.49688 0.0479438 0.450965
0.714244 0.0324712 0.458045
0.951705 0.00538643 0.458839
1 0 0.448341
0 0.190097 0.435859
0.00102235 0.188937 0.440009
0.0819257 0.187839 0.446845
0.204211 0.186831 0.456947
0.345235 0.184222 0.466117
0.52195 0.180468 0.468956
0.745037 0.171862 0.466987
0.965438 0.151476 0.460258
1 0.100786 0.444526
0 0.333593 0.462669
0.000442512 0.33312 0.464652
0.0889448 0.33286 0.468406
0.210971 0.332067 0.475029
0.35433 0.328862 0.483543
0.543313 0.322774 0.479774
0.771145 0.317464 0.467781
0.977096 0.305241 0.455528
1 0.279469 0.435584
0 0.510094 0.475685
0.00773632 0.50959 0.474922
0.0937362 0.508766 0.474311
0.214908 0.508553 0.473579
0.351125 0.507546 0.471992
0.538094 0.499611 0.463386
0.781918 0.488991 0.451835
0.982589 0.478965 0.44004
1 0.460487 0.418936
0 0.727367 0.471885
0.000350958 0.726894 0.469032
0.0925765 0.725414 0.465644
0.215869 0.724666 0.460456
0.352712 0.722927 0.451591
0.524025 0.718868 0.435676
0.762005 0.70547 0.421881
0.977646 0.690425 0.41387
1 0.672511 0.394415
0 0.947799 0.453864
0.0030518 0.947204 0.45008
0.0792706 0.946212 0.444999
0.210437 0.945144 0.437873
0.35021 0.943572 0.428138
0.520729 0.940215 0.41471
0.742336 0.933959 0.398947
0.965835 0.924041 0.384558
1 0.912016 0.364324
0 1 0.423682
0 1 0.419257
0.0464942 1 0.413855
0.192645 1 0.406836
0.340719 1 0.397467
0.513603 1 0.385122
0.73135 1 0.370016
0.957031 1 0.352422
1 1 0.327749
0.0757763 0 0.456504
0.0702831 0 0.496941
0.0736248 0 0.565316
0.188434 0 0.567269
0.314961 0 0.581292
0.472663 0 0.600778
0.683742 0 0.624216
0.934859 0 0.644938
1 0 0.654108
0 9.15541e-05 0.559945
0.000106813 1.5259e-05 0.5617
0.0706188 0 0.567086
0.189548 0 0.578515
0.319127 0 0.593912
0.481651 0 0.613367
0.697154 0 0.634333
0.943648 0 0.650309
1 0 0.654627
0 0.0611429 0.572229
0 0.0585489 0.57821
0.0716869 0.0556191 0.587289
0.193576 0.0518807 0.600671
0.328527 0.0467231 0.617121
0.49752 0.0375219 0.634653
0.717906 0.0217899 0.649897
0.953964 0 0.657969
1 0 0.65565
0 0.186221 0.607034
0 0.184695 0.613245
0.0767071 0.18349 0.622858
0.202136 0.182498 0.636255
0.342763 0.180133 0.651408
0.519005 0.175128 0.662943
0.744488 0.164569 0.667659
0.966659 0.14139 0.665614
1 0.0865339 0.655955
0 0.331395 0.64831
0.00265507 0.330251 0.652461
0.0827955 0.329473 0.658869
0.209857 0.328466 0.668528
0.352911 0.325658 0.67921
0.53492 0.320577 0.684901
0.767346 0.313085 0.679561
0.977996 0.299504 0.667597
1 0.271946 0.650828
0 0.507408 0.670924
0.00143435 0.506874 0.672175
0.085832 0.505989 0.673961
0.212696 0.504509 0.677531
0.354147 0.501656 0.683009
0.53489 0.494621 0.689967
0.779614 0.483955 0.679469
0.984848 0.472679 0.658122
1 0.454459 0.636255
0 0.724834 0.671733
0.000732433 0.723705 0.67068
0.0819257 0.72221 0.668971
0.211597 0.72047 0.667292
0.351034 0.718029 0.664591
0.519997 0.713893 0.659922
0.758572 0.700404 0.645975
0.98294 0.68275 0.62707
1 0.665827 0.608667
0 0.945983 0.655436
0 0.945388 0.652323
0.0692149 0.944579 0.648539
0.204776 0.943328 0.643626
0.346044 0.941741 0.635309
0.513466 0.939559 0.623377
0.729473 0.934829 0.602564
0.965362 0.922576 0.584268
1 0.908614 0.572808
0 1 0.627436
0 1 0.623392
0.0381476 1 0.618662
0.186481 1 0.612589
0.335348 1 0.603784
0.507485 1 0.591623
0.721981 1 0.574334
0.952651 1 0.554711
1 1 0.53669
0.103548 0 0.566934
0.100755 0 0.61735
0.0946059 0 0.712322
0.182635 0 0.76173
0.313664 0 0.785321
0.475715 0 0.815518
0.690852 0 0.851041
0.940887 0 0.880598
1 0 0.892638
0 0 0.740276
0 0 0.749569
0.0584268 0 0.761639
0.183536 0 0.779538
0.317754 0 0.80354
0.484001 0 0.834577
0.702403 0 0.866285
0.946685 0 0.886427
1 0 0.894621
0 0.045304 0.771878
0 0.0426032 0.780224
0.0591897 0.0393683 0.79292
0.187488 0.0349584 0.8121
0.326375 0.0289311 0.83711
0.497765 0.0187381 0.863706
0.720058 0.000427253 0.884916
0.955413 0 0.894865
1 0 0.897749
0 0.177584 0.824445
4.57771e-05 0.175845 0.832715
0.0623178 0.174289 0.844862
0.1953 0.172061 0.862074
0.339162 0.169116 0.881682
0.515633 0.162554 0.894224
0.742016 0.149462 0.902022
0.96614 0.122774 0.904662
1 0.0612802 0.901198
0 0.325612 0.879637
0 0.324514 0.884504
0.0648661 0.323095 0.890257
0.201572 0.32137 0.898009
0.34847 0.318578 0.906752
0.52874 0.313527 0.913725
0.759655 0.304845 0.915465
0.975906 0.289723 0.910918
1 0.260212 0.901137
0 0.503212 0.901854
0 0.501564 0.90367
0.0644388 0.500038 0.906386
0.203983 0.498146 0.910658
0.350973 0.495079 0.915923
0.531563 0.489296 0.920867
0.766369 0.4795 0.92076
0.981292 0.466636 0.910262
1 0.446403 0.893751
0 0.720592 0.905501
4.57771e-05 0.719127 0.905409
0.0612345 0.716609 0.90602
0.202121 0.714488 0.906493
0.347738 0.710948 0.907973
0.522652 0.704524 0.910063
0.752712 0.692973 0.912642
0.980667 0.674693 0.899763
1 0.657786 0.876143
0 0.943786 0.894606
0 0.942809 0.89305
0.0476539 0.941802 0.891707
0.19382 0.940337 0.889738
0.340917 0.938125 0.887007
0.511467 0.935073 0.883085
0.723644 0.930175 0.877516
0.963211 0.918196 0.861372
1 0.901488 0.838361
0 1 0.874479
0 1 0.872343
0.0194553 1 0.869307
0.17467 1 0.864546
0.328801 1 0.858122
0.501991 1 0.848737
0.712627 1 0.83415
0.944839 1 0.807538
1 1 0.783795
0.137118 0 0.725353
0.134844 0 0.785534
0.128237 0 0.88835
0.170245 0 0.957275
0.308644 0 0.973373
0.47747 0 0.990768
0.69662 0 0.995407
0.944274 0 0.999908
1 0 1
0 0 0.908675
0 0 0.948562
0.0339208 0 0.957351
0.170138 0 0.969375
0.312291 0 0.986038
0.483711 0 0.99321
0.70547 0 0.997406
0.948806 0 1
1 0 1
0 0.0173953 0.965194
0 0.014435 0.970581
0.031754 0.0104524 0.978668
0.173114 0.00425727 0.990402
0.319158 0 0.993484
0.495125 0 0.996948
0.71989 4.57771e-05 1
0.955734 0 1
1 0 1
0 0.1579 0.992203
0 0.155596 0.993164
0.0312047 0.152789 0.994583
0.177523 0.149477 0.996612
0.329686 0.14374 0.998962
0.509499 0.134127 1
0.737408 0.116213 1
0.964691 0.0817426 1
1 0.016144 1
0 0.313268 0.998871
0 0.311131 0.999527
0.0269322 0.309606 1
0.181109 0.307286 1
0.336934 0.303548 1
0.520027 0.297734 1
0.750957 0.287938 1
0.97229 0.270542 1
1 0.238193 1
0 0.493782 1
0 0.492271 1
0.0236667 0.489769 1
0.181796 0.487312 1
0.339696 0.483909 1
0.523293 0.478508 1
0.755611 0.469154 1
0.975464 0.455756 1
1 0.433143 1
0 0.712703 1
0 0.710536 1
0.0230869 0.708263 1
0.179522 0.705043 1
0.336812 0.700679 1
0.517937 0.694453 1
0.747097 0.683955 1
0.971893 0.668086 1
1 0.649195 1
0 0.940047 1
0 0.939239 1
0.0170901 0.937804 1
0.170901 0.93579 1
0.329229 0.933135 1
0.507347 0.928862 1
0.726741 0.92282 1
0.959579 0.911482 1
1 0.894652 1
0 1 1
0 1 1
0 1 0.999878
0.14934 1 0.999542
0.31696 1 0.999054
0.495918 1 0.998489
0.710475 1 0.997665
0.94107 1 0.99646
1 1 0.992737
