luts/GOLDEN FEVE3R.cube
TITLE "Generated by Resolve"
LUT_3D_SIZE 33
0.0204471 0.0374914 0.0431525
0.0208438 0.0383764 0.0440833
0.0216068 0.0393378 0.0449989
0.0222477 0.0403449 0.0458534
0.0229038 0.0413672 0.0466773
0.0236057 0.042359 0.0476387
0.024506 0.0432746 0.0486152
0.0277714 0.0436713 0.0488136
0.0319829 0.0437324 0.0491035
0.0367437 0.0436408 0.0493782
0.0420081 0.0433051 0.049546
0.0474556 0.0431678 0.0497139
0.0531319 0.0435645 0.0497749
0.0592355 0.0441749 0.0497902
0.0658427 0.0446784 0.0496529
0.0728923 0.0451667 0.0494392
0.0803082 0.0457465 0.0492714
0.0880598 0.0464179 0.0491035
0.0963149 0.0469368 0.0488746
0.105272 0.047364 0.0486
0.114778 0.047837 0.048249
0.125093 0.0483101 0.0480049
0.136446 0.0485237 0.0476234
0.148989 0.0485542 0.0471504
0.162936 0.0484932 0.0465858
0.179019 0.0479896 0.0460212
0.197299 0.0469673 0.0454414
0.218326 0.0453498 0.0445258
0.242924 0.0425116 0.0434577
0.271138 0.0383917 0.0421149
0.303181 0.0323949 0.0404517
0.338964 0.0236057 0.0384222
0.378256 0.0179294 0.0361791
0.0224918 0.0407568 0.0461433
0.0231785 0.0417182 0.0470283
0.0239567 0.042649 0.0479744
0.0248569 0.0436561 0.0489509
0.0257115 0.0447242 0.0497292
0.0266423 0.0458839 0.0504768
0.0276646 0.0468452 0.0514839
0.0296941 0.0476234 0.0522164
0.0339361 0.0478065 0.0521553
0.0388952 0.0478065 0.0521401
0.0441444 0.0476387 0.0521859
0.0504311 0.0472877 0.0523079
0.0568856 0.046952 0.0523079
0.0635691 0.0469062 0.0522316
0.0704051 0.0473945 0.0519112
0.0778058 0.0479591 0.0517433
0.085481 0.0484016 0.0514992
0.0934768 0.0489204 0.0512398
0.102022 0.049485 0.0510414
0.111482 0.049958 0.0507668
0.121386 0.0503548 0.0504311
0.132204 0.0507057 0.0499886
0.144259 0.0506905 0.0495308
0.157641 0.050782 0.0491035
0.172641 0.0504616 0.0485237
0.18967 0.0497444 0.0478981
0.208942 0.0485542 0.0471656
0.231556 0.0464332 0.0462196
0.257649 0.043122 0.0449989
0.287526 0.0381781 0.043473
0.320821 0.0313115 0.0416114
0.357656 0.0217441 0.0395209
0.398276 0.0178531 0.0370794
0.0251926 0.0439918 0.0492103
0.0260471 0.0451514 0.0500038
0.026978 0.0462806 0.0508125
0.0280156 0.0472267 0.0518807
0.0290074 0.0482643 0.0528267
0.0299535 0.0495155 0.0538186
0.0309453 0.0507973 0.0546578
0.0323033 0.0517891 0.0556649
0.036347 0.0521096 0.0553597
0.0413519 0.0523232 0.0551766
0.0471046 0.0522469 0.0550088
0.0534218 0.0520027 0.0548409
0.0603037 0.051545 0.0547646
0.0679637 0.0509499 0.0546883
0.075639 0.0506447 0.0544594
0.08336 0.0508125 0.054139
0.0913405 0.0513161 0.0538338
0.0997635 0.0519112 0.0536049
0.108797 0.0522774 0.053315
0.118395 0.0526741 0.0529641
0.128969 0.0529946 0.0524605
0.140658 0.053193 0.0521248
0.153414 0.0532387 0.0516823
0.167636 0.0530861 0.0510872
0.183413 0.0526589 0.0504768
0.201923 0.0516976 0.0498207
0.222797 0.0500343 0.0489967
0.246571 0.0475319 0.0479896
0.27425 0.0435035 0.0465705
0.305455 0.0378576 0.0449226
0.3402 0.0299687 0.0429847
0.378073 0.0192416 0.0407721
0.419471 0.0177768 0.0378424
0.028397 0.0476081 0.0522927
0.0293431 0.0487068 0.0532387
0.0303197 0.0499275 0.0540932
0.0314183 0.051194 0.0550698
0.0325628 0.0522469 0.0561074
0.0336309 0.0534218 0.057084
0.0346227 0.0547799 0.0580453
0.0359503 0.0561227 0.0589914
0.0397192 0.0567483 0.0586709
0.0446021 0.057145 0.0581826
0.0504921 0.0573129 0.0578775
0.0569772 0.0571908 0.0577249
0.06421 0.0568093 0.0574044
0.0721141 0.0562295 0.057084
0.0805982 0.055375 0.0568399
0.089662 0.0543069 0.0567636
0.0979782 0.0546273 0.0564126
0.106844 0.0550393 0.0560006
0.116335 0.0553902 0.0557107
0.126726 0.0557717 0.0553597
0.137789 0.0560464 0.0549783
0.150072 0.0561227 0.0544137
0.163684 0.0559701 0.0538643
0.179126 0.0556954 0.0533303
0.196368 0.054963 0.0526894
0.215869 0.0536965 0.0518502
0.238041 0.051606 0.0510262
0.263798 0.0483406 0.0497139
0.292729 0.0437629 0.0482185
0.325139 0.0373236 0.0463722
0.360723 0.0282292 0.0441749
0.399756 0.0187381 0.0415808
0.442069 0.0176699 0.038529
0.0318608 0.051545 0.0554208
0.03299 0.0526894 0.0564431
0.0340124 0.0539101 0.0574502
0.0350195 0.0552834 0.05832
0.0364385 0.0565499 0.0593576
0.0379187 0.0577859 0.0603647
0.0391089 0.0590982 0.0613565
0.0402228 0.0605631 0.0622721
0.0440681 0.0616312 0.0619364
0.0489815 0.0622873 0.0614328
0.0546273 0.0628367 0.0608682
0.0614328 0.0628061 0.0603799
0.0687419 0.062562 0.0599832
0.0766308 0.0622263 0.0597238
0.0853437 0.0615396 0.0594339
0.0947127 0.0605478 0.059266
0.10454 0.059556 0.0590372
0.114427 0.0592966 0.058732
0.124681 0.0592813 0.058381
0.135805 0.059266 0.0579232
0.147845 0.0592813 0.0574655
0.161227 0.0592508 0.0569619
0.175814 0.0589761 0.0563821
0.192111 0.0584268 0.0557107
0.210575 0.0574044 0.0549325
0.231739 0.0557107 0.0541695
0.255283 0.0531167 0.0529335
0.282383 0.0492103 0.0514076
0.312673 0.0437934 0.0497292
0.346349 0.0363317 0.0475929
0.382788 0.0263523 0.0452583
0.422477 0.0179446 0.0423896
0.464912 0.0169528 0.0391394
0.035523 0.055787 0.0587015
0.0370184 0.0569772 0.0597543
0.0382849 0.0582437 0.0607156
0.0394446 0.0596628 0.061738
0.0408331 0.0611124 0.0626688
0.042649 0.0624552 0.0637827
0.0442206 0.06392 0.0649119
0.045655 0.0654307 0.0658122
0.0493782 0.0666514 0.0651408
0.0540322 0.0678721 0.0644388
0.0598764 0.0685893 0.0637827
0.066392 0.0690318 0.0632181
0.0737316 0.0691081 0.0627756
0.0816663 0.068986 0.0622721
0.0903029 0.0684977 0.0619059
0.0999161 0.0679179 0.0616617
0.110384 0.0669261 0.0615091
0.121706 0.065568 0.0612497
0.133455 0.0646525 0.0609293
0.145785 0.0640879 0.0605936
0.159289 0.0632029 0.0601358
0.173831 0.062562 0.0595102
0.189334 0.0621195 0.0589151
0.207187 0.0612802 0.0582132
0.226871 0.0598306 0.0573434
0.249027 0.0576944 0.0561837
0.274006 0.0544747 0.0547646
0.302342 0.0501106 0.053193
0.333944 0.0437781 0.0511482
0.368399 0.035462 0.0488136
0.405631 0.0242618 0.0462043
0.446052 0.0178836 0.0431525
0.489372 0.0148165 0.0395209
0.0398108 0.0601511 0.0619821
0.0414588 0.0616464 0.0631113
0.0432593 0.062974 0.0641642
0.0447395 0.0643931 0.0652476
0.0461128 0.0660105 0.0662547
0.0479896 0.0675975 0.0673686
0.0498665 0.0691234 0.068452
0.0519265 0.0707713 0.068574
0.055375 0.0724498 0.0680095
0.0601053 0.0740978 0.0672618
0.0656596 0.0749065 0.0666819
0.0719463 0.0757305 0.0660868
0.0793011 0.0763256 0.0656291
0.0873426 0.0764324 0.0650645
0.0962387 0.0764019 0.0645914
0.106111 0.0759289 0.0641794
0.116823 0.0751965 0.0637827
0.12871 0.0741894 0.0635538
0.141466 0.072755 0.0632334
0.155612 0.0709087 0.0629129
0.170565 0.0691234 0.0624857
0.187289 0.0671397 0.0620737
0.205081 0.0652781 0.0614328
0.223621 0.0641184 0.0605478
0.244373 0.0622416 0.0595254
0.268086 0.0596323 0.0581826
0.294194 0.0558633 0.0566873
0.323583 0.0507057 0.0547341
0.356054 0.0437781 0.0525826
0.39176 0.0343938 0.0498817
0.429984 0.0220188 0.046952
0.470512 0.0178073 0.0436103
0.514305 0.0126345 0.0396429
0.0423285 0.0657511 0.0643473
0.045243 0.0669261 0.0659495
0.0485084 0.0681773 0.0676432
0.0505226 0.069749 0.0688792
0.052018 0.0714427 0.0699931
0.0539559 0.073228 0.0710002
0.0561837 0.0751812 0.0712749
0.0587778 0.076997 0.0711528
0.0622263 0.0787518 0.0707713
0.0664683 0.0807202 0.0701915
0.0719921 0.0821241 0.0696117
0.0780804 0.0832532 0.0689708
0.0854047 0.0840772 0.0683452
0.0936446 0.0846876 0.0677501
0.102708 0.0850233 0.0671702
0.112688 0.0849165 0.0666514
0.123842 0.0844739 0.0662394
0.135988 0.08365 0.0658885
0.149615 0.0822614 0.0653849
0.164797 0.0802777 0.0651408
0.181567 0.0776379 0.0646525
0.199893 0.0745098 0.0643168
0.219989 0.0708171 0.063798
0.241993 0.0670024 0.0630045
0.264103 0.064683 0.061738
0.288579 0.0614633 0.0602426
0.315984 0.0572366 0.0583963
0.346822 0.0513313 0.0562142
0.380301 0.0435645 0.0538033
0.416449 0.0332799 0.0508888
0.455299 0.0206912 0.0476081
0.496513 0.0177005 0.043946
0.541436 0.0101015 0.0395056
0.0443427 0.0719768 0.0664988
0.0478981 0.0733959 0.0678721
0.0508888 0.0748455 0.0692912
0.0544442 0.0763714 0.0707561
0.0572366 0.0780652 0.0720226
0.0594644 0.0799268 0.0728313
0.0623331 0.0819409 0.0734112
0.0654154 0.0839857 0.0735637
0.0690166 0.0860456 0.0733806
0.0732433 0.0881361 0.0728466
0.0784772 0.0898756 0.0723888
0.0846723 0.0912642 0.0717632
0.0920729 0.092668 0.0710918
0.100496 0.0939345 0.0703899
0.109712 0.0943923 0.06981
0.120073 0.0946212 0.0691691
0.131716 0.0944686 0.0686046
0.144594 0.0938888 0.0680705
0.15874 0.0926986 0.0675059
0.174792 0.0907454 0.0669871
0.192477 0.0880903 0.0665446
0.212757 0.0843977 0.0661326
0.23473 0.0797436 0.0656291
0.259144 0.0737011 0.0650339
0.285054 0.0675975 0.0640574
0.31133 0.0634775 0.0622568
0.340124 0.0585794 0.0602426
0.371939 0.0520485 0.0577096
0.406195 0.0433509 0.0549935
0.442802 0.0323339 0.0518959
0.482444 0.0197299 0.0482338
0.524758 0.0176699 0.0441444
0.570291 0.00779736 0.039292
0.0461585 0.0781262 0.0688945
0.0504463 0.0800946 0.0700389
0.0545052 0.0818494 0.0713817
0.0581369 0.0836805 0.0726329
0.0617685 0.0855573 0.0738231
0.0647746 0.087541 0.0746777
0.0681468 0.0896925 0.0753796
0.0719005 0.0919661 0.0757153
0.0756237 0.0942397 0.075639
0.0800183 0.0962539 0.0754406
0.0852674 0.0984207 0.0750439
0.091783 0.100145 0.0744945
0.0990005 0.101747 0.0738384
0.107897 0.103822 0.0729534
0.117678 0.104585 0.072282
0.128466 0.10515 0.0715496
0.140459 0.105211 0.0708934
0.153918 0.10486 0.070161
0.168841 0.103838 0.0695964
0.185901 0.102235 0.0689555
0.204807 0.0996262 0.0683604
0.225666 0.0960861 0.0676738
0.249683 0.0907759 0.0672313
0.276112 0.0840009 0.0666209
0.305135 0.075288 0.0658427
0.335805 0.0662699 0.0642557
0.366217 0.0600595 0.0619211
0.398795 0.0527504 0.059205
0.434256 0.0434424 0.056199
0.471672 0.0314641 0.052781
0.511513 0.0194247 0.0488136
0.554391 0.0166476 0.0442206
0.601236 0.00631724 0.0387579
0.0483558 0.0847486 0.071458
0.0529335 0.0869612 0.0724193
0.0574197 0.0892653 0.0736095
0.0617533 0.0913863 0.0747387
0.066041 0.0937667 0.0758679
0.0699779 0.0959793 0.0767071
0.0738537 0.0982528 0.0773938
0.0781262 0.100526 0.0778821
0.0825513 0.103059 0.0779736
0.0872816 0.105348 0.0779431
0.0924392 0.107439 0.0776074
0.0991989 0.109621 0.0770733
0.106188 0.111315 0.0763409
0.115633 0.114 0.0754559
0.126207 0.115831 0.0746319
0.137423 0.116548 0.0738689
0.150149 0.116991 0.0729992
0.164431 0.116976 0.0724346
0.180453 0.116167 0.0716106
0.198474 0.114549 0.0708782
0.218296 0.112154 0.0700999
0.241032 0.108644 0.0693523
0.265812 0.10367 0.0684977
0.293538 0.0966201 0.067689
0.324819 0.0868086 0.0667887
0.359564 0.073991 0.0658885
0.394522 0.0623331 0.0638743
0.428382 0.0539559 0.0608377
0.46392 0.0439918 0.0574197
0.50193 0.0314183 0.0535744
0.54284 0.0192874 0.0492561
0.586572 0.0164187 0.0442054
0.63299 0.00640879 0.0380713
0.0504463 0.0921187 0.0741131
0.0552224 0.0944991 0.0751049
0.0602121 0.0970321 0.0761883
0.0651255 0.0995041 0.0771496
0.0700999 0.102052 0.0781109
0.0748913 0.104707 0.0788128
0.0795605 0.107347 0.0797131
0.0841688 0.110033 0.0801556
0.0893416 0.112596 0.080354
0.0948196 0.115526 0.0801556
0.100252 0.117403 0.0799573
0.107027 0.120043 0.0795148
0.11429 0.122103 0.0788281
0.123369 0.124468 0.0780652
0.135225 0.127947 0.076936
0.147173 0.129137 0.0760204
0.160876 0.130037 0.0750744
0.176196 0.130373 0.0741894
0.19292 0.129915 0.0733043
0.21236 0.128603 0.0725719
0.233417 0.12636 0.0715038
0.25687 0.122927 0.0705272
0.283467 0.117662 0.0697185
0.312642 0.110857 0.0686809
0.345708 0.100862 0.0675517
0.382513 0.0870527 0.066453
0.421958 0.0694896 0.0650492
0.459113 0.0560311 0.0622873
0.496117 0.0454414 0.0585336
0.5346 0.0326848 0.0543984
0.576165 0.0194553 0.0494087
0.620295 0.0166629 0.0436713
0.666758 0.00854505 0.0368811
0.0528878 0.100008 0.076997
0.057847 0.102647 0.0779736
0.063035 0.105333 0.0787518
0.0682841 0.10808 0.0796216
0.0734874 0.110887 0.0805524
0.0789807 0.113924 0.0813611
0.0844739 0.116915 0.0819867
0.0900282 0.119875 0.0823835
0.0959793 0.123033 0.0826429
0.102525 0.126329 0.0824598
0.108598 0.128908 0.0822614
0.115251 0.131487 0.0819104
0.1234 0.134096 0.0812085
0.131411 0.135958 0.0804303
0.143862 0.140063 0.0790417
0.157183 0.142428 0.0780194
0.171771 0.144305 0.0768444
0.188693 0.145724 0.0757916
0.206699 0.145449 0.0748302
0.22678 0.144457 0.0736248
0.249332 0.14229 0.0725414
0.274266 0.139055 0.0715953
0.302281 0.134142 0.0704509
0.333547 0.126818 0.0691844
0.368017 0.117037 0.0679179
0.406317 0.103227 0.0664683
0.448447 0.0846418 0.0651255
0.490929 0.0623026 0.0635233
0.529366 0.0486 0.0596628
0.569177 0.0357824 0.054963
0.611658 0.0220035 0.0493019
0.655909 0.0175326 0.0428168
0.700954 0.0129549 0.0352483
0.055314 0.108537 0.0800183
0.0603037 0.111345 0.0807965
0.0655833 0.11426 0.0814832
0.0714427 0.117357 0.0822461
0.0772412 0.120485 0.0829938
0.0830701 0.12369 0.083772
0.08925 0.127047 0.0844129
0.0956283 0.13048 0.0847944
0.102205 0.134005 0.0849928
0.109514 0.137682 0.0849165
0.117128 0.141604 0.084596
0.124575 0.144396 0.084184
0.133455 0.147951 0.0832685
0.14168 0.149813 0.0825208
0.153429 0.153216 0.0813611
0.167697 0.156939 0.0800946
0.183276 0.159945 0.078645
0.201785 0.162493 0.0771038
0.22118 0.163073 0.0757
0.242878 0.162249 0.0744488
0.266499 0.160678 0.0731823
0.293004 0.157595 0.0719768
0.322621 0.152575 0.0705119
0.355367 0.145632 0.0690623
0.392126 0.13579 0.0675669
0.431708 0.122377 0.0661173
0.474372 0.104479 0.0646677
0.520119 0.0797131 0.0630655
0.565087 0.0552224 0.0604105
0.605875 0.0423133 0.0552071
0.648493 0.0294499 0.0488899
0.692134 0.0192874 0.0414588
0.735485 0.017319 0.0330358
0.0574044 0.117739 0.0830854
0.0628061 0.120882 0.083711
0.0685283 0.124025 0.0843519
0.074403 0.127291 0.0849928
0.0805524 0.130724 0.0856794
0.0870832 0.134417 0.0864424
0.0935531 0.138109 0.0869459
0.100694 0.141955 0.0872511
0.108125 0.145876 0.0873579
0.116136 0.150195 0.0873884
0.124849 0.154604 0.0868849
0.133776 0.15877 0.0862593
0.143557 0.162997 0.0853285
0.153689 0.166308 0.0844892
0.164431 0.169024 0.0833906
0.178332 0.172686 0.0819409
0.195132 0.176486 0.0801556
0.214755 0.180468 0.078233
0.236561 0.183169 0.0762188
0.259556 0.182803 0.0747539
0.28481 0.181323 0.0732586
0.312413 0.178637 0.0716869
0.344457 0.173968 0.0699626
0.379049 0.167056 0.0682689
0.416999 0.15761 0.0664225
0.458045 0.144488 0.0648966
0.501686 0.127718 0.0631571
0.548577 0.105257 0.0614633
0.59855 0.075227 0.0594339
0.643885 0.0542611 0.0549783
0.686061 0.0431525 0.0482185
0.72871 0.0343786 0.0401007
0.770123 0.0292058 0.0304265
0.0598001 0.127871 0.0862745
0.0651713 0.131136 0.0867628
0.0710918 0.134661 0.0872358
0.0772259 0.138445 0.0879377
0.0836805 0.142199 0.0885786
0.0905623 0.146151 0.0890822
0.0979019 0.150256 0.0894484
0.10576 0.15462 0.0898909
0.113848 0.159091 0.0899062
0.122698 0.163775 0.0897231
0.131975 0.168658 0.08925
0.142489 0.173968 0.0886091
0.153719 0.179019 0.0874189
0.1664 0.184268 0.0858473
0.177234 0.187259 0.0846418
0.191501 0.191119 0.0833143
0.207614 0.194842 0.0814221
0.226871 0.198932 0.0791943
0.251972 0.204471 0.0761883
0.276875 0.205493 0.0742504
0.303868 0.204974 0.0724346
0.333959 0.202304 0.0704356
0.367163 0.197833 0.0684215
0.403433 0.191302 0.0664378
0.443183 0.182239 0.0645457
0.485283 0.170336 0.0627298
0.530587 0.154543 0.0606088
0.578515 0.134478 0.0584573
0.629664 0.107668 0.0562753
0.680949 0.0775311 0.053254
0.72459 0.0622873 0.0471199
0.764584 0.0580453 0.0380407
0.803998 0.0568704 0.0274815
0.061738 0.138964 0.0894942
0.0674296 0.142733 0.0900282
0.0734569 0.146502 0.0904555
0.0799878 0.1505 0.0908827
0.0869612 0.15465 0.0913863
0.0943008 0.159182 0.0919203
0.102068 0.16376 0.0922866
0.11046 0.168521 0.0922866
0.11928 0.173526 0.0922713
0.128801 0.178897 0.0921035
0.139178 0.184375 0.0916762
0.150515 0.190051 0.0907912
0.16286 0.196048 0.0893416
0.176989 0.202441 0.0877546
0.190646 0.20737 0.0861372
0.205783 0.211933 0.0842298
0.221149 0.215427 0.0823529
0.238209 0.2177 0.0801709
0.265873 0.225834 0.0764019
0.294423 0.229831 0.0730907
0.324331 0.230564 0.0703899
0.356085 0.228428 0.0682078
0.39147 0.224674 0.06598
0.429435 0.218524 0.0636606
0.469764 0.210101 0.0614481
0.513207 0.199268 0.0588693
0.559869 0.185611 0.0565652
0.610254 0.16791 0.054078
0.661341 0.145998 0.0514687
0.713085 0.117266 0.0489357
0.760616 0.0915084 0.0444038
0.800626 0.0859846 0.0357977
0.837308 0.0892195 0.0243687
0.0635843 0.151202 0.0927291
0.069337 0.155184 0.09308
0.0756542 0.159365 0.0935225
0.0825971 0.163928 0.0939345
0.0897841 0.168551 0.0943923
0.0975357 0.173388 0.0946975
0.105821 0.178485 0.0949874
0.114733 0.184009 0.0950484
0.124605 0.189624 0.0948806
0.135088 0.195422 0.0944839
0.146304 0.201358 0.0938582
0.158389 0.20766 0.0928817
0.172351 0.214466 0.0916304
0.187121 0.221363 0.0898756
0.20325 0.228229 0.0876631
0.220768 0.234852 0.0850538
0.238132 0.239429 0.0824903
0.25507 0.241703 0.0802014
0.279774 0.247318 0.076524
0.310353 0.253651 0.072282
0.34548 0.258869 0.0676585
0.379721 0.257404 0.0648508
0.416251 0.25388 0.0620432
0.455177 0.248661 0.0594034
0.497841 0.241398 0.0567178
0.543084 0.232502 0.053666
0.590738 0.220798 0.0504921
0.64094 0.206134 0.0474098
0.692149 0.188251 0.0439155
0.74284 0.166659 0.0411536
0.792569 0.138216 0.0387121
0.835462 0.117494 0.0332799
0.869154 0.123949 0.0216068
0.0648203 0.164782 0.0958877
0.070985 0.169207 0.096376
0.0775158 0.173785 0.0966049
0.0846113 0.178668 0.0969558
0.0920882 0.183734 0.097261
0.100481 0.189425 0.097673
0.10956 0.195087 0.0977035
0.119203 0.200885 0.097612
0.129488 0.206958 0.0974136
0.140856 0.213413 0.0968338
0.153231 0.220111 0.0962692
0.166522 0.227008 0.0952621
0.181018 0.234165 0.0937514
0.197009 0.24155 0.0916152
0.215137 0.249607 0.0892958
0.234989 0.25774 0.0860456
0.255131 0.264393 0.0826734
0.275273 0.268894 0.0793469
0.297765 0.272984 0.0758984
0.326863 0.278431 0.0713054
0.364645 0.287175 0.0644388
0.403418 0.289113 0.0598001
0.441627 0.286427 0.0565042
0.48307 0.282155 0.0531167
0.526452 0.276493 0.0498512
0.573251 0.269154 0.0457618
0.622065 0.260044 0.0415656
0.672358 0.248508 0.0375372
0.721706 0.234455 0.0336461
0.770581 0.21706 0.0302739
0.817731 0.19646 0.0277562
0.862226 0.173877 0.0248722
0.899809 0.164248 0.019028
0.0654917 0.179889 0.0990616
0.0720226 0.184558 0.099443
0.0787976 0.1897 0.0996567
0.086305 0.195239 0.0999924
0.0944076 0.20087 0.100206
0.103029 0.206744 0.10045
0.112718 0.212863 0.100343
0.123445 0.219303 0.100313
0.134813 0.226032 0.099855
0.146868 0.232959 0.0993057
0.159747 0.239994 0.0986496
0.174228 0.247562 0.0972
0.190249 0.255619 0.0957046
0.207202 0.26363 0.0935225
0.226184 0.271977 0.0908522
0.246891 0.280583 0.0874495
0.270756 0.289784 0.0833143
0.295659 0.298054 0.0785077
0.32018 0.303441 0.07393
0.345403 0.305943 0.0695354
0.381994 0.313359 0.0624094
0.425254 0.320653 0.0546578
0.468009 0.322621 0.0484932
0.510903 0.319814 0.0441901
0.556252 0.315724 0.0394751
0.603952 0.310796 0.0342107
0.652979 0.304036 0.0290379
0.702022 0.295415 0.024033
0.749874 0.284993 0.0198825
0.796857 0.271733 0.0189822
0.84152 0.257725 0.0180667
0.883101 0.241291 0.0177157
0.922606 0.222889 0.0173037
0.065507 0.196567 0.102113
0.0722515 0.20177 0.10251
0.0797284 0.207385 0.102907
0.0876631 0.213291 0.102876
0.0963455 0.219333 0.103075
0.105684 0.22562 0.103182
0.116167 0.23238 0.103212
0.127291 0.239322 0.102876
0.139635 0.246571 0.102419
0.152865 0.254032 0.101778
0.167269 0.261982 0.100847
0.182498 0.269886 0.0995956
0.198825 0.278218 0.0976577
0.217029 0.28687 0.0954147
0.237629 0.296132 0.0926833
0.259815 0.30544 0.0890211
0.284932 0.315145 0.0843061
0.312718 0.325124 0.0784772
0.342672 0.333898 0.0720378
0.371298 0.339498 0.0661784
0.401297 0.34287 0.0601816
0.443549 0.351461 0.0503243
0.493568 0.361318 0.0377203
0.539635 0.361807 0.0315099
0.58587 0.360479 0.0263981
0.633829 0.357549 0.0223239
0.681743 0.352605 0.019791
0.728649 0.3467 0.0180514
0.775509 0.339376 0.0164645
0.819394 0.33077 0.0153201
0.861433 0.320592 0.0131228
0.900511 0.309194 0.011017
0.937896 0.295964 0.00959792
0.063859 0.216464 0.104234
0.0721447 0.220752 0.105669
0.0799878 0.226596 0.105928
0.0883497 0.232776 0.105867
0.0979477 0.239536 0.106004
0.108415 0.246464 0.106035
0.119387 0.25362 0.105959
0.131289 0.260929 0.105531
0.144366 0.268772 0.105226
0.15845 0.276768 0.104341
0.17377 0.285145 0.103212
0.190158 0.293706 0.101808
0.207965 0.302724 0.100023
0.227527 0.311955 0.0974441
0.248447 0.321447 0.094316
0.272511 0.331426 0.0904402
0.298711 0.341863 0.0855116
0.328923 0.353017 0.0792859
0.361975 0.364263 0.0713664
0.397055 0.37438 0.062089
0.428931 0.379751 0.0542306
0.464195 0.384527 0.046128
0.513436 0.396445 0.0308995
0.567041 0.407446 0.0178836
0.614557 0.408835 0.0166323
0.66186 0.407431 0.0144656
0.708202 0.405615 0.0113985
0.753491 0.401923 0.00814832
0.797086 0.396857 0.00541695
0.838468 0.390799 0.0028687
0.877623 0.384665 0.000808728
0.915373 0.376394 0
0.950805 0.367453 0
0.0597391 0.239216 0.104784
0.0707713 0.242161 0.107927
0.0801099 0.248096 0.108675
0.0895247 0.254551 0.10898
0.0995804 0.26157 0.108904
0.110536 0.268772 0.108797
0.122377 0.27657 0.10869
0.135424 0.28455 0.10837
0.149187 0.292744 0.10782
0.163989 0.301122 0.106905
0.180072 0.309865 0.105791
0.197589 0.319234 0.104417
0.217212 0.328847 0.10248
0.238178 0.338811 0.0998856
0.260761 0.34905 0.0966964
0.286625 0.360052 0.0925917
0.314839 0.37145 0.0871595
0.346822 0.383368 0.0804913
0.382147 0.395865 0.0717479
0.420951 0.409049 0.0608835
0.461662 0.421271 0.0478828
0.495399 0.426978 0.0373083
0.533135 0.432135 0.0252689
0.586709 0.446769 0.0169985
0.641688 0.460136 0.00801099
0.687556 0.460914 0.00387579
0.731823 0.459998 0.00180056
0.774456 0.458289 0.000686656
0.815763 0.455817 0.000198367
0.854429 0.452598 1.5259e-05
0.891356 0.447929 0
0.926741 0.442329 0
0.96141 0.435828 0
0.0530556 0.265354 0.104402
0.0672007 0.267536 0.108385
0.0792096 0.271672 0.110994
0.0900435 0.277943 0.111772
0.101259 0.285679 0.11191
0.113115 0.293431 0.111849
0.125902 0.301457 0.111666
0.13959 0.309758 0.111284
0.154772 0.318807 0.110658
0.171267 0.328115 0.110079
0.188617 0.337636 0.108888
0.207416 0.347417 0.107317
0.228199 0.35761 0.105119
0.250919 0.368811 0.102937
0.276661 0.380331 0.0992447
0.303868 0.392203 0.0949416
0.334539 0.404456 0.0890516
0.368383 0.417426 0.0817273
0.405264 0.431144 0.0726482
0.445075 0.44506 0.0610208
0.488106 0.459739 0.0457618
0.531792 0.473442 0.0273289
0.568322 0.4804 0.0196384
0.606241 0.486381 0.0155947
0.659052 0.501701 0.00105287
0.70988 0.513405 0
0.752667 0.515633 0
0.793194 0.515297 0
0.831357 0.514122 0
0.86746 0.512657 0
0.903151 0.509361 0
0.937316 0.506355 0
0.970886 0.501793 0
0.0441444 0.293843 0.103258
0.0609598 0.296696 0.107164
0.0768597 0.300084 0.111421
0.0906539 0.305196 0.113893
0.10367 0.312078 0.115114
0.116899 0.320485 0.115114
0.131304 0.329442 0.115007
0.14667 0.338704 0.114809
0.163104 0.348104 0.114137
0.180468 0.357961 0.11342
0.19968 0.368399 0.112474
0.221241 0.379705 0.111177
0.243778 0.391043 0.109117
0.268742 0.402762 0.106508
0.295857 0.414923 0.102617
0.325963 0.428061 0.098085
0.358648 0.441596 0.092256
0.39411 0.455451 0.0845045
0.432181 0.469703 0.0745861
0.473014 0.484398 0.0621042
0.516152 0.500038 0.0459754
0.560861 0.515465 0.02533
0.603754 0.529702 0.0167239
0.638819 0.53608 0.00813306
0.673976 0.540322 7.62951e-05
0.723629 0.55671 0
0.770123 0.568689 0
0.808713 0.570916 0
0.844419 0.570855 0
0.879698 0.569726 0
0.913573 0.568185 0
0.947021 0.565713 0
0.97937 0.562844 0
0.0334478 0.326024 0.101152
0.0539254 0.329702 0.105455
0.0736095 0.333318 0.110018
0.0917983 0.33753 0.114504
0.108446 0.343191 0.117723
0.12398 0.351461 0.119142
0.140032 0.360891 0.119265
0.157 0.370901 0.119127
0.175235 0.381399 0.118853
0.195438 0.39266 0.11841
0.216678 0.403906 0.117433
0.239307 0.415579 0.115953
0.263951 0.427726 0.114092
0.291463 0.440772 0.11133
0.320821 0.454231 0.107637
0.352499 0.467735 0.10277
0.386801 0.481773 0.0962997
0.423621 0.496315 0.0882124
0.463386 0.511589 0.0785077
0.503456 0.526421 0.066041
0.544808 0.541283 0.0501869
0.586954 0.556237 0.0298009
0.630106 0.571557 0.0175021
0.672892 0.585916 0.00410468
0.704631 0.591424 0.000289921
0.736675 0.595605 0
0.780423 0.609567 0
