luts/GoldenFace.cube
TITLE "Generated by Resolve"
LUT_3D_SIZE 5
0 0 0
0.174289 0 0
0.316121 0 0
0.647669 0 0
1 0 0
0 0.0855268 0
0.0855268 0.0757916 0
0.320424 0.0695048 0
0.682292 0.0514992 0
1 0 0
0 0.33434 0
0.101869 0.333165 0
0.35581 0.333745 0
0.740414 0.32932 0
1 0.295689 0
0 0.730312 0
0.111711 0.725444 0
0.374121 0.719249 0
0.763149 0.708995 0
1 0.68455 0
0 1 0
0.066865 1 0
0.359838 1 0
0.752895 1 0
1 1 0
0.00143435 0 0.137392
0.149935 0 0.135012
0.316915 0 0.0675669
0.657099 0 0.0466621
1 0 0
0 0.0809644 0.0709239
0.0831311 0.0728771 0.0622873
0.328725 0.0650034 0.053315
0.694972 0.0467994 0.0327001
1 0 0
0 0.335225 0.0604868
0.0941787 0.335637 0.0466773
0.356329 0.333791 0.0322881
0.749264 0.326711 0.00474556
1 0.291493 0
0 0.730617 0.0184329
0.10515 0.727672 0.0106661
0.368627 0.720897 0.00247196
0.76289 0.708446 0
1 0.68162 0
0 1 0
0.0609751 1 0
0.354025 1 0
0.747845 1 0
1 1 0
0.0416266 0 0.326314
0.104356 0 0.328527
0.315053 0 0.289998
0.669261 0 0.297581
1 0 0.28333
0 0.0737621 0.287907
0.0804761 0.0679942 0.295109
0.331563 0.0596475 0.300053
0.709484 0.0390173 0.30164
1 0 0.273228
0 0.334752 0.312215
0.0899825 0.33492 0.312306
0.355901 0.331716 0.308141
0.765545 0.321447 0.295628
1 0.284337 0.252735
0 0.729091 0.308309
0.0974441 0.727764 0.299214
0.358038 0.724285 0.280919
0.762539 0.706752 0.257694
1 0.676661 0.207431
0 1 0.247623
0.052903 1 0.23653
0.345418 1 0.218265
0.738689 1 0.1879
1 1 0.112444
0.0757763 0 0.456504
0.0736248 0 0.565316
0.314961 0 0.581292
0.683742 0 0.624216
1 0 0.654108
0 0.0611429 0.572229
0.0716869 0.0556191 0.587289
0.328527 0.0467231 0.617121
0.717906 0.0217899 0.649897
1 0 0.65565
0 0.331395 0.64831
0.0827955 0.329473 0.658869
0.352911 0.325658 0.67921
0.767346 0.313085 0.679561
1 0.271946 0.650828
0 0.724834 0.671733
0.0819257 0.72221 0.668971
0.351034 0.718029 0.664591
0.758572 0.700404 0.645975
1 0.665827 0.608667
0 1 0.627436
0.0381476 1 0.618662
0.335348 1 0.603784
0.721981 1 0.574334
1 1 0.53669
0.137118 0 0.725353
0.128237 0 0.88835
0.308644 0 0.973373
0.69662 0 0.995407
1 0 1
0 0.0173953 0.965194
0.031754 0.0104524 0.978668
0.319158 0 0.993484
0.71989 4.57771e-05 1
1 0 1
0 0.313268 0.998871
0.0269322 0.309606 1
0.336934 0.303548 1
0.750957 0.287938 1
1 0.238193 1
0 0.712703 1
0.0230869 0.708263 1
0.336812 0.700679 1
0.747097 0.683955 1
1 0.649195 1
0 1 1
0 1 0.999878
0.31696 1 0.999054
0.710475 1 0.997665
1 1 0.992737
