luts/GOLDEN FEVE3R.cube
TITLE "Generated by Resolve"
LUT_3D_SIZE 5
0.0204471 0.0374914 0.0431525
0.0319829 0.0437324 0.0491035
0.0803082 0.0457465 0.0492714
0.162936 0.0484932 0.0465858
0.378256 0.0179294 0.0361791
0.0443427 0.0719768 0.0664988
0.0690166 0.0860456 0.0733806
0.131716 0.0944686 0.0686046
0.285054 0.0675975 0.0640574
0.570291 0.00779736 0.039292
0.061738 0.138964 0.0894942
0.11928 0.173526 0.0922713
0.221149 0.215427 0.0823529
0.469764 0.210101 0.0614481
0.837308 0.0892195 0.0243687
0.0441444 0.293843 0.103258
0.163104 0.348104 0.114137
0.358648 0.441596 0.092256
0.673976 0.540322 7.62951e-05
0.97937 0.562844 0
0.228733 0.661082 0.10547
0.462486 0.714015 0.211719
0.664195 0.782727 0.27541
0.860609 0.854734 0.241978
1 0.899992 0.0317082
0.0208591 0.0402533 0.0495308
0.0340887 0.0464332 0.0557412
0.072694 0.0536507 0.0633555
0.149477 0.0590066 0.0650645
0.351202 0.0357977 0.057557
0.0475471 0.076585 0.0748608
0.0742199 0.0917678 0.0829938
0.111025 0.107759 0.0934768
0.254734 0.090135 0.0932479
0.526528 0.0362707 0.0707256
0.0699321 0.146426 0.115618
0.15491 0.18468 0.130648
0.229023 0.224231 0.14609
0.43595 0.236606 0.127855
0.803922 0.155184 0.0926528
0.0589303 0.311849 0.138399
0.208331 0.364034 0.172076
0.427405 0.462882 0.178744
0.697719 0.562676 0.143618
0.969467 0.595361 0.0943313
0.272282 0.679408 0.166339
0.508522 0.728038 0.280232
0.702678 0.797772 0.346349
0.889433 0.865919 0.336583
1 0.912047 0.252491
0.0188449 0.0452277 0.0730602
0.038117 0.05066 0.0761883
0.0820783 0.0522927 0.0806744
0.161151 0.0492561 0.080354
0.337804 0.0514992 0.0826123
0.0308232 0.0855268 0.0973068
0.0796368 0.0977188 0.0947127
0.11928 0.114107 0.107225
0.236744 0.110933 0.123842
0.488609 0.0840314 0.108965
0.0578622 0.165469 0.142626
0.166323 0.197208 0.149935
0.247745 0.239109 0.167987
0.376043 0.28217 0.186892
0.76112 0.217731 0.168261
0.0450752 0.340032 0.17731
0.248188 0.384787 0.22855
0.546853 0.491997 0.253056
0.72221 0.588647 0.282475
0.94258 0.637247 0.260731
0.306172 0.703365 0.230625
0.549371 0.746944 0.347707
0.74583 0.813748 0.422934
0.92137 0.876295 0.43714
1 0.925277 0.425696
0.0178531 0.0516823 0.114122
0.0405432 0.0600137 0.11574
0.0821241 0.0625772 0.126543
0.170687 0.0553902 0.12961
0.383246 0.0129091 0.0997177
0.0181125 0.0934157 0.142596
0.0713512 0.108095 0.149538
0.137881 0.116121 0.149722
0.241932 0.125948 0.157259
0.47364 0.118853 0.148394
0.00302129 0.185534 0.183719
0.135882 0.207614 0.205325
0.269429 0.255467 0.191989
0.407233 0.298116 0.214176
0.742458 0.267414 0.230961
0.000610361 0.379263 0.22356
0.256001 0.409552 0.284428
0.585061 0.522957 0.287129
0.753109 0.618875 0.321706
0.88838 0.694484 0.364553
0.317052 0.732662 0.294087
0.572198 0.77554 0.412909
0.780789 0.832227 0.505241
0.965576 0.885283 0.528771
0.995987 0.939742 0.598383
0.0083772 0.0600595 0.181598
0.0260471 0.0685893 0.18471
0.0874189 0.0830396 0.195377
0.179934 0.0699016 0.211002
0.426215 0.00448615 0.172259
0.0107729 0.107881 0.215351
0.0537728 0.117113 0.222416
0.14078 0.13933 0.235096
0.279637 0.121904 0.231281
0.544121 0.0369268 0.182513
0 0.194858 0.267384
0.0815442 0.228092 0.283101
0.275593 0.26334 0.293233
0.48925 0.277119 0.287373
0.759472 0.304646 0.284169
0 0.410864 0.28716
0.195041 0.468452 0.340825
0.522225 0.54316 0.375402
0.782498 0.648447 0.364034
0.909941 0.720958 0.416022
0.245426 0.767697 0.366583
0.555032 0.812772 0.488884
0.783795 0.851118 0.607416
0.980133 0.903624 0.582879
0.992111 0.941146 0.639414
