luts/Good Morning.cube
LUT_3D_SIZE 16
-0.055372 -0.062419 -0.074369
0.022289 -0.062419 -0.074369
0.094636 -0.062419 -0.074369
0.151742 -0.062419 -0.074369
0.207814 -0.062419 -0.074369
0.263851 -0.062419 -0.074369
0.320096 -0.062419 -0.074369
0.376660 -0.062419 -0.074369
0.433487 -0.062419 -0.074369
0.490432 -0.062419 -0.074369
0.546932 -0.062419 -0.074369
0.603054 -0.062419 -0.074369
0.658709 -0.062419 -0.074369
0.713801 -0.062419 -0.074369
0.767973 -0.062419 -0.074369
0.820699 -0.062419 -0.074369
-0.055372 0.025128 -0.074369
0.022289 0.025128 -0.074369
0.094636 -0.026219 -0.074369
0.151742 -0.026111 -0.074369
0.207814 -0.024485 -0.074369
0.263851 -0.022669 -0.074369
0.320096 -0.020809 -0.074369
0.376660 -0.018899 -0.074369
0.433487 -0.016933 -0.074369
0.490432 -0.014981 -0.074369
0.546932 -0.013400 -0.074369
0.603054 -0.012354 -0.074369
0.658709 -0.011682 -0.074369
0.713801 -0.011655 -0.074369
0.767973 -0.012274 -0.074369
0.820699 -0.013794 -0.074369
-0.055372 0.106684 -0.074369
-0.023258 0.106684 -0.074369
0.094636 0.106684 -0.074369
0.151742 0.106761 -0.074369
0.207814 0.107898 -0.074369
0.263851 0.109032 -0.074369
0.320096 0.110049 -0.074369
0.376660 0.110959 -0.074369
0.433487 0.111768 -0.074369
0.490432 0.112437 -0.074369
0.546932 0.112892 -0.074369
0.603054 0.113157 -0.074369
0.658709 0.113313 -0.074369
0.713801 0.113320 -0.074369
0.767973 0.113181 -0.074369
0.820699 0.112784 -0.074369
-0.055372 0.171071 -0.074369
-0.023159 0.171071 -0.074369
0.094709 0.171071 -0.074369
0.151742 0.171071 -0.074369
0.207814 0.172607 -0.074369
0.263851 0.174148 -0.074369
0.320096 0.175580 -0.074369
0.376660 0.176821 -0.074369
0.433487 0.177927 -0.074369
0.490432 0.178862 -0.074369
0.546932 0.179489 -0.074369
0.603054 0.179871 -0.074369
0.658709 0.180070 -0.074369
0.713801 0.180079 -0.074369
0.767973 0.179871 -0.074369
0.820699 0.179334 -0.074369
-0.055372 0.234273 -0.074369
-0.021720 0.234273 -0.074369
0.095716 0.234273 -0.074369
0.153118 0.234273 -0.074369
0.207814 0.234273 -0.074369
0.263851 0.236288 -0.074369
0.320096 0.238112 -0.074369
0.376660 0.239750 -0.074369
0.433487 0.241192 -0.074369
0.490432 0.242404 -0.074369
0.546932 0.243229 -0.074369
0.603054 0.243706 -0.074369
0.658709 0.243981 -0.074369
0.713801 0.243992 -0.074369
0.767973 0.243740 -0.074369
0.820699 0.243036 -0.074369
-0.055372 0.297445 -0.074369
-0.020109 0.297445 -0.074369
0.096711 0.297445 -0.074369
0.154495 0.297445 -0.074369
0.209606 0.297445 -0.074369
0.263851 0.297445 -0.074369
0.320096 0.299691 -0.074369
0.376660 0.301710 -0.074369
0.433487 0.303504 -0.074369
0.490432 0.305024 -0.074369
0.546932 0.306018 -0.074369
0.603054 0.306649 -0.074369
0.658709 0.306958 -0.074369
0.713801 0.306975 -0.074369
0.767973 0.306677 -0.074369
0.820699 0.305788 -0.074369
-0.055372 0.360878 -0.074369
-0.018459 0.360878 -0.074369
0.097619 0.360878 -0.074369
0.155737 0.360878 -0.074369
0.211234 0.360878 -0.074369
0.265852 0.360878 -0.074369
0.320096 0.360878 -0.074369
0.376660 0.363260 -0.074369
0.433487 0.365422 -0.074369
0.490432 0.367222 -0.074369
0.546932 0.368457 -0.074369
0.603054 0.369116 -0.074369
0.658709 0.369532 -0.074369
0.713801 0.369555 -0.074369
0.767973 0.369190 -0.074369
0.820699 0.368157 -0.074369
-0.055372 0.424626 -0.074369
-0.016764 0.424626 -0.074369
0.098435 0.424626 -0.074369
0.156855 0.424626 -0.074369
0.212691 0.424626 -0.074369
0.267650 0.424626 -0.074369
0.322244 0.424626 -0.074369
0.376660 0.424626 -0.074369
0.433487 0.427104 -0.074369
0.490432 0.429170 -0.074369
0.546932 0.430589 -0.074369
0.603054 0.431415 -0.074369
0.658709 0.431900 -0.074369
0.713801 0.431920 -0.074369
0.767973 0.431481 -0.074369
0.820699 0.430258 -0.074369
-0.055372 0.488669 -0.074369
-0.015021 0.488669 -0.074369
0.099147 0.488669 -0.074369
0.157833 0.488669 -0.074369
0.213959 0.488669 -0.074369
0.269232 0.488669 -0.074369
0.324157 0.488669 -0.074369
0.378870 0.488669 -0.074369
0.433487 0.488669 -0.074369
0.490432 0.491055 -0.074369
0.546932 0.492674 -0.074369
0.603054 0.493633 -0.074369
0.658709 0.494180 -0.074369
0.713801 0.494169 -0.074369
0.767973 0.493693 -0.074369
0.820699 0.492303 -0.074369
-0.055372 0.552855 -0.074369
-0.013290 0.552855 -0.074369
0.099741 0.552855 -0.074369
0.158661 0.552855 -0.074369
0.215030 0.552855 -0.074369
0.270566 0.552855 -0.074369
0.325730 0.552855 -0.074369
0.380720 0.552855 -0.074369
0.435616 0.552855 -0.074369
0.490432 0.552855 -0.074369
0.546932 0.554667 -0.074369
0.603054 0.555711 -0.074369
0.658709 0.556338 -0.074369
0.713801 0.556370 -0.074369
0.767973 0.555818 -0.074369
0.820699 0.554241 -0.074369
-0.055372 0.616569 -0.074369
-0.011887 0.616569 -0.074369
0.100148 0.616569 -0.074369
0.159222 0.616569 -0.074369
0.215753 0.616569 -0.074369
0.271473 0.616569 -0.074369
0.326825 0.616569 -0.074369
0.381998 0.616569 -0.074369
0.437044 0.616569 -0.074369
0.492042 0.616569 -0.074369
0.546932 0.616569 -0.074369
0.603054 0.617756 -0.074369
0.658709 0.618429 -0.074369
0.713801 0.618455 -0.074369
0.767973 0.617842 -0.074369
0.820699 0.616103 -0.074369
-0.055372 0.679787 -0.074369
-0.010959 0.679787 -0.074369
0.100378 0.679787 -0.074369
0.159538 0.679787 -0.074369
0.216196 0.679787 -0.074369
0.271993 0.679787 -0.074369
0.327463 0.679787 -0.074369
0.382712 0.679787 -0.074369
0.437882 0.679787 -0.074369
0.492974 0.679787 -0.074369
0.548041 0.679787 -0.074369
0.603054 0.679787 -0.074369
0.658709 0.680535 -0.074369
0.713801 0.680567 -0.074369
0.767973 0.679930 -0.074369
0.820699 0.678026 -0.074369
-0.055372 0.742605 -0.074369
-0.010363 0.742605 -0.074369
0.100524 0.742605 -0.074369
0.159742 0.742605 -0.074369
0.216421 0.742605 -0.074369
0.272305 0.742605 -0.074369
0.327819 0.742605 -0.074369
0.383115 0.742605 -0.074369
0.438372 0.742605 -0.074369
0.493509 0.742605 -0.074369
0.548581 0.742605 -0.074369
0.603711 0.742605 -0.074369
0.658709 0.742605 -0.074369
0.713801 0.742565 -0.074369
0.767973 0.741781 -0.074369
0.820699 0.739855 -0.074369
-0.055372 0.804764 -0.074369
-0.010340 0.804764 -0.074369
0.100519 0.804764 -0.074369
0.159750 0.804764 -0.074369
0.216434 0.804764 -0.074369
0.272307 0.804764 -0.074369
0.327826 0.804764 -0.074369
0.383139 0.804764 -0.074369
0.438367 0.804764 -0.074369
0.493535 0.804764 -0.074369
0.548612 0.804764 -0.074369
0.603720 0.804764 -0.074369
0.658739 0.804764 -0.074369
0.713801 0.804764 -0.074369
0.767973 0.803949 -0.074369
0.820699 0.801656 -0.074369
-0.055372 0.865731 -0.074369
-0.010887 0.865731 -0.074369
0.100397 0.865731 -0.074369
0.159580 0.865731 -0.074369
0.216209 0.865731 -0.074369
0.272037 0.865731 -0.074369
0.327500 0.865731 -0.074369
0.382756 0.865731 -0.074369
0.437942 0.865731 -0.074369
0.493057 0.865731 -0.074369
0.548091 0.865731 -0.074369
0.603120 0.865731 -0.074369
0.658067 0.865731 -0.074369
0.713128 0.865731 -0.074369
0.767973 0.865731 -0.074369
0.820699 0.863311 -0.074369
-0.055372 0.925164 -0.074369
-0.012236 0.925164 -0.074369
0.100052 0.925164 -0.074369
0.159094 0.925164 -0.074369
0.215603 0.925164 -0.074369
0.271262 0.925164 -0.074369
0.326566 0.925164 -0.074369
0.381690 0.925164 -0.074369
0.436720 0.925164 -0.074369
0.491673 0.925164 -0.074369
0.546559 0.925164 -0.074369
0.601460 0.925164 -0.074369
0.656199 0.925164 -0.074369
0.711091 0.925164 -0.074369
0.765893 0.925164 -0.074369
0.820699 0.925164 -0.074369
-0.055372 -0.062419 0.029936
0.022289 -0.062419 0.029936
0.094636 -0.062419 -0.031237
0.151742 -0.062419 -0.031109
0.207814 -0.062419 -0.029171
0.263851 -0.062419 -0.027008
0.320096 -0.062419 -0.024792
0.376660 -0.062419 -0.022517
0.433487 -0.062419 -0.020175
0.490432 -0.062419 -0.017849
0.546932 -0.062419 -0.015965
0.603054 -0.062419 -0.014718
0.658709 -0.062419 -0.013918
0.713801 -0.062419 -0.013886
0.767973 -0.062419 -0.014622
0.820699 -0.062419 -0.016434
-0.055372 0.025128 0.029936
0.022289 0.025128 0.029936
0.094636 0.025128 0.029936
0.151742 0.025128 0.029936
0.207814 0.025128 0.029936
0.263851 0.025128 0.029936
0.320096 0.025128 0.029936
0.376660 0.025128 0.029936
0.433487 0.025128 0.029936
0.490432 0.025128 0.029936
0.546932 0.025128 0.029936
0.603054 0.025128 0.029936
0.658709 0.025128 0.029936
0.713801 0.025128 0.029936
0.767973 0.025128 0.029936
0.820699 0.025128 0.029936
-0.055372 0.106684 -0.031237
0.022289 0.106684 0.029936
0.094636 0.106684 0.029936
0.151742 0.108676 0.029936
0.207814 0.110082 0.029936
0.263851 0.111167 0.029936
0.320096 0.112064 0.029936
0.376660 0.112827 0.029936
0.433487 0.113493 0.029936
0.490432 0.114039 0.029936
0.546932 0.114417 0.029936
0.603054 0.114630 0.029936
0.658709 0.114757 0.029936
0.713801 0.114766 0.029936
0.767973 0.114653 0.029936
0.820699 0.114347 0.029936
-0.055372 0.171071 -0.031109
0.022289 0.171071 0.029936
0.096403 0.171071 0.029936
0.151742 0.171071 0.029936
0.207814 0.173310 0.029936
0.263851 0.175050 0.029936
0.320096 0.176488 0.029936
0.376660 0.177730 0.029936
0.433487 0.178770 0.029936
0.490432 0.179660 0.029936
0.546932 0.180267 0.029936
0.603054 0.180594 0.029936
0.658709 0.180813 0.029936
0.713801 0.180828 0.029936
0.767973 0.180641 0.029936
0.820699 0.180168 0.029936
-0.055372 0.234273 -0.029171
0.022289 0.234273 0.029936
0.097649 0.234273 0.029936
0.153748 0.234273 0.029936
0.207814 0.234273 0.029936
0.263851 0.236628 0.029936
0.320096 0.238575 0.029936
0.376660 0.240245 0.029936
0.433487 0.241693 0.029936
0.490432 0.242887 0.029936
0.546932 0.243705 0.029936
0.603054 0.244174 0.029936
0.658709 0.244449 0.029936
0.713801 0.244466 0.029936
0.767973 0.244226 0.029936
0.820699 0.243554 0.029936
-0.055372 0.297445 -0.027008
0.022289 0.297445 0.029936
0.098617 0.297445 0.029936
0.155290 0.297445 0.029936
0.209908 0.297445 0.029936
0.263851 0.297445 0.029936
0.320096 0.299888 0.029936
0.376660 0.301983 0.029936
0.433487 0.303816 0.029936
0.490432 0.305321 0.029936
0.546932 0.306359 0.029936
0.603054 0.306953 0.029936
0.658709 0.307293 0.029936
0.713801 0.307306 0.029936
0.767973 0.307011 0.029936
0.820699 0.306153 0.029936
-0.055372 0.360878 -0.024792
0.022289 0.360878 0.029936
0.099408 0.360878 0.029936
0.156554 0.360878 0.029936
0.211621 0.360878 0.029936
0.266017 0.360878 0.029936
0.320096 0.360878 0.029936
0.376660 0.363399 0.029936
0.433487 0.365558 0.029936
0.490432 0.367386 0.029936
0.546932 0.368640 0.029936
0.603054 0.369324 0.029936
0.658709 0.369770 0.029936
0.713801 0.369806 0.029936
0.767973 0.369406 0.029936
0.820699 0.368432 0.029936
-0.055372 0.424626 -0.022517
0.022289 0.424626 0.029936
0.100092 0.424626 0.029936
0.157657 0.424626 0.029936
0.213121 0.424626 0.029936
0.267889 0.424626 0.029936
0.322352 0.424626 0.029936
0.376660 0.424626 0.029936
0.433487 0.427188 0.029936
0.490432 0.429294 0.029936
0.546932 0.430737 0.029936
0.603054 0.431580 0.029936
0.658709 0.432048 0.029936
0.713801 0.432080 0.029936
0.767973 0.431655 0.029936
0.820699 0.430481 0.029936
-0.055372 0.488669 -0.020175
0.022289 0.488669 0.029936
0.100679 0.488669 0.029936
0.158588 0.488669 0.029936
0.214383 0.488669 0.029936
0.269503 0.488669 0.029936
0.324305 0.488669 0.029936
0.378969 0.488669 0.029936
0.433487 0.488669 0.029936
0.490432 0.491120 0.029936
0.546932 0.492777 0.029936
0.603054 0.493733 0.029936
0.658709 0.494288 0.029936
0.713801 0.494304 0.029936
0.767973 0.493828 0.029936
0.820699 0.492458 0.029936
-0.055372 0.552855 -0.017849
0.022289 0.552855 0.029936
0.101165 0.552855 0.029936
0.159367 0.552855 0.029936
0.215449 0.552855 0.029936
0.270835 0.552855 0.029936
0.325899 0.552855 0.029936
0.380845 0.552855 0.029936
0.435661 0.552855 0.029936
0.490432 0.552855 0.029936
0.546932 0.554721 0.029936
0.603054 0.555799 0.029936
0.658709 0.556391 0.029936
0.713801 0.556443 0.029936
0.767973 0.555908 0.029936
0.820699 0.554381 0.029936
-0.055372 0.616569 -0.015965
0.022289 0.616569 0.029936
0.101494 0.616569 0.029936
0.159915 0.616569 0.029936
0.216195 0.616569 0.029936
0.271745 0.616569 0.029936
0.327004 0.616569 0.029936
0.382087 0.616569 0.029936
0.437120 0.616569 0.029936
0.492083 0.616569 0.029936
0.546932 0.616569 0.029936
0.603054 0.617785 0.029936
0.658709 0.618478 0.029936
0.713801 0.618498 0.029936
0.767973 0.617926 0.029936
0.820699 0.616196 0.029936
-0.055372 0.679787 -0.014718
0.022289 0.679787 0.029936
0.101690 0.679787 0.029936
0.160211 0.679787 0.029936
0.216594 0.679787 0.029936
0.272279 0.679787 0.029936
0.327651 0.679787 0.029936
0.382838 0.679787 0.029936
0.437977 0.679787 0.029936
0.493042 0.679787 0.029936
0.548024 0.679787 0.029936
0.603054 0.679787 0.029936
0.658709 0.680560 0.029936
0.713801 0.680692 0.029936
0.767973 0.679953 0.029936
0.820699 0.678047 0.029936
-0.055372 0.742605 -0.013918
0.022289 0.742605 0.029936
0.101795 0.742605 0.029936
0.160401 0.742605 0.029936
0.216838 0.742605 0.029936
0.272584 0.742605 0.029936
0.328012 0.742605 0.029936
0.383305 0.742605 0.029936
0.438455 0.742605 0.029936
0.493597 0.742605 0.029936
0.548640 0.742605 0.029936
0.603715 0.742605 0.029936
0.658709 0.742605 0.029936
0.713801 0.742596 0.029936
0.767973 0.741838 0.029936
0.820699 0.739844 0.029936
-0.055372 0.804764 -0.013886
0.022289 0.804764 0.029936
0.101802 0.804764 0.029936
0.160414 0.804764 0.029936
0.216858 0.804764 0.029936
0.272605 0.804764 0.029936
0.328032 0.804764 0.029936
0.383315 0.804764 0.029936
0.438488 0.804764 0.029936
0.493613 0.804764 0.029936
0.548691 0.804764 0.029936
0.603755 0.804764 0.029936
0.658714 0.804764 0.029936
0.713801 0.804764 0.029936
0.767973 0.803968 0.029936
0.820699 0.801692 0.029936
-0.055372 0.865731 -0.014622
0.022289 0.865731 0.029936
0.101705 0.865731 0.029936
0.160250 0.865731 0.029936
0.216644 0.865731 0.029936
0.272336 0.865731 0.029936
0.327712 0.865731 0.029936
0.382933 0.865731 0.029936
0.438057 0.865731 0.029936
0.493137 0.865731 0.029936
0.548134 0.865731 0.029936
0.603168 0.865731 0.029936
0.658099 0.865731 0.029936
0.713151 0.865731 0.029936
0.767973 0.865731 0.029936
0.820699 0.863329 0.029936
-0.055372 0.925164 -0.016434
0.022289 0.925164 0.029936
0.101436 0.925164 0.029936
0.159808 0.925164 0.029936
0.216045 0.925164 0.029936
0.271584 0.925164 0.029936
0.326811 0.925164 0.029936
0.381856 0.925164 0.029936
0.436867 0.925164 0.029936
0.491782 0.925164 0.029936
0.546619 0.925164 0.029936
0.601519 0.925164 0.029936
0.656280 0.925164 0.029936
0.711134 0.925164 0.029936
0.765908 0.925164 0.029936
0.820699 0.925164 0.029936
-0.055372 -0.062419 0.127100
-0.023258 -0.062419 0.127100
0.094636 -0.062419 0.127100
0.151742 -0.062419 0.127188
0.207814 -0.062419 0.128551
0.263851 -0.062419 0.129893
0.320096 -0.062419 0.131110
0.376660 -0.062419 0.132193
0.433487 -0.062419 0.133154
0.490432 -0.062419 0.133958
0.546932 -0.062419 0.134503
0.603054 -0.062419 0.134821
0.658709 -0.062419 0.135000
0.713801 -0.062419 0.135007
0.767973 -0.062419 0.134842
0.820699 -0.062419 0.134375
-0.055372 -0.026219 0.127100
0.022289 0.025128 0.127100
0.094636 0.025128 0.127100
0.151742 0.025128 0.129471
0.207814 0.025128 0.131159
0.263851 0.025128 0.132447
0.320096 0.025128 0.133509
0.376660 0.025128 0.134421
0.433487 0.025128 0.135214
0.490432 0.025128 0.135869
0.546932 0.025128 0.136313
0.603054 0.025128 0.136570
0.658709 0.025128 0.136719
0.713801 0.025128 0.136728
0.767973 0.025128 0.136596
0.820699 0.025128 0.136235
-0.055372 0.106684 0.127100
0.022289 0.106684 0.127100
0.094636 0.106684 0.127100
0.151742 0.106684 0.127100
0.207814 0.106684 0.127100
0.263851 0.106684 0.127100
0.320096 0.106684 0.127100
0.376660 0.106684 0.127100
0.433487 0.106684 0.127100
0.490432 0.106684 0.127100
0.546932 0.106684 0.127100
0.603054 0.106684 0.127100
0.658709 0.106684 0.127100
0.713801 0.106684 0.127100
0.767973 0.106684 0.127100
0.820699 0.106684 0.127100
-0.055372 0.171071 0.127188
0.022289 0.171071 0.129471
0.094636 0.171071 0.127100
0.151742 0.171071 0.127100
0.207814 0.172221 0.127100
0.263851 0.173200 0.127100
0.320096 0.174056 0.127100
0.376660 0.174824 0.127100
0.433487 0.175495 0.127100
0.490432 0.176060 0.127100
0.546932 0.176449 0.127100
0.603054 0.176658 0.127100
0.658709 0.176767 0.127100
0.713801 0.176771 0.127100
0.767973 0.176627 0.127100
0.820699 0.176263 0.127100
-0.055372 0.234273 0.128551
0.022289 0.234273 0.131159
0.094636 0.234273 0.127100
0.152784 0.234273 0.127100
0.207814 0.234273 0.127100
0.263851 0.235909 0.127100
0.320096 0.237363 0.127100
0.376660 0.238644 0.127100
0.433487 0.239778 0.127100
0.490432 0.240724 0.127100
0.546932 0.241363 0.127100
0.603054 0.241726 0.127100
0.658709 0.241923 0.127100
0.713801 0.241911 0.127100
0.767973 0.241683 0.127100
0.820699 0.241089 0.127100
-0.055372 0.297445 0.129893
0.022289 0.297445 0.132447
0.094636 0.297445 0.127100
0.153650 0.297445 0.127100
0.209288 0.297445 0.127100
0.263851 0.297445 0.127100
0.320096 0.299380 0.127100
0.376660 0.301114 0.127100
0.433487 0.302658 0.127100
0.490432 0.303941 0.127100
0.546932 0.304825 0.127100
0.603054 0.305305 0.127100
0.658709 0.305575 0.127100
0.713801 0.305538 0.127100
0.767973 0.305220 0.127100
0.820699 0.304404 0.127100
-0.055372 0.360878 0.131110
0.022289 0.360878 0.133509
0.094636 0.360878 0.127100
0.154407 0.360878 0.127100
0.210546 0.360878 0.127100
0.265587 0.360878 0.127100
0.320096 0.360878 0.127100
0.376660 0.363008 0.127100
0.433487 0.364902 0.127100
0.490432 0.366509 0.127100
0.546932 0.367584 0.127100
0.603054 0.368186 0.127100
0.658709 0.368529 0.127100
0.713801 0.368494 0.127100
0.767973 0.368147 0.127100
0.820699 0.367122 0.127100
-0.055372 0.424626 0.132193
0.022289 0.424626 0.134421
0.094636 0.424626 0.127100
0.155078 0.424626 0.127100
0.211691 0.424626 0.127100
0.267124 0.424626 0.127100
0.322026 0.424626 0.127100
0.376660 0.424626 0.127100
0.433487 0.426871 0.127100
0.490432 0.428770 0.127100
0.546932 0.430063 0.127100
0.603054 0.430779 0.127100
0.658709 0.431185 0.127100
0.713801 0.431153 0.127100
0.767973 0.430693 0.127100
0.820699 0.429493 0.127100
-0.055372 0.488669 0.133154
0.022289 0.488669 0.135214
0.094636 0.488669 0.127100
0.155679 0.488669 0.127100
0.212705 0.488669 0.127100
0.268480 0.488669 0.127100
0.323707 0.488669 0.127100
0.378690 0.488669 0.127100
0.433487 0.488669 0.127100
0.490432 0.490863 0.127100
0.546932 0.492372 0.127100
0.603054 0.493200 0.127100
0.658709 0.493649 0.127100
0.713801 0.493633 0.127100
0.767973 0.493082 0.127100
0.820699 0.491712 0.127100
-0.055372 0.552855 0.133958
0.022289 0.552855 0.135869
0.094636 0.552855 0.127100
0.156178 0.552855 0.127100
0.213548 0.552855 0.127100
0.269602 0.552855 0.127100
0.325126 0.552855 0.127100
0.380345 0.552855 0.127100
0.435447 0.552855 0.127100
0.490432 0.552855 0.127100
0.546932 0.554548 0.127100
0.603054 0.555516 0.127100
0.658709 0.555995 0.127100
0.713801 0.555914 0.127100
0.767973 0.555339 0.127100
0.820699 0.553780 0.127100
-0.055372 0.616569 0.134503
0.022289 0.616569 0.136313
0.094636 0.616569 0.127100
0.156517 0.616569 0.127100
0.214123 0.616569 0.127100
0.270389 0.616569 0.127100
0.326076 0.616569 0.127100
0.381486 0.616569 0.127100
0.436777 0.616569 0.127100
0.491916 0.616569 0.127100
0.546932 0.616569 0.127100
0.603054 0.617656 0.127100
0.658709 0.618242 0.127100
0.713801 0.618172 0.127100
0.767973 0.617506 0.127100
0.820699 0.615771 0.127100
-0.055372 0.679787 0.134821
0.022289 0.679787 0.136570
0.094636 0.679787 0.127100
0.156714 0.679787 0.127100
0.214422 0.679787 0.127100
0.270802 0.679787 0.127100
0.326629 0.679787 0.127100
0.382108 0.679787 0.127100
0.437498 0.679787 0.127100
0.492752 0.679787 0.127100
0.547869 0.679787 0.127100
0.603054 0.679787 0.127100
0.658709 0.680461 0.127100
0.713801 0.680410 0.127100
0.767973 0.679694 0.127100
0.820699 0.677741 0.127100
-0.055372 0.742605 0.135000
0.022289 0.742605 0.136719
0.094636 0.742605 0.127100
0.156810 0.742605 0.127100
0.214604 0.742605 0.127100
0.271045 0.742605 0.127100
0.326912 0.742605 0.127100
0.382488 0.742605 0.127100
0.437907 0.742605 0.127100
0.493192 0.742605 0.127100
0.548402 0.742605 0.127100
0.603623 0.742605 0.127100
0.658709 0.742605 0.127100
0.713801 0.742519 0.127100
0.767973 0.741635 0.127100
0.820699 0.739641 0.127100
-0.055372 0.804764 0.135007
0.022289 0.804764 0.136728
0.094636 0.804764 0.127100
0.156813 0.804764 0.127100
0.214587 0.804764 0.127100
0.271042 0.804764 0.127100
0.326892 0.804764 0.127100
0.382450 0.804764 0.127100
0.437882 0.804764 0.127100
0.493187 0.804764 0.127100
0.548351 0.804764 0.127100
0.603583 0.804764 0.127100
0.658661 0.804764 0.127100
0.713801 0.804764 0.127100
0.767973 0.803869 0.127100
0.820699 0.801521 0.127100
-0.055372 0.865731 0.134842
0.022289 0.865731 0.136596
0.094636 0.865731 0.127100
0.156690 0.865731 0.127100
0.214393 0.865731 0.127100
0.270761 0.865731 0.127100
0.326560 0.865731 0.127100
0.382080 0.865731 0.127100
0.437411 0.865731 0.127100
0.492670 0.865731 0.127100
0.547775 0.865731 0.127100
0.602937 0.865731 0.127100
0.657961 0.865731 0.127100
0.713030 0.865731 0.127100
0.767973 0.865731 0.127100
0.820699 0.863301 0.127100
-0.055372 0.925164 0.134375
0.022289 0.925164 0.136235
0.094636 0.925164 0.127100
0.156378 0.925164 0.127100
0.213858 0.925164 0.127100
0.270043 0.925164 0.127100
0.325673 0.925164 0.127100
0.381021 0.925164 0.127100
0.436187 0.925164 0.127100
0.491276 0.925164 0.127100
0.546221 0.925164 0.127100
0.601243 0.925164 0.127100
0.656072 0.925164 0.127100
0.710999 0.925164 0.127100
0.765838 0.925164 0.127100
0.820699 0.925164 0.127100
-0.055372 -0.062419 0.203799
-0.023159 -0.062419 0.203799
0.094709 -0.062419 0.203799
0.151742 -0.062419 0.203799
0.207814 -0.062419 0.205634
0.263851 -0.062419 0.207497
0.320096 -0.062419 0.209166
0.376660 -0.062419 0.210674
0.433487 -0.062419 0.211974
0.490432 -0.062419 0.213085
0.546932 -0.062419 0.213837
0.603054 -0.062419 0.214294
0.658709 -0.062419 0.214530
0.713801 -0.062419 0.214544
0.767973 -0.062419 0.214316
0.820699 -0.062419 0.213677
-0.055372 -0.026111 0.203799
0.022289 0.025128 0.203799
0.096403 0.025128 0.203799
0.151742 0.025128 0.203799
0.207814 0.025128 0.206485
0.263851 0.025128 0.208571
0.320096 0.025128 0.210275
0.376660 0.025128 0.211744
0.433487 0.025128 0.213008
0.490432 0.025128 0.214054
0.546932 0.025128 0.214765
0.603054 0.025128 0.215173
0.658709 0.025128 0.215430
0.713801 0.025128 0.215427
0.767973 0.025128 0.215223
0.820699 0.025128 0.214631
-0.055372 0.106761 0.203799
0.022289 0.108676 0.203799
0.094636 0.106684 0.203799
0.151742 0.106684 0.203799
0.207814 0.106684 0.205188
0.263851 0.106684 0.206354
0.320096 0.106684 0.207359
0.376660 0.106684 0.208287
0.433487 0.106684 0.209089
0.490432 0.106684 0.209766
0.546932 0.106684 0.210215
0.603054 0.106684 0.210472
0.658709 0.106684 0.210619
0.713801 0.106684 0.210606
0.767973 0.106684 0.210445
0.820699 0.106684 0.210010
-0.055372 0.171071 0.203799
0.022289 0.171071 0.203799
0.094636 0.171071 0.203799
0.151742 0.171071 0.203799
0.207814 0.171071 0.203799
0.263851 0.171071 0.203799
0.320096 0.171071 0.203799
0.376660 0.171071 0.203799
0.433487 0.171071 0.203799
0.490432 0.171071 0.203799
0.546932 0.171071 0.203799
0.603054 0.171071 0.203799
0.658709 0.171071 0.203799
0.713801 0.171071 0.203799
0.767973 0.171071 0.203799
0.820699 0.171071 0.203799
-0.055372 0.234273 0.205634
0.022289 0.234273 0.206485
0.094636 0.234273 0.205188
0.151742 0.234273 0.203799
0.207814 0.234273 0.203799
0.263851 0.235109 0.203799
0.320096 0.235872 0.203799
0.376660 0.236596 0.203799
0.433487 0.237238 0.203799
0.490432 0.237778 0.203799
0.546932 0.238134 0.203799
0.603054 0.238319 0.203799
0.658709 0.238418 0.203799
0.713801 0.238383 0.203799
0.767973 0.238222 0.203799
0.820699 0.237830 0.203799
-0.055372 0.297445 0.207497
0.022289 0.297445 0.208571
0.094636 0.297445 0.206354
0.151742 0.297445 0.203799
0.208569 0.297445 0.203799
0.263851 0.297445 0.203799
0.320096 0.298758 0.203799
0.376660 0.300013 0.203799
0.433487 0.301123 0.203799
0.490432 0.302070 0.203799
0.546932 0.302688 0.203799
0.603054 0.303004 0.203799
0.658709 0.303180 0.203799
0.713801 0.303130 0.203799
0.767973 0.302843 0.203799
0.820699 0.302146 0.203799
-0.055372 0.360878 0.209166
0.022289 0.360878 0.210275
0.094636 0.360878 0.207359
0.151742 0.360878 0.203799
0.209250 0.360878 0.203799
0.265035 0.360878 0.203799
0.320096 0.360878 0.203799
0.376660 0.362536 0.203799
