luts/Good Morning.cube
LUT_3D_SIZE 6
-0.055372 -0.062419 -0.074369
0.151742 -0.062419 -0.074369
0.320096 -0.062419 -0.074369
0.490432 -0.062419 -0.074369
0.658709 -0.062419 -0.074369
0.820699 -0.062419 -0.074369
-0.055372 0.171071 -0.074369
0.151742 0.171071 -0.074369
0.320096 0.175580 -0.074369
0.490432 0.178862 -0.074369
0.658709 0.180070 -0.074369
0.820699 0.179334 -0.074369
-0.055372 0.360878 -0.074369
0.155737 0.360878 -0.074369
0.320096 0.360878 -0.074369
0.490432 0.367222 -0.074369
0.658709 0.369532 -0.074369
0.820699 0.368157 -0.074369
-0.055372 0.552855 -0.074369
0.158661 0.552855 -0.074369
0.325730 0.552855 -0.074369
0.490432 0.552855 -0.074369
0.658709 0.556338 -0.074369
0.820699 0.554241 -0.074369
-0.055372 0.742605 -0.074369
0.159742 0.742605 -0.074369
0.327819 0.742605 -0.074369
0.493509 0.742605 -0.074369
0.658709 0.742605 -0.074369
0.820699 0.739855 -0.074369
-0.055372 0.925164 -0.074369
0.159094 0.925164 -0.074369
0.326566 0.925164 -0.074369
0.491673 0.925164 -0.074369
0.656199 0.925164 -0.074369
0.820699 0.925164 -0.074369
-0.055372 -0.062419 0.203799
0.151742 -0.062419 0.203799
0.320096 -0.062419 0.209166
0.490432 -0.062419 0.213085
0.658709 -0.062419 0.214530
0.820699 -0.062419 0.213677
-0.055372 0.171071 0.203799
0.151742 0.171071 0.203799
0.320096 0.171071 0.203799
0.490432 0.171071 0.203799
0.658709 0.171071 0.203799
0.820699 0.171071 0.203799
-0.055372 0.360878 0.209166
0.151742 0.360878 0.203799
0.320096 0.360878 0.203799
0.490432 0.365353 0.203799
0.658709 0.366860 0.203799
0.820699 0.365497 0.203799
-0.055372 0.552855 0.213085
0.151742 0.552855 0.203799
0.324101 0.552855 0.203799
0.490432 0.552855 0.203799
0.658709 0.555438 0.203799
0.820699 0.553057 0.203799
-0.055372 0.742605 0.214530
0.151742 0.742605 0.203799
0.325436 0.742605 0.203799
0.492689 0.742605 0.203799
0.658709 0.742605 0.203799
0.820699 0.739280 0.203799
-0.055372 0.925164 0.213677
0.151742 0.925164 0.203799
0.324195 0.925164 0.203799
0.490595 0.925164 0.203799
0.655785 0.925164 0.203799
0.820699 0.925164 0.203799
-0.055372 -0.062419 0.429917
0.155737 -0.062419 0.429917
0.320096 -0.062419 0.429917
0.490432 -0.062419 0.437483
0.658709 -0.062419 0.440281
0.820699 -0.062419 0.438598
-0.055372 0.175580 0.429917
0.151742 0.171071 0.429917
0.320096 0.171071 0.429917
0.490432 0.171071 0.435280
0.658709 0.171071 0.437064
0.820699 0.171071 0.435406
-0.055372 0.360878 0.429917
0.151742 0.360878 0.429917
0.320096 0.360878 0.429917
0.490432 0.360878 0.429917
0.658709 0.360878 0.429917
0.820699 0.360878 0.429917
-0.055372 0.552855 0.437483
0.151742 0.552855 0.435280
0.320096 0.552855 0.429917
0.490432 0.552855 0.429917
0.658709 0.553398 0.429917
0.820699 0.551025 0.429917
-0.055372 0.742605 0.440281
0.151742 0.742605 0.437064
0.320096 0.742605 0.429917
0.490865 0.742605 0.429917
0.658709 0.742605 0.429917
0.820699 0.738565 0.429917
-0.055372 0.925164 0.438598
0.151742 0.925164 0.435406
0.320096 0.925164 0.429917
0.488809 0.925164 0.429917
0.655106 0.925164 0.429917
0.820699 0.925164 0.429917
-0.055372 -0.062419 0.658690
0.158661 -0.062419 0.658690
0.325730 -0.062419 0.658690
0.490432 -0.062419 0.658690
0.658709 -0.062419 0.662833
0.820699 -0.062419 0.660368
-0.055372 0.178862 0.658690
0.151742 0.171071 0.658690
0.324101 0.171071 0.658690
0.490432 0.171071 0.658690
0.658709 0.171071 0.661758
0.820699 0.171071 0.658882
-0.055372 0.367222 0.658690
0.151742 0.365353 0.658690
0.320096 0.360878 0.658690
0.490432 0.360878 0.658690
0.658709 0.360878 0.659233
0.820699 0.360878 0.656495
-0.055372 0.552855 0.658690
0.151742 0.552855 0.658690
0.320096 0.552855 0.658690
0.490432 0.552855 0.658690
0.658709 0.552855 0.658690
0.820699 0.552855 0.658690
-0.055372 0.742605 0.662833
0.151742 0.742605 0.661758
0.320096 0.742605 0.659233
0.490432 0.742605 0.658690
0.658709 0.742605 0.658690
0.820699 0.739219 0.658690
-0.055372 0.925164 0.660368
0.151742 0.925164 0.658882
0.320096 0.925164 0.656495
0.490432 0.925164 0.658690
0.655750 0.925164 0.658690
0.820699 0.925164 0.658690
-0.055372 -0.062419 0.884641
0.159742 -0.062419 0.884641
0.327819 -0.062419 0.884641
0.493509 -0.062419 0.884641
0.658709 -0.062419 0.884641
0.820699 -0.062419 0.881335
-0.055372 0.180070 0.884641
0.151742 0.171071 0.884641
0.325436 0.171071 0.884641
0.492689 0.171071 0.884641
0.658709 0.171071 0.884641
0.820699 0.171071 0.880790
-0.055372 0.369532 0.884641
0.151742 0.366860 0.884641
0.320096 0.360878 0.884641
0.490865 0.360878 0.884641
0.658709 0.360878 0.884641
0.820699 0.360878 0.879825
-0.055372 0.556338 0.884641
0.151742 0.555438 0.884641
0.320096 0.553398 0.884641
0.490432 0.552855 0.884641
0.658709 0.552855 0.884641
0.820699 0.552855 0.880711
-0.055372 0.742605 0.884641
0.151742 0.742605 0.884641
0.320096 0.742605 0.884641
0.490432 0.742605 0.884641
0.658709 0.742605 0.884641
0.820699 0.742605 0.884641
-0.055372 0.925164 0.881335
0.151742 0.925164 0.880790
0.320096 0.925164 0.879825
0.490432 0.925164 0.880711
0.658709 0.925164 0.884641
0.820699 0.925164 0.884641
-0.055372 -0.062419 1.102238
0.159094 -0.062419 1.102238
0.326566 -0.062419 1.102238
0.491673 -0.062419 1.102238
0.656199 -0.062419 1.102238
0.820699 -0.062419 1.102238
-0.055372 0.179334 1.102238
0.151742 0.171071 1.102238
0.324195 0.171071 1.102238
0.490595 0.171071 1.102238
0.655785 0.171071 1.102238
0.820699 0.171071 1.102238
-0.055372 0.368157 1.102238
0.151742 0.365497 1.102238
0.320096 0.360878 1.102238
0.488809 0.360878 1.102238
0.655106 0.360878 1.102238
0.820699 0.360878 1.102238
-0.055372 0.554241 1.102238
0.151742 0.553057 1.102238
0.320096 0.551025 1.102238
0.490432 0.552855 1.102238
0.655750 0.552855 1.102238
0.820699 0.552855 1.102238
-0.055372 0.739855 1.102238
0.151742 0.739280 1.102238
0.320096 0.738565 1.102238
0.490432 0.739219 1.102238
0.658709 0.742605 1.102238
0.820699 0.742605 1.102238
-0.055372 0.925164 1.102238
0.151742 0.925164 1.102238
0.320096 0.925164 1.102238
0.490432 0.925164 1.102238
0.658709 0.925164 1.102238
0.820699 0.925164 1.102238
