luts/GoPro ProTune to GoPro Color.cube
TITLE "Generated by Resolve"
LUT_3D_SIZE 9
0 0 0
0.10074 0 0
0.214847 0 0
0.366461 0 0
0.524147 0 0
0.677928 0 0
0.828336 0 0
0.965072 0 0
1 0 0
0 0.0948959 0
0.0924544 0.0924544 0
0.206226 0.0858015 0
0.357427 0.0693828 0
0.516243 0.0529183 0
0.674891 0.0407721 0
0.834958 0.0335088 0
0.981704 0.0319982 0
1 0.0432136 0
0 0.194308 0
0.07393 0.194369 0
0.194171 0.194171 0
0.355413 0.187747 0
0.523873 0.180835 0
0.689418 0.175479 0
0.853239 0.171923 0
1 0.172992 0
1 0.186191 0
0 0.329747 0
0.0502632 0.338308 0
0.176425 0.344091 0
0.340734 0.340719 0
0.511666 0.336233 0
0.679133 0.332677 0
0.844266 0.330343 0
0.994354 0.331975 0
1 0.344823 0
0 0.485786 0
0.0331273 0.496437 0
0.161059 0.504097 0
0.326284 0.501732 0
0.497368 0.497368 0
0.664698 0.493614 0
0.828946 0.490288 0
0.977905 0.490715 0
1 0.502892 0
0 0.645609 0
0.0222629 0.656397 0
0.149477 0.663417 0
0.313573 0.660029 0
0.483452 0.654521 0
0.650401 0.650401 0
0.814694 0.647074 0
0.963729 0.647501 0
1 0.659724 0
0 0.802243 0
0.0109407 0.812375 0
0.137819 0.819135 0
0.301915 0.815869 0
0.47187 0.810513 0
0.638544 0.806165 0
0.802258 0.802243 0
0.950347 0.801694 0
1 0.812802 0
0 0.95259 0
0.0131228 0.962814 0
0.139605 0.969253 0
0.302647 0.965026 0
0.471763 0.958968 0
0.637079 0.953292 0
0.79913 0.947753 0
0.945113 0.945113 0
1 0.953094 0
0 1 0
0.052491 1 0
0.177447 1 0
0.338659 1 0
0.505272 1 0
0.666926 1 0
0.823728 1 0
0.962875 1 0
1 1 0
0 0 0.102434
0.0998703 0 0.0998703
0.214023 0 0.0935836
0.365774 0 0.0777447
0.523354 0 0.060029
0.676814 0 0.0426947
0.82768 0 0.0262303
0.965133 0 0.0154269
1 0 0.0198978
0 0.0941329 0.0941329
0.0914626 0.0914626 0.0914626
0.205158 0.0847028 0.0847028
0.356832 0.0687419 0.0687419
0.516854 0.0534524 0.0534524
0.676692 0.0424506 0.0424506
0.837598 0.0360571 0.0360571
0.98471 0.0348821 0.0348821
1 0.046128 0.046128
0 0.19382 0.0733806
0.0745251 0.19498 0.0745251
0.19649 0.19649 0.0760204
0.358206 0.190494 0.0700847
0.52697 0.183856 0.063508
0.692805 0.178759 0.0584726
0.856901 0.175433 0.0551919
1 0.176699 0.0565194
1 0.189761 0.0696117
0 0.332631 0.0445869
0.0532235 0.341329 0.0532235
0.179812 0.347524 0.0593881
0.344335 0.344335 0.0562448
0.515145 0.339651 0.051667
0.68304 0.336507 0.0486458
0.848219 0.334142 0.0464179
0.99823 0.335683 0.0480812
1 0.348409 0.0608835
0 0.489509 0.0261692
0.0368505 0.500252 0.0368505
0.164828 0.507942 0.04448
0.330068 0.505562 0.0420691
0.500954 0.500938 0.0375525
0.668269 0.497139 0.0338903
0.832471 0.493721 0.0306554
0.98143 0.494072 0.0311894
1 0.506371 0.0436103
0 0.649332 0.015198
0.0258488 0.660105 0.025864
0.152911 0.666957 0.0326085
0.316899 0.663447 0.0290379
0.4869 0.65803 0.0236362
0.653925 0.653925 0.0196841
0.81825 0.650568 0.0165255
0.967208 0.650874 0.0170138
1 0.663111 0.0294041
0 0.805631 0.00421149
0.0143435 0.815915 0.0143587
0.141207 0.82269 0.0209659
0.305119 0.819196 0.0173953
0.475227 0.813993 0.0121462
0.641886 0.809567 0.00781262
0.805447 0.805432 0.00389105
0.95349 0.804807 0.00343328
1 0.815702 0.0144808
0 0.956115 0.00645457
0.016434 0.966278 0.0164492
0.142779 0.972595 0.0225986
0.305715 0.968246 0.0181125
0.474723 0.962051 0.0118257
0.639887 0.956207 0.00604257
0.80148 0.950164 0.000137331
0.947234 0.947219 0
1 0.954559 0.00483711
0 1 0.0465248
0.055314 1 0.055314
0.180072 1 0.0599374
0.341054 1 0.0535286
0.507195 1 0.044419
0.66807 1 0.0343481
0.823819 1 0.0226291
0.962158 1 0.0124666
1 1 0.0109102
0 0 0.220752
0.0977493 0 0.218189
0.212009 0 0.212009
0.363821 0 0.196139
0.521309 0 0.178271
0.674556 0 0.160616
0.82591 0 0.144594
0.964538 0 0.13489
1 0 0.140398
0 0.0920729 0.212497
0.0892195 0.0892195 0.209674
0.20296 0.0825055 0.20296
0.355123 0.0670024 0.187411
0.516442 0.0529793 0.173327
0.677852 0.0435187 0.163806
0.839261 0.0375677 0.157794
0.986664 0.0366827 0.156863
1 0.0481727 0.168307
0 0.192599 0.192599
0.0744182 0.194873 0.194873
0.197726 0.197726 0.197726
0.359884 0.192126 0.192126
0.528725 0.18555 0.18555
0.695109 0.180941 0.180941
0.859388 0.177798 0.177798
1 0.179034 0.179034
1 0.192355 0.192355
0 0.334157 0.166491
0.0552224 0.343359 0.175647
0.182086 0.349844 0.182086
0.346807 0.346807 0.179049
0.517769 0.342214 0.174517
0.685756 0.339101 0.171481
0.850935 0.336721 0.169192
1 0.337865 0.170413
1 0.350698 0.183276
0 0.491722 0.148684
0.0393988 0.502876 0.159747
0.167391 0.510582 0.167391
0.332601 0.508141 0.164904
0.503426 0.503426 0.160235
0.670619 0.499428 0.156359
0.834775 0.495903 0.152972
0.983627 0.496147 0.153368
1 0.508644 0.165957
0 0.651713 0.137758
0.0281376 0.662501 0.148455
0.155093 0.669245 0.155093
0.318761 0.665415 0.151156
0.489143 0.660334 0.146075
0.656245 0.656229 0.142077
0.820584 0.652842 0.138827
0.969528 0.653101 0.139269
1 0.665248 0.151537
0 0.807935 0.126604
0.0165408 0.818235 0.136782
0.14342 0.825025 0.143435
0.307195 0.821408 0.139666
0.477348 0.81622 0.134432
0.643946 0.811688 0.129946
0.807355 0.807355 0.125765
0.955367 0.806653 0.125231
1 0.817349 0.136049
0 0.958419 0.128771
0.0184939 0.968505 0.138689
0.144656 0.974655 0.144671
0.3075 0.970199 0.140047
0.476371 0.963836 0.133577
0.641367 0.957794 0.12752
0.802716 0.951446 0.121263
0.948074 0.948058 0.11809
1 0.954574 0.124727
0 1 0.16846
0.0568704 1 0.177005
0.181186 1 0.181186
0.341955 1 0.174533
0.507637 1 0.164935
0.66775 1 0.15404
0.822721 1 0.141436
0.959808 1 0.129915
1 1 0.127535
0 0 0.382803
0.0920882 0 0.380133
0.206607 0 0.374273
0.358312 0 0.358312
0.515663 0 0.340246
0.669001 0 0.322545
0.820829 0 0.306889
0.960861 0 0.298466
1 0 0.305303
0 0.0865644 0.374609
0.0834821 0.0834821 0.371572
0.197543 0.0771191 0.365255
0.350439 0.0623331 0.350439
0.512764 0.0492866 0.337285
0.675746 0.0413367 0.329198
0.837583 0.0357977 0.323522
0.98529 0.0351415 0.322744
1 0.0469368 0.334462
0 0.18851 0.356176
0.0716106 0.192035 0.359747
0.195682 0.195682 0.363439
0.35816 0.190402 0.35816
0.527367 0.184115 0.351812
0.694072 0.179812 0.347433
0.858579 0.176837 0.344366
1 0.178073 0.345541
1 0.191516 0.358938
0 0.332509 0.332509
0.0539254 0.342031 0.342031
0.180987 0.348745 0.348745
0.345754 0.345754 0.345754
0.517006 0.34139 0.34139
0.685039 0.338277 0.338277
0.850217 0.335851 0.335851
0.999786 0.336889 0.336889
1 0.349538 0.349538
0 0.490837 0.315404
0.0385901 0.502083 0.326589
0.166552 0.509789 0.334249
0.33135 0.50695 0.33135
0.502388 0.502388 0.326772
0.669535 0.498268 0.322728
0.833478 0.494469 0.319005
0.982651 0.494987 0.3196
1 0.5075 0.332158
0 0.650813 0.304372
0.0269932 0.661418 0.314855
0.153826 0.668086 0.321447
0.317525 0.664271 0.317525
0.487968 0.659236 0.312413
0.655131 0.655131 0.308385
0.819211 0.651392 0.304753
0.968444 0.651865 0.305348
1 0.663905 0.317479
0 0.806806 0.292866
0.0153353 0.817151 0.303059
0.142184 0.823941 0.309728
0.305913 0.820294 0.305928
0.47602 0.81503 0.300542
0.642542 0.810361 0.295888
0.805737 0.805722 0.291356
0.95378 0.804974 0.290745
1 0.815503 0.301366
0 0.957275 0.294865
0.0171054 0.967285 0.304723
0.142916 0.973098 0.310369
0.305821 0.968734 0.305821
0.474479 0.962158 0.299107
0.639261 0.955856 0.292729
0.800336 0.949142 0.286091
0.945266 0.945251 0.282353
1 0.951064 0.288243
0 1 0.334112
0.0549477 1 0.342489
0.178943 1 0.346365
0.339284 1 0.339284
0.50425 1 0.328908
0.663645 1 0.317205
0.817884 1 0.303761
0.953933 1 0.291127
1 1 0.287724
0 0 0.551965
0.0860456 0 0.549355
0.200626 0 0.543664
0.352163 0 0.527611
0.509178 0 0.509178
0.662974 0 0.491905
0.815579 0 0.476921
0.956527 0 0.469337
1 0 0.477745
0 0.080293 0.543633
0.0772259 0.0772259 0.540612
0.191684 0.0713359 0.534783
0.345754 0.0577554 0.521233
0.509255 0.0458534 0.509255
0.673091 0.0387274 0.501976
0.835325 0.0335088 0.496574
0.983215 0.0329595 0.495857
1 0.0452583 0.508019
0 0.183993 0.527016
0.0688182 0.189166 0.532296
0.193256 0.193256 0.536446
0.355917 0.18822 0.531472
0.525429 0.182239 0.525429
0.692424 0.178164 0.521233
0.857176 0.175357 0.518303
1 0.176638 0.519417
1 0.190143 0.532845
0 0.330449 0.505882
0.0522469 0.340246 0.51574
0.179446 0.347143 0.522683
0.344137 0.344137 0.519738
0.515633 0.340017 0.515633
0.683711 0.336904 0.512444
0.848737 0.334249 0.509728
0.998306 0.335271 0.510643
1 0.347799 0.52314
0 0.489418 0.489418
0.0373083 0.500694 0.500694
0.165179 0.50837 0.50837
0.329854 0.505455 0.505455
0.500694 0.500694 0.500694
0.667826 0.496498 0.496498
0.831754 0.492638 0.492638
0.981079 0.493263 0.493263
1 0.505776 0.505776
0 0.649287 0.478218
0.02533 0.659724 0.488594
0.151873 0.666117 0.494942
0.315755 0.662562 0.49131
0.486213 0.657557 0.486229
0.653437 0.653437 0.482109
0.817563 0.649653 0.478386
0.966766 0.650034 0.478843
1 0.661952 0.490806
0 0.805112 0.466468
0.0136416 0.815488 0.476722
0.140154 0.821942 0.483085
0.304082 0.81854 0.479545
0.474098 0.81323 0.474098
0.640299 0.808209 0.469032
0.803632 0.803632 0.464515
0.951553 0.80267 0.46363
1 0.81294 0.473991
0 0.955505 0.468315
0.015198 0.965408 0.47808
0.140826 0.971115 0.483619
0.303563 0.966613 0.47895
0.472038 0.959869 0.472053
0.636316 0.953048 0.465126
0.797192 0.946075 0.458167
0.941497 0.941497 0.453681
1 0.946593 0.458854
0 1 0.506996
0.05243 1 0.515221
0.17615 1 0.518837
0.335958 1 0.511299
0.50013 1 0.50013
0.658534 1 0.487373
0.811872 1 0.472923
0.947143 1 0.459388
1 1 0.455207
0 0 0.716869
0.0803845 0 0.714504
0.194903 0 0.708843
0.346227 0 0.692668
0.50309 0 0.674159
0.657343 0 0.657343
0.81117 0 0.643549
0.953277 0 0.637049
1 0 0.646357
0 0.0744488 0.708598
0.071397 0.071397 0.705638
0.186267 0.06598 0.700328
0.341421 0.0535592 0.687953
0.5066 0.0433356 0.677729
0.670878 0.0366369 0.670878
0.833432 0.0317082 0.665751
0.981598 0.0314031 0.665263
1 0.0439307 0.677638
0 0.180255 0.694194
0.066453 0.18677 0.700816
0.191257 0.191272 0.705425
0.353948 0.186328 0.700587
0.523888 0.180819 0.695064
0.691066 0.176913 0.691066
0.85568 0.173922 0.687938
1 0.175586 0.689418
1 0.18909 0.7028
0 0.328786 0.675227
0.0509957 0.338872 0.68542
0.178332 0.345937 0.692592
0.343038 0.343038 0.689799
0.514519 0.338979 0.685786
0.682597 0.335836 0.682597
0.847364 0.332891 0.67953
0.996994 0.333898 0.680415
1 0.346349 0.692775
0 0.488319 0.659388
0.0363622 0.499611 0.670741
0.164096 0.507164 0.67834
0.328679 0.504234 0.675486
0.499306 0.499306 0.670649
0.666346 0.495018 0.666346
0.830365 0.491188 0.662455
0.979782 0.491844 0.66305
1 0.504356 0.675517
0 0.647944 0.647944
0.024033 0.658274 0.658274
0.150362 0.664515 0.664515
0.314397 0.661158 0.661158
0.48484 0.656168 0.656168
0.651881 0.651881 0.651881
0.816144 0.648173 0.648173
0.965316 0.648493 0.648493
1 0.660258 0.660258
0 0.803708 0.636088
0.0122835 0.814038 0.646357
0.138796 0.820523 0.652796
0.302586 0.81706 0.649241
0.472465 0.811643 0.643732
0.638483 0.806455 0.638483
0.801785 0.801785 0.633829
0.949584 0.800626 0.632715
1 0.810452 0.642573
0 0.954009 0.637781
0.0134127 0.963561 0.647257
0.139071 0.969345 0.652903
0.301579 0.964675 0.648096
0.469841 0.957748 0.641032
0.63386 0.950683 0.63386
0.794263 0.943221 0.626352
0.937835 0.937835 0.621012
1 0.941787 0.625025
0 1 0.675929
0.0499275 1 0.683665
0.173526 1 0.687221
0.332753 1 0.67921
0.49601 1 0.667155
0.653696 1 0.653696
0.805753 1 0.637873
0.94023 1 0.623468
1 1 0.618875
0 0 0.878569
0.0750134 0 0.876448
0.189395 0 0.87071
0.340459 0 0.854414
0.497337 0 0.835996
0.652049 0 0.819669
0.807172 0 0.807157
0.950851 0 0.802213
1 0 0.811917
0 0.0687724 0.870192
0.066041 0.066041 0.867597
0.181628 0.061387 0.863111
0.337789 0.0500649 0.85185
0.504295 0.0412146 0.843061
0.669001 0.0349279 0.836683
0.831647 0.0300908 0.831632
0.980285 0.0302281 0.831601
1 0.0429236 0.844144
0 0.177447 0.858778
0.0644999 0.184726 0.866194
0.189441 0.189441 0.871031
0.352499 0.18497 0.866712
0.522667 0.179736 0.86154
0.690013 0.176013 0.85774
0.854719 0.173114 0.854719
1 0.174807 0.856229
1 0.188296 0.869612
0 0.327443 0.841382
0.0500343 0.337758 0.85185
0.177188 0.344717 0.858946
0.342229 0.342229 0.856596
0.513664 0.338201 0.852689
0.681651 0.334997 0.849485
0.846326 0.33196 0.846326
0.995804 0.332784 0.847013
1 0.345129 0.859266
0 0.48748 0.826139
0.0357061 0.498772 0.837537
0.163088 0.50602 0.844877
0.327703 0.503151 0.842161
0.498146 0.498146 0.837263
0.664775 0.493507 0.83267
0.82916 0.490043 0.82916
0.978637 0.490715 0.829755
1 0.503197 0.842161
0 0.646784 0.81442
0.0229801 0.657038 0.82472
0.14931 0.66331 0.831052
0.313329 0.659983 0.827817
0.483742 0.655009 0.822919
0.650538 0.650538 0.818509
0.814893 0.646922 0.814893
0.964004 0.64712 0.815045
1 0.658701 0.826581
0 0.802548 0.802548
0.0112306 0.812787 0.812787
0.137728 0.819318 0.819318
0.301427 0.815793 0.815793
0.471107 0.810224 0.810224
0.636927 0.804898 0.804898
0.800076 0.800076 0.800076
0.947738 0.798733 0.798733
1 0.808209 0.808209
0 0.952682 0.804059
0.0120546 0.962066 0.813397
0.137606 0.967773 0.819043
0.299855 0.962905 0.814099
0.467674 0.955581 0.806699
0.631434 0.948302 0.799344
0.791348 0.940352 0.791348
0.934203 0.934203 0.785199
1 0.937285 0.788296
0 1 0.841596
0.0480201 1 0.84921
0.171023 1 0.852308
0.329534 1 0.843656
0.491981 1 0.83093
0.648814 1 0.816693
0.799786 1 0.799786
0.933272 1 0.784283
1 1 0.779477
0 0 1
0.0710307 0 1
0.185214 0 1
0.335958 0 0.998337
0.493187 0 0.980377
0.648585 0 0.964797
0.804639 0 0.953277
0.949874 0 0.949874
1 0 0.960006
0 0.0644541 1
0.0621805 0.0621958 1
0.178927 0.0587472 1
0.336233 0.0486305 0.998779
0.503502 0.0406043 0.990829
0.668498 0.0346532 0.984817
0.831403 0.0300603 0.980087
0.980377 0.0305486 0.980377
1 0.0433967 0.993133
0 0.176562 1
0.0640726 0.184268 1
0.189181 0.189181 1
0.352514 0.185061 1
0.52285 0.180072 1
0.690257 0.17641 1
0.855161 0.173724 1
1 0.175433 1
1 0.188876 1
0 0.327611 0.990021
0.0505074 0.338109 1
0.177737 0.345205 1
0.342809 0.342824 1
0.514168 0.338796 1
0.681758 0.335225 0.998352
0.846555 0.332311 0.995377
0.995926 0.333028 0.995926
1 0.345159 1
0 0.488029 0.975219
0.0362402 0.499107 0.986435
0.163653 0.506447 0.993927
0.328023 0.503395 0.991073
0.498314 0.498314 0.986145
0.664897 0.493706 0.981628
0.829313 0.490288 0.978195
0.978805 0.490974 0.97879
1 0.50312 0.990875
0 0.646998 0.963211
0.0230106 0.656855 0.973159
0.14966 0.663493 0.979934
0.31368 0.660197 0.976776
0.484031 0.655222 0.971939
0.650736 0.650736 0.967559
0.814969 0.647059 0.963928
0.963943 0.64712 0.963943
1 0.658366 0.975128
0 0.802747 0.95137
0.0114443 0.812787 0.961456
0.138018 0.819455 0.968185
0.301595 0.815839 0.964645
0.470878 0.809903 0.958785
0.63679 0.8047 0.953643
0.79968 0.79968 0.948684
0.947097 0.798077 0.947097
1 0.807202 0.956191
0 0.952667 0.952667
0.0121004 0.961929 0.961929
0.137514 0.967483 0.967483
0.29955 0.962448 0.962448
0.466941 0.954772 0.954772
0.630274 0.947097 0.947097
0.789441 0.93846 0.93846
0.931548 0.931548 0.931548
1 0.933852 0.933852
0 1 0.989578
0.047364 1 0.997055
0.169848 1 0.999725
0.327504 1 0.990311
0.489006 1 0.976776
0.64477 1 0.961547
0.794873 1 0.943847
0.927687 1 0.927703
1 1 0.922606
0 0 1
0.0710155 0 1
0.184909 0 1
0.335592 0 1
0.493217 0 1
0.649805 0 1
0.807019 0 1
0.953109 0 1
1 0 1
0 0.064271 1
0.0624704 0.0624857 1
0.180316 0.0601663 1
0.339284 0.0517586 1
0.506935 0.0441596 1
0.672206 0.0384833 1
0.835355 0.0341497 1
0.984573 0.0348821 1
1 0.0479286 1
0 0.179782 1
0.0677653 0.1879 1
0.193057 0.193072 1
0.35668 0.189258 1
0.527153 0.184466 1
0.694453 0.180743 1
0.859648 0.178347 1
1 0.180026 1
1 0.193317 1
0 0.331884 1
0.0549325 0.342473 1
0.18233 0.349752 1
0.347402 0.347417 1
0.518715 0.343374 1
0.686122 0.339696 1
0.850752 0.336614 1
1 0.33724 1
1 0.34931 1
0 0.492576 1
0.0407568 0.503548 1
0.168154 0.510842 1
0.332311 0.507652 1
0.502342 0.502358 1
0.669093 0.497948 1
0.833509 0.49456 1
0.982986 0.495232 1
1 0.507362 1
0 0.651179 1
0.0272679 0.661006 1
0.154009 0.667704 1
0.317983 0.664439 1
0.487984 0.659144 1
0.654902 0.654902 1
0.819043 0.651164 1
0.967697 0.650935 1
1 0.662196 1
0 0.80676 1
0.0157778 0.816983 1
0.142275 0.82356 1
0.30573 0.819852 1
0.474845 0.813794 1
0.640589 0.808454 1
0.803265 0.803265 1
0.950118 0.801144 1
1 0.810025 1
0 0.956359 1
0.0160678 0.965759 1
0.141268 0.971145 1
0.30312 0.965927 1
0.470207 0.957977 1
0.633051 0.949828 1
0.791409 0.940383 1
0.932448 0.932448 1
1 0.933852 1
0 1 1
0.0504616 1 1
0.172427 1 1
0.329183 1 1
0.489952 1 1
0.644388 1 1
0.793591 1 1
0.926055 1 1
1 1 1
