luts/GoPro ProTune to GoPro Color.cube
TITLE "Generated by Resolve"
LUT_3D_SIZE 33
0 0 0
0.0244755 0 0
0.0497139 0 0
0.0754406 0 0
0.10074 0 0
0.125444 0 0
0.151202 0 0
0.180713 0 0
0.214847 0 0
0.251331 0 0
0.288792 0 0
0.327214 0 0
0.366461 0 0
0.406119 0 0
0.445777 0 0
0.485298 0 0
0.524147 0 0
0.562524 0 0
0.600824 0 0
0.639246 0 0
0.677928 0 0
0.716213 0 0
0.75404 0 0
0.79144 0 0
0.828336 0 0
0.864729 0 0
0.900252 0 0
0.933883 0 0
0.965072 0 0
0.993286 0 0
1 0 0
1 0 0
1 0 0
0 0.0231632 0
0.0225681 0.0225681 0
0.0479896 0.0220645 0
0.0735485 0.0213016 0
0.0988479 0.0205997 0
0.123583 0.0200656 0
0.149355 0.0192569 0
0.179095 0.0176699 0
0.213321 0.0146639 0
0.249714 0.0110781 0
0.287221 0.00720226 0
0.325643 0.0030518 0
0.364858 0 0
0.404593 0 0
0.444129 0 0
0.483452 0 0
0.52224 0 0
0.560479 0 0
0.598688 0 0
0.637125 0 0
0.675593 0 0
0.713985 0 0
0.752056 0 0
0.789776 0 0
0.827024 0 0
0.863706 0 0
0.899596 0 0
0.934005 0 0
0.96614 0 0
0.995132 0 0
1 0 0
1 0 0
1 0 0
0 0.0469825 0
0.0205234 0.0464485 0
0.0457771 0.0457771 0
0.0713512 0.0450294 0
0.0967269 0.0444038 0
0.121538 0.043946 0
0.14757 0.0433814 0
0.177172 0.0416571 0
0.211368 0.0386206 0
0.2477 0.0349737 0
0.285115 0.0310063 0
0.323461 0.0267643 0
0.362799 0.0224765 0
0.402289 0.0178378 0
0.441672 0.0131685 0
0.480873 0.00851453 0
0.519539 0.00399786 0
0.557824 0 0
0.596292 0 0
0.634882 0 0
0.673655 0 0
0.712306 0 0
0.750713 0 0
0.789181 0 0
0.827237 0 0
0.864759 0 0
0.901335 0 0
0.936324 0 0
0.969253 0 0
0.999435 0 0
1 0 0
1 0 0
1 0 0
0 0.0708934 0
0.018143 0.0703899 0
0.043473 0.0697948 0
0.0691234 0.0691234 0
0.0945144 0.0684977 0
0.119463 0.0681926 0
0.145235 0.0673686 0
0.174746 0.0655375 0
0.208865 0.0624247 0
0.245136 0.0587167 0
0.282612 0.0547951 0
0.320851 0.0504463 0
0.359854 0.0458381 0
0.399283 0.0411231 0
0.438743 0.0364996 0
0.478111 0.0320439 0
0.517281 0.0280003 0
0.55584 0.0239414 0
0.59443 0.0199893 0
0.633402 0.0162356 0
0.672862 0.0127871 0
0.712444 0.00967422 0
0.751904 0.00701915 0
0.790829 0.00434882 0
0.82948 0.00213626 0
0.867842 0.000503548 0
0.90547 0 0
0.94136 0 0
0.97499 0 0
1 0.000595102 0
1 0.00294499 0
1 0.00608835 0
1 0.00958267 0
0 0.0948959 0
0.016144 0.0943923 0
0.041413 0.0937362 0
0.0670634 0.09308 0
0.0924544 0.0924544 0
0.117159 0.0918898 0
0.142855 0.0909895 0
0.172244 0.0890364 0
0.206226 0.0858015 0
0.242512 0.0820783 0
0.27985 0.0780194 0
0.318166 0.0737469 0
0.357427 0.0693828 0
0.397162 0.0649882 0
0.436881 0.0606241 0
0.476738 0.0566262 0
0.516243 0.0529183 0
0.555596 0.0496681 0
0.595132 0.0466316 0
0.634867 0.0436408 0
0.674891 0.0407721 0
0.715404 0.0385595 0
0.755566 0.0366064 0
0.795514 0.0349584 0
0.834958 0.0335088 0
0.873701 0.0323033 0
0.911864 0.0317693 0
0.948013 0.0315251 0
0.981704 0.0319982 0
1 0.0333562 0
1 0.035874 0
1 0.0392004 0
1 0.0432136 0
0 0.118502 0
0.0144045 0.117922 0
0.0396887 0.117296 0
0.0652628 0.116533 0
0.090425 0.115694 0
0.114992 0.114992 0
0.140581 0.114 0
0.169986 0.112047 0
0.204318 0.109148 0
0.240757 0.105592 0
0.278355 0.101778 0
0.31693 0.0977646 0
0.356527 0.0937362 0
0.397009 0.090074 0
0.43772 0.0866865 0
0.478279 0.0834211 0
0.518441 0.080354 0
0.558389 0.0776532 0
0.598657 0.0753796 0
0.639612 0.0736095 0
0.680674 0.0717632 0
0.721569 0.0699321 0
0.762081 0.0682994 0
0.802274 0.0668956 0
0.841947 0.0657206 0
0.88127 0.0650492 0
0.919326 0.0643931 0
0.955596 0.0643015 0
0.989471 0.0649729 0
1 0.0665751 0
1 0.0692607 0
1 0.0730144 0
1 0.0768597 0
0 0.142245 0
0.0115663 0.141665 0
0.0366369 0.14081 0
0.0620279 0.139895 0
0.0872663 0.139132 0
0.112032 0.138628 0
0.138018 0.138018 0
0.167819 0.136477 0
0.202243 0.133654 0
0.239078 0.13051 0
0.277409 0.127413 0
0.31693 0.124331 0
0.357488 0.121263 0
0.39855 0.118181 0
0.43978 0.115312 0
0.481209 0.112886 0
0.522408 0.110872 0
0.563226 0.109041 0
0.604227 0.107469 0
0.645319 0.105821 0
0.68658 0.104173 0
0.727733 0.102617 0
0.76846 0.101213 0
0.80882 0.0999466 0
0.848951 0.0992294 0
0.888212 0.0984817 0
0.926467 0.0980697 0
0.962951 0.098146 0
0.996963 0.0989242 0
1 0.100938 0
1 0.103838 0
1 0.107469 0
1 0.111452 0
0 0.167117 0
0.00508125 0.166506 0
0.030396 0.165911 0
0.0561074 0.165316 0
0.0816052 0.164797 0
0.106722 0.16466 0
0.133303 0.164645 0
0.163821 0.163806 0
0.199161 0.161929 0
0.236744 0.159518 0
0.275654 0.156985 0
0.316091 0.154849 0
0.357488 0.15259 0
0.399451 0.150408 0
0.441428 0.148287 0
0.483268 0.146258 0
0.524834 0.14461 0
0.566064 0.143191 0
0.607126 0.14168 0
0.648356 0.140154 0
0.689769 0.138643 0
0.731106 0.13727 0
0.772259 0.136278 0
0.812924 0.135348 0
0.852979 0.134478 0
0.892317 0.133852 0
0.930724 0.133577 0
0.967407 0.133837 0
1 0.135027 0
1 0.13695 0
1 0.139895 0
1 0.143633 0
1 0.147738 0
0 0.194308 0
0 0.193957 0
0.0209812 0.193729 0
0.0473182 0.193744 0
0.07393 0.194369 0
0.0998856 0.195056 0
0.126955 0.195544 0
0.158053 0.1953 0
0.194171 0.194171 0
0.232822 0.192828 0
0.272892 0.191485 0
0.313695 0.189685 0
0.355413 0.187747 0
0.397635 0.185794 0
0.439872 0.183932 0
0.482063 0.182269 0
0.523873 0.180835 0
0.565103 0.1794 0
0.606348 0.178088 0
0.647837 0.176791 0
0.689418 0.175479 0
0.73106 0.174411 0
0.772305 0.17348 0
0.813031 0.172595 0
0.853239 0.171923 0
0.89279 0.171435 0
0.931289 0.171252 0
0.968338 0.171923 0
1 0.172992 0
1 0.17496 0
1 0.178012 0
1 0.181811 0
1 0.186191 0
0 0.22385 0
0 0.22443 0
0.0122835 0.22501 0
0.0394446 0.225864 0
0.0664683 0.226886 0
0.0932937 0.228458 0
0.121401 0.229984 0
0.153323 0.230564 0
0.18996 0.229953 0
0.229084 0.229084 0
0.269184 0.227756 0
0.310262 0.22623 0
0.352178 0.224491 0
0.394553 0.222705 0
0.437263 0.221302 0
0.479561 0.21973 0
0.521416 0.218341 0
0.562844 0.21709 0
0.604212 0.2159 0
0.645899 0.214817 0
0.687907 0.213901 0
0.72958 0.212833 0
0.770794 0.211902 0
0.811627 0.211109 0
0.851942 0.210529 0
0.891722 0.210315 0
0.930571 0.210407 0
0.967391 0.210834 0
1 0.211948 0
1 0.213993 0
1 0.21709 0
1 0.221149 0
1 0.225452 0
0 0.256336 0
0 0.257847 0
0.00531014 0.259434 0
0.0332341 0.261051 0
0.0609445 0.262776 0
0.0881514 0.264729 0
0.116487 0.266499 0
0.148974 0.267628 0
0.185824 0.267247 0
0.224872 0.2663 0
0.265126 0.265126 0
0.306386 0.263783 0
0.348547 0.262287 0
0.391424 0.261006 0
0.433982 0.259449 0
0.476432 0.258 0
0.518425 0.256764 0
0.560037 0.25568 0
0.601633 0.254719 0
0.64361 0.25391 0
0.685481 0.252857 0
0.72726 0.251896 0
0.768643 0.251087 0
0.809583 0.250401 0
0.850095 0.249989 0
0.889998 0.249882 0
0.92871 0.249866 0
0.965606 0.25037 0
0.999985 0.251545 0
1 0.253574 0
1 0.257023 0
1 0.260868 0
1 0.265049 0
0 0.292348 0
0 0.294286 0
0 0.296132 0
0.0275883 0.297993 0
0.0555734 0.299992 0
0.0830091 0.302174 0
0.111788 0.304372 0
0.144137 0.305394 0
0.181201 0.305226 0
0.220478 0.304524 0
0.260914 0.303517 0
0.302312 0.302296 0
0.344884 0.301228 0
0.387655 0.299825 0
0.430411 0.298451 0
0.472969 0.297154 0
0.515084 0.29601 0
0.557092 0.295323 0
0.598764 0.294423 0
0.640635 0.293477 0
0.682582 0.292515 0
0.724422 0.291615 0
0.765881 0.290883 0
0.807172 0.290547 0
0.847623 0.290089 0
0.887388 0.289815 0
0.926116 0.289815 0
0.963027 0.290303 0
0.997513 0.291554 0
1 0.293828 0
1 0.296941 0
1 0.300755 0
1 0.304891 0
0 0.329747 0
0 0.331884 0
0 0.333944 0
0.0219272 0.335943 0
0.0502632 0.338308 0
0.0780194 0.34081 0
0.106737 0.342977 0
0.139239 0.344137 0
0.176425 0.344091 0
0.215824 0.343526 0
0.256703 0.342962 0
0.298314 0.34197 0
0.340734 0.340719 0
0.383566 0.339406 0
0.426429 0.338125 0
0.469123 0.33695 0
0.511666 0.336233 0
0.553445 0.335332 0
0.595178 0.334462 0
0.637079 0.333593 0
0.679133 0.332677 0
0.72105 0.331838 0
0.762814 0.331411 0
0.80383 0.3308 0
0.844266 0.330343 0
0.884031 0.330053 0
0.922759 0.330053 0
0.959731 0.330587 0
0.994354 0.331975 0
1 0.333959 0
1 0.33698 0
1 0.340749 0
1 0.344823 0
0 0.367895 0
0 0.37023 0
0 0.372519 0
0.0167544 0.374914 0
0.0451667 0.37734 0
0.0729381 0.379873 0
0.101823 0.382177 0
0.134493 0.383536 0
0.171817 0.383642 0
0.211566 0.383413 0
0.252338 0.382773 0
0.294026 0.381842 0
0.336553 0.380728 0
0.379507 0.379507 0
0.422431 0.378286 0
0.465492 0.377478 0
0.50779 0.376501 0
0.549615 0.375662 0
0.591409 0.374838 0
0.633341 0.373983 0
0.675685 0.373373 0
0.717617 0.372549 0
0.759091 0.371801 0
0.800092 0.371191 0
0.840528 0.370703 0
0.880262 0.370367 0
0.919219 0.370611 0
0.956069 0.371023 0
0.990387 0.372091 0
1 0.374014 0
1 0.376944 0
1 0.380606 0
1 0.384833 0
0 0.406729 0
0 0.409186 0
0 0.411902 0
0.0120546 0.414298 0
0.040528 0.4168 0
0.0684215 0.419455 0
0.0973983 0.421866 0
0.130312 0.423453 0
0.167926 0.42385 0
0.207553 0.423529 0
0.248341 0.422889 0
0.290074 0.422019 0
0.332647 0.420951 0
0.37586 0.419989 0
0.418952 0.418952 0
0.461753 0.417868 0
0.504051 0.416907 0
0.545892 0.416068 0
0.587671 0.415244 0
0.629862 0.414633 0
0.671977 0.413779 0
0.713848 0.412894 0
0.755276 0.4121 0
0.796231 0.411399 0
0.836606 0.410849 0
0.87657 0.410788 0
0.915206 0.410636 0
0.951904 0.410925 0
0.986099 0.411872 0
1 0.413672 0
1 0.416541 0
1 0.420432 0
1 0.424323 0
0 0.446052 0
0 0.44892 0
0 0.451453 0
0.0078584 0.453941 0
0.0364385 0.456535 0
0.0644694 0.459327 0
0.0936446 0.461967 0
0.12668 0.463676 0
0.164172 0.463966 0
0.203861 0.463691 0
0.244709 0.463127 0
0.286488 0.462303 0
0.329274 0.461448 0
0.372427 0.460426 0
0.415396 0.459281 0
0.458183 0.458183 0
0.500496 0.457221 0
0.542321 0.456367 0
0.584375 0.455817 0
0.626261 0.454887 0
0.668238 0.45391 0
0.710048 0.452964 0
0.751415 0.45211 0
0.792508 0.45156 0
0.832853 0.450965 0
0.872389 0.450446 0
0.910918 0.450202 0
0.947585 0.450446 0
0.981735 0.451331 0
1 0.453361 0
1 0.456184 0
1 0.459739 0
1 0.46363 0
0 0.485786 0
0 0.488518 0
0 0.491188 0
0.00450141 0.493767 0
0.0331273 0.496437 0
0.0614939 0.499596 0
0.0906386 0.502174 0
0.123522 0.503761 0
0.161059 0.504097 0
0.200748 0.503838 0
0.241688 0.503365 0
0.283696 0.50277 0
0.326284 0.501732 0
0.369299 0.500572 0
0.412253 0.499397 0
0.454994 0.498253 0
0.497368 0.497368 0
0.5393 0.496605 0
0.580987 0.495689 0
0.622797 0.494697 0
0.664698 0.493614 0
0.706386 0.492546 0
0.747814 0.491768 0
0.788724 0.491005 0
0.828946 0.490288 0
0.868437 0.489723 0
0.906889 0.489418 0
0.943542 0.489586 0
0.977905 0.490715 0
1 0.492531 0
1 0.495369 0
1 0.498955 0
1 0.502892 0
0 0.525475 0
0 0.528267 0
0 0.530983 0
0.00173953 0.533639 0
0.0307317 0.536675 0
0.0588235 0.539559 0
0.0879683 0.542153 0
0.120851 0.54374 0
0.158373 0.544076 0
0.198138 0.543877 0
0.239216 0.543542 0
0.280949 0.542702 0
0.323491 0.541604 0
0.366415 0.540383 0
0.409323 0.539147 0
0.452125 0.538079 0
0.494469 0.537148 0
0.53611 0.53611 0
0.577676 0.535058 0
0.619379 0.533959 0
0.661219 0.532815 0
0.703166 0.531991 0
0.744335 0.530968 0
0.785077 0.530037 0
0.825254 0.529259 0
0.864744 0.528695 0
0.903395 0.528588 0
0.94023 0.528939 0
0.974395 0.529854 0
1 0.53164 0
1 0.534508 0
1 0.538109 0
1 0.542275 0
0 0.565332 0
0 0.568185 0
0 0.570932 0
0 0.573892 0
0.0281224 0.576623 0
0.0562295 0.579507 0
0.0853437 0.582101 0
0.118227 0.583658 0
0.156008 0.584268 0
0.195636 0.583947 0
0.236378 0.583307 0
0.278065 0.582406 0
0.320531 0.581247 0
0.363409 0.579965 0
0.406439 0.578882 0
0.448997 0.577554 0
0.491066 0.576364 0
0.532647 0.575265 0
0.574166 0.574166 0
0.6159 0.573098 0
0.657877 0.572106 0
0.699504 0.570947 0
0.740688 0.569924 0
0.781476 0.569039 0
0.821698 0.568307 0
0.861372 0.567926 0
0.900038 0.567819 0
0.936767 0.568063 0
0.970947 0.568994 0
1 0.570794 0
1 0.573663 0
1 0.577462 0
1 0.581506 0
0 0.605325 0
0 0.608454 0
0 0.611231 0
0 0.613886 0
0.0253452 0.616587 0
0.0534066 0.61941 0
0.0824445 0.621942 0
0.115557 0.623758 0
0.152972 0.624002 0
0.192523 0.623606 0
0.233173 0.622858 0
0.274708 0.621836 0
0.317067 0.620569 0
0.360128 0.619471 0
0.402838 0.618067 0
0.445335 0.616693 0
0.487343 0.615442 0
0.528878 0.614298 0
0.570459 0.613245 0
0.612345 0.612345 0
0.654154 0.61117 0
0.695827 0.610071 0
0.737057 0.609079 0
0.777844 0.608209 0
0.818402 0.607797 0
0.857939 0.607279 0
0.896468 0.607034 0
0.933196 0.607279 0
0.967391 0.608209 0
0.998459 0.610101 0
1 0.613153 0
1 0.616739 0
1 0.620661 0
0 0.645609 0
0 0.648493 0
0 0.651164 0
0 0.653742 0
0.0222629 0.656397 0
0.050248 0.659175 0
0.0795148 0.661921 0
0.112184 0.66331 0
0.149477 0.663417 0
0.188922 0.662928 0
0.229496 0.66212 0
0.271275 0.661341 0
0.313573 0.660029 0
0.356268 0.658579 0
0.398947 0.65713 0
0.441428 0.655756 0
0.483452 0.654521 0
0.525338 0.653742 0
0.566888 0.652674 0
0.608576 0.65156 0
0.650401 0.650401 0
0.692073 0.649317 0
0.733349 0.648371 0
0.774441 0.647776 0
0.814694 0.647074 0
0.854261 0.64654 0
0.892744 0.646281 0
0.929473 0.64651 0
0.963729 0.647501 0
0.994888 0.649485 0
1 0.652308 0
1 0.655848 0
1 0.659724 0
0 0.68545 0
0 0.688212 0
0 0.690837 0
0 0.693324 0
0.0192111 0.696056 0
0.0471504 0.698802 0
0.076051 0.701152 0
0.108659 0.702495 0
0.145892 0.702556 0
0.18526 0.702007 0
0.226047 0.701411 0
0.267536 0.700343 0
0.309834 0.699031 0
0.35256 0.697627 0
0.395285 0.696223 0
0.437797 0.694896 0
0.480156 0.693996 0
0.521752 0.692912 0
0.563287 0.691859 0
0.605005 0.690761 0
0.646845 0.689616 0
0.688533 0.688518 0
0.730068 0.687831 0
0.770855 0.686961 0
0.811093 0.686244 0
0.850614 0.685695 0
0.889113 0.685405 0
0.926085 0.685908 0
0.960235 0.686763 0
0.991104 0.688487 0
1 0.691264 0
1 0.694774 0
1 0.698634 0
0 0.724819 0
0 0.727443 0
0 0.729961 0
0 0.732555 0
0.0161746 0.735149 0
0.0439765 0.737743 0
0.0727855 0.740047 0
0.105333 0.741344 0
0.142565 0.741375 0
0.182254 0.741161 0
0.222812 0.740353 0
0.264286 0.7393 0
0.306615 0.738018 0
0.349371 0.736629 0
0.392309 0.735485 0
0.434928 0.734218 0
0.476982 0.733043 0
0.518578 0.73196 0
0.560128 0.730907 0
0.601816 0.729793 0
0.643931 0.728923 0
0.685588 0.72784 0
0.726833 0.726833 0
0.767605 0.725933 0
0.807797 0.725155 0
0.847272 0.724575 0
0.88603 0.724544 0
0.922652 0.724697 0
0.956771 0.725505 0
0.987579 0.727153 0
1 0.729854 0
1 0.733318 0
1 0.737331 0
0 0.763684 0
0 0.766369 0
0 0.769024 0
0 0.771389 0
0.0132601 0.773816 0
0.0410315 0.776425 0
0.0698863 0.778744 0
0.102663 0.78024 0
0.140063 0.780484 0
0.179461 0.77998 0
0.22002 0.779202 0
0.261524 0.778149 0
0.303868 0.776883 0
0.346807 0.775723 0
0.389639 0.774441 0
0.432151 0.773114 0
0.474205 0.771908 0
0.51577 0.770825 0
0.557305 0.769741 0
0.599222 0.768887 0
0.641062 0.767742 0
0.682689 0.766583 0
0.723857 0.76553 0
0.764584 0.764584 0
0.80473 0.763775 0
0.844465 0.763424 0
0.882841 0.763027 0
0.919387 0.763104 0
0.953429 0.763851 0
0.984207 0.765438 0
1 0.768353 0
1 0.771679 0
1 0.775326 0
0 0.802243 0
0 0.805035 0
0 0.807492 0
0 0.809903 0
0.0109407 0.812375 0
0.0387884 0.815015 0
0.0677653 0.817487 0
0.100557 0.819028 0
0.137819 0.819135 0
0.177234 0.818662 0
0.217792 0.817884 0
0.259297 0.816831 0
0.301915 0.815869 0
0.34464 0.814466 0
0.38735 0.813077 0
0.429847 0.811749 0
0.47187 0.810513 0
0.513573 0.809567 0
0.555184 0.808576 0
0.596796 0.807401 0
0.638544 0.806165 0
0.680125 0.804974 0
0.721233 0.803861 0
0.762112 0.803067 0
0.802258 0.802243 0
0.841642 0.801541 0
0.879942 0.801083 0
0.916396 0.801068 0
0.950347 0.801694 0
0.981277 0.803464 0
1 0.806043 0
1 0.809277 0
1 0.812802 0
0 0.840742 0
0 0.843351 0
0 0.845853 0
0 0.84828 0
0.00939956 0.850797 0
0.0375067 0.853712 0
0.0663615 0.856092 0
0.0989853 0.85745 0
0.136217 0.857557 0
0.175631 0.857069 0
0.216266 0.856367 0
0.257939 0.855528 0
0.300252 0.854215 0
0.342947 0.852811 0
0.385595 0.851392 0
0.428046 0.849989 0
0.470161 0.848875 0
0.511803 0.847868 0
0.553231 0.846693 0
0.594781 0.845441 0
0.636439 0.844144 0
0.677943 0.842878 0
0.719203 0.841901 0
0.759869 0.840909 0
0.799847 0.839933 0
0.839109 0.839109 0
0.877348 0.83856 0
0.913741 0.838468 0
0.94786 0.839292 0
0.978393 0.840665 0
1 0.843076 0
1 0.84622 0
1 0.849653 0
0 0.878752 0
0 0.881361 0
0 0.883894 0
0 0.886336 0
0.00903334 0.889113 0
0.0368353 0.891768 0
0.0657054 0.894118 0
0.0982986 0.89546 0
0.135531 0.895552 0
0.17496 0.895125 0
0.215702 0.89453 0
0.257115 0.893431 0
0.299351 0.892088 0
0.342016 0.890623 0
0.384619 0.889174 0
0.427314 0.888014 0
0.469184 0.886687 0
0.510613 0.885435 0
0.55198 0.884199 0
0.593469 0.882902 0
0.635157 0.881636 0
0.676722 0.88043 0
0.717662 0.879164 0
0.758175 0.877989 0
0.798077 0.876936 0
0.837232 0.876005 0
0.875486 0.875486 0
0.911879 0.875395 0
0.945602 0.875837 0
0.976059 0.877104 0
1 0.879377 0
1 0.882338 0
1 0.885817 0
0 0.916136 0
0 0.918761 0
0 0.921569 0
0 0.92398 0
0.0099794 0.926467 0
0.0377966 0.929091 0
0.0666209 0.931426 0
0.0991836 0.932738 0
0.136645 0.933089 0
