luts/GoPro ProTune to GoPro Color.cube
TITLE "Generated by Resolve"
LUT_3D_SIZE 5
0 0 0
0.214847 0 0
0.524147 0 0
0.828336 0 0
1 0 0
0 0.194308 0
0.194171 0.194171 0
0.523873 0.180835 0
0.853239 0.171923 0
1 0.186191 0
0 0.485786 0
0.161059 0.504097 0
0.497368 0.497368 0
0.828946 0.490288 0
1 0.502892 0
0 0.802243 0
0.137819 0.819135 0
0.47187 0.810513 0
0.802258 0.802243 0
1 0.812802 0
0 1 0
0.177447 1 0
0.505272 1 0
0.823728 1 0
1 1 0
0 0 0.220752
0.212009 0 0.212009
0.521309 0 0.178271
0.82591 0 0.144594
1 0 0.140398
0 0.192599 0.192599
0.197726 0.197726 0.197726
0.528725 0.18555 0.18555
0.859388 0.177798 0.177798
1 0.192355 0.192355
0 0.491722 0.148684
0.167391 0.510582 0.167391
0.503426 0.503426 0.160235
0.834775 0.495903 0.152972
1 0.508644 0.165957
0 0.807935 0.126604
0.14342 0.825025 0.143435
0.477348 0.81622 0.134432
0.807355 0.807355 0.125765
1 0.817349 0.136049
0 1 0.16846
0.181186 1 0.181186
0.507637 1 0.164935
0.822721 1 0.141436
1 1 0.127535
0 0 0.551965
0.200626 0 0.543664
0.509178 0 0.509178
0.815579 0 0.476921
1 0 0.477745
0 0.183993 0.527016
0.193256 0.193256 0.536446
0.525429 0.182239 0.525429
0.857176 0.175357 0.518303
1 0.190143 0.532845
0 0.489418 0.489418
0.165179 0.50837 0.50837
0.500694 0.500694 0.500694
0.831754 0.492638 0.492638
1 0.505776 0.505776
0 0.805112 0.466468
0.140154 0.821942 0.483085
0.474098 0.81323 0.474098
0.803632 0.803632 0.464515
1 0.81294 0.473991
0 1 0.506996
0.17615 1 0.518837
0.50013 1 0.50013
0.811872 1 0.472923
1 1 0.455207
0 0 0.878569
0.189395 0 0.87071
0.497337 0 0.835996
0.807172 0 0.807157
1 0 0.811917
0 0.177447 0.858778
0.189441 0.189441 0.871031
0.522667 0.179736 0.86154
0.854719 0.173114 0.854719
1 0.188296 0.869612
0 0.48748 0.826139
0.163088 0.50602 0.844877
0.498146 0.498146 0.837263
0.82916 0.490043 0.82916
1 0.503197 0.842161
0 0.802548 0.802548
0.137728 0.819318 0.819318
0.471107 0.810224 0.810224
0.800076 0.800076 0.800076
1 0.808209 0.808209
0 1 0.841596
0.171023 1 0.852308
0.491981 1 0.83093
0.799786 1 0.799786
1 1 0.779477
0 0 1
0.184909 0 1
0.493217 0 1
0.807019 0 1
1 0 1
0 0.179782 1
0.193057 0.193072 1
0.527153 0.184466 1
0.859648 0.178347 1
1 0.193317 1
0 0.492576 1
0.168154 0.510842 1
0.502342 0.502358 1
0.833509 0.49456 1
1 0.507362 1
0 0.80676 1
0.142275 0.82356 1
0.474845 0.813794 1
0.803265 0.803265 1
1 0.810025 1
0 1 1
0.172427 1 1
0.489952 1 1
0.793591 1 1
1 1 1
