luts/Green light.cube
TITLE "Generated by Resolve"
LUT_3D_SIZE 33
0 0 0
0.00169375 0.0009308 0.0009308
0.00350958 0.0019379 0.0019379
0.00544747 0.00297551 0.00297551
0.00755322 0.00387579 0.00387579
0.0100557 0.00460822 0.00460822
0.0128634 0.00518807 0.00518807
0.0158083 0.0056611 0.0056611
0.0189059 0.00607309 0.00607309
0.0224613 0.00662242 0.00662242
0.0266728 0.00740063 0.00740063
0.0317845 0.0084535 0.0084535
0.037644 0.00965896 0.00965896
0.0440375 0.0108492 0.0108492
0.051545 0.0122683 0.0122683
0.0612345 0.0142824 0.0142824
0.0731365 0.0167239 0.0167239
0.0869001 0.0193484 0.0193484
0.101747 0.0217899 0.0217899
0.117662 0.0239872 0.0239872
0.135073 0.0261692 0.0261692
0.153262 0.0280003 0.0280003
0.172457 0.0296178 0.0296178
0.192584 0.0309911 0.0309911
0.213519 0.0321508 0.0321508
0.235279 0.0332036 0.0332036
0.257679 0.0341344 0.0341344
0.280171 0.0348974 0.0348974
0.303029 0.0355688 0.0355688
0.32607 0.0361944 0.0361944
0.348516 0.0370031 0.0370031
0.370886 0.0380102 0.0380102
0.393164 0.0389868 0.0389868
0.00143435 0.00488289 0.00143435
0.00317388 0.00587472 0.00227359
0.00491341 0.0068513 0.00309758
0.00663767 0.00770581 0.00378424
0.00857557 0.0084535 0.0043946
0.0110475 0.00909438 0.00489815
0.0141756 0.00984207 0.00547799
0.0180972 0.0109865 0.00637827
0.0227054 0.0123751 0.00746166
0.0278935 0.0138552 0.00860609
0.0336309 0.0153658 0.00976577
0.0406043 0.0172732 0.0112306
0.0495155 0.019852 0.0132143
0.0607156 0.0231022 0.0157015
0.0730449 0.0262608 0.0180514
0.0863508 0.0292058 0.0201572
0.100664 0.0319677 0.0220645
0.116182 0.0345312 0.0237125
0.132891 0.0369268 0.0251621
0.150942 0.0391546 0.0263981
0.16965 0.041001 0.0272526
0.189334 0.0425879 0.0278477
0.209964 0.043946 0.0281682
0.23151 0.0450599 0.0282444
0.253986 0.0460059 0.0281224
0.27715 0.0468757 0.0278782
0.300359 0.0475624 0.0274662
0.323919 0.048188 0.026978
0.347753 0.0487373 0.0263981
0.371603 0.0493019 0.0258183
0.394888 0.0501564 0.0255131
0.417441 0.0512245 0.025391
0.439612 0.0523079 0.0252995
0.00196841 0.00978103 0.00196841
0.00357061 0.0106355 0.00254826
0.0052491 0.0115816 0.00318914
0.00729381 0.0128328 0.00404364
0.0100099 0.0144503 0.00514229
0.0136873 0.0162356 0.00631724
0.018143 0.0180667 0.00746166
0.0232395 0.0199893 0.00865187
0.0296025 0.0225528 0.0102235
0.0376287 0.025864 0.012253
0.0471962 0.0296178 0.0144808
0.0578622 0.0333257 0.0165713
0.0697795 0.0370184 0.0185092
0.082475 0.0403449 0.0201114
0.0962539 0.0434882 0.0214542
0.111162 0.0464332 0.0225223
0.127108 0.0491035 0.02327
0.144106 0.0515297 0.0237278
0.162524 0.0538033 0.0239414
0.181582 0.0556649 0.0237736
0.201678 0.0572671 0.0233005
0.222751 0.0586099 0.0225376
0.244755 0.0597086 0.0215
0.268193 0.0607156 0.0202335
0.291829 0.0614176 0.0187381
0.315831 0.0620279 0.0171054
0.340093 0.0625772 0.0154116
0.364584 0.0630961 0.0136416
0.38941 0.0635996 0.0118257
0.414466 0.0642252 0.0100557
0.437781 0.0651102 0.00860609
0.460075 0.0662852 0.00743114
0.48217 0.0675364 0.00633249
0.00294499 0.0151217 0.00294499
0.00531014 0.0170443 0.00410468
0.00791943 0.0192264 0.00543221
0.0107576 0.0214694 0.00675975
0.0143587 0.024094 0.00828565
0.0197147 0.0275731 0.0102235
0.0266728 0.0316167 0.0123751
0.0348516 0.0359655 0.0145876
0.0439002 0.040177 0.0165713
0.0538796 0.0442054 0.0182956
0.0650492 0.0482643 0.0198978
0.0771649 0.052018 0.021149
0.0903182 0.0554971 0.0220645
0.104524 0.0587167 0.0226596
0.119768 0.0616464 0.0229191
0.13608 0.0643168 0.022858
0.153872 0.0668803 0.0225223
0.172366 0.0689708 0.0217899
0.191913 0.0708019 0.020737
0.212512 0.0723583 0.0193637
0.23418 0.0736553 0.0177005
0.25684 0.0747082 0.0157321
0.280903 0.0756542 0.0135195
0.305303 0.0762341 0.0110323
0.330343 0.0766766 0.00836194
0.355673 0.0770733 0.00563058
0.381155 0.0774548 0.00283818
0.40679 0.0778515 3.0518e-05
0.432853 0.0783246 0
0.458091 0.0788128 0
0.481819 0.0797589 0
0.504295 0.0810559 0
0.526406 0.0824598 0
0.0061799 0.0242313 0.0061799
0.00936904 0.0273747 0.00784314
0.0132906 0.0315404 0.0100557
0.0181277 0.0366064 0.0126955
0.0238346 0.0418555 0.0152895
0.0308232 0.0466773 0.0174258
0.0391089 0.0512551 0.0192416
0.0484321 0.0556802 0.020737
0.058732 0.0599527 0.0219883
0.0702068 0.0641337 0.0229953
0.0826276 0.0679637 0.023621
0.0960403 0.0714427 0.0238804
0.110582 0.0746471 0.0238041
0.126253 0.0775616 0.0233616
0.142992 0.0801862 0.0225834
0.161196 0.0826886 0.0214847
0.180255 0.0847486 0.0200198
0.200397 0.0865034 0.0182193
0.221637 0.0879988 0.016083
0.2439 0.0892195 0.0136416
0.267231 0.0901503 0.0108949
0.292027 0.0910048 0.00787366
0.317235 0.0915084 0.00460822
0.343252 0.0917983 0.00111391
0.369787 0.0919661 0
0.396414 0.0921187 0
0.423682 0.0924086 0
0.450309 0.0926375 0
0.476768 0.0929274 0
0.502678 0.09337 0
0.526711 0.0943313 0
0.549325 0.0957504 0
0.572061 0.0974289 0
0.0123293 0.0408789 0.0123293
0.0169223 0.0463722 0.0147707
0.0217441 0.0519722 0.0171664
0.0270085 0.0575875 0.0194858
0.0330968 0.062974 0.0214847
0.0409094 0.0679789 0.0229953
0.050248 0.0725872 0.0240177
0.0606699 0.0769207 0.0246891
0.0723278 0.0812085 0.0251011
0.0848859 0.085008 0.0250706
0.0985428 0.0885023 0.0247044
0.113344 0.0917067 0.0239567
0.129335 0.0946059 0.022858
0.146715 0.097322 0.0214084
0.165194 0.0997024 0.0195926
0.184726 0.101701 0.0174258
0.205417 0.103395 0.0148928
0.227222 0.104814 0.0120546
0.250156 0.105959 0.00889601
0.274495 0.106981 0.00543221
0.299611 0.107622 0.00167849
0.325567 0.107988 0
0.352331 0.108171 0
0.379873 0.108186 0
0.407874 0.108095 0
0.436332 0.108186 0
0.464073 0.108186 0
0.491569 0.108293 0
0.518807 0.108507 0
0.545129 0.108995 0
0.569345 0.110063 0
0.592355 0.111757 0
0.61416 0.113542 0
0.0185702 0.0627451 0.0185702
0.0234989 0.0687419 0.0205844
0.0285039 0.0745556 0.0224308
0.0339361 0.0802625 0.0240635
0.0403754 0.0857252 0.0253758
0.0489052 0.0906386 0.0260471
0.0592966 0.0951553 0.0261997
0.0709544 0.0994278 0.0259709
0.0836347 0.103258 0.02533
0.0974594 0.106783 0.0243381
0.112505 0.110018 0.0229648
0.128771 0.112947 0.0212253
0.146456 0.115648 0.0191196
0.165362 0.117998 0.0166323
0.185336 0.119966 0.0137789
0.206546 0.121645 0.0105898
0.228931 0.123018 0.00706493
0.25243 0.124102 0.00323491
0.277302 0.125032 0
0.303059 0.125628 0
0.329732 0.125933 0
0.357305 0.126024 0
0.38558 0.125917 0
0.414496 0.125658 0
0.444297 0.125505 0
0.473381 0.125292 0
0.501915 0.125231 0
0.530114 0.125277 0
0.557809 0.125475 0
0.585138 0.126085 0
0.609506 0.127321 0
0.631754 0.129107 0
0.653193 0.131106 0
0.0226291 0.0866102 0.0226291
0.0276188 0.0925002 0.0238956
0.0327611 0.0983749 0.0250401
0.0383764 0.104128 0.0259861
0.045182 0.10959 0.0265507
0.0545205 0.114443 0.0263828
0.0660105 0.118868 0.0256199
0.0787671 0.122759 0.0243839
0.0927443 0.12636 0.022797
0.107942 0.129625 0.0208286
0.124422 0.13257 0.0184634
0.142428 0.135424 0.0157626
0.161563 0.137697 0.0126345
0.181994 0.139666 0.00915541
0.203616 0.141299 0.00534066
0.226459 0.142626 0.00120546
0.250675 0.143755 0
0.276081 0.144625 0
0.302342 0.145113 0
0.329564 0.145357 0
0.357778 0.145357 0
0.386816 0.145174 0
0.416831 0.144945 0
0.447105 0.144579 0
0.47747 0.144091 0
0.507408 0.14374 0
0.536858 0.143587 0
0.565698 0.143633 0
0.594308 0.143984 0
0.621408 0.144579 0
0.645579 0.145937 0
0.667521 0.147967 0
0.688609 0.150256 0
0.0239261 0.111482 0.0239261
0.029099 0.117418 0.0244755
0.0343938 0.123339 0.0249332
0.0402228 0.129152 0.0251774
0.0475471 0.134859 0.0250248
0.0577096 0.139528 0.0239872
0.0702678 0.143557 0.0222629
0.0842908 0.147219 0.0201114
0.0996262 0.150561 0.0175631
0.116304 0.153613 0.0146487
0.134463 0.156466 0.011368
0.153796 0.15877 0.00770581
0.174533 0.160739 0.00366217
0.196612 0.162371 0
0.219898 0.163699 0
0.244541 0.164797 0
0.270436 0.165637 0
0.297246 0.166064 0
0.325109 0.166278 0
0.353811 0.166262 0
0.383429 0.166003 0
0.414008 0.165682 0
0.445121 0.165225 0
0.476509 0.164599 0
0.507927 0.164004 0
0.538689 0.163561 0
0.568719 0.163363 0
0.59852 0.163577 0
0.627024 0.163882 0
0.6542 0.164584 0
0.678172 0.16614 0
0.699657 0.168399 0
0.720607 0.171084 0
0.0224918 0.137545 0.0224918
0.0278935 0.143542 0.0223392
0.033402 0.149508 0.0221103
0.0395666 0.155612 0.0216983
0.0472877 0.161028 0.0207828
0.058381 0.165576 0.0189212
0.0721752 0.169406 0.0163119
0.0875715 0.172824 0.0132601
0.104326 0.175921 0.00984207
0.122606 0.178851 0.00604257
0.142168 0.181231 0.00187686
0.163119 0.183246 0
0.185489 0.184894 0
0.209186 0.186191 0
0.234394 0.187427 0
0.260594 0.188128 0
0.287861 0.188556 0
0.316182 0.188693 0
0.345464 0.188617 0
0.375723 0.188388 0
0.407034 0.188067 0
0.438666 0.187457 0
0.470695 0.18674 0
0.503059 0.185946 0
0.535348 0.185245 0
0.567086 0.184878 0
0.59794 0.184787 0
0.627527 0.184863 0
0.656168 0.18526 0
0.683375 0.186099 0
0.70721 0.1879 0
0.728603 0.190555 0
0.748775 0.193484 0
0.0183719 0.164843 0.0183719
0.024094 0.171099 0.0175631
0.0299077 0.177172 0.0166781
0.0363622 0.183032 0.0155947
0.0446326 0.188418 0.0140078
0.056733 0.192782 0.0113985
0.0718395 0.196384 0.00796521
0.0887617 0.199832 0.00410468
0.107027 0.202625 0
0.126711 0.205035 0
0.147845 0.20708 0
0.170397 0.208789 0
0.19443 0.210147 0
0.220005 0.211368 0
0.24654 0.212039 0
0.27425 0.212436 0
0.30309 0.212589 0
0.332921 0.212497 0
0.363684 0.212207 0
0.395422 0.211856 0
0.427649 0.21117 0
0.460426 0.210407 0
0.493538 0.209567 0
0.526818 0.208682 0
0.559976 0.207965 0
0.592325 0.207614 0
0.623377 0.207462 0
0.6533 0.20766 0
0.682063 0.208164 0
0.709163 0.209155 0
0.733135 0.211383 0
0.753826 0.214237 0
0.773373 0.217441 0
0.0116884 0.193591 0.0116884
0.017792 0.19968 0.0102541
0.0239414 0.205722 0.0087892
0.0308385 0.211597 0.00714122
0.039765 0.216953 0.00497444
0.0529488 0.221164 0.00167849
0.0695201 0.22475 0
0.0878309 0.227649 0
0.107637 0.230167 0
0.128954 0.232273 0
0.151675 0.234012 0
0.17583 0.235386 0
0.201663 0.236667 0
0.228626 0.237369 0
0.256748 0.237781 0
0.285969 0.237888 0
0.316228 0.237751 0
0.347753 0.237629 0
0.379797 0.237095 0
0.412512 0.236408 0
0.445853 0.235554 0
0.479606 0.234607 0
0.513634 0.233692 0
0.548135 0.232959 0
0.581842 0.232166 0
0.614389 0.231678 0
0.645716 0.231571 0
0.675822 0.231891 0
0.704829 0.232639 0
0.732219 0.233982 0
0.755383 0.236255 0
0.77557 0.239384 0
0.794614 0.242924 0
0.00260929 0.223392 0.00260929
0.00918593 0.229419 0.000640879
0.0158083 0.235447 0
0.023209 0.241291 0
0.0328832 0.246754 0
0.0472877 0.250889 0
0.0653239 0.253925 0
0.0851911 0.256489 0
0.106554 0.258686 0
0.129427 0.260502 0
0.153903 0.262196 0
0.179706 0.26331 0
0.206928 0.264012 0
0.235416 0.264408 0
0.265019 0.264546 0
0.295735 0.264424 0
0.327672 0.264302 0
0.360159 0.263706 0
0.393378 0.262974 0
0.427222 0.262135 0
0.461646 0.261173 0
0.49633 0.260136 0
0.531456 0.259327 0
0.566262 0.25835 0
0.600565 0.257572 0
0.6336 0.257191 0
0.665187 0.257191 0
0.695445 0.257649 0
0.724636 0.258671 0
0.751629 0.260121 0
0.774594 0.262699 0
0.794339 0.266148 0
0.812833 0.269978 0
0 0.254215 0
0 0.260212 0
0.00590524 0.266209 0
0.0139925 0.27216 0
0.0245212 0.277424 0
0.0401617 0.281224 0
0.0596475 0.284016 0
0.0810864 0.286305 0
0.104051 0.288197 0
0.128603 0.289891 0
0.154574 0.291096 0
0.181918 0.291905 0
0.210697 0.292348 0
0.240681 0.29247 0
0.271687 0.292317 0
0.304006 0.29221 0
0.33698 0.291646 0
0.370733 0.290913 0
0.405066 0.289998 0
0.439887 0.289006 0
0.475502 0.288151 0
0.511101 0.287114 0
0.546639 0.286076 0
0.582025 0.285084 0
0.616754 0.284321 0
0.650111 0.284016 0
0.682368 0.284413 0
0.712688 0.285023 0
0.741482 0.286061 0
0.768277 0.287709 0
0.790951 0.290578 0
0.810422 0.294423 0
0.828855 0.298878 0
0 0.285985 0
0 0.291875 0
0 0.298131 0
0.00352483 0.303853 0
0.0149386 0.308904 0
0.0319066 0.312444 0
0.0529183 0.314916 0
0.0759899 0.317037 0
0.100603 0.318791 0
0.126665 0.320012 0
0.154147 0.320836 0
0.182986 0.32134 0
0.213245 0.321508 0
0.244831 0.321599 0
0.277302 0.321324 0
0.310643 0.320729 0
0.344793 0.319966 0
0.379644 0.319081 0
0.415061 0.318105 0
0.451087 0.317235 0
0.487266 0.316106 0
0.523522 0.314992 0
0.559716 0.313985 0
0.595697 0.313069 0
0.630854 0.312398 0
0.66479 0.312428 0
0.696773 0.312718 0
0.727184 0.313573 0
0.756024 0.314885 0
0.782681 0.316808 0
0.80499 0.319951 0
0.824369 0.324346 0
0.842115 0.328984 0
0 0.3187 0
0 0.324742 0
0 0.330571 0
0 0.336172 0
0.00459297 0.341085 0
0.0229038 0.344427 0
0.0455024 0.346731 0
0.070161 0.348562 0
0.0962997 0.349844 0
0.123888 0.35079 0
0.152895 0.3514 0
0.183215 0.351644 0
0.214954 0.35169 0
0.247822 0.351461 0
0.281529 0.350942 0
0.316091 0.350225 0
0.351354 0.34931 0
0.387198 0.348272 0
0.423804 0.347448 0
0.460472 0.346365 0
0.497398 0.345235 0
0.53431 0.344106 0
0.570977 0.343099 0
0.60763 0.342443 0
0.64329 0.342016 0
0.67715 0.342 0
0.709224 0.342473 0
0.739574 0.343496 0
0.768338 0.345083 0
0.795239 0.347616 0
0.81738 0.351156 0
0.836011 0.355642 0
0.853315 0.360601 0
0 0.35227 0
0 0.357977 0
0 0.363729 0
0 0.369207 0
0 0.373922 0
0.0136263 0.37731 0
0.0377661 0.379232 0
0.0639353 0.380636 0
0.0915847 0.381628 0
0.120653 0.382269 0
0.151141 0.382712 0
0.183001 0.382971 0
0.216007 0.382681 0
0.25005 0.382132 0
0.284886 0.381415 0
0.320562 0.38056 0
0.357031 0.379736 0
0.393988 0.37879 0
0.431128 0.37763 0
0.468498 0.376486 0
0.506096 0.375387 0
0.543633 0.374395 0
0.581018 0.373663 0
0.617868 0.373007 0
0.653651 0.372625 0
0.687724 0.372839 0
0.719966 0.373617 0
0.750317 0.374929 0
0.779187 0.376989 0
0.805615 0.379614 0
0.827527 0.383566 0
0.84596 0.388525 0
0.862959 0.393912 0
0 0.386267 0
0 0.391775 0
0 0.397406 0
0 0.402808 0
0 0.407675 0
0.00433356 0.410498 0
0.0299535 0.412116 0
0.0576333 0.41326 0
0.0867781 0.414069 0
0.117311 0.414542 0
0.149248 0.414862 0
0.182269 0.414694 0
0.216556 0.414267 0
0.25182 0.413626 0
0.28777 0.412802 0
0.324529 0.411917 0
0.361929 0.411032 0
0.399634 0.409964 0
0.437598 0.408865 0
0.475639 0.407767 0
0.513756 0.406668 0
0.552056 0.406027 0
0.5897 0.405325 0
0.626825 0.404822 0
0.662806 0.404623 0
0.69691 0.40502 0
0.729335 0.406226 0
0.759884 0.408072 0
0.788449 0.410315 0
0.814618 0.413245 0
0.836271 0.417563 0
0.854551 0.423072 0
0.87187 0.429404 0
0 0.420783 0
0 0.426154 0
0 0.431586 0
0 0.43714 0
0 0.441581 0
0 0.444221 0
0.0225071 0.445594 0
0.0516213 0.446448 0
0.0823072 0.447303 0
0.114214 0.447578 0
0.147341 0.447532 0
0.181598 0.447181 0
0.217014 0.446571 0
0.253391 0.445853 0
0.290623 0.445258 0
0.328267 0.444282 0
0.366339 0.443183 0
0.404761 0.442069 0
0.443397 0.441047 0
0.482185 0.440177 0
0.521065 0.43946 0
0.559426 0.438651 0
0.59733 0.438087 0
0.634714 0.437812 0
0.670954 0.43798 0
0.705333 0.438849 0
0.737697 0.440345 0
0.768032 0.442435 0
0.796674 0.445258 0
0.823087 0.448875 0
0.845045 0.453788 0
0.864027 0.46009 0
0.882185 0.467262 0
0 0.455604 0
0 0.461143 0
0 0.466529 0
0 0.471595 0
0 0.475837 0
0 0.478279 0
0.0158541 0.4795 0
0.0465248 0.480476 0
0.0784009 0.480812 0
0.111559 0.480858 0
0.145922 0.480705 0
0.181384 0.480323 0
0.217914 0.479652 0
0.255467 0.479072 0
0.2934 0.478157 0
0.331914 0.477211 0
0.37084 0.476234 0
0.409949 0.475212 0
0.44918 0.474281 0
0.488594 0.473671 0
0.527749 0.472984 0
0.566567 0.472465 0
0.60473 0.472145 0
0.642237 0.472129 0
0.678965 0.472984 0
0.713497 0.474311 0
0.746075 0.476295 0
0.776791 0.478904 0
0.806073 0.482399 0
0.833768 0.487297 0
0.857618 0.494118 0
0.87805 0.501869 0
0.897307 0.510155 0
0 0.490913 0
0 0.496071 0
0 0.501305 0
0 0.50631 0
0 0.510414 0
0 0.512642 0
0.0106813 0.513939 0
0.0425727 0.514504 0
0.075761 0.514748 0
0.110124 0.514672 0
0.145602 0.514351 0
0.182361 0.514168 0
0.219959 0.513527 0
0.258289 0.512734 0
0.297047 0.511818 0
0.336278 0.510857 0
0.375891 0.509972 0
0.415976 0.509453 0
0.455756 0.50869 0
0.495354 0.508019 0
0.534844 0.507546 0
0.57406 0.507439 0
0.612772 0.507744 0
0.651057 0.508583 0
0.687938 0.509667 0
0.723278 0.511803 0
0.757214 0.515145 0
0.78967 0.519493 0
0.820569 0.52462 0
0.849577 0.530831 0
0.874434 0.538643 0
0.896651 0.548196 0
0.918059 0.558633 0
0 0.526192 0
0 0.531106 0
0 0.536156 0
0 0.541054 0
0 0.545312 0
0 0.547539 0
0.00737011 0.548333 0
0.0404974 0.548714 0
0.0749065 0.548867 0
0.110475 0.548806 0
0.14728 0.54873 0
0.184833 0.548226 0
0.223316 0.547539 0
0.262531 0.546822 0
0.302174 0.546075 0
0.342138 0.545266 0
0.38262 0.544778 0
0.422995 0.544182 0
0.463432 0.543847 0
0.503685 0.543755 0
0.543709 0.543786 0
0.583505 0.544259 0
0.623529 0.545876 0
0.663066 0.547982 0
0.701671 0.55079 0
0.738354 0.554269 0
0.773404 0.558724 0
0.807706 0.564935 0
0.840497 0.571954 0
0.871305 0.579965 0
0.897704 0.589349 0
0.921111 0.600092 0
0.944015 0.612024 0
0 0.561303 0
0 0.566171 0
0 0.571145 0
0 0.576059 0
0 0.580102 0
0 0.582147 0
0.00650034 0.582925 0
0.0408484 0.583215 0
0.0763561 0.583261 0
0.113252 0.583429 0
0.150942 0.583185 0
0.189471 0.582757 0
0.228824 0.582132 0
0.268803 0.58146 0
0.309483 0.581186 0
0.350393 0.580896 0
0.391333 0.580652 0
0.432273 0.58053 0
0.473396 0.58088 0
0.514855 0.581964 0
0.556924 0.58407 0
0.598383 0.586191 0
0.639261 0.588678 0
0.679957 0.591943 0
0.72018 0.596353 0
0.758984 0.601968 0
0.79646 0.60885 0
0.831693 0.616007 0
0.865675 0.624231 0
0.898039 0.633814 0
0.926406 0.645167 0
0.951553 0.657664 0
0.975906 0.671077 0
0 0.596414 0
0 0.601267 0
0 0.606424 0
0 0.611154 0
0 0.614954 0
0 0.616876 0
0.00823987 0.617594 0
0.0439612 0.618097 0
0.0807813 0.618341 0
0.118425 0.618204 0
0.157076 0.618006 0
0.196658 0.617823 0
0.237018 0.617655 0
0.277989 0.617685 0
0.319142 0.617792 0
0.360845 0.61828 0
0.403189 0.619425 0
0.445869 0.621057 0
0.488472 0.622889 0
0.531411 0.625467 0
0.574472 0.628534 0
0.617746 0.632502 0
0.660777 0.63714 0
0.703197 0.642115 0
0.744656 0.647776 0
0.785275 0.655222 0
0.824033 0.663401 0
0.861204 0.672511 0
0.896635 0.682185 0
0.929808 0.692592 0
0.959243 0.705028 0
0.984833 0.717998 0
1 0.731411 0
0 0.631724 0
0 0.636545 0
0 0.641398 0
0 0.646097 0
0 0.649973 0
0 0.651881 0
0.0132753 0.652674 0
0.0502174 0.653254 0
0.0881361 0.65362 0
0.126864 0.653941 0
0.166262 0.654169 0
0.206485 0.654582 0
0.248264 0.655818 0
0.290608 0.657221 0
0.333379 0.65893 0
0.376379 0.660731 0
0.419837 0.662989 0
0.46424 0.666331 0
0.509087 0.670405 0
0.553735 0.674693 0
0.59823 0.67921 0
0.642695 0.684367 0
0.68716 0.69044 0
0.731929 0.697765 0
0.775357 0.705409 0
0.816648 0.713542 0
0.856031 0.722362 0
0.89366 0.731929 0
0.929625 0.742168 0
0.963836 0.753628 0
0.992859 0.765667 0
1 0.77821 0.00697337
1 0.790616 0.0195163
0 0.667124 0
0 0.671748 0
0 0.676539 0
0 0.681193 0
0 0.685191 0
0 0.687694 0
0.0220951 0.688792 0
0.0595865 0.689632 0
0.0982528 0.690715 0
0.138231 0.692287 0
0.179461 0.694347 0
0.221576 0.69662 0
0.264179 0.69868 0
0.307713 0.701274 0
0.352148 0.704662 0
0.397299 0.708598 0
0.442893 0.712993 0
0.488624 0.717662 0
0.534508 0.722759 0
0.580789 0.728695 0
0.627253 0.73518 0
0.67335 0.74197 0
0.719188 0.749416 0
0.764233 0.757046 0
0.808011 0.765057 0
0.849836 0.773739 0
0.889616 0.782956 0
0.927199 0.792493 0
0.963073 0.802655 0.00453193
0.995544 0.81239 0.0144045
1 0.823117 0.0252689
1 0.834669 0.0369421
1 0.846113 0.0485084
0 0.702358 0
0 0.707118 0
0 0.712261 0
0 0.717327 0
0 0.722118 0
0 0.725246 0
0.0339818 0.727794 0
0.0732128 0.730373 0
0.113313 0.732891 0
0.154513 0.735668 0
0.197299 0.739269 0
0.241032 0.743175 0
0.285786 0.747387 0
0.330983 0.751629 0
0.376654 0.756237 0
0.423667 0.762036 0
0.470848 0.768017 0
0.518257 0.774365 0
0.565515 0.78085 0
0.612573 0.787549 0
0.659754 0.794751 0
0.706722 0.802426 0
0.752682 0.81001 0
0.797803 0.817716 0
0.841306 0.825467 0.000167849
0.882277 0.833295 0.00813306
0.921096 0.841581 0.016556
0.957702 0.850172 0.0252689
0.992065 0.858808 0.0340429
1 0.867475 0.0428473
1 0.87657 0.0520485
1 0.885985 0.0615549
1 0.895857 0.0715343
0 0.738705 0
0 0.744076 0
0 0.750683 0
0 0.757382 0
0 0.763531 0
0.0118868 0.767926 0
0.0504311 0.771588 0
0.0911727 0.775677 0
0.133837 0.780758 0
