luts/Green Action.cube
TITLE "Generated by Resolve"
LUT_3D_SIZE 9
0 0 0
0 0 0
0 0 0
0 0 0
0 0 0
0.0387427 0.00955215 0.00950637
0.12784 0.0265965 0.0264897
0.238239 0.0365759 0.0363928
0.342306 0.0375372 0.0372778
0 0 0
0 0 0
0.0368505 0.0263523 0.0157626
0.0959945 0.0519265 0.0287938
0.174441 0.0714427 0.0345159
0.273777 0.0847639 0.0330663
0.395132 0.092195 0.0250248
0.534981 0.0937514 0.0113375
0.642298 0.0849165 0
0.0314031 0.0876326 0.0314641
0.0714427 0.110216 0.0316625
0.13225 0.131914 0.0261845
0.211475 0.149248 0.014847
0.309422 0.161288 0
0.424521 0.168322 0
0.549828 0.16965 0
0.681849 0.166491 0
0.796658 0.154498 0
0.00886549 0.237232 0.00906386
0.0748302 0.237613 0
0.159838 0.251881 0
0.258946 0.262669 0
0.371771 0.269276 0
0.495781 0.272358 0
0.626795 0.271931 0
0.760586 0.268116 0
0.876524 0.252476 0
0 0.383749 0
0.0283513 0.38204 0
0.137789 0.38584 0
0.254658 0.390356 0
0.379171 0.392264 0
0.509392 0.392142 0
0.642527 0.390051 0
0.774258 0.384649 0
0.889097 0.365316 0
0 0.543481 0
0 0.532967 0
0.100832 0.532143 0
0.233158 0.531518 0
0.367193 0.52961 0
0.502068 0.52697 0
0.635874 0.52343 0
0.763241 0.514961 0
0.875349 0.492622 0
0 0.681163 0
0 0.663462 0
0.0596628 0.660487 0
0.198718 0.654826 0
0.336507 0.650263 0
0.472099 0.64625 0
0.605768 0.642435 0
0.738125 0.639017 0
0.85626 0.622797 0
0 0.806424 0
0 0.782162 0
0.0198672 0.771435 0
0.161608 0.766125 0
0.298833 0.760815 0
0.433875 0.756237 0
0.566232 0.751141 0
0.699351 0.748516 0
0.828244 0.743175 0
0 0.934813 0
0 0.908766 0
0 0.897765 0
0.141009 0.892653 0
0.278553 0.887572 0
0.413809 0.883162 0
0.546227 0.878141 0
0.679362 0.875654 0
0.811292 0.873533 0
0 0 0
0 0 0
0 0 0
0 0 0
0 0 0
0.0641184 0.016144 0.0264897
0.158618 0.0309453 0.0542306
0.274037 0.0383154 0.0755932
0.396826 0.0378271 0.0879988
0 0 0
0.0056611 0.00564584 0.00567636
0.0509651 0.0361639 0.0363012
0.113771 0.0600137 0.0602884
0.196933 0.0776226 0.0780346
0.301549 0.0888533 0.0894026
0.427955 0.0940871 0.0948043
0.569482 0.0933394 0.0941939
0.702251 0.0857404 0.0867018
0.0328985 0.0986954 0.066392
0.0776989 0.122988 0.0778973
0.144411 0.14403 0.0844434
0.229755 0.159762 0.0854505
0.334096 0.170123 0.0814374
0.454978 0.175647 0.0735943
0.585107 0.175723 0.0623941
0.722393 0.172198 0.0493019
0.856947 0.163958 0.0339971
0.00209049 0.246403 0.0861524
0.074815 0.255848 0.0751965
0.165728 0.265644 0.0621195
0.270436 0.274434 0.0482948
0.388235 0.279683 0.0335088
0.516121 0.281788 0.0186007
0.649897 0.280827 0.00395209
0.785733 0.277028 0
0.914183 0.266896 0
0 0.397314 0.0457771
0.0248112 0.398489 0.0253605
0.141024 0.401099 0.00573739
0.262898 0.403861 0
0.391409 0.404898 0
0.52433 0.404303 0
0.659037 0.402121 0
0.791684 0.397192 0
0.916045 0.385489 0
0 0.550011 0
0 0.541253 0
0.100038 0.537118 0
0.233585 0.534585 0
0.368917 0.532235 0
0.504463 0.529442 0
0.638437 0.525963 0
0.765896 0.517632 0
0.880629 0.497932 0
0 0.685527 0
0 0.670375 0
0.0575418 0.659648 0
0.195224 0.651453 0
0.333104 0.646845 0
0.468696 0.642832 0
0.60235 0.639017 0
0.734691 0.635584 0
0.852705 0.619242 0
0 0.803006 0
0 0.778576 0
0.0162509 0.767803 0
0.157992 0.762478 0
0.295247 0.757214 0
0.430335 0.752667 0
0.562707 0.747585 0
0.695811 0.744976 0
0.824689 0.73962 0
0 0.93138 0
0 0.90518 0
0 0.894179 0
0.137545 0.889082 0
0.275105 0.884016 0
0.410376 0.879622 0
0.542794 0.874617 0
0.675929 0.87216 0
0.807843 0.870069 0
0 0 0
0 0 0
0 0 0
0 0 0
0.0109865 0.0019379 0.00666819
0.0883497 0.0215915 0.0500343
0.186206 0.033875 0.0886854
0.305043 0.0386969 0.121813
0.42974 0.0359197 0.144533
0 0 0
0.0164492 0.0164187 0.0229953
0.0635233 0.0445411 0.0634318
0.128725 0.0661784 0.0985885
0.214603 0.0814984 0.128588
0.321843 0.0904555 0.152895
0.450355 0.0935988 0.171649
0.592752 0.0911116 0.183581
0.725567 0.0821241 0.184726
0.0333715 0.108522 0.108568
0.0804913 0.130495 0.130556
0.149767 0.149355 0.149462
0.237476 0.162997 0.163119
0.343648 0.17145 0.171588
0.465766 0.17528 0.175448
0.596246 0.173983 0.174166
0.733608 0.169512 0.169711
0.867674 0.160494 0.160693
0 0.253559 0.169879
0.0710307 0.260624 0.167269
0.164645 0.268376 0.164126
0.271351 0.275471 0.16051
0.390478 0.279332 0.154971
0.519066 0.280369 0.148089
0.65301 0.27863 0.140047
0.788586 0.274281 0.130907
0.91664 0.263706 0.117449
0 0.400992 0.16286
0.0184024 0.400381 0.148852
0.136873 0.401495 0.136202
0.260243 0.403113 0.125719
0.38967 0.403296 0.116182
0.523018 0.40209 0.107607
0.657725 0.399542 0.0999161
0.790097 0.394385 0.0916915
0.914046 0.382498 0.0785077
0 0.550591 0.128328
0 0.540703 0.109255
0.0955673 0.535653 0.0948196
0.230076 0.532479 0.084535
0.365942 0.529717 0.0771496
0.501686 0.52668 0.0720073
0.635569 0.523095 0.0682383
0.762524 0.514244 0.0593881
0.877546 0.49485 0.0400092
0 0.683833 0.086183
0 0.66807 0.0669108
0.0540932 0.656886 0.053315
0.192218 0.648447 0.0444343
0.330083 0.643824 0.039826
0.465675 0.639811 0.0358587
0.599313 0.635981 0.0321202
0.73164 0.632547 0.0288243
0.849515 0.616083 0.0124361
0 0.8 0.0476234
0 0.775387 0.0230106
0.0130159 0.764569 0.012253
0.154757 0.759228 0.00700389
0.292073 0.754009 0.00192264
0.427176 0.749477 0
0.559548 0.744411 0
0.692668 0.741833 0
0.821515 0.736477 0
0 0.928313 0.0285954
0 0.901991 0.00233463
0 0.89099 0
0.134478 0.885908 0
0.272053 0.880858 0
0.40734 0.876478 0
0.539757 0.871504 0
0.672862 0.869032 0
0.806119 0.86833 0
0 0 0
0 0 0
0 0 0
0 0 0
0.0327153 0.00926223 0.0269474
0.112612 0.0263371 0.0793011
0.214023 0.0361639 0.128389
0.336248 0.0385595 0.172427
0.462776 0.0336614 0.204196
0 0 0
0.0264897 0.0264286 0.0461585
0.0757153 0.0523995 0.0961318
0.143481 0.0718547 0.141817
0.232166 0.0849928 0.183154
0.342016 0.0918135 0.21912
0.472557 0.0930495 0.249592
0.615824 0.0890669 0.272099
0.748486 0.0789044 0.280186
0.0332952 0.118044 0.155352
0.082948 0.137743 0.186664
0.154986 0.154543 0.216617
0.245136 0.166232 0.241337
0.353231 0.17293 0.26038
0.476646 0.175326 0.274037
0.607797 0.172946 0.280888
0.744854 0.167559 0.283207
0.878462 0.1579 0.279072
0 0.260685 0.253422
0.0675669 0.265522 0.257481
0.163989 0.271382 0.262501
0.272709 0.276951 0.267216
0.39321 0.279606 0.269139
0.522545 0.279744 0.268666
0.656657 0.277348 0.265782
0.79202 0.272557 0.260624
0.919692 0.261601 0.24947
0 0.40528 0.273762
0.0126802 0.40177 0.263813
0.133669 0.402609 0.257435
0.258549 0.403189 0.251972
0.388891 0.40264 0.246616
0.522667 0.400961 0.241352
0.657404 0.398093 0.236072
0.789502 0.392782 0.229404
0.913008 0.380743 0.216846
0 0.551919 0.257084
0 0.541024 0.240452
0.0923781 0.535164 0.228779
0.227832 0.531441 0.220783
0.364218 0.528313 0.215045
0.500114 0.525124 0.210925
0.634012 0.521538 0.20734
0.761334 0.513069 0.198871
0.8757 0.493004 0.178836
0 0.683146 0.223178
0 0.666819 0.204746
0.0520943 0.655268 0.191959
0.190433 0.646662 0.183307
0.328313 0.642039 0.178714
0.46389 0.63801 0.174731
0.597528 0.634195 0.170977
0.729839 0.630762 0.167666
0.847593 0.614176 0.151141
0 0.798215 0.186496
0 0.773205 0.161517
0.0128481 0.76437 0.152712
0.152804 0.757229 0.145663
0.29015 0.752041 0.140612
0.425269 0.747555 0.136294
0.557656 0.742489 0.131456
0.690791 0.73994 0.129229
0.819593 0.734585 0.124208
0 0.926513 0.167437
0 0.900053 0.141054
0 0.889036 0.130251
0.132662 0.88397 0.125536
0.270268 0.87895 0.120928
0.405554 0.874601 0.117082
0.537972 0.869642 0.112688
0.671107 0.867231 0.110964
0.802976 0.865156 0.109621
0 0 0
0 0 0
0 0 0
0 0 0
0.0539406 0.0156863 0.0529946
0.136828 0.0303349 0.114809
0.241825 0.0377356 0.174533
0.367361 0.0377813 0.229328
0.495537 0.0308843 0.269551
0.00248722 0.00520333 0.0124971
0.035874 0.0357977 0.0753338
0.0874495 0.0596475 0.13518
0.15787 0.0769513 0.19147
0.249363 0.0879377 0.2439
0.361715 0.0927291 0.291005
0.494102 0.092195 0.332372
0.638041 0.0868696 0.364355
0.770474 0.0756847 0.378271
0.0325475 0.127077 0.208392
0.0849012 0.144533 0.248569
0.159777 0.159304 0.289067
0.252399 0.169116 0.324025
0.362387 0.174182 0.352544
0.486961 0.175265 0.374792
0.618585 0.171878 0.388571
0.75555 0.165789 0.396628
0.888701 0.155566 0.396475
0 0.267399 0.340963
0.0640574 0.2701 0.350729
0.163272 0.27422 0.362814
0.274022 0.27837 0.374746
0.395865 0.279942 0.383017
0.525902 0.279286 0.387884
0.660212 0.276326 0.389258
0.795346 0.271168 0.387289
0.922652 0.259922 0.37789
0 0.408972 0.384649
0.00793469 0.405188 0.379736
0.130816 0.403754 0.377127
0.257145 0.403433 0.375799
0.388373 0.402243 0.373816
0.52256 0.400153 0.37113
0.657298 0.397055 0.367666
0.789105 0.391638 0.362051
0.912184 0.379492 0.349844
0 0.553338 0.383001
0 0.541497 0.3682
0.0897688 0.534951 0.358694
0.226093 0.530724 0.352377
0.362966 0.527321 0.347799
0.499016 0.52401 0.344228
0.632883 0.520409 0.340627
0.760113 0.511864 0.332097
0.874311 0.49163 0.311864
0 0.682704 0.355322
0 0.665904 0.337407
0.0507668 0.654017 0.325078
0.189136 0.64535 0.316426
0.327001 0.640726 0.311818
0.462562 0.636683 0.30782
0.596201 0.632853 0.304051
0.728496 0.629435 0.30071
0.846128 0.612741 0.284077
0 0.796902 0.319615
0 0.771923 0.294652
0.00949111 0.760983 0.283757
0.151324 0.755718 0.278569
0.288701 0.750561 0.273518
0.42385 0.74609 0.2692
0.556237 0.741039 0.264347
0.689372 0.738506 0.262089
0.818143 0.733135 0.257008
0 0.925155 0.300511
0 0.898573 0.273991
0 0.887556 0.263157
0.131334 0.882521 0.258427
0.268956 0.877516 0.253788
0.404257 0.873182 0.249912
0.536675 0.868238 0.245457
0.669795 0.865858 0.243641
0.801648 0.863813 0.242191
0 0 0
0 0 0
0 0 0
0.00813306 0.00163272 0.0117189
0.0749218 0.0213474 0.0850538
0.161379 0.0336614 0.157244
0.269535 0.0385901 0.22739
0.398215 0.036347 0.292866
0.527855 0.0276036 0.340993
0.00970474 0.0162661 0.0392309
0.0446479 0.0445411 0.110765
0.0986954 0.0662852 0.180865
0.171832 0.0814374 0.247807
0.266087 0.0903029 0.311208
0.380819 0.0931563 0.368963
0.514702 0.0910658 0.420356
0.659266 0.0845197 0.460868
0.79144 0.0724193 0.479713
0.0311284 0.135607 0.26807
0.0863355 0.150835 0.316686
0.164111 0.163607 0.367224
0.259144 0.171633 0.411566
0.370993 0.175174 0.448722
0.496712 0.175082 0.478553
0.628748 0.170809 0.498238
0.76556 0.16408 0.511116
0.898299 0.153399 0.514214
0 0.273671 0.433143
0.0604562 0.274327 0.447669
0.162463 0.276783 0.465919
0.275196 0.279652 0.484092
0.398352 0.280247 0.49778
0.52903 0.278843 0.507073
0.664164 0.275868 0.512474
0.798444 0.270008 0.512489
0.925383 0.258503 0.504387
0 0.412604 0.497078
0.00320439 0.407416 0.495491
0.128191 0.404852 0.496651
0.25594 0.403723 0.498695
0.387991 0.401984 0.499397
0.522545 0.399527 0.49868
0.657282 0.396277 0.496513
0.7888 0.390799 0.491539
0.911421 0.378576 0.479423
0 0.554711 0.507591
0 0.542016 0.494194
0.0875563 0.534829 0.486275
0.22472 0.530205 0.481163
0.362036 0.526558 0.477302
0.498192 0.523201 0.473915
0.632029 0.51957 0.470283
0.759197 0.510948 0.461677
0.873198 0.490547 0.441276
0 0.682383 0.484489
0 0.665156 0.466804
0.0497902 0.653025 0.454597
0.188113 0.644327 0.445899
0.325978 0.639689 0.441291
0.46154 0.63566 0.437278
0.595132 0.6318 0.433448
0.72874 0.629679 0.431403
0.844984 0.611627 0.413382
0 0.795865 0.449088
0 0.770703 0.423941
0.00828565 0.759731 0.413016
0.150149 0.754498 0.407843
0.287556 0.749371 0.402792
0.422721 0.744915 0.398474
0.555108 0.739895 0.393591
0.688258 0.737392 0.391302
0.816968 0.731991 0.38613
0 0.924117 0.429938
0 0.897398 0.403281
0 0.886366 0.392416
0.130297 0.881361 0.387671
0.267948 0.876371 0.382986
0.40325 0.872068 0.379049
0.535668 0.867155 0.374533
0.668788 0.86479 0.372641
0.80061 0.86276 0.371084
0 0 0
0 0 0
0 0 0
0.0265507 0.00903334 0.0410163
0.0957198 0.0262455 0.12343
0.185016 0.0361028 0.20557
0.297063 0.0387274 0.287129
0.428702 0.0343023 0.363149
0.559594 0.0238346 0.418616
0.0160525 0.0265812 0.0717632
0.0527962 0.0526741 0.152636
0.109453 0.0722972 0.233341
0.185336 0.0853132 0.31104
0.282277 0.0921187 0.385153
0.399283 0.0931411 0.45304
0.534539 0.089601 0.513634
0.679469 0.082002 0.5617
0.811276 0.0691081 0.584604
0.0288548 0.141161 0.328344
0.0872511 0.156619 0.391119
0.167971 0.167437 0.451179
0.265415 0.173754 0.504112
0.379049 0.175906 0.548943
0.505821 0.174731 0.585397
0.638254 0.16968 0.610101
0.774914 0.162432 0.626963
0.90721 0.151354 0.632639
0 0.279469 0.529946
0.0567788 0.278187 0.548424
0.161517 0.279088 0.571969
0.276219 0.280766 0.595514
0.400626 0.280476 0.613718
0.531991 0.278492 0.626734
0.666621 0.274693 0.634333
0.801282 0.269017 0.636805
0.92784 0.257298 0.629602
0 0.415946 0.611139
0 0.409445 0.612238
0.125734 0.405875 0.616434
0.254826 0.404013 0.62118
0.387701 0.401785 0.623957
0.522606 0.399054 0.624689
0.657313 0.395682 0.623331
0.788495 0.390188 0.618631
0.91075 0.37789 0.606394
0 0.556146 0.631647
0 0.541802 0.61828
0.0857099 0.534768 0.612253
0.223651 0.529778 0.607904
0.361379 0.525979 0.604349
0.497566 0.522576 0.600946
0.631403 0.518944 0.597299
0.758495 0.510262 0.588602
0.872312 0.489677 0.568032
0 0.682124 0.611429
0 0.664515 0.593729
0.049012 0.652262 0.581476
0.18732 0.643519 0.572747
0.325185 0.63888 0.568109
0.460731 0.634836 0.564065
0.594369 0.631022 0.560281
0.726635 0.627588 0.556878
0.844038 0.610727 0.540017
0 0.795041 0.575921
0 0.769696 0.550576
0.00729381 0.758709 0.53962
0.149203 0.753521 0.534478
0.286641 0.748409 0.529427
0.42182 0.743969 0.525063
0.554223 0.738964 0.520165
0.687373 0.736492 0.51783
0.816007 0.73106 0.512551
0 0.923278 0.556695
0 0.896223 0.529686
0 0.887449 0.521065
0.129503 0.88043 0.514244
0.267155 0.875456 0.509514
0.402487 0.871168 0.505516
0.53489 0.866285 0.500938
0.668009 0.863966 0.498955
0.799802 0.861936 0.497276
0 0 0
0 0 0
0 0 0
0.044419 0.0155795 0.0759899
0.11632 0.030396 0.168261
0.208942 0.0378729 0.261204
0.324376 0.0381933 0.353857
0.458732 0.0316777 0.440146
0.590677 0.0196078 0.502327
0.0216068 0.0362554 0.11043
0.0603647 0.0602121 0.201205
0.119692 0.0776989 0.29276
0.198337 0.0885786 0.38117
0.297917 0.0933852 0.46566
0.417029 0.0926833 0.543053
0.553445 0.0878614 0.611978
0.698619 0.0793622 0.666651
0.830014 0.0657816 0.69279
0.0263523 0.151034 0.407691
0.0876631 0.161883 0.471809
0.171359 0.170794 0.540795
0.271199 0.175509 0.60148
0.386557 0.176364 0.653101
0.514336 0.174258 0.695232
0.647105 0.168536 0.724102
0.783581 0.160845 0.744198
0.915434 0.149416 0.751842
0 0.284779 0.631174
0.0530404 0.281682 0.652842
0.160479 0.281117 0.680873
0.277073 0.281712 0.708949
0.402686 0.280629 0.730938
0.534676 0.278111 0.746899
0.669413 0.273991 0.756634
0.803845 0.268147 0.76051
0.930007 0.256275 0.753841
0 0.419028 0.726894
0 0.411292 0.730037
0.123461 0.406775 0.736645
0.253849 0.404288 0.743481
0.387472 0.401633 0.747784
0.522683 0.398688 0.749432
0.657343 0.395254 0.748486
0.78819 0.389776 0.743694
0.910231 0.377386 0.731289
0 0.557153 0.754833
0 0.542992 0.743008
0.0841688 0.534737 0.736934
0.222843 0.529458 0.732937
0.360937 0.525536 0.72932
0.497124 0.522133 0.725902
0.63093 0.518471 0.722225
0.757946 0.509728 0.713466
0.87158 0.488975 0.692699
0 0.681895 0.736507
0 0.663966 0.718608
0.0484169 0.651652 0.706294
0.186679 0.642878 0.697505
0.324544 0.638224 0.692851
0.46009 0.63418 0.688792
0.593713 0.630365 0.684977
0.725978 0.626947 0.681529
0.843275 0.609995 0.664561
0 0.794385 0.700664
0 0.768841 0.67512
0.00648508 0.757855 0.664164
0.14844 0.752697 0.659022
0.285893 0.747616 0.653956
0.421103 0.743206 0.649592
0.553491 0.738201 0.644648
0.686641 0.735759 0.642252
0.815213 0.730282 0.636851
0 0.922606 0.681376
0 0.895659 0.654459
0 0.884627 0.643519
0.128893 0.879652 0.638697
0.26656 0.874708 0.633921
0.401892 0.870451 0.629862
0.534295 0.865583 0.625208
0.667399 0.863294 0.623148
0.799161 0.86128 0.621347
0 0 0
0 0 0
0.00563058 0.00141909 0.0158999
0.0619364 0.0213626 0.117082
0.136736 0.033814 0.219837
0.232639 0.038941 0.323796
0.351339 0.0369726 0.427573
0.488182 0.0285039 0.523751
0.620996 0.0149844 0.591989
0.0264134 0.0453193 0.15555
0.0673228 0.0671397 0.256611
0.129427 0.082475 0.359213
0.210819 0.091249 0.458183
0.312932 0.0941482 0.552575
0.434882 0.0921035 0.640055
0.571435 0.085893 0.715114
0.716701 0.0766308 0.775433
0.847669 0.0624552 0.804059
0.0230716 0.157931 0.487587
0.087602 0.166644 0.558618
0.174334 0.173739 0.635538
0.276509 0.176928 0.70338
0.393545 0.176623 0.760906
0.52224 0.173663 0.807828
0.65481 0.167147 0.83946
0.790814 0.158984 0.86186
0.922499 0.147402 0.871305
0 0.295048 0.749538
0.0504311 0.288624 0.769833
0.161959 0.286732 0.801328
0.281666 0.286442 0.832731
0.409476 0.284794 0.857252
0.542794 0.282032 0.875029
0.6795 0.278904 0.887404
0.816266 0.275044 0.894102
0.938582 0.260548 0.883741
0 0.419837 0.840879
0 0.411292 0.846174
0.12015 0.405859 0.854673
0.251347 0.40267 0.863066
0.385336 0.399558 0.868421
0.520562 0.396277 0.870604
0.676478 0.413886 0.891386
0.805508 0.407111 0.884611
0.921355 0.38854 0.866026
0 0.582544 0.90602
0 0.560449 0.885374
0.0983139 0.551736 0.878599
0.239536 0.546624 0.873991
0.378622 0.543221 0.870588
0.515373 0.540368 0.867704
0.650355 0.537911 0.865202
0.764401 0.516197 0.843473
0.875319 0.492729 0.819989
0 0.712077 0.890303
0 0.684001 0.862211
0.0678874 0.671061 0.849271
0.206699 0.662837 0.841016
0.345113 0.658732 0.836881
0.481178 0.655207 0.83331
0.615503 0.652155 0.830182
0.74548 0.646494 0.824445
0.845884 0.61265 0.790616
0 0.79884 0.828687
0 0.777386 0.807248
0.0172427 0.76849 0.798337
0.160616 0.764721 0.794553
0.299458 0.760998 0.790814
0.43595 0.7579 0.787701
0.570642 0.75523 0.785016
0.700282 0.749355 0.779126
0.804425 0.719478 0.749249
0 0.948379 0.830701
0 0.903838 0.786145
0 0.895354 0.777722
0.140536 0.890883 0.773327
0.278431 0.886183 0.768719
0.413931 0.882139 0.764797
0.547616 0.878645 0.761395
0.67982 0.875563 0.758434
0.81973 0.881788 0.764797
