luts/green forst ( only for time laps with cloud ).cube
LUT_3D_SIZE 6
0.012256 0.023946 0.011864
0.062570 0.022644 0.009755
0.161877 -0.047934 -0.049600
0.440764 -0.059452 -0.032766
0.655165 -0.059470 -0.065253
0.783718 -0.059504 -0.065273
0.006302 0.076496 0.020031
0.062052 0.077906 0.010579
0.185905 0.062554 -0.101261
0.448003 0.105413 -0.039253
0.659399 -0.003574 -0.065253
0.783718 -0.004056 -0.009148
-0.057907 0.266964 0.082997
-0.002277 0.282570 0.067666
0.205186 0.306086 0.012851
0.466447 0.373472 0.013466
0.669571 0.341767 0.013580
0.783718 0.337540 0.105767
-0.057976 0.698450 0.254404
-0.004748 0.703577 0.230502
0.018775 0.714559 0.108388
0.452430 0.709384 0.042815
0.679761 0.684458 0.093211
0.783718 0.729768 0.470450
-0.058065 0.940490 0.447737
-0.006308 0.941436 0.435482
0.022394 0.940636 0.418288
0.403190 0.941348 0.342678
0.635469 0.916230 0.419739
0.783390 0.916323 0.679104
0.045245 1.000032 0.685143
0.087102 1.000032 0.689197
0.428363 1.000032 0.779522
0.568795 1.000032 0.826210
0.667955 1.001555 0.853957
0.750201 1.006258 0.787628
0.012258 0.023339 0.060498
0.064503 0.018610 0.061767
0.163095 0.002584 0.078968
0.451714 -0.059453 0.082261
0.663648 -0.059471 0.060307
0.783718 -0.059504 0.093824
0.006842 0.076631 0.065898
0.058012 0.078026 0.067669
0.221246 0.037751 0.059094
0.478487 -0.002601 0.050567
0.686369 -0.003687 -0.003671
0.783718 -0.004070 0.057145
-0.057908 0.271809 0.149506
-0.002323 0.288687 0.139664
0.203050 0.313538 0.038053
0.481816 0.342227 0.031389
0.692505 0.296618 0.032490
0.783718 0.285822 0.148992
-0.057978 0.699929 0.340433
-0.004770 0.705070 0.312655
0.007068 0.717631 0.190226
0.450863 0.711669 0.069367
0.693656 0.678928 0.138933
0.783718 0.724152 0.524024
-0.058067 0.940557 0.529187
-0.006338 0.943228 0.503657
0.003398 0.943442 0.473503
0.393209 0.944767 0.419200
0.635797 0.918761 0.485881
0.783718 0.912005 0.708673
0.044413 1.000032 0.731676
0.084745 1.000032 0.721011
0.399832 1.000032 0.793517
0.563170 1.000032 0.844001
0.645439 1.009133 0.843501
0.751601 1.004122 0.828941
0.015637 -0.025285 0.142166
0.100992 -0.055745 0.150571
0.181975 -0.038365 0.162171
0.467205 -0.059458 0.279883
0.676460 -0.059476 0.273411
0.783718 -0.059506 0.265177
-0.067921 0.084623 0.170369
0.074313 0.014439 0.250234
0.227004 0.000862 0.213364
0.493769 -0.002786 0.282847
0.700173 -0.003780 0.263047
0.783718 -0.004098 0.251908
-0.057901 0.298299 0.262081
-0.002481 0.309635 0.277504
0.162084 0.281107 0.308913
0.547853 0.117217 0.226586
0.751497 0.025737 0.237699
0.783718 0.223284 0.314797
-0.057983 0.704371 0.489461
-0.004857 0.708560 0.479116
-0.004984 0.726372 0.411081
0.446830 0.716705 0.196816
0.736256 0.669424 0.329761
0.783718 0.723660 0.625381
-0.058071 0.941647 0.657143
-0.006367 0.944374 0.644944
-0.006397 0.952079 0.579685
0.344026 0.953326 0.519330
0.639085 0.918285 0.567468
0.783718 0.907855 0.758554
0.037272 1.000032 0.796219
0.077381 1.000032 0.788107
0.138033 1.000032 0.757937
0.527260 1.000032 0.848590
0.617799 1.018559 0.839909
0.754184 1.002517 0.865585
0.089437 -0.059435 0.454658
0.176417 -0.059438 0.468994
0.309929 -0.059445 0.509241
0.487862 -0.059466 0.544524
0.685598 -0.059485 0.563688
0.783718 -0.059512 0.533934
-0.019832 0.075089 0.522147
0.150029 -0.009315 0.617722
0.333772 -0.002197 0.609980
0.510947 -0.003090 0.584909
0.704780 -0.003914 0.577883
0.783718 -0.004179 0.533550
-0.057912 0.367475 0.628380
-0.002843 0.341301 0.653951
0.178614 0.130958 0.784540
0.545245 0.013938 0.693407
0.746909 0.008226 0.629719
0.783718 0.169380 0.575375
-0.057990 0.697529 0.721563
-0.004900 0.700533 0.727541
-0.004942 0.699666 0.749349
0.436297 0.687771 0.812502
0.743042 0.654492 0.734481
0.783718 0.684428 0.739843
-0.058077 0.941731 0.834107
-0.006425 0.944339 0.832113
-0.006455 0.949253 0.820239
0.226341 0.958379 0.776865
0.615153 0.929659 0.643401
0.868926 0.884053 0.811031
0.041559 1.000032 0.890005
0.091672 1.000032 0.887663
0.197272 1.000032 0.873982
0.469314 1.000032 0.889015
0.577961 1.026037 0.880192
0.760452 1.000032 0.929102
0.156273 -0.059450 0.841096
0.237036 -0.059453 0.844147
0.370031 -0.059461 0.851900
0.540187 -0.059468 0.863915
0.721633 -0.059499 0.863610
0.783718 -0.059523 0.794225
0.083739 -0.002164 0.855803
0.205272 -0.002440 0.912490
0.375328 -0.002888 0.907140
0.556901 -0.003590 0.899325
0.737711 -0.004231 0.882213
0.783718 -0.004296 0.799504
-0.057918 0.258148 0.889449
-0.002750 0.221482 0.912507
0.245351 0.049290 0.977220
0.543359 -0.003557 0.950976
0.773693 -0.004421 0.935302
0.783718 0.108237 0.825728
-0.057984 0.675058 0.919976
-0.004770 0.671860 0.927692
-0.004612 0.648017 0.954458
0.454324 0.608619 0.985828
0.762949 0.573565 0.977248
0.783718 0.661817 0.890905
-0.058079 0.906694 0.946251
-0.006278 0.907628 0.948907
-0.004397 0.911703 0.954876
0.315351 0.929155 0.977672
0.611310 0.889014 0.997645
0.875445 0.852856 0.955239
0.200091 1.000032 0.972501
0.251867 1.000032 0.971735
0.319641 1.000032 0.970764
0.488711 1.000032 0.969843
0.623802 1.000032 0.967462
0.762246 0.999693 0.972246
0.200905 -0.059466 1.040037
0.280482 -0.059469 1.040648
0.412096 -0.059466 1.042476
0.579329 -0.059485 1.045150
0.762949 -0.059519 1.047351
0.783718 -0.059526 0.962396
0.138335 -0.002750 1.044029
0.235378 -0.002866 1.043427
0.388735 -0.003199 1.044979
0.567452 -0.003780 1.047243
0.757650 -0.004542 1.049340
0.783718 -0.004494 0.964776
-0.057931 0.225861 1.054110
-0.003029 0.207188 1.053856
0.269465 0.100430 1.053428
0.518284 0.039441 1.054000
0.732329 -0.004397 1.053798
0.783718 0.140417 0.976452
-0.057994 0.667467 1.062953
-0.004726 0.658203 1.062537
0.158177 0.617227 1.060205
0.469569 0.607659 1.057104
0.689491 0.616901 1.055470
0.783718 0.657787 0.998637
0.028420 0.907886 1.071529
0.135848 0.904606 1.071145
0.342611 0.904358 1.069198
0.494947 0.893988 1.065116
0.637374 0.865742 1.059334
0.783374 0.874460 1.046138
0.365976 1.000032 1.080145
0.409001 1.000032 1.080074
0.466927 1.000032 1.079694
0.547650 0.999849 1.079075
0.662313 0.999168 1.078942
0.764910 0.998029 1.093370
