luts/Green Action.cube
TITLE "Generated by Resolve"
LUT_3D_SIZE 5
0 0 0
0 0 0
0 0 0
0.12784 0.0265965 0.0264897
0.342306 0.0375372 0.0372778
0.0314031 0.0876326 0.0314641
0.13225 0.131914 0.0261845
0.309422 0.161288 0
0.549828 0.16965 0
0.796658 0.154498 0
0 0.383749 0
0.137789 0.38584 0
0.379171 0.392264 0
0.642527 0.390051 0
0.889097 0.365316 0
0 0.681163 0
0.0596628 0.660487 0
0.336507 0.650263 0
0.605768 0.642435 0
0.85626 0.622797 0
0 0.934813 0
0 0.897765 0
0.278553 0.887572 0
0.546227 0.878141 0
0.811292 0.873533 0
0 0 0
0 0 0
0.0109865 0.0019379 0.00666819
0.186206 0.033875 0.0886854
0.42974 0.0359197 0.144533
0.0333715 0.108522 0.108568
0.149767 0.149355 0.149462
0.343648 0.17145 0.171588
0.596246 0.173983 0.174166
0.867674 0.160494 0.160693
0 0.400992 0.16286
0.136873 0.401495 0.136202
0.38967 0.403296 0.116182
0.657725 0.399542 0.0999161
0.914046 0.382498 0.0785077
0 0.683833 0.086183
0.0540932 0.656886 0.053315
0.330083 0.643824 0.039826
0.599313 0.635981 0.0321202
0.849515 0.616083 0.0124361
0 0.928313 0.0285954
0 0.89099 0
0.272053 0.880858 0
0.539757 0.871504 0
0.806119 0.86833 0
0 0 0
0 0 0
0.0539406 0.0156863 0.0529946
0.241825 0.0377356 0.174533
0.495537 0.0308843 0.269551
0.0325475 0.127077 0.208392
0.159777 0.159304 0.289067
0.362387 0.174182 0.352544
0.618585 0.171878 0.388571
0.888701 0.155566 0.396475
0 0.408972 0.384649
0.130816 0.403754 0.377127
0.388373 0.402243 0.373816
0.657298 0.397055 0.367666
0.912184 0.379492 0.349844
0 0.682704 0.355322
0.0507668 0.654017 0.325078
0.327001 0.640726 0.311818
0.596201 0.632853 0.304051
0.846128 0.612741 0.284077
0 0.925155 0.300511
0 0.887556 0.263157
0.268956 0.877516 0.253788
0.536675 0.868238 0.245457
0.801648 0.863813 0.242191
0 0 0
0 0 0
0.0957198 0.0262455 0.12343
0.297063 0.0387274 0.287129
0.559594 0.0238346 0.418616
0.0288548 0.141161 0.328344
0.167971 0.167437 0.451179
0.379049 0.175906 0.548943
0.638254 0.16968 0.610101
0.90721 0.151354 0.632639
0 0.415946 0.611139
0.125734 0.405875 0.616434
0.387701 0.401785 0.623957
0.657313 0.395682 0.623331
0.91075 0.37789 0.606394
0 0.682124 0.611429
0.049012 0.652262 0.581476
0.325185 0.63888 0.568109
0.594369 0.631022 0.560281
0.844038 0.610727 0.540017
0 0.923278 0.556695
0 0.887449 0.521065
0.267155 0.875456 0.509514
0.53489 0.866285 0.500938
0.799802 0.861936 0.497276
0 0 0
0.00563058 0.00141909 0.0158999
0.136736 0.033814 0.219837
0.351339 0.0369726 0.427573
0.620996 0.0149844 0.591989
0.0230716 0.157931 0.487587
0.174334 0.173739 0.635538
0.393545 0.176623 0.760906
0.65481 0.167147 0.83946
0.922499 0.147402 0.871305
0 0.419837 0.840879
0.12015 0.405859 0.854673
0.385336 0.399558 0.868421
0.676478 0.413886 0.891386
0.921355 0.38854 0.866026
0 0.712077 0.890303
0.0678874 0.671061 0.849271
0.345113 0.658732 0.836881
0.615503 0.652155 0.830182
0.845884 0.61265 0.790616
0 0.948379 0.830701
0 0.895354 0.777722
0.278431 0.886183 0.768719
0.547616 0.878645 0.761395
0.81973 0.881788 0.764797
