luts/Green Indoor.cube
TITLE "Generated by Resolve"
LUT_3D_SIZE 9
0.0284581 0.0302892 0.0277714
0.0463264 0.0411383 0.0389868
0.0689403 0.052781 0.0500343
0.0993362 0.0641642 0.0605173
0.138628 0.0748913 0.0701915
0.187533 0.0846723 0.0788128
0.246113 0.0933852 0.0863508
0.313741 0.101167 0.0929427
0.38909 0.108278 0.0989548
0.0565194 0.0855573 0.0545663
0.0913863 0.0986343 0.0603189
0.139193 0.109407 0.0684672
0.184161 0.121935 0.0841382
0.234424 0.134874 0.0963607
0.292958 0.147158 0.106218
0.358373 0.158984 0.115343
0.428611 0.170809 0.124773
0.501076 0.183261 0.1355
0.0650339 0.169787 0.061387
0.114672 0.184482 0.0634775
0.182742 0.195468 0.0634775
0.264164 0.203449 0.0686198
0.337774 0.213596 0.0897841
0.400046 0.227985 0.116365
0.462531 0.244053 0.139315
0.529534 0.260471 0.158709
0.601373 0.276967 0.176059
0.06009 0.277424 0.0550546
0.125872 0.291875 0.0617075
0.206821 0.303151 0.0689403
0.299092 0.312566 0.0747539
0.3991 0.320577 0.0848249
0.492927 0.330388 0.108232
0.573663 0.344533 0.13994
0.64741 0.361975 0.171893
0.721431 0.380911 0.20032
0.0690013 0.395697 0.0633707
0.143908 0.411505 0.0747539
0.230701 0.425269 0.084123
0.328252 0.437293 0.0917983
0.435706 0.447745 0.0979477
0.550454 0.456855 0.108156
0.661967 0.466896 0.130266
0.762417 0.48043 0.162188
0.852049 0.497841 0.198947
0.08159 0.527352 0.0755016
0.162341 0.545495 0.0885328
0.254536 0.561639 0.0996109
0.357122 0.576043 0.108995
0.469368 0.588907 0.116869
0.590692 0.600351 0.123369
0.718898 0.610483 0.133837
0.845685 0.621057 0.155077
0.963806 0.634302 0.186252
0.0947433 0.672663 0.0881971
0.181064 0.692958 0.10277
0.278416 0.711299 0.115434
0.385885 0.727947 0.126436
0.502754 0.743038 0.135927
0.628519 0.756741 0.144045
0.762707 0.769116 0.150896
0.90312 0.780194 0.163027
1 0.791928 0.211795
0.108461 0.830808 0.101488
0.200107 0.853132 0.11751
0.302434 0.873549 0.131655
0.414603 0.892287 0.144167
0.538659 0.908003 0.162158
0.677882 0.916579 0.216419
0.815579 0.921462 0.322057
0.92871 0.930129 0.472648
1 0.948638 0.656718
0.122713 1 0.115343
0.23534 1 0.150973
0.38706 1 0.230152
0.564126 1 0.362539
0.73106 1 0.523217
0.881605 0.99733 0.732677
0.992767 0.999466 0.97702
1 1 1
1 1 1
0.0320134 0.0341039 0.0402533
0.0546426 0.0442512 0.0525978
0.0783398 0.0563516 0.0633707
0.109636 0.0679637 0.0760815
0.150515 0.0786145 0.0885328
0.201114 0.0882277 0.100175
0.261219 0.096788 0.110842
0.330007 0.104494 0.120592
0.405966 0.111696 0.129686
0.0591897 0.0908064 0.0805524
0.0957809 0.103563 0.0911116
0.1364 0.116243 0.107744
0.180087 0.130007 0.121035
0.232929 0.142809 0.132769
0.293538 0.15491 0.143847
0.360342 0.16669 0.154742
0.431205 0.178668 0.166018
0.50367 0.191485 0.178378
0.0663157 0.175906 0.103746
0.117845 0.190143 0.110552
0.187671 0.200732 0.114885
0.265431 0.209339 0.129992
0.324498 0.223514 0.159365
0.383581 0.239811 0.18146
0.44831 0.256199 0.199435
0.518196 0.272557 0.215854
0.59263 0.28893 0.231662
0.0626535 0.283589 0.111788
0.130343 0.297673 0.121553
0.212177 0.309026 0.13048
0.305074 0.318608 0.137682
0.403555 0.327031 0.152941
0.486534 0.339513 0.186618
0.556497 0.356954 0.221927
0.626978 0.376135 0.250767
0.701976 0.395666 0.274876
0.0735637 0.402243 0.127108
0.149187 0.418189 0.139834
0.236622 0.432105 0.150546
0.334768 0.444266 0.159518
0.442786 0.454887 0.166979
0.556893 0.464225 0.18114
0.661692 0.475807 0.212177
0.750866 0.492287 0.252293
0.831998 0.512398 0.291447
0.0867628 0.534829 0.143999
0.168185 0.553079 0.158297
0.26099 0.56936 0.170642
0.364157 0.583902 0.181292
0.476951 0.596887 0.190417
0.598795 0.608484 0.198154
0.726711 0.618769 0.211917
0.84921 0.630289 0.240497
0.95845 0.645716 0.280293
0.100481 0.68098 0.161242
0.187442 0.701381 0.177035
0.285389 0.71986 0.190906
0.393408 0.736614 0.203113
0.510811 0.751842 0.213794
0.637064 0.765667 0.223102
0.771756 0.77818 0.231144
0.910765 0.789258 0.251087
1 0.802457 0.315694
0.114717 0.839918 0.178897
0.206989 0.862348 0.196078
0.30988 0.882887 0.211398
0.422599 0.901732 0.225071
0.551522 0.915373 0.253101
0.69398 0.922179 0.319142
0.830137 0.927077 0.432868
0.937545 0.938811 0.573632
0.999359 0.960204 0.762814
0.131746 1 0.198962
0.257877 1 0.247089
0.422568 1 0.33785
0.60557 1 0.473548
0.771939 1 0.630976
0.920272 0.997406 0.836118
1 1 1
1 1 1
1 1 1
0.0353246 0.0377203 0.0584421
0.0595712 0.0476844 0.0757763
0.0969863 0.0558785 0.0923018
0.139178 0.065095 0.103517
0.180468 0.0764324 0.114519
0.230335 0.0867781 0.12723
0.290211 0.0957961 0.140093
0.358846 0.103868 0.152422
0.434318 0.111513 0.164157
0.0612192 0.0954604 0.11696
0.0994583 0.107759 0.133455
0.154559 0.117159 0.146105
0.196063 0.132784 0.153368
0.247166 0.146502 0.166873
0.30753 0.158968 0.180514
0.37409 0.171115 0.193866
0.444282 0.183612 0.207279
0.516258 0.196933 0.22121
0.0668498 0.181125 0.159396
0.120256 0.194888 0.171176
0.19173 0.205097 0.179782
0.254444 0.217914 0.202853
0.312856 0.234058 0.219806
0.376593 0.250095 0.235691
0.444862 0.266163 0.251453
0.517311 0.282307 0.267262
0.593713 0.298543 0.283162
0.0647898 0.288777 0.18143
0.134249 0.302617 0.193454
0.216754 0.314137 0.203662
0.310292 0.323903 0.212116
0.403021 0.333639 0.236042
0.469963 0.350896 0.27422
0.537484 0.370382 0.301152
0.610803 0.389883 0.322957
0.689158 0.409277 0.34284
0.077409 0.408057 0.202258
0.153719 0.42414 0.216175
0.241825 0.438209 0.228092
0.340566 0.450523 0.23827
0.449165 0.461295 0.246921
0.561181 0.471122 0.266758
0.653559 0.485771 0.308232
0.731151 0.505928 0.350271
0.809125 0.527947 0.384161
0.0912184 0.541573 0.223453
0.173327 0.559945 0.238911
0.266743 0.576364 0.252415
0.370489 0.591043 0.26421
0.483833 0.604196 0.274479
0.60621 0.61593 0.28336
0.733196 0.626474 0.301335
0.848035 0.63975 0.339208
0.944976 0.658442 0.38674
0.105516 0.688594 0.244862
0.193118 0.709117 0.261753
0.291661 0.727718 0.276753
0.400244 0.74461 0.290059
0.518181 0.759976 0.301854
0.644953 0.773922 0.312261
0.780118 0.786572 0.321401
0.916457 0.797772 0.351904
1 0.813367 0.429847
0.120317 0.848356 0.266514
0.213199 0.870893 0.284779
0.31667 0.891554 0.301183
0.431205 0.909957 0.317662
0.566217 0.921202 0.355337
0.711681 0.926711 0.429252
0.845335 0.932738 0.542763
0.946273 0.947326 0.677943
0.99852 0.972747 0.859113
0.145159 1 0.29575
0.285786 1 0.353597
0.463233 1 0.45095
0.646967 1 0.579278
0.816449 1 0.735088
0.960616 0.998306 0.927794
1 1 1
1 1 1
1 1 1
0.0383612 0.0410773 0.0831311
0.0639963 0.0507668 0.106706
0.103578 0.0583505 0.129976
0.160037 0.0630045 0.151263
0.224781 0.0677501 0.164874
0.285664 0.0758373 0.17377
0.345815 0.0856947 0.183429
0.411322 0.0953994 0.194644
0.483406 0.104585 0.206592
0.0625467 0.0994736 0.164096
0.102403 0.111238 0.187457
0.16025 0.119738 0.20708
0.23592 0.125017 0.221942
0.302403 0.135882 0.22417
0.354589 0.152224 0.229038
0.41294 0.167605 0.23978
0.477119 0.182437 0.252827
0.545693 0.197238 0.267018
0.0667277 0.185489 0.227741
0.12195 0.198764 0.244419
0.195026 0.208652 0.256947
0.281102 0.216617 0.264607
0.331792 0.236957 0.267735
0.391531 0.25478 0.282765
0.458732 0.27158 0.29926
0.530938 0.288167 0.316075
0.607431 0.304738 0.333074
0.0666667 0.293065 0.26244
0.137484 0.306874 0.275883
0.220676 0.318578 0.287236
0.314855 0.328527 0.296849
0.388754 0.343832 0.325856
0.456443 0.363119 0.346303
0.529549 0.382193 0.365286
0.606867 0.401251 0.384085
0.68809 0.420356 0.402899
0.0805829 0.413184 0.287663
0.15761 0.429435 0.302708
0.246357 0.443656 0.315724
0.345708 0.456138 0.327031
0.454887 0.467063 0.336782
0.559625 0.478508 0.366476
0.634424 0.498527 0.410849
0.70988 0.520851 0.441871
0.79118 0.54316 0.467063
0.0950484 0.547662 0.312871
0.177813 0.566186 0.329397
0.271855 0.582727 0.343969
0.376196 0.597559 0.356847
0.490089 0.610849 0.368185
0.612985 0.622736 0.378119
0.737301 0.63386 0.402426
0.838193 0.650599 0.450965
0.922881 0.673289 0.498939
0.109941 0.695583 0.33814
0.198184 0.716228 0.356085
0.297322 0.734951 0.372122
0.40647 0.75198 0.386465
0.524941 0.767483 0.399298
0.652232 0.781567 0.410742
0.787808 0.794247 0.422324
0.919982 0.806027 0.46305
1 0.82533 0.550393
0.125292 0.856184 0.363561
0.218799 0.878828 0.382834
0.32285 0.899596 0.400244
0.441947 0.916548 0.421637
0.5832 0.925673 0.465644
0.731228 0.930541 0.542092
0.861006 0.939116 0.64564
0.955612 0.956466 0.775799
0.998734 0.986542 0.941253
0.163638 1 0.403128
0.319661 1 0.466804
0.5084 1 0.56405
0.689738 1 0.679026
0.863661 0.999405 0.82916
0.999557 1 0.998077
1 1 1
1 1 1
1 1 1
0.0410163 0.0440833 0.11519
0.0680095 0.0533761 0.146349
0.109545 0.0602884 0.177432
0.168536 0.0640574 0.206622
0.246586 0.0643015 0.232105
0.333776 0.0644999 0.2477
0.416449 0.0684825 0.255177
0.490745 0.0767376 0.260395
0.561013 0.0875563 0.266911
0.0631723 0.1028 0.222431
0.104616 0.11397 0.253269
0.164279 0.121843 0.279667
0.242176 0.126421 0.300862
0.336446 0.128267 0.31606
0.424567 0.134844 0.31722
0.490303 0.149981 0.313893
0.545434 0.169146 0.315969
0.604639 0.187823 0.3243
0.0659648 0.188998 0.308278
0.123018 0.201831 0.329519
0.197604 0.211475 0.345357
0.286656 0.218753 0.356313
0.385397 0.224964 0.362921
0.458762 0.241337 0.357183
0.512139 0.264149 0.359625
0.573663 0.284886 0.371527
0.643931 0.303929 0.387076
0.0683757 0.296605 0.353429
0.140108 0.310536 0.367941
0.224002 0.322423 0.380392
0.318822 0.33254 0.391073
0.42034 0.342321 0.398199
0.477928 0.36672 0.402472
0.54641 0.387747 0.420264
0.6224 0.407584 0.439628
0.703212 0.427161 0.459312
0.0831617 0.417731 0.382528
0.160906 0.434119 0.398611
0.250309 0.448508 0.41268
0.350271 0.461143 0.425025
0.460014 0.472251 0.435828
0.542885 0.490196 0.46978
0.619394 0.512261 0.493111
0.701122 0.534066 0.514885
0.786847 0.555856 0.536431
0.0982834 0.55317 0.41149
0.18172 0.571817 0.429023
0.276402 0.588525 0.444617
0.381308 0.603494 0.458503
0.495766 0.616938 0.470848
0.619196 0.628977 0.481804
0.7346 0.642039 0.517205
0.816617 0.664652 0.567025
0.899535 0.689601 0.601694
0.113787 0.701976 0.440421
0.20267 0.722759 0.459342
0.302419 0.741619 0.476356
0.412116 0.75877 0.491691
0.531136 0.774411 0.505501
0.65893 0.788647 0.517922
0.794858 0.801236 0.53312
0.920455 0.814527 0.582116
0.99649 0.839414 0.672404
0.129717 0.863416 0.469383
0.223835 0.886183 0.489616
0.328618 0.907027 0.508095
0.455268 0.92163 0.534279
0.602914 0.929046 0.580194
0.752621 0.934218 0.652445
0.877623 0.946059 0.74136
0.966018 0.966644 0.861418
1 1 0.999481
0.187945 1 0.518059
0.359899 1 0.582422
0.555901 1 0.671336
0.73994 1 0.775158
0.91342 0.998596 0.909041
1 1 1
1 1 1
1 1 1
1 1 1
0.0432288 0.0466773 0.155581
0.0715343 0.0554208 0.195544
0.114961 0.0615854 0.235477
0.176181 0.0644846 0.273198
0.256718 0.063798 0.306828
0.356268 0.0596933 0.334646
0.46331 0.0561685 0.350393
0.563912 0.0571756 0.355505
0.651194 0.0641337 0.355703
0.0630655 0.105409 0.292332
0.106081 0.115953 0.331044
0.167483 0.123201 0.364309
0.246952 0.127321 0.391165
0.342794 0.128771 0.4112
0.451316 0.128649 0.424033
0.552239 0.133684 0.422354
0.631159 0.147356 0.413733
0.695201 0.16643 0.408835
0.0646525 0.191714 0.400488
0.123507 0.204166 0.425711
0.199588 0.213642 0.443992
0.289448 0.221103 0.455817
0.389868 0.227146 0.46424
0.499001 0.232166 0.470527
0.592584 0.244343 0.464775
0.660197 0.265583 0.458412
0.720302 0.289433 0.460838
0.0697032 0.299535 0.453437
0.142184 0.313649 0.468971
0.226764 0.325704 0.482444
0.322225 0.336019 0.494163
0.427695 0.344793 0.504341
0.540887 0.352773 0.511833
0.622171 0.372885 0.50547
0.681773 0.399664 0.508843
0.750454 0.423865 0.522789
0.0851911 0.421714 0.486213
0.163653 0.438254 0.503288
0.253697 0.452796 0.518349
0.354284 0.465614 0.531685
0.464607 0.47689 0.543481
0.57908 0.488533 0.551019
0.643122 0.516503 0.556725
0.719738 0.540413 0.57705
0.803891 0.563012 0.599039
0.100969 0.558129 0.518746
0.185092 0.576913 0.537255
0.280385 0.593759 0.553811
0.385901 0.608896 0.568658
0.500908 0.622492 0.581964
0.624872 0.634684 0.593881
0.715541 0.655161 0.632532
0.800259 0.679789 0.658488
0.890059 0.704128 0.682826
0.117098 0.707851 0.551156
0.206638 0.72874 0.571008
0.306966 0.747738 0.588968
0.417243 0.765042 0.605249
0.536797 0.780819 0.620005
0.665156 0.795178 0.633417
0.801526 0.807797 0.650889
0.914031 0.824613 0.707179
0.972213 0.856657 0.783001
0.133608 0.87013 0.58352
0.228336 0.893019 0.604669
0.33637 0.9131 0.624903
0.471733 0.925368 0.652415
0.625727 0.931655 0.694636
0.775296 0.93843 0.755123
0.896361 0.953216 0.830106
0.977798 0.97818 0.930861
1 1 1
0.21886 1 0.636988
0.406378 1 0.695689
0.601923 1 0.768124
0.794491 1 0.85922
0.965331 0.9991 0.970947
1 1 1
1 1 1
1 1 1
1 1 1
0.0449226 0.0487678 0.205234
0.0744945 0.0568399 0.255116
0.119738 0.0621653 0.304738
0.183093 0.0641794 0.351537
0.26569 0.0626535 0.393347
0.367239 0.0578164 0.428489
0.485405 0.0504311 0.455558
0.607217 0.044892 0.468574
0.718914 0.0450904 0.469139
0.0622263 0.107286 0.374136
0.106783 0.117159 0.420829
0.169863 0.123827 0.460777
0.250797 0.12755 0.492851
0.347539 0.128908 0.516518
0.456657 0.128893 0.531838
0.572869 0.12903 0.538796
0.682063 0.133806 0.534279
0.775967 0.145006 0.524422
0.0628367 0.193652 0.503853
0.123507 0.205798 0.532189
0.201022 0.215244 0.551812
0.291691 0.222965 0.56376
0.392737 0.229221 0.573205
0.50338 0.234104 0.581247
0.622202 0.238071 0.587289
0.730388 0.247593 0.582254
0.816587 0.265324 0.572854
0.0705119 0.301946 0.561944
0.143755 0.316228 0.578454
0.229023 0.328466 0.59292
0.325109 0.338964 0.605615
0.431189 0.347921 0.61677
0.546593 0.355489 0.626505
0.669535 0.36228 0.633875
0.772427 0.3776 0.627604
0.846128 0.402823 0.62092
0.086717 0.425177 0.59823
0.165881 0.441886 0.616251
0.256596 0.456596 0.632273
0.357778 0.469566 0.646555
0.468681 0.48101 0.659297
0.588708 0.491051 0.670619
0.715023 0.500679 0.678874
0.80322 0.524315 0.671901
0.868696 0.554665 0.67628
0.103166 0.56257 0.63418
0.187961 0.581506 0.653605
0.283879 0.598489 0.671092
0.389975 0.613779 0.686854
0.505531 0.627527 0.701091
0.63003 0.639872 0.713924
0.755947 0.653407 0.721645
0.826001 0.684672 0.728969
0.910185 0.711238 0.751675
0.119905 0.713191 0.669917
0.210086 0.734218 0.690669
0.311025 0.753353 0.709529
0.421851 0.770794 0.726711
0.541955 0.786725 0.742367
0.671473 0.801022 0.75671
0.808072 0.81416 0.772244
0.894682 0.839918 0.82005
0.957137 0.874662 0.860258
0.136995 0.876341 0.705547
0.232349 0.899351 0.727565
0.34728 0.917708 0.748486
0.491859 0.927993 0.772229
0.651759 0.933928 0.804181
0.798032 0.943893 0.846616
0.917052 0.961395 0.904418
0.991211 0.991348 0.980667
1 1 1
0.256992 1 0.755703
0.457893 1 0.801694
0.654368 1 0.855985
0.852338 0.999435 0.926482
1 1 1
1 1 1
1 1 1
1 1 1
1 1 1
0.0460059 0.0502785 0.265064
0.0768292 0.0575875 0.325811
0.123842 0.0620127 0.385763
0.189197 0.0631113 0.441962
0.273716 0.0608225 0.491936
0.376715 0.0554513 0.533806
0.495949 0.0477607 0.566354
0.627253 0.0390021 0.588663
0.75642 0.0339361 0.595239
0.0606241 0.108385 0.468025
0.106752 0.117601 0.522591
0.171466 0.123735 0.568765
0.253773 0.127153 0.605341
0.351278 0.128573 0.631662
0.460258 0.129046 0.647745
0.57644 0.129686 0.654902
0.700053 0.129778 0.659159
0.819745 0.133242 0.654948
0.0605936 0.194873 0.6177
0.123079 0.206806 0.648051
0.201999 0.216358 0.667674
0.293431 0.224353 0.679774
0.395132 0.230823 0.690196
0.506371 0.235904 0.699214
0.626612 0.23975 0.70695
0.754543 0.242771 0.712764
0.874601 0.250401 0.708339
0.0708476 0.303868 0.678523
0.144839 0.318318 0.695964
0.230777 0.330755 0.71136
0.32752 0.341436 0.725002
0.434195 0.350591 0.737087
0.550179 0.358343 0.747768
0.674968 0.364813 0.757168
0.806943 0.370565 0.76434
0.925002 0.382895 0.759045
0.0877699 0.428168 0.718166
0.167651 0.445014 0.737102
0.259007 0.459892 0.754025
0.3608 0.473045 0.769238
0.472282 0.484657 0.782879
0.592859 0.494865 0.795132
0.722057 0.503792 0.806073
0.857679 0.5122 0.814328
0.968963 0.53048 0.807446
0.104875 0.566522 0.757397
0.190341 0.585611 0.777707
0.286885 0.602747 0.796078
0.393561 0.618189 0.812741
0.509697 0.63209 0.827878
0.63473 0.644602 0.841596
0.768215 0.655802 0.854017
0.906554 0.667018 0.862821
0.999146 0.694575 0.854673
0.12224 0.718074 0.796338
0.213062 0.739223 0.81796
0.314595 0.758495 0.837705
0.426001 0.776089 0.855741
0.546639 0.792157 0.872267
0.678309 0.806348 0.885222
0.814801 0.820661 0.893172
0.927733 0.843366 0.897581
0.972061 0.886366 0.91284
0.139925 0.882078 0.835111
0.236622 0.904997 0.857847
0.361929 0.920974 0.875547
0.516167 0.929793 0.889326
0.680598 0.936477 0.90425
0.823972 0.949676 0.926726
0.939666 0.971008 0.959991
1 1 1
1 1 1
0.302678 1 0.86952
0.511223 1 0.896468
0.714351 1 0.929885
0.913451 0.998596 0.973617
1 1 1
1 1 1
1 1 1
1 1 1
1 1 1
0.0464332 0.0511482 0.335897
0.0784772 0.0576181 0.40827
0.127199 0.0610971 0.47895
0.194461 0.0612955 0.544625
0.280735 0.0582742 0.602502
0.385 0.0525063 0.650538
0.504662 0.0448005 0.687373
0.635737 0.0363928 0.712444
0.772335 0.0290074 0.725261
0.0582742 0.10869 0.574105
0.105959 0.117296 0.636133
0.17229 0.122972 0.687877
0.255879 0.126192 0.727962
0.35404 0.12781 0.755749
0.46273 0.128969 0.771115
0.578927 0.130129 0.77821
0.703777 0.13019 0.783993
0.836255 0.129488 0.788083
0.057969 0.195422 0.741268
0.122332 0.207248 0.772335
0.202609 0.21706 0.790616
0.294728 0.225269 0.803525
0.397055 0.231952 0.814862
0.508888 0.237247 0.824811
0.629709 0.241306 0.833478
0.759045 0.24419 0.84097
0.895659 0.246342 0.846571
0.0707256 0.305333 0.802777
0.145464 0.319966 0.821134
0.23209 0.33257 0.837446
0.329458 0.34345 0.851987
0.436744 0.352789 0.864988
0.553307 0.360723 0.87657
0.678645 0.367391 0.886854
0.81236 0.372869 0.895949
0.952911 0.377691 0.902907
0.088365 0.430686 0.845685
0.168948 0.4477 0.865476
0.26096 0.462745 0.883299
0.363363 0.476066 0.899382
0.475425 0.487846 0.913924
0.596551 0.498222 0.927047
0.726284 0.507317 0.938857
0.864225 0.515206 0.949477
1 0.522591 0.95758
0.106142 0.570031 0.888075
0.192279 0.589242 0.909239
0.289448 0.606546 0.928481
0.396704 0.622141 0.945998
0.51339 0.636194 0.96199
0.638956 0.648859 0.976562
0.772961 0.660227 0.989837
0.915022 0.67039 1
1 0.682643 1
0.124132 0.722484 0.930129
0.215595 0.74377 0.95259
0.317739 0.76318 0.973159
0.429694 0.780911 0.99205
0.551202 0.79707 1
0.686 0.811383 1
0.822095 0.827634 1
0.936965 0.851896 0.996124
1 0.888197 0.988434
0.142412 0.887358 0.971939
0.244221 0.90927 0.993454
0.381003 0.923125 1
0.544961 0.931151 0.998947
0.710811 0.940017 0.991821
0.853513 0.956237 0.989899
0.964446 0.982345 0.993637
1 1 1
1 1 1
0.355413 1 0.973693
0.562997 1 0.978698
0.779248 0.999802 0.984588
0.976883 0.999527 0.997711
1 1 1
1 1 1
1 1 1
1 1 1
1 1 1
