luts/green forst ( only for time laps with cloud ).cube
LUT_3D_SIZE 16
0.012256 0.023946 0.011864
0.047251 0.022644 0.009755
0.053622 0.022936 0.009867
0.062570 0.022644 0.009755
0.078370 0.021168 -0.003732
0.119130 -0.047419 -0.050625
0.161877 -0.047934 -0.049600
0.235569 0.005056 0.013608
0.347155 -0.057350 0.006575
0.440764 -0.059452 -0.032766
0.508791 -0.059465 -0.065230
0.579424 -0.059472 -0.065242
0.655165 -0.059470 -0.065253
0.729313 -0.059485 -0.065261
0.780786 -0.059497 -0.065263
0.783718 -0.059504 -0.065273
0.007884 0.055686 0.008993
0.045360 0.055558 0.007832
0.051541 0.045608 0.008993
0.060686 0.045476 0.008830
0.077201 0.049390 0.007998
0.112389 0.047031 -0.046559
0.181387 -0.068629 -0.091922
0.236496 0.051063 0.006240
0.347682 0.003499 0.005720
0.441165 -0.002323 -0.033671
0.508581 -0.002786 -0.065230
0.578305 -0.003228 -0.065243
0.655042 -0.003574 -0.065253
0.729313 -0.003841 -0.065261
0.780603 -0.004043 -0.065264
0.783718 -0.004056 -0.065273
0.007495 0.062929 0.013194
0.035522 0.062985 0.009106
0.051152 0.063938 0.008201
0.061567 0.063994 0.009106
0.077792 0.064512 0.005999
0.115000 0.058157 -0.051418
0.184268 -0.053974 -0.096576
0.241404 0.076300 0.006473
0.352274 0.062308 0.004339
0.443706 0.001752 -0.036777
0.510836 -0.002786 -0.065231
0.580829 -0.003228 -0.065244
0.657682 -0.003574 -0.065255
0.730069 -0.003855 -0.065263
0.781021 -0.004043 -0.065265
0.783718 -0.004056 -0.065274
0.006302 0.076496 0.020031
0.030643 0.076898 0.011578
0.047660 0.078515 0.010033
0.062052 0.077906 0.010579
0.080197 0.077677 -0.013159
0.120867 0.078985 -0.064752
0.185905 0.062554 -0.101261
0.249565 0.113261 0.007117
0.359733 0.121527 0.004636
0.448003 0.105413 -0.039253
0.512970 0.065080 -0.065235
0.583597 0.006651 -0.065245
0.659399 -0.003574 -0.065253
0.730863 -0.003855 -0.065260
0.781211 -0.004043 -0.065268
0.783718 -0.004056 -0.009148
-0.044298 0.105066 -0.034246
-0.041088 0.105986 -0.042135
0.027578 0.106075 -0.036966
0.052861 0.109022 -0.042755
0.083024 0.109512 -0.056457
0.124444 0.111714 -0.089819
0.180307 0.125643 -0.088019
0.260036 0.163119 0.008686
0.369344 0.186369 0.007457
0.453538 0.180860 -0.026290
0.517984 0.160169 -0.065244
0.586863 0.139526 -0.065251
0.662559 0.117128 -0.065258
0.732329 0.088590 -0.065260
0.781270 0.043544 -0.025778
0.783718 0.034152 0.027002
-0.127184 0.168907 -0.104797
-0.117875 0.168705 -0.107911
-0.119558 0.171940 -0.111725
-0.098965 0.172760 -0.099161
-0.034193 0.177443 -0.129671
0.124608 0.173486 -0.123307
0.181360 0.188532 0.011024
0.273233 0.232970 0.011423
0.379919 0.269319 0.010029
0.459737 0.267274 0.003328
0.523150 0.249164 -0.041945
0.591501 0.236022 -0.051999
0.666085 0.227913 -0.044229
0.734586 0.218847 0.000732
0.782489 0.210764 0.016981
0.783718 0.210773 0.059463
-0.057907 0.266964 0.082997
-0.002213 0.267456 0.082656
-0.002237 0.273003 0.077999
-0.002277 0.282570 0.067666
0.014440 0.291961 0.028846
0.132927 0.298568 0.011814
0.205186 0.306086 0.012851
0.292261 0.339878 0.011814
0.394090 0.380237 0.012853
0.466447 0.373472 0.013466
0.526637 0.353999 0.016850
0.595915 0.346230 0.013466
0.669571 0.341767 0.013580
0.736256 0.336502 0.024789
0.783718 0.333705 0.053562
0.783718 0.337540 0.105767
-0.057916 0.455722 0.140739
-0.003029 0.456275 0.140370
-0.003059 0.461767 0.134736
-0.003090 0.470385 0.120374
-0.014992 0.481488 0.090474
0.067792 0.492875 0.015315
0.215477 0.496615 0.015502
0.310646 0.500930 0.015315
0.407587 0.516527 0.014670
0.476238 0.494721 0.015994
0.533208 0.470151 0.024663
0.600355 0.463463 0.026993
0.674136 0.462831 0.032614
0.743042 0.461620 0.044568
0.783718 0.462831 0.111597
0.783718 0.473722 0.180536
-0.057943 0.606127 0.201714
-0.003914 0.606486 0.200833
-0.003929 0.609131 0.193719
-0.003958 0.613537 0.178830
-0.023073 0.619311 0.148912
-0.025632 0.624069 0.096107
0.151463 0.628366 0.021938
0.289537 0.629093 0.022126
0.391828 0.628826 0.022572
0.481661 0.622144 0.023553
0.540421 0.589527 0.026573
0.606515 0.578814 0.044541
0.678724 0.580400 0.064426
0.749235 0.583643 0.081556
0.783718 0.589480 0.199380
0.783718 0.610872 0.307499
-0.057976 0.698450 0.254404
-0.004703 0.698569 0.253502
-0.004726 0.700466 0.246402
-0.004748 0.703577 0.230502
-0.030547 0.706482 0.205367
-0.028934 0.711331 0.167599
0.018775 0.714559 0.108388
0.231514 0.715336 0.038622
0.353457 0.712959 0.040473
0.452430 0.709384 0.042815
0.539599 0.700909 0.049473
0.611022 0.688257 0.056811
0.679761 0.684458 0.093211
0.749235 0.692380 0.143527
0.781698 0.704624 0.318147
0.783718 0.729768 0.470450
-0.058003 0.783327 0.312027
-0.005359 0.783423 0.311352
-0.005359 0.785364 0.303990
-0.005378 0.787495 0.290339
-0.005396 0.791189 0.270744
-0.017870 0.793698 0.240438
-0.003606 0.796207 0.205761
0.137994 0.801768 0.073477
0.309626 0.797295 0.077542
0.419844 0.791171 0.082592
0.512655 0.784182 0.089535
0.601386 0.784111 0.101589
0.679063 0.780877 0.121858
0.743827 0.780925 0.198352
0.777117 0.797000 0.432765
0.783718 0.813197 0.593247
-0.058042 0.868237 0.378461
-0.005869 0.868232 0.377874
-0.005869 0.869232 0.372470
-0.005902 0.871285 0.361888
-0.005885 0.872717 0.344568
-0.039459 0.874930 0.324050
0.008811 0.875683 0.307597
0.094560 0.882017 0.220094
0.267292 0.881713 0.153387
0.393988 0.874418 0.164491
0.492534 0.867650 0.177377
0.574760 0.858263 0.193474
0.657125 0.857978 0.223979
0.732329 0.859980 0.279524
0.772828 0.863986 0.482924
0.783718 0.869095 0.653420
-0.058065 0.940490 0.447737
-0.006308 0.940558 0.447480
-0.006308 0.941377 0.443732
-0.006308 0.941436 0.435482
-0.027679 0.943286 0.426287
-0.040595 0.943431 0.418239
0.022394 0.940636 0.418288
0.123773 0.946920 0.347280
0.276810 0.948395 0.310891
0.403190 0.941348 0.342678
0.492095 0.933250 0.364882
0.569420 0.925762 0.390654
0.635469 0.916230 0.419739
0.702135 0.917291 0.457169
0.762615 0.922962 0.537738
0.783390 0.916323 0.679104
-0.058107 0.986901 0.518311
-0.006625 0.986905 0.518004
-0.006625 0.986901 0.517278
-0.006625 0.986905 0.513986
-0.025948 0.987093 0.513708
-0.035984 0.985110 0.521708
0.075002 0.985827 0.505706
0.189864 0.988278 0.468752
0.342983 0.986670 0.498780
0.453305 0.980698 0.551746
0.519965 0.974524 0.565791
0.580477 0.970643 0.580764
0.635818 0.965169 0.599269
0.684439 0.957472 0.616244
0.735404 0.957098 0.637240
0.777906 0.957472 0.710274
-0.058131 1.000032 0.590249
-0.006816 1.000032 0.590352
-0.006816 1.000032 0.591231
-0.006816 1.000032 0.597352
-0.043275 1.000073 0.607222
0.145571 1.000032 0.620173
0.286058 1.000032 0.647212
0.391490 1.000032 0.688148
0.452101 0.999037 0.699812
0.499524 0.996786 0.697081
0.553226 0.994265 0.714842
0.597583 0.991623 0.719074
0.641779 0.989914 0.726559
0.683082 0.987357 0.735026
0.722915 0.984385 0.749555
0.762037 0.982913 0.767989
0.045245 1.000032 0.685143
0.075612 1.000032 0.683239
0.077418 1.000032 0.683109
0.087102 1.000032 0.689197
0.226131 1.000032 0.704550
0.345886 1.000032 0.745138
0.428363 1.000032 0.779522
0.480712 1.000032 0.797090
0.525550 1.000032 0.810673
0.568795 1.000032 0.826210
0.611351 1.000032 0.844645
0.643897 1.000032 0.855179
0.667955 1.001555 0.853957
0.663662 1.014992 0.779595
0.703162 1.013879 0.764029
0.750201 1.006258 0.787628
0.010947 0.023457 0.049811
0.048664 0.019908 0.050302
0.054610 0.019425 0.039813
0.064754 0.018901 0.038310
0.080874 0.015120 0.042992
0.123243 -0.051764 0.027781
0.166675 -0.057557 -0.019373
0.236622 0.004834 0.056773
0.348254 -0.059418 0.053185
0.441365 -0.059452 0.027640
0.507604 -0.059465 -0.002774
0.579252 -0.059472 -0.003180
0.655967 -0.059470 -0.003557
0.729313 -0.059485 -0.003841
0.780809 -0.059497 -0.004043
0.783718 -0.059504 -0.004056
0.007873 0.055584 0.047448
0.042897 0.056188 0.046349
0.050764 0.055584 0.045453
0.064346 0.056188 0.045355
0.082359 0.053425 0.043992
0.120793 0.036300 0.009382
0.184242 -0.063738 -0.066086
0.246429 0.021179 0.042362
0.349698 0.001002 0.052706
0.442123 -0.002330 0.025344
0.508258 -0.002809 -0.002820
0.579243 -0.003228 -0.003199
0.656870 -0.003574 -0.003574
0.730069 -0.003855 -0.003855
0.781026 -0.004043 -0.004043
0.783718 -0.004056 -0.004056
0.007470 0.062894 0.040263
0.039280 0.063994 0.047430
0.048064 0.063899 0.046258
0.060729 0.063994 0.046427
0.082108 0.063507 0.043992
0.118425 0.057493 0.021459
0.197787 -0.073457 -0.093311
0.254014 0.059508 0.026455
0.359760 0.027332 0.018761
0.444789 -0.002015 0.022666
0.510658 -0.016340 -0.016340
0.581151 -0.003237 -0.003228
0.657863 -0.003574 -0.003574
0.730069 -0.003855 -0.003855
0.781158 -0.004043 -0.004043
0.783718 -0.004056 -0.003489
0.006302 0.076485 0.044040
0.033058 0.078125 0.051018
0.039235 0.079512 0.047037
0.056804 0.080143 0.045015
0.080661 0.079635 0.042992
0.117909 0.081218 0.024120
0.203996 -0.037529 -0.112550
0.259635 0.106426 0.026120
0.365785 0.113525 0.018649
0.449148 0.101851 0.009469
0.513608 0.060104 -0.013108
0.584739 -0.017999 -0.018704
0.659457 -0.003590 -0.003590
0.730863 -0.003855 -0.003841
0.781210 -0.004043 -0.004043
0.783718 -0.004070 0.042812
-0.030704 0.103628 0.053502
0.021158 0.104300 0.060967
0.025280 0.106651 0.056503
0.041074 0.109338 0.043971
0.078724 0.110665 0.039991
0.119443 0.113171 -0.042950
0.202829 0.108650 -0.129520
0.267290 0.160541 0.027142
0.374140 0.181883 0.020016
0.454702 0.178332 0.011932
0.517372 0.158708 -0.016243
0.587230 0.138019 -0.022360
0.661158 0.114768 -0.006462
0.733126 0.085563 -0.003855
0.782239 0.026062 0.015064
0.783718 0.028108 0.082616
-0.128380 0.168605 -0.066569
-0.116827 0.168041 -0.067612
-0.119444 0.171627 -0.078738
-0.121349 0.176091 -0.098035
-0.089670 0.181104 -0.123328
0.118268 0.178107 -0.136704
0.183570 0.189176 -0.030754
0.277603 0.232541 0.029760
0.383742 0.266660 0.024194
0.461459 0.264199 0.018082
0.523150 0.247509 0.011201
0.592441 0.234951 -0.002024
0.666479 0.225247 0.004404
0.736256 0.213412 0.020823
0.783718 0.200050 0.051363
0.783718 0.197260 0.095798
-0.057908 0.267338 0.123379
-0.002229 0.268014 0.123246
-0.002253 0.275401 0.120389
-0.002284 0.282125 0.108253
0.013155 0.293872 0.080594
0.123528 0.302181 0.032895
0.203139 0.307982 0.030610
0.293597 0.340522 0.026898
0.396305 0.378905 0.027327
0.468510 0.370220 0.026853
0.529619 0.351690 0.025328
0.598721 0.340950 0.025855
0.673381 0.335411 0.029588
0.743827 0.327738 0.038283
0.783718 0.323317 0.096570
0.783718 0.327738 0.148255
-0.057916 0.455881 0.187202
-0.003049 0.456622 0.186796
-0.003070 0.461924 0.180186
-0.003110 0.470734 0.166793
-0.017946 0.481245 0.137934
0.028138 0.494060 0.066067
0.209193 0.498380 0.030956
0.309277 0.502106 0.030076
0.408324 0.516517 0.027636
0.477441 0.493214 0.029323
0.536261 0.468115 0.040629
0.606149 0.458960 0.044316
0.681047 0.456079 0.053635
0.752275 0.453811 0.064777
0.783718 0.456079 0.159619
0.783718 0.472944 0.235727
-0.057944 0.606322 0.248954
-0.003929 0.606628 0.248397
-0.003943 0.609353 0.239956
-0.003972 0.613705 0.224401
-0.016322 0.618787 0.194984
-0.015958 0.625161 0.144838
0.131108 0.629932 0.038028
0.284386 0.630182 0.037862
0.390598 0.629503 0.038008
0.482224 0.621837 0.038725
0.543088 0.589221 0.043005
0.610937 0.578492 0.067718
0.687161 0.577832 0.089168
0.757650 0.577805 0.111062
0.783718 0.589940 0.261141
0.783718 0.615130 0.370001
-0.057976 0.698455 0.300010
-0.004726 0.698612 0.298968
-0.004748 0.700472 0.291990
-0.004748 0.703619 0.275964
-0.029781 0.706562 0.250952
-0.008797 0.712203 0.212204
0.018740 0.714676 0.152967
0.217404 0.717212 0.058246
0.348288 0.714287 0.060225
0.451076 0.710290 0.062870
0.539809 0.702109 0.068221
0.613489 0.687063 0.081868
0.685889 0.683581 0.125894
0.755353 0.690335 0.188597
0.781605 0.707737 0.386824
0.783718 0.730707 0.518542
-0.058004 0.783402 0.357109
-0.005378 0.783477 0.356087
-0.005378 0.785418 0.348119
-0.005396 0.786477 0.335068
-0.005396 0.791200 0.315867
-0.035451 0.794813 0.285616
-0.004270 0.796218 0.250888
0.095284 0.803948 0.119647
0.297570 0.799775 0.105180
0.415063 0.793103 0.111050
0.510550 0.785687 0.117186
0.602043 0.784010 0.134050
0.681198 0.780116 0.158078
0.747609 0.780614 0.252200
0.776915 0.798248 0.492999
0.783718 0.809894 0.622109
-0.058044 0.868252 0.423515
-0.005902 0.868288 0.422874
-0.005902 0.869240 0.417536
-0.005902 0.871341 0.406888
-0.005885 0.872670 0.390768
-0.028622 0.874915 0.371740
0.008650 0.875701 0.354762
0.095052 0.882002 0.280792
0.249103 0.884407 0.198116
0.387232 0.876622 0.211345
0.489647 0.868305 0.227115
0.573416 0.857418 0.246332
0.658385 0.858882 0.280051
0.733126 0.860375 0.340086
0.772542 0.863993 0.536002
0.783718 0.865463 0.676053
-0.058065 0.940489 0.492427
-0.006308 0.940548 0.491738
-0.006308 0.941376 0.488434
-0.006308 0.941425 0.481745
-0.027659 0.943240 0.471513
-0.027354 0.942322 0.465278
0.022425 0.940587 0.464510
0.124332 0.946753 0.405277
0.276344 0.948285 0.379590
0.402191 0.942748 0.405086
0.492404 0.934128 0.425568
0.569980 0.928198 0.450096
0.635135 0.916249 0.474919
0.702141 0.917701 0.508430
0.762284 0.922006 0.580887
0.783324 0.913828 0.700377
-0.058106 0.986838 0.561329
-0.006653 0.986894 0.561032
-0.006653 0.986838 0.558323
-0.006653 0.986894 0.558028
-0.029378 0.987128 0.556858
-0.029369 0.984944 0.563939
0.075192 0.985863 0.551854
0.190011 0.988120 0.522963
0.342983 0.986443 0.553238
0.448642 0.980438 0.593023
0.515364 0.975707 0.601237
0.576579 0.969651 0.613024
0.633372 0.964733 0.629016
0.683529 0.957631 0.643665
0.735179 0.956721 0.662983
0.777760 0.955995 0.730596
-0.058131 1.000032 0.629279
-0.006816 1.000032 0.629180
-0.006816 1.000032 0.632245
-0.006816 1.000032 0.636207
-0.029072 1.000023 0.646443
0.147547 1.000032 0.655960
0.285742 1.000032 0.682464
0.391169 1.000032 0.719928
0.451785 0.999001 0.731729
0.498962 0.996718 0.730550
0.546772 0.994264 0.733770
0.593192 0.992197 0.739643
0.638647 0.989819 0.745527
0.681395 0.987137 0.755834
0.722113 0.984262 0.769527
0.761806 0.982558 0.786822
0.045216 1.000032 0.716178
0.075508 1.000032 0.714352
0.078155 1.000032 0.715178
0.086237 1.000032 0.719399
0.227521 1.000032 0.733897
0.345803 1.000032 0.769744
0.428244 1.000032 0.800850
0.480637 1.000032 0.816710
0.525524 1.000032 0.829046
0.568700 1.000032 0.843026
0.610559 1.000032 0.858036
0.642222 1.000032 0.867002
0.650000 1.007939 0.843958
0.651369 1.019312 0.779330
0.704382 1.012135 0.794927
0.750942 1.004208 0.822362
0.011265 0.023427 0.054423
0.039192 0.020831 0.055661
0.054927 0.019397 0.054423
0.064471 0.018816 0.055661
0.082303 0.012097 0.055085
0.127569 -0.056853 0.041063
0.161971 -0.033022 0.056090
0.244781 -0.044795 0.067054
0.355935 -0.059443 0.066986
0.445870 -0.059452 0.055031
0.512216 -0.059465 0.028994
0.582985 -0.059473 0.004045
0.659555 -0.059470 -0.003540
0.730863 -0.059485 -0.003841
0.781319 -0.059498 0.003668
0.783718 -0.059504 0.041045
0.008630 0.046408 0.051529
0.043275 0.055722 0.052280
0.050759 0.054473 0.051529
0.063193 0.054715 0.051281
0.082819 0.052417 0.051346
0.127200 0.005496 0.030982
0.179333 -0.048590 0.017359
0.246713 0.005496 0.066974
0.357392 -0.001869 0.066906
0.446650 -0.002360 0.054824
0.512138 -0.002843 0.028912
0.583016 -0.003247 0.004855
0.659770 -0.003590 -0.003590
0.732329 -0.003855 -0.003841
0.781545 -0.004043 0.003776
0.783718 -0.004056 0.041908
0.007738 0.062772 0.053721
0.040060 0.063730 0.052916
0.047567 0.063780 0.052722
0.065337 0.060706 0.051918
0.091405 0.056673 0.048970
0.150105 -0.046461 -0.053537
0.190232 0.035505 0.039972
0.271906 0.014674 0.054628
0.374869 -0.001949 0.055748
0.456404 -0.002432 0.030826
0.520417 -0.002899 -0.002899
0.591229 -0.003294 -0.003284
0.668020 -0.003606 -0.003606
0.737711 -0.003885 -0.003855
0.783718 -0.004056 -0.004056
0.783718 -0.004056 0.003635
0.006540 0.076737 0.058736
0.033630 0.078266 0.056701
0.037172 0.079758 0.054740
0.057379 0.080283 0.049703
0.086191 0.078882 0.046992
0.133246 0.072743 -0.033379
0.198797 0.066788 -0.060060
0.282647 0.089880 0.026685
0.385264 0.082385 0.018914
0.460642 0.044685 0.009676
0.524679 -0.017046 -0.018505
0.594711 -0.004548 -0.004548
0.671110 -0.003623 -0.003623
0.739279 -0.003885 -0.003870
0.783718 -0.004056 -0.004056
0.783718 -0.004070 0.043551
-0.028582 0.103991 0.067398
0.021733 0.104769 0.067024
0.022216 0.107016 0.063399
0.035521 0.109810 0.052030
0.077542 0.111106 0.042992
0.125562 0.112227 -0.045947
0.207765 0.110094 -0.114287
0.282611 0.155571 0.027930
0.387881 0.169166 0.020390
0.463547 0.158523 0.012384
0.525767 0.135914 -0.017686
0.596852 0.107106 -0.021918
0.671882 0.071569 -0.003639
0.739279 0.042337 -0.003870
0.783718 -0.004056 0.032566
0.783718 -0.003765 0.084437
-0.128660 0.169332 -0.048394
-0.117104 0.168667 -0.049066
-0.120648 0.173355 -0.067092
-0.124499 0.177768 -0.089662
-0.113880 0.185769 -0.127244
0.117596 0.179740 -0.137287
0.187863 0.189787 0.021848
0.286136 0.231147 0.031390
0.392741 0.259494 0.024927
0.467750 0.251554 0.018431
0.529131 0.234289 0.008934
0.598751 0.220315 0.003475
0.673381 0.208926 0.014503
0.743042 0.194101 0.021727
0.783718 0.180702 0.058483
0.783718 0.176962 0.094706
-0.057908 0.269133 0.133031
-0.002237 0.269918 0.132944
-0.002261 0.275180 0.128031
-0.002300 0.284032 0.118948
0.011133 0.294914 0.093063
0.114684 0.306772 0.033097
0.203396 0.310043 0.032075
0.297784 0.341049 0.028100
0.400814 0.374160 0.029323
0.472638 0.361759 0.027833
0.534121 0.341957 0.026324
0.605180 0.331544 0.027833
0.679481 0.323959 0.029229
0.749235 0.314868 0.039593
0.783718 0.309845 0.101206
0.783718 0.313890 0.147566
-0.057917 0.457968 0.200237
-0.003059 0.458734 0.199906
-0.003080 0.463029 0.191234
-0.003120 0.471855 0.178906
-0.019833 0.484210 0.150484
0.017603 0.496464 0.094461
0.202570 0.501306 0.032515
0.309470 0.503507 0.031481
0.410786 0.514736 0.028772
0.479807 0.488317 0.031443
0.539474 0.462330 0.041766
0.610042 0.453054 0.046437
0.686369 0.449797 0.052133
0.756837 0.445132 0.065698
0.783718 0.447784 0.165103
0.783718 0.464287 0.235661
-0.057944 0.607314 0.264003
-0.003943 0.607571 0.263224
-0.003943 0.610343 0.252003
-0.003986 0.614628 0.237236
-0.015896 0.620481 0.208818
-0.018475 0.625383 0.156349
0.100683 0.631547 0.039864
0.279286 0.631430 0.039382
0.390576 0.630135 0.039449
0.483669 0.620231 0.039876
0.544561 0.584749 0.046446
0.613918 0.573876 0.071864
0.690219 0.574274 0.090506
0.760690 0.572508 0.113050
0.783718 0.586339 0.268468
0.783718 0.610829 0.370990
-0.057977 0.699017 0.314663
-0.004726 0.699322 0.313644
-0.004748 0.701013 0.303658
-0.004770 0.703287 0.287640
-0.022718 0.706605 0.261570
-0.019297 0.712617 0.221948
0.017269 0.715707 0.164597
0.204677 0.718526 0.059993
0.344777 0.715084 0.061975
0.451046 0.710767 0.064599
0.542385 0.702054 0.070970
0.615748 0.684555 0.082596
0.687204 0.681636 0.128017
0.757650 0.686003 0.192946
0.782207 0.705821 0.392949
0.783718 0.728334 0.519872
-0.058004 0.783847 0.371129
-0.005378 0.783909 0.370375
-0.005378 0.784915 0.360154
-0.005396 0.787983 0.346387
-0.005415 0.791382 0.324044
-0.025548 0.795278 0.295122
-0.005433 0.797461 0.259073
0.086464 0.804327 0.145145
0.291264 0.800914 0.107476
0.412841 0.794084 0.113478
0.511887 0.786848 0.119474
0.602809 0.782982 0.135471
0.682529 0.778469 0.159075
0.749235 0.780184 0.258136
0.777455 0.797574 0.499986
0.783718 0.808405 0.624072
-0.058045 0.868501 0.437589
-0.005902 0.868678 0.436796
-0.005902 0.869497 0.427596
-0.005902 0.871668 0.413771
-0.005902 0.873771 0.396922
-0.023595 0.875341 0.377377
-0.005934 0.876749 0.359918
0.087459 0.882409 0.293396
0.239422 0.885841 0.201860
0.383786 0.877792 0.214764
0.488383 0.869703 0.231834
0.575305 0.858624 0.250760
0.658839 0.859507 0.284278
0.735374 0.861742 0.344778
0.772965 0.863468 0.542178
0.783718 0.864784 0.678676
-0.058065 0.940615 0.505804
-0.006308 0.940330 0.504985
-0.006308 0.941495 0.496795
-0.006308 0.942114 0.487016
-0.006278 0.944208 0.476088
-0.035059 0.944352 0.468791
0.007343 0.941534 0.467071
0.115394 0.946938 0.412801
0.268569 0.948866 0.382650
0.399172 0.943430 0.409147
0.491510 0.935604 0.431642
0.569276 0.927084 0.453114
0.634894 0.917778 0.479635
0.703145 0.918028 0.510159
0.762865 0.921583 0.583620
0.783629 0.913184 0.703136
-0.058106 0.986898 0.573232
-0.006653 0.986909 0.572931
-0.006653 0.986898 0.565235
-0.006653 0.986909 0.559925
-0.028111 0.987592 0.558742
-0.025231 0.985129 0.563286
0.063714 0.985731 0.558742
0.178061 0.988289 0.526294
0.334732 0.987082 0.552476
0.445715 0.981042 0.595130
0.514727 0.976433 0.604475
0.576724 0.970238 0.617121
0.633203 0.964970 0.629957
0.684547 0.958183 0.645197
0.735824 0.956885 0.663928
0.777972 0.955737 0.732164
-0.058131 1.000032 0.638347
-0.006816 1.000032 0.638406
-0.006816 1.000032 0.633318
-0.006816 1.000032 0.635426
-0.018266 1.000001 0.645769
0.113969 1.000032 0.656109
0.271767 1.000032 0.679769
0.385910 1.000032 0.720040
0.449403 0.999301 0.733954
0.497054 0.996934 0.732232
0.545130 0.994057 0.735871
0.592046 0.993037 0.739282
0.637870 0.989785 0.746449
0.680772 0.987049 0.756703
0.722156 0.984225 0.770430
0.761962 0.982579 0.787715
0.044969 1.000032 0.721721
0.075221 1.000032 0.720010
0.078672 1.000032 0.716642
0.082120 1.000032 0.717969
0.193553 1.000032 0.728970
0.327080 1.000032 0.764429
0.420295 1.000032 0.798901
0.476485 1.000032 0.816388
0.522425 1.000032 0.828722
0.566535 1.000032 0.843237
0.609764 1.000032 0.859689
0.641647 1.000032 0.869208
0.651382 1.007397 0.846858
0.650740 1.019399 0.777996
0.704227 1.012158 0.796855
0.751112 1.003976 0.824966
0.012258 0.023339 0.060498
0.039223 0.020625 0.061767
0.055154 0.019307 0.061499
0.064503 0.018610 0.061767
0.085733 -0.012029 0.065972
0.131812 -0.061885 0.063789
0.163095 0.002584 0.078968
0.252850 -0.059438 0.090786
0.364701 -0.059444 0.093691
0.451714 -0.059453 0.082261
0.516362 -0.059463 0.071695
0.588079 -0.059473 0.064267
0.663648 -0.059471 0.060307
0.734586 -0.059485 0.063827
0.782385 -0.059498 0.074305
0.783718 -0.059504 0.093824
0.009563 0.045731 0.057368
0.044130 0.055696 0.059476
0.050158 0.054803 0.058366
0.063279 0.055696 0.060477
0.085358 0.052417 0.064863
0.129894 -0.024393 0.062689
0.173458 -0.020092 0.076862
0.254771 -0.001445 0.090684
0.366294 -0.001910 0.093382
0.452495 -0.002411 0.082138
0.517954 -0.002877 0.071383
0.587342 -0.003275 0.063142
0.664542 -0.003606 0.060623
0.735374 -0.003870 0.063286
0.782498 -0.004056 0.074617
0.783718 -0.004070 0.094291
0.008453 0.062435 0.059978
0.041325 0.063467 0.061304
0.048289 0.063442 0.065978
0.066607 0.060446 0.065301
0.094823 0.055022 0.067978
0.154922 -0.059770 0.044298
0.190561 0.018738 0.077972
0.279020 -0.001537 0.085288
0.385223 -0.001996 0.083673
0.462841 -0.002481 0.073194
0.526201 -0.002932 0.060673
0.596894 -0.003312 0.051197
0.671882 -0.003639 0.045147
0.740776 -0.003900 0.048461
0.783718 -0.004056 0.061140
0.783718 -0.004070 0.084448
0.006842 0.076631 0.065898
0.034264 0.078026 0.065672
0.038246 0.078646 0.067898
0.058012 0.078026 0.067669
0.091018 0.074033 0.065093
0.166039 -0.046419 -0.050974
0.221246 0.037751 0.059094
0.309277 0.007650 0.075538
0.408867 -0.002122 0.068353
0.478487 -0.002601 0.050567
0.540615 -0.003029 0.016376
0.611787 -0.003385 -0.000411
0.686369 -0.003687 -0.003671
0.752275 -0.003929 -0.003900
0.783718 -0.004056 0.003158
0.783718 -0.004070 0.057145
-0.029697 0.104723 0.076935
0.021210 0.105367 0.077133
0.022216 0.107740 0.077932
0.033467 0.111420 0.072136
0.075669 0.110954 0.058714
0.132701 0.108906 0.028797
0.211264 0.121034 0.041719
0.318092 0.131078 0.033793
0.415637 0.124306 0.024452
0.482734 0.097541 0.016590
0.544323 0.057770 0.009465
0.616791 -0.016372 -0.018434
0.689491 -0.003703 -0.003703
0.754576 -0.003943 0.002305
0.783718 -0.004056 0.035010
0.783718 -0.004070 0.084229
-0.131486 0.170707 0.054982
-0.119364 0.170076 0.052137
-0.121493 0.172724 0.033984
-0.127179 0.181178 -0.056834
-0.123644 0.189163 -0.107808
0.115496 0.182440 -0.129035
0.198590 0.189163 0.011614
0.306235 0.224772 0.037875
0.411660 0.237878 0.029013
0.481639 0.220550 0.021880
0.544218 0.201586 0.016016
0.614921 0.184255 0.012884
0.688701 0.165628 0.016544
0.755353 0.143986 0.022625
0.783718 0.128336 0.064526
0.783718 0.124826 0.095596
-0.057908 0.271809 0.149506
-0.002261 0.272554 0.149654
-0.002277 0.277859 0.147507
-0.002323 0.288687 0.139664
-0.007141 0.301434 0.119037
0.084403 0.313660 0.040934
0.203050 0.313538 0.038053
