luts/Green light.cube
TITLE "Generated by Resolve"
LUT_3D_SIZE 9
0 0 0
0.00755322 0.00387579 0.00387579
0.0189059 0.00607309 0.00607309
0.037644 0.00965896 0.00965896
0.0731365 0.0167239 0.0167239
0.135073 0.0261692 0.0261692
0.213519 0.0321508 0.0321508
0.303029 0.0355688 0.0355688
0.393164 0.0389868 0.0389868
0.0061799 0.0242313 0.0061799
0.0238346 0.0418555 0.0152895
0.058732 0.0599527 0.0219883
0.110582 0.0746471 0.0238041
0.180255 0.0847486 0.0200198
0.267231 0.0901503 0.0108949
0.369787 0.0919661 0
0.476768 0.0929274 0
0.572061 0.0974289 0
0.0239261 0.111482 0.0239261
0.0475471 0.134859 0.0250248
0.0996262 0.150561 0.0175631
0.174533 0.160739 0.00366217
0.270436 0.165637 0
0.383429 0.166003 0
0.507927 0.164004 0
0.627024 0.163882 0
0.720607 0.171084 0
0.00260929 0.223392 0.00260929
0.0328832 0.246754 0
0.106554 0.258686 0
0.206928 0.264012 0
0.327672 0.264302 0
0.461646 0.261173 0
0.600565 0.257572 0
0.724636 0.258671 0
0.812833 0.269978 0
0 0.35227 0
0 0.373922 0
0.0915847 0.381628 0
0.216007 0.382681 0
0.357031 0.379736 0
0.506096 0.375387 0
0.653651 0.372625 0
0.779187 0.376989 0
0.862959 0.393912 0
0 0.490913 0
0 0.510414 0
0.075761 0.514748 0
0.219959 0.513527 0
0.375891 0.509972 0
0.534844 0.507546 0
0.687938 0.509667 0
0.820569 0.52462 0
0.918059 0.558633 0
0 0.631724 0
0 0.649973 0
0.0881361 0.65362 0
0.248264 0.655818 0
0.419837 0.662989 0
0.59823 0.67921 0
0.775357 0.705409 0
0.929625 0.742168 0
1 0.790616 0.0195163
0 0.779171 0
0 0.809689 0
0.158816 0.833478 0
0.343282 0.859846 0
0.535851 0.887922 0.00726329
0.723369 0.913359 0.0332952
0.895552 0.934844 0.0552834
1 0.955169 0.0759899
1 0.979187 0.100298
0 0.994614 0
0.10988 1 0.0412146
0.276982 1 0.0704814
0.451087 1 0.0871901
0.622889 1 0.0952621
0.783978 1 0.0948806
0.925704 1 0.0862898
1 1 0.074815
1 1 0.0706035
0.00111391 0.00111391 0.00698863
0.0087129 0.00483711 0.011902
0.0205234 0.00697337 0.0151675
0.0421607 0.0115663 0.0220493
0.0857404 0.0206302 0.0360266
0.15082 0.0289616 0.0509957
0.232685 0.0336309 0.0631723
0.324712 0.0356603 0.0733196
0.416007 0.0379339 0.0841382
0.00820935 0.028397 0.0200198
0.0277562 0.0482795 0.0357214
0.0644999 0.0658579 0.0483406
0.118517 0.0793317 0.0563211
0.190799 0.0880446 0.0591592
0.280537 0.0920272 0.0570077
0.385641 0.0924086 0.0510262
0.494331 0.0922103 0.0444038
0.589075 0.0959335 0.0419013
0.0234531 0.118425 0.0588693
0.0473945 0.140764 0.0671092
0.101488 0.155535 0.0670329
0.178866 0.16434 0.0606546
0.277363 0.167819 0.0489815
0.392645 0.166903 0.0335393
0.518883 0.163821 0.0165103
0.638743 0.163012 0.00282292
0.731517 0.169802 0
0 0.22948 0.0626841
0.0289464 0.251713 0.0621805
0.104921 0.262547 0.0509804
0.207767 0.26659 0.0343175
0.330434 0.265507 0.0144198
0.466423 0.261753 0
0.606439 0.257588 0
0.73077 0.258473 0
0.818387 0.269871 0
0 0.35697 0.0372015
0 0.377676 0.0337682
0.0886244 0.384329 0.0188449
0.215198 0.384497 0.00047303
0.357839 0.380819 0
0.508263 0.376333 0
0.656428 0.373571 0
0.781842 0.378134 0
0.865278 0.395712 0
0 0.494011 0.00389105
0 0.512947 0.00500496
0.0741283 0.516716 0
0.220081 0.515251 0
0.377325 0.511788 0
0.537194 0.50988 0
0.691691 0.51342 0
0.826307 0.530373 0
0.926802 0.567407 0.0284581
0 0.633829 0
0 0.652033 0.0053254
0.0907454 0.656245 0.00886549
0.252949 0.660502 0.0131533
0.427207 0.670344 0.0230411
0.607919 0.688899 0.0417182
0.786999 0.717083 0.0701457
0.942153 0.754726 0.108186
1 0.801328 0.15523
0 0.784558 0.0278477
0.00526436 0.818189 0.0615702
0.16997 0.844556 0.0881208
0.355505 0.871977 0.115908
0.547997 0.899992 0.144411
0.733776 0.923735 0.168643
0.90248 0.941756 0.187076
1 0.959533 0.205142
1 0.980117 0.22594
0.005066 1 0.130007
0.121202 1 0.177417
0.286198 1 0.204517
0.457862 1 0.218738
0.626841 1 0.223941
0.78378 1 0.219364
0.92163 1 0.206882
1 1 0.193942
1 1 0.188907
0.00224308 0.00224308 0.014847
0.00968948 0.00561532 0.0204929
0.0230411 0.00842298 0.0261234
0.0483101 0.0141604 0.0376135
0.0985428 0.0242618 0.0594339
0.166949 0.0314031 0.0805371
0.25182 0.0346227 0.0992447
0.346365 0.0352636 0.116487
0.438849 0.0364233 0.134966
0.011017 0.0342412 0.0382391
0.0314641 0.054612 0.060502
0.0699016 0.071397 0.0794385
0.126131 0.0836042 0.0939803
0.2009 0.0908522 0.103716
0.293553 0.093431 0.108888
0.40116 0.0924392 0.110552
0.511421 0.0910964 0.111864
0.60621 0.0941329 0.117449
0.0224765 0.125017 0.0991073
0.0468452 0.146532 0.114855
0.102892 0.160067 0.122347
0.182773 0.167514 0.123659
0.283558 0.169451 0.11957
0.401404 0.167468 0.111772
0.529244 0.163348 0.102174
0.649439 0.161776 0.095613
0.742 0.168444 0.0978103
0 0.234928 0.128649
0.0247044 0.256382 0.136355
0.102998 0.266011 0.132769
0.208316 0.268833 0.123323
0.333165 0.266682 0.110124
0.470771 0.262089 0.0956588
0.611765 0.25742 0.0825055
0.735958 0.257939 0.0760204
0.823484 0.269795 0.0822614
0 0.360891 0.128862
0 0.381079 0.132433
0.0856641 0.386755 0.123583
0.214359 0.386114 0.110582
0.358633 0.381872 0.0963149
0.51017 0.377142 0.0836957
0.65893 0.374502 0.0754559
0.784207 0.37937 0.0770428
0.867628 0.397971 0.094667
0 0.496757 0.115862
0 0.515297 0.121721
0.0727703 0.518578 0.115389
0.220127 0.516609 0.106966
0.378836 0.513558 0.100542
0.539773 0.512459 0.0989853
0.696529 0.518257 0.104799
0.833524 0.537591 0.124163
0.936339 0.576974 0.163607
0 0.635981 0.117021
0 0.654124 0.132403
0.0936294 0.659113 0.137331
0.258152 0.66569 0.143923
0.435645 0.678782 0.157076
0.618906 0.69987 0.178302
0.798978 0.729061 0.207721
0.954223 0.766857 0.245869
1 0.811734 0.291096
0 0.790616 0.159518
0.0141146 0.826993 0.195987
0.181582 0.856077 0.225269
0.368063 0.884428 0.253971
0.559243 0.911162 0.281117
0.742992 0.932906 0.303273
0.909133 0.948425 0.319081
1 0.963455 0.33434
1 0.979904 0.350927
0.0177462 1 0.268086
0.131975 1 0.313527
0.293675 1 0.337285
0.463218 1 0.34934
0.629465 1 0.351781
0.782879 1 0.343648
0.917113 1 0.32752
1 1 0.313039
1 1 0.307454
0.00329595 0.00329595 0.0234379
0.0105592 0.00628672 0.0296788
0.0262608 0.0102998 0.0393072
0.0570535 0.0178378 0.0582742
0.111482 0.0275731 0.0872206
0.183093 0.0334173 0.11487
0.270878 0.0351263 0.140429
0.367864 0.0343786 0.165072
0.461463 0.0344244 0.191394
0.0139467 0.0407263 0.0610666
0.0348669 0.0607767 0.0898146
0.0749371 0.076585 0.115419
0.133394 0.0874647 0.136858
0.210559 0.0931868 0.153628
0.306172 0.0944076 0.166445
0.416251 0.0920577 0.175845
0.527916 0.089601 0.185016
0.622812 0.0920577 0.19855
0.0209812 0.131182 0.14461
0.0458381 0.151934 0.168185
0.103868 0.164202 0.183383
0.186236 0.17026 0.192401
0.289509 0.170855 0.19585
0.409659 0.167697 0.195453
0.539101 0.162631 0.192966
0.659724 0.160433 0.193072
0.751781 0.166964 0.201663
0 0.240085 0.200366
0.0201572 0.260639 0.216068
0.100786 0.269047 0.219852
0.208484 0.270604 0.217166
0.335592 0.267613 0.210346
0.4748 0.262303 0.201663
0.616709 0.257176 0.193683
0.741039 0.257603 0.191775
0.828031 0.269718 0.20206
0 0.364706 0.22533
0 0.38407 0.23537
0.0827192 0.388907 0.23212
0.213306 0.38732 0.223774
0.359411 0.382879 0.21387
0.511986 0.377981 0.204791
0.661006 0.375296 0.199298
0.786511 0.38088 0.203403
0.870192 0.400534 0.222843
0 0.499352 0.230915
0 0.517479 0.24094
0.0717784 0.520424 0.237934
0.220752 0.518318 0.232074
0.380652 0.515496 0.227649
0.542596 0.515282 0.22742
0.701442 0.523171 0.235309
0.841901 0.545983 0.258152
0.947204 0.587869 0.300114
0 0.638102 0.243
0 0.656489 0.260319
0.0975052 0.662989 0.266819
0.264134 0.671656 0.275517
0.44445 0.687556 0.291463
0.630564 0.711528 0.315557
0.811139 0.741238 0.34548
0.965438 0.778103 0.38262
1 0.821042 0.425803
0 0.798123 0.292638
0.0239872 0.836805 0.331411
0.193027 0.867414 0.362219
0.380667 0.896925 0.392035
0.56994 0.921782 0.417227
0.750774 0.940658 0.436393
0.914534 0.953811 0.449775
1 0.966186 0.462318
1 0.979156 0.47538
0.0298772 1 0.405554
0.142382 1 0.449195
0.300908 1 0.469749
0.467521 1 0.478859
0.630167 1 0.477668
0.780423 1 0.466361
0.91223 1 0.447791
1 1 0.432013
1 1 0.425864
0.00419623 0.00419623 0.0326238
0.0117342 0.00721752 0.0402075
0.0297246 0.0122683 0.0545815
0.0671092 0.0218814 0.0840925
0.124285 0.0304723 0.119417
0.199191 0.0349737 0.154177
0.28986 0.0351568 0.186892
0.388525 0.0329595 0.218814
0.483986 0.0319829 0.25359
0.0163882 0.0468147 0.0878157
0.0379034 0.0667124 0.123934
0.0795911 0.0813764 0.156466
0.140337 0.0909285 0.185122
0.220157 0.095201 0.209293
0.318425 0.0949569 0.229725
0.430838 0.091249 0.24686
0.543252 0.0877852 0.263584
0.638773 0.0897231 0.285023
0.018967 0.136858 0.195361
0.0443732 0.156939 0.227207
0.104433 0.167941 0.250217
0.189273 0.17258 0.266835
0.295064 0.171893 0.277653
0.417365 0.16759 0.284367
0.548348 0.161669 0.288609
0.669459 0.158953 0.294972
0.761028 0.165423 0.309468
0 0.244846 0.277745
0.0153811 0.26453 0.301259
0.0983749 0.271717 0.312032
0.208362 0.272053 0.315602
0.337682 0.268284 0.314763
0.478477 0.262348 0.311391
0.621195 0.25684 0.308003
0.745785 0.257328 0.310201
0.832197 0.269749 0.323934
0 0.3682 0.32636
0 0.38677 0.342321
0.0797894 0.390753 0.34406
0.212436 0.388586 0.340047
0.360174 0.383856 0.333852
0.513787 0.378927 0.327825
0.663172 0.37641 0.324605
0.788724 0.38265 0.330556
0.872969 0.403311 0.351217
0 0.501701 0.348699
0 0.519432 0.362264
0.0709392 0.521981 0.361883
0.221729 0.520119 0.358312
0.382956 0.517815 0.355535
0.54638 0.519081 0.356802
0.707332 0.529076 0.366796
0.850645 0.554742 0.392493
0.958801 0.599512 0.437308
0 0.640101 0.369772
0 0.659083 0.388495
0.102068 0.667552 0.396963
0.27155 0.679072 0.408515
0.454185 0.697276 0.426764
0.641917 0.722866 0.452461
0.823651 0.753765 0.483543
0.976074 0.788785 0.51873
1 0.828931 0.55903
0 0.806622 0.426734
0.0351873 0.847898 0.468101
0.205295 0.879561 0.499947
0.392782 0.908904 0.529534
0.580301 0.932067 0.552941
0.757641 0.947494 0.568566
0.918837 0.958099 0.579324
1 0.96698 0.588312
1 0.976837 0.598245
0.0411383 1 0.542107
0.151476 1 0.583535
0.307591 1 0.601648
0.471427 1 0.60795
0.629908 1 0.602579
0.776349 1 0.587442
0.906645 1 0.567346
1 1 0.55079
1 1 0.544244
0.00491341 0.00491341 0.042237
0.0135958 0.0087129 0.0532387
0.0345006 0.0149996 0.0741283
0.0771038 0.0255741 0.114199
0.137423 0.0330663 0.156786
0.215198 0.0360571 0.198611
0.308751 0.0346838 0.238819
0.409689 0.0310979 0.278523
0.506188 0.029099 0.321553
0.0186618 0.0529793 0.119371
0.0405127 0.0722972 0.162951
0.0838483 0.085771 0.202731
0.14667 0.0938125 0.238514
0.229389 0.0967727 0.270649
0.330343 0.0950942 0.298817
0.444999 0.090074 0.323629
0.558587 0.0856794 0.347799
0.653956 0.0871138 0.376654
0.0164797 0.142336 0.251896
0.0424506 0.161517 0.29192
0.104585 0.171252 0.322805
0.191775 0.174395 0.346639
0.300252 0.17261 0.364889
0.424598 0.167208 0.378332
0.556542 0.160327 0.388556
0.678569 0.157366 0.401022
0.76965 0.163836 0.420905
0 0.24921 0.360693
0.0103914 0.268025 0.391714
0.0957656 0.274098 0.40914
0.208164 0.273365 0.418631
0.339483 0.268742 0.423117
0.481758 0.262242 0.424475
0.625162 0.256367 0.425071
0.750164 0.257145 0.431006
0.836088 0.269978 0.447669
0 0.371359 0.431678
0 0.389227 0.453071
0.076936 0.39237 0.45919
0.211582 0.3897 0.458946
0.360845 0.384726 0.455879
0.515496 0.379889 0.452384
0.66537 0.377783 0.451057
0.791074 0.384924 0.458427
0.876677 0.407019 0.480507
0 0.503944 0.469001
0 0.521309 0.485527
0.0704662 0.523522 0.487175
0.222965 0.521904 0.485267
0.385534 0.520409 0.483711
0.55108 0.523781 0.487098
0.714641 0.536385 0.499702
0.860243 0.56437 0.527687
0.970474 0.611231 0.574578
0 0.642191 0.497215
0 0.661936 0.516945
0.107424 0.672892 0.527901
0.280034 0.687526 0.542565
0.465248 0.708309 0.563378
0.653971 0.73489 0.590036
0.835721 0.76585 0.621088
0.986389 0.799146 0.654475
1 0.835889 0.691295
0 0.815457 0.561166
0.0465248 0.859129 0.604913
0.217899 0.892027 0.637949
0.404013 0.920012 0.666102
0.589456 0.941161 0.687404
0.76434 0.954162 0.700526
0.922728 0.962005 0.708461
1 0.966735 0.713252
1 0.972732 0.719295
0.0519265 1 0.678126
0.158846 1 0.716106
0.312886 1 0.732128
0.473945 1 0.735637
0.628855 1 0.72668
0.771817 1 0.708064
0.900587 1 0.686427
1 1 0.669322
1 1 0.662684
0.00556954 0.00556954 0.0525368
0.0159457 0.0106203 0.0689708
0.0412451 0.0188144 0.10042
0.0871443 0.0290074 0.148989
0.150423 0.0352178 0.19913
0.231037 0.0366674 0.248356
0.327337 0.0337224 0.296178
0.43064 0.0287785 0.343984
0.528099 0.0257877 0.395331
0.0205234 0.0589609 0.155917
0.0426642 0.0775158 0.20708
0.0876936 0.0897841 0.254429
0.152819 0.0963912 0.297765
0.238224 0.0979171 0.337743
0.341817 0.0948196 0.373663
0.458305 0.0884718 0.405722
0.573373 0.0832837 0.4374
0.668467 0.0843061 0.473289
0.0135042 0.147417 0.314153
0.0400702 0.165698 0.362432
0.10428 0.17406 0.40087
0.194064 0.175998 0.432151
0.304997 0.173007 0.457359
0.431388 0.166598 0.477211
0.564691 0.158984 0.493172
0.687068 0.155657 0.510933
0.777554 0.162188 0.535622
0 0.253178 0.449058
0.00521859 0.271092 0.487221
0.0928817 0.275853 0.510491
0.207767 0.274434 0.525872
0.3411 0.269062 0.53521
0.484779 0.262074 0.540734
0.628962 0.256016 0.544839
0.75407 0.256962 0.553765
0.839612 0.270344 0.572854
0 0.374121 0.540917
0 0.391394 0.567239
0.0741436 0.393744 0.577096
0.210864 0.390814 0.580285
0.361563 0.385626 0.579736
0.516823 0.380621 0.577859
0.66743 0.379294 0.578164
0.793637 0.387503 0.586587
0.881498 0.411856 0.610941
0 0.506004 0.591455
0 0.523171 0.610452
0.070573 0.525277 0.613687
0.224659 0.523873 0.612772
0.388403 0.523262 0.612177
0.556207 0.528893 0.617807
0.723049 0.544808 0.633707
0.871183 0.575341 0.66421
0.982406 0.62324 0.712062
0 0.644572 0.625177
0 0.665782 0.646387
0.113481 0.678935 0.659541
0.288869 0.69633 0.676936
0.476905 0.719936 0.700557
0.666453 0.747356 0.727977
0.846906 0.777066 0.757702
0.99559 0.808377 0.789029
1 0.842512 0.823178
0 0.825345 0.69662
0.0583047 0.870787 0.742123
0.230533 0.904494 0.775906
0.414725 0.930617 0.802121
0.596979 0.948608 0.820172
0.76968 0.959472 0.831098
0.925353 0.96463 0.836286
1 0.965881 0.837568
1 0.968215 0.839918
0.0621195 1 0.813504
0.166186 1 0.8486
0.317174 1 0.86157
0.474571 1 0.861402
0.626352 1 0.849317
0.766903 1 0.828275
0.894423 1 0.805386
0.993988 1 0.787701
1 1 0.781155
0.00648508 0.00648508 0.0644694
0.0184482 0.0126192 0.0871138
0.0488136 0.0229648 0.132738
0.0971847 0.032105 0.18883
0.163256 0.0369116 0.246662
0.246738 0.0367742 0.303593
0.345357 0.0322423 0.358831
0.451286 0.0260014 0.415198
0.549569 0.0220645 0.474861
0.021912 0.0646372 0.197467
0.044358 0.0823377 0.256474
0.0910964 0.0933394 0.311574
0.158633 0.0985885 0.362829
0.246677 0.0986343 0.41062
0.352819 0.0941329 0.454215
0.471138 0.086656 0.493294
0.587549 0.0806287 0.532219
0.682368 0.0813001 0.574762
0.0100404 0.152102 0.382193
0.0372778 0.169482 0.438773
0.103624 0.176501 0.484688
0.195972 0.177203 0.523079
0.3093 0.173053 0.554833
0.437552 0.165682 0.580514
0.572335 0.157504 0.601984
0.695094 0.153918 0.624521
0.784939 0.160555 0.653407
0 0.256764 0.542748
0 0.273823 0.58761
0.0899367 0.277531 0.616541
0.207172 0.275227 0.636957
0.342489 0.26923 0.650675
0.487327 0.261692 0.659586
0.632532 0.255726 0.666987
0.757671 0.256901 0.678294
0.842542 0.270695 0.69897
0 0.376608 0.65388
0 0.393118 0.684276
0.0715648 0.395071 0.697765
0.210239 0.391852 0.703716
0.362417 0.386618 0.705226
0.518547 0.381826 0.704677
0.669505 0.381094 0.70573
0.79646 0.390311 0.714992
0.886397 0.416754 0.741436
0 0.507851 0.715694
0 0.52462 0.736294
0.0711681 0.527108 0.741009
0.226963 0.526223 0.740734
0.392264 0.527123 0.741619
0.562158 0.534859 0.74934
0.731823 0.553582 0.768048
0.882795 0.586999 0.801389
0.994446 0.63534 0.849622
0 0.647166 0.753368
0 0.670542 0.776745
0.120989 0.686427 0.792615
0.298695 0.706127 0.812299
0.488212 0.731212 0.837339
0.678996 0.759884 0.86595
0.857557 0.787717 0.893706
1 0.816205 0.922133
1 0.847959 0.953841
0 0.8365 0.833326
0.070634 0.882963 0.879789
0.242634 0.916442 0.913283
0.425086 0.940856 0.937697
0.604089 0.955657 0.952499
0.773953 0.963729 0.960571
0.926055 0.965316 0.962173
1 0.963439 0.960281
1 0.963333 0.960189
0.0710765 1 0.947601
0.172824 1 0.980362
0.321065 1 0.990585
0.47425 1 0.986236
0.622278 1 0.970382
0.761288 1 0.947784
0.888045 1 0.924147
0.987274 1 0.906111
1 1 0.899611
0.00796521 0.00796521 0.07953
0.021973 0.0154574 0.11075
0.0560769 0.0266728 0.169284
0.10721 0.0348516 0.233906
0.175921 0.0381476 0.299428
0.262287 0.0364233 0.364294
0.363668 0.0303349 0.427497
0.471611 0.0227817 0.491997
0.57055 0.0179599 0.559808
0.0228428 0.0699474 0.244022
0.045594 0.0867933 0.311147
0.0939803 0.096376 0.373709
0.16408 0.100359 0.433494
0.254765 0.0989548 0.489113
0.363424 0.09308 0.540169
0.483665 0.0845045 0.586099
0.601038 0.0777447 0.631632
0.695537 0.078172 0.680385
0.00613413 0.156374 0.455756
0.0341039 0.172854 0.520607
0.102678 0.178607 0.573571
0.197559 0.178119 0.618982
0.313237 0.172854 0.656794
0.443137 0.164523 0.687526
0.5794 0.155901 0.714153
0.702571 0.152163 0.741009
0.791775 0.158984 0.773495
0 0.259983 0.641215
0 0.276188 0.692226
0.0869459 0.278981 0.726452
0.20647 0.275837 0.751278
0.343664 0.269245 0.768734
0.48983 0.261418 0.780713
0.635859 0.255558 0.790722
0.76112 0.257099 0.803906
0.845426 0.271458 0.825666
0 0.378897 0.769955
0 0.394812 0.803922
0.0691844 0.396292 0.820279
0.20972 0.392813 0.828367
0.363195 0.387549 0.83125
0.520394 0.383307 0.831754
0.671901 0.383429 0.833219
0.800259 0.39411 0.843885
0.892302 0.422675 0.872435
0 0.509682 0.841077
0 0.526329 0.862928
0.0721904 0.528923 0.868193
0.229603 0.528847 0.868437
0.396841 0.531701 0.87129
0.569589 0.54229 0.881834
0.741558 0.563333 0.902815
0.89424 0.598474 0.937835
1 0.647944 0.987091
0 0.649912 0.881209
0 0.675929 0.90721
0.129549 0.694942 0.926192
0.30988 0.717266 0.948455
0.500465 0.74342 0.974502
0.691081 0.771954 1
0.867903 0.798077 1
1 0.823041 1
1 0.852308 1
0 0.847623 0.969482
0.0833143 0.89546 1
0.25388 0.927535 1
0.434226 0.949905 1
0.610788 0.96231 1
0.777874 0.96762 1
0.925826 0.965087 1
1 0.959381 1
1 0.957794 1
0.0786908 1 1
0.178088 1 1
0.323522 1 1
0.473213 1 1
0.617777 1 1
0.755245 1 1
0.881468 1 1
0.980621 1 1
1 1 1
