luts/Green Indoor.cube
TITLE "Generated by Resolve"
LUT_3D_SIZE 5
0.0284581 0.0302892 0.0277714
0.0689403 0.052781 0.0500343
0.138628 0.0748913 0.0701915
0.246113 0.0933852 0.0863508
0.38909 0.108278 0.0989548
0.0650339 0.169787 0.061387
0.182742 0.195468 0.0634775
0.337774 0.213596 0.0897841
0.462531 0.244053 0.139315
0.601373 0.276967 0.176059
0.0690013 0.395697 0.0633707
0.230701 0.425269 0.084123
0.435706 0.447745 0.0979477
0.661967 0.466896 0.130266
0.852049 0.497841 0.198947
0.0947433 0.672663 0.0881971
0.278416 0.711299 0.115434
0.502754 0.743038 0.135927
0.762707 0.769116 0.150896
1 0.791928 0.211795
0.122713 1 0.115343
0.38706 1 0.230152
0.73106 1 0.523217
0.992767 0.999466 0.97702
1 1 1
0.0353246 0.0377203 0.0584421
0.0969863 0.0558785 0.0923018
0.180468 0.0764324 0.114519
0.290211 0.0957961 0.140093
0.434318 0.111513 0.164157
0.0668498 0.181125 0.159396
0.19173 0.205097 0.179782
0.312856 0.234058 0.219806
0.444862 0.266163 0.251453
0.593713 0.298543 0.283162
0.077409 0.408057 0.202258
0.241825 0.438209 0.228092
0.449165 0.461295 0.246921
0.653559 0.485771 0.308232
0.809125 0.527947 0.384161
0.105516 0.688594 0.244862
0.291661 0.727718 0.276753
0.518181 0.759976 0.301854
0.780118 0.786572 0.321401
1 0.813367 0.429847
0.145159 1 0.29575
0.463233 1 0.45095
0.816449 1 0.735088
1 1 1
1 1 1
0.0410163 0.0440833 0.11519
0.109545 0.0602884 0.177432
0.246586 0.0643015 0.232105
0.416449 0.0684825 0.255177
0.561013 0.0875563 0.266911
0.0659648 0.188998 0.308278
0.197604 0.211475 0.345357
0.385397 0.224964 0.362921
0.512139 0.264149 0.359625
0.643931 0.303929 0.387076
0.0831617 0.417731 0.382528
0.250309 0.448508 0.41268
0.460014 0.472251 0.435828
0.619394 0.512261 0.493111
0.786847 0.555856 0.536431
0.113787 0.701976 0.440421
0.302419 0.741619 0.476356
0.531136 0.774411 0.505501
0.794858 0.801236 0.53312
0.99649 0.839414 0.672404
0.187945 1 0.518059
0.555901 1 0.671336
0.91342 0.998596 0.909041
1 1 1
1 1 1
0.0449226 0.0487678 0.205234
0.119738 0.0621653 0.304738
0.26569 0.0626535 0.393347
0.485405 0.0504311 0.455558
0.718914 0.0450904 0.469139
0.0628367 0.193652 0.503853
0.201022 0.215244 0.551812
0.392737 0.229221 0.573205
0.622202 0.238071 0.587289
0.816587 0.265324 0.572854
0.086717 0.425177 0.59823
0.256596 0.456596 0.632273
0.468681 0.48101 0.659297
0.715023 0.500679 0.678874
0.868696 0.554665 0.67628
0.119905 0.713191 0.669917
0.311025 0.753353 0.709529
0.541955 0.786725 0.742367
0.808072 0.81416 0.772244
0.957137 0.874662 0.860258
0.256992 1 0.755703
0.654368 1 0.855985
1 1 1
1 1 1
1 1 1
0.0464332 0.0511482 0.335897
0.127199 0.0610971 0.47895
0.280735 0.0582742 0.602502
0.504662 0.0448005 0.687373
0.772335 0.0290074 0.725261
0.057969 0.195422 0.741268
0.202609 0.21706 0.790616
0.397055 0.231952 0.814862
0.629709 0.241306 0.833478
0.895659 0.246342 0.846571
0.088365 0.430686 0.845685
0.26096 0.462745 0.883299
0.475425 0.487846 0.913924
0.726284 0.507317 0.938857
1 0.522591 0.95758
0.124132 0.722484 0.930129
0.317739 0.76318 0.973159
0.551202 0.79707 1
0.822095 0.827634 1
1 0.888197 0.988434
0.355413 1 0.973693
0.779248 0.999802 0.984588
1 1 1
1 1 1
1 1 1
