luts/Green Afternoon.cube
TITLE "Generated by Resolve"
LUT_3D_SIZE 9
0 0 0
0.01738 0.00665293 0.00665293
0.0495003 0.0138094 0.0138094
0.0972457 0.0180819 0.0180819
0.164782 0.0182345 0.0182345
0.256794 0.0137636 0.0137636
0.376547 0.00453193 0.00453193
0.514549 0 0
0.694316 0 0
0.0179294 0.0355535 0.0179294
0.0438849 0.0420996 0.0195468
0.0887617 0.0453956 0.0186007
0.151217 0.0450752 0.014786
0.235538 0.0405127 0.00776684
0.344213 0.0320287 0.000823987
0.479667 0.0200351 0
0.616526 0.0105898 0
0.793683 0.00106813 0
0.014023 0.0949264 0.014023
0.0497292 0.103334 0.00680552
0.117281 0.10782 0.000946059
0.209644 0.109331 0
0.32784 0.106569 0
0.465553 0.099855 0
0.61474 0.090837 0
0.740612 0.0889143 0
0.896437 0.0793011 0
0 0.195346 0
0.0247654 0.208545 0
0.119142 0.214755 0
0.233387 0.215976 0
0.363561 0.213397 0
0.50106 0.209155 0
0.639719 0.205234 0
0.752224 0.209384 0
0.902968 0.204105 0
0 0.328008 0
0 0.338201 0
0.103502 0.340673 0
0.227512 0.341207 0
0.360113 0.340124 0
0.498344 0.338445 0
0.639246 0.336996 0
0.753857 0.343511 0
0.90721 0.340261 0
0 0.458183 0
0 0.468666 0
0.0963455 0.473014 0
0.222705 0.475761 0
0.357671 0.476982 0
0.498283 0.477516 0
0.641352 0.478401 0
0.758053 0.48716 0
0.913619 0.486015 0
0 0.594995 0
0 0.607187 0
0.0957504 0.613443 0
0.224811 0.61825 0
0.362127 0.621515 0
0.505058 0.624186 0
0.650248 0.627008 0
0.769024 0.638071 0
0.934981 0.647562 0
0 0.736904 0
0.00209049 0.75111 0
0.106447 0.759655 0
0.237278 0.766522 0
0.37937 0.774685 0
0.53782 0.792828 0
0.706905 0.819471 0
0.832456 0.837095 0.00489815
0.986816 0.83772 0.00650034
0 0.893111 0
0.00303655 0.913939 0
0.136095 0.943679 0
0.286412 0.969696 0
0.427192 0.976532 0
0.571115 0.97998 0
0.715587 0.981765 0
0.832166 0.987335 0.00671397
0.984771 0.986267 0.00479133
0.00238041 0.00238041 0.0108186
0.0204318 0.0087892 0.019501
0.0532845 0.0150301 0.0285039
0.101732 0.0184634 0.0344549
0.170443 0.0179599 0.0356909
0.26302 0.0129549 0.03122
0.382971 0.0034638 0.020676
0.52076 0 0.00985733
0.700114 0 0.000747692
0.0188144 0.0379492 0.0378271
0.0462959 0.0443122 0.0442054
0.0930343 0.0469062 0.0468605
0.158175 0.0459907 0.0460822
0.245075 0.0407416 0.0411078
0.357122 0.0315862 0.0320745
0.495293 0.0194553 0.0195926
0.631708 0.0103304 0.0121462
0.807248 0.0015259 0.00309758
0.0121767 0.098024 0.0462348
0.0502327 0.10631 0.0466468
0.120851 0.11078 0.0418402
0.216327 0.111711 0.0335393
0.336599 0.108431 0.0216678
0.47512 0.101457 0.00857557
0.623346 0.0926833 0.000274662
0.746441 0.0912947 0
0.900923 0.0823224 0
0 0.200397 0.0221256
0.024567 0.213245 0.0196078
0.121187 0.218585 0.0123445
0.236912 0.219242 0.00790417
0.367575 0.216464 0.00509651
0.504601 0.212634 0.00329595
0.643091 0.209018 0.00198367
0.755581 0.213352 0.000656138
0.907012 0.208103 0
0 0.33193 0
0.00233463 0.341772 0.0016022
0.107164 0.344213 0.00308232
0.231159 0.34493 0.00347906
0.364111 0.344076 0.00323491
0.502617 0.342626 0.0027924
0.643381 0.341482 0.00238041
0.757885 0.348196 0.00276188
0.912016 0.345037 0.000411994
0 0.461997 0
0 0.472786 0
0.100694 0.47718 0.00120546
0.227268 0.480201 0.00227359
0.36257 0.481651 0.00273136
0.503288 0.482521 0.00297551
0.646113 0.483467 0.0031281
0.762814 0.492439 0.00437934
0.919173 0.491463 0.00250248
0 0.599298 0
0 0.61178 0
0.101122 0.618097 0
0.230472 0.623133 0.00161746
0.368399 0.626657 0.00331121
0.511406 0.629511 0.00444038
0.656504 0.63267 0.00509651
0.776699 0.645365 0.0118868
0.947173 0.658824 0.0249332
0 0.741894 6.10361e-05
0.00334173 0.756436 0.000915541
0.112154 0.765087 0.00177005
0.243351 0.77232 0.00396735
0.388083 0.783123 0.0130922
0.551415 0.806271 0.0362554
0.716701 0.829435 0.0594339
0.838239 0.84332 0.0731975
0.991547 0.843214 0.0732128
0 0.899886 0
0.0080415 0.922866 0.0062562
0.148974 0.956207 0.0320134
0.293202 0.976196 0.0522621
0.433387 0.982422 0.0585794
0.576791 0.985504 0.0617227
0.720806 0.987045 0.0632792
0.836851 0.991531 0.0716259
0.989715 0.990753 0.0693675
0.00575265 0.00575265 0.028275
0.0240177 0.0113985 0.0402228
0.0582895 0.0166323 0.0543984
0.108598 0.0189364 0.0665446
0.179599 0.0171817 0.0749828
0.275212 0.0109102 0.0788281
0.3991 0.000396735 0.0778515
0.540719 0 0.0763409
0.721187 0 0.0670176
0.0196536 0.0400092 0.0683452
0.0478981 0.0457771 0.0801709
0.0966506 0.0475776 0.0892042
0.164263 0.045716 0.0952926
0.255039 0.0396735 0.0979782
0.371588 0.0296788 0.0973831
0.512901 0.0167697 0.0936904
0.649454 0.00791943 0.09308
0.823926 0.000991836 0.0826276
0.00975052 0.100359 0.0988479
0.0495613 0.1084 0.106615
0.123049 0.112459 0.11043
0.221546 0.112764 0.110597
0.343908 0.108782 0.106615
0.482841 0.10132 0.0993515
0.63006 0.0925765 0.090959
0.750866 0.0919356 0.0907301
0.902678 0.083772 0.0829633
0 0.203998 0.103426
0.0225834 0.216129 0.107073
0.121431 0.220508 0.104555
0.238651 0.220752 0.100252
0.369574 0.217884 0.095613
0.506325 0.214359 0.0918135
0.644923 0.211002 0.0887007
0.757549 0.215549 0.0936751
0.909331 0.210407 0.0889143
0 0.334203 0.0826734
0.00335698 0.343526 0.0894942
0.108965 0.345953 0.0914473
0.233265 0.346883 0.0922103
0.36643 0.34638 0.0916609
0.50515 0.345205 0.0905623
0.645884 0.344152 0.089662
0.760647 0.351125 0.0968643
0.915221 0.348226 0.0942397
0 0.464149 0.0718547
0 0.475044 0.0819867
0.103395 0.479774 0.0863355
0.230091 0.482963 0.0892958
0.365637 0.484657 0.0910048
0.506584 0.485817 0.0920119
0.649485 0.487022 0.0932784
0.766201 0.496117 0.102602
0.923033 0.495277 0.10193
0 0.60209 0.0680095
0 0.614679 0.0812238
0.10486 0.621332 0.0883192
0.234424 0.626505 0.0939651
0.372473 0.630274 0.0980697
0.515724 0.633402 0.101381
0.661082 0.636881 0.10486
0.784146 0.652567 0.120455
0.960174 0.671153 0.138827
0 0.745464 0.0774853
0.00448615 0.760098 0.0918593
0.116381 0.7691 0.10045
0.248127 0.77705 0.108217
0.396414 0.791302 0.122438
0.565026 0.819791 0.150851
0.722881 0.835752 0.166659
0.842237 0.847593 0.1785
0.994507 0.846922 0.177981
0 0.906767 0.0856641
0.0138247 0.933043 0.111315
0.16051 0.967468 0.145281
0.298024 0.98085 0.15845
0.437507 0.986358 0.163806
0.580423 0.989029 0.166476
0.724132 0.990509 0.167895
0.839902 0.994186 0.176196
0.992966 0.993667 0.173724
0.00932326 0.00932326 0.0521859
0.027512 0.0139773 0.0675517
0.0632792 0.0179904 0.0876173
0.115755 0.0191043 0.107012
0.189487 0.0160525 0.123735
0.288304 0.0084535 0.136812
0.415702 0 0.146075
0.561456 0 0.156756
0.742046 0 0.158679
0.0203098 0.0416266 0.106523
0.0488746 0.0466316 0.124681
0.0996872 0.0475929 0.141268
0.170062 0.044831 0.155535
0.264195 0.0377661 0.166979
0.38529 0.0270695 0.176226
0.529229 0.0134737 0.18172
0.665492 0.00636301 0.18941
0.8383 0.00030518 0.185412
0.00706493 0.102113 0.163043
0.0480964 0.110002 0.179812
0.124437 0.11339 0.193256
0.225605 0.112963 0.202472
0.349477 0.10811 0.205966
0.488914 0.100465 0.2047
0.635172 0.0919203 0.200641
0.753429 0.0919814 0.203128
0.903593 0.0846571 0.196399
0 0.206729 0.198932
0.019852 0.217899 0.208804
0.120943 0.221515 0.21178
0.239399 0.221302 0.211337
0.37052 0.218494 0.208576
0.507179 0.215213 0.205447
0.646082 0.2121 0.202548
0.758907 0.216907 0.207645
0.91107 0.212116 0.203189
0 0.335058 0.194705
0.00383001 0.344259 0.202884
0.109987 0.34696 0.205097
0.234424 0.34815 0.206119
0.367941 0.347875 0.205798
0.506752 0.346929 0.204913
0.647791 0.346166 0.204273
0.762707 0.353353 0.211658
0.917571 0.350561 0.209247
0 0.465385 0.185718
0.000396735 0.47657 0.196216
0.105318 0.481529 0.200809
0.232136 0.484977 0.204028
0.36791 0.4869 0.205859
0.50901 0.488243 0.20705
0.652094 0.489738 0.208591
0.768978 0.499077 0.218158
0.926253 0.498451 0.217563
0 0.604135 0.182803
0 0.616922 0.196262
0.107637 0.623865 0.203601
0.23743 0.62916 0.209628
0.375723 0.633143 0.213993
0.519173 0.636393 0.217411
0.665263 0.640818 0.221866
0.792477 0.660685 0.241642
0.972534 0.683101 0.263844
0 0.748196 0.192859
0.00576791 0.763226 0.207385
0.119753 0.772335 0.216266
0.253422 0.782132 0.226001
0.406241 0.801022 0.244648
0.576288 0.830976 0.274662
0.72694 0.83978 0.283421
0.845243 0.850767 0.294408
0.996658 0.849744 0.293416
0 0.914748 0.206058
0.0247196 0.945357 0.236088
0.1682 0.974823 0.265293
0.301717 0.9841 0.274708
0.440665 0.989044 0.279423
0.583261 0.991775 0.281712
0.726528 0.993133 0.282994
0.842191 0.996201 0.291295
0.995377 0.995834 0.288777
0.0126497 0.0126497 0.0831464
0.0306401 0.0162661 0.102068
0.0680705 0.019089 0.129122
0.122805 0.0188449 0.156588
0.199496 0.014435 0.182773
0.302007 0.00546273 0.2065
0.433921 0 0.227741
0.582376 0 0.25098
0.761624 0 0.263813
0.0207218 0.0427558 0.15259
0.0493477 0.0469978 0.177508
0.102281 0.0470588 0.202792
0.175341 0.0432746 0.226337
0.272984 0.0352026 0.247822
0.397955 0.0238041 0.26772
0.543984 0.00994888 0.282704
0.67921 0.00453193 0.298131
0.850248 3.0518e-05 0.300252
0.00482185 0.103441 0.238941
0.0458839 0.111025 0.265034
0.125124 0.113649 0.288716
0.228702 0.112383 0.306783
0.354055 0.106905 0.317205
0.493477 0.0988937 0.321004
0.638483 0.0906996 0.320409
0.754482 0.0916609 0.324651
0.903944 0.0848707 0.318364
0 0.208469 0.307027
0.0166781 0.21883 0.32224
0.119829 0.221653 0.329534
0.239399 0.22118 0.331655
0.370809 0.218647 0.329961
0.507576 0.21561 0.327001
0.646693 0.212711 0.324514
0.759747 0.217777 0.329946
0.912184 0.21323 0.325719
0 0.33521 0.316182
0.0037995 0.344457 0.324392
0.110414 0.347387 0.326818
0.235248 0.348852 0.328038
0.368856 0.348791 0.327901
0.507973 0.348028 0.327214
0.649134 0.347539 0.326894
0.764294 0.355016 0.334615
0.919448 0.352422 0.332372
0 0.466209 0.308156
0.000579843 0.477623 0.318669
0.106477 0.48278 0.323278
0.2336 0.486549 0.326726
0.369589 0.488701 0.328725
0.510887 0.490105 0.330083
0.654185 0.49189 0.331914
0.771344 0.501472 0.34165
0.928878 0.500938 0.341436
0 0.605631 0.30605
0 0.618692 0.3196
0.109651 0.625696 0.327001
0.23978 0.631418 0.333242
0.378271 0.635493 0.337621
0.521904 0.638911 0.341192
0.669688 0.64509 0.347433
0.801755 0.669764 0.372015
0.983307 0.693553 0.395651
0 0.750454 0.316899
0.00706493 0.765621 0.331502
0.122454 0.774945 0.340429
0.259342 0.787961 0.353246
0.417884 0.812482 0.377539
0.582696 0.837354 0.402167
0.729809 0.842863 0.407568
0.847654 0.853208 0.418036
0.998016 0.851881 0.416648
0 0.923873 0.337163
0.0372473 0.957748 0.370153
0.172396 0.978439 0.390921
0.304509 0.986343 0.398917
0.443046 0.99089 0.403098
0.585199 0.99379 0.405035
0.728237 0.994904 0.406012
0.843854 0.997635 0.414176
0.997223 0.997497 0.411795
0.0157015 0.0157015 0.121614
0.0333715 0.0182345 0.14345
0.0725567 0.019913 0.178058
0.129778 0.0182498 0.214405
0.209293 0.0124056 0.250492
0.315984 0.00207523 0.285954
0.453544 0 0.32079
0.603235 0 0.355962
0.779782 0 0.37847
0.0209049 0.0434424 0.205158
0.0494545 0.0469673 0.236942
0.104463 0.0461128 0.271443
0.180423 0.0413367 0.305089
0.282185 0.0323644 0.337926
0.409934 0.0201877 0.367971
0.557137 0.00706493 0.391546
0.691508 0.00288396 0.414176
0.860441 0 0.421225
0.00306706 0.104326 0.323262
0.0433814 0.111681 0.358801
0.125399 0.113542 0.392172
0.231189 0.111376 0.418036
0.357656 0.105394 0.434272
0.497032 0.0973831 0.441962
0.640833 0.0896773 0.443488
0.754757 0.0915694 0.448508
0.904128 0.085069 0.442771
0 0.209506 0.42208
0.0135042 0.219303 0.441001
0.118669 0.221546 0.451255
0.239353 0.221042 0.454597
0.370855 0.218814 0.453025
0.507912 0.215824 0.450416
0.647211 0.213321 0.448218
0.76054 0.218647 0.454093
0.913237 0.21416 0.450263
0 0.335225 0.440009
0.00347906 0.34464 0.447944
0.110857 0.347845 0.45037
0.235966 0.349584 0.451713
0.369711 0.349645 0.451667
0.509071 0.349142 0.451225
0.650523 0.348928 0.451255
0.765927 0.356664 0.459251
0.921263 0.354253 0.45745
0 0.466819 0.433036
0.000518807 0.478492 0.443076
0.107637 0.483955 0.447654
0.235172 0.487984 0.451148
0.371176 0.490288 0.453178
0.512764 0.491997 0.45481
0.656306 0.493904 0.456809
0.773739 0.503761 0.466865
0.931365 0.503517 0.466926
0 0.606989 0.431983
0 0.620371 0.444968
0.111757 0.627604 0.452323
0.242039 0.6336 0.458488
0.380667 0.637781 0.462928
0.524758 0.641642 0.46688
0.675196 0.650523 0.475776
0.81239 0.680278 0.505516
0.99089 0.701076 0.526131
0 0.752499 0.443824
0.00849927 0.76791 0.457893
0.125856 0.778302 0.467353
0.266346 0.794919 0.48336
0.430259 0.824918 0.512932
0.586267 0.840909 0.528634
0.732372 0.845335 0.532906
0.849882 0.855482 0.543008
0.998947 0.853788 0.54139
0 0.934478 0.472953
0.0470283 0.967376 0.504311
0.175418 0.980941 0.517754
0.30695 0.987839 0.524681
0.44506 0.992248 0.528298
0.587076 0.995239 0.529809
0.7299 0.996612 0.530663
0.845518 0.998703 0.53875
0.99852 0.998672 0.536446
0.0187381 0.0187381 0.16231
0.0361028 0.0203708 0.185763
0.0774548 0.0209354 0.227268
0.137285 0.0180056 0.271839
0.220066 0.0108186 0.31754
0.330861 0.000381476 0.364569
0.473533 0 0.413046
0.624201 0 0.459709
0.79678 0 0.491112
0.0215915 0.0444495 0.253956
0.0502022 0.0475776 0.290959
0.107424 0.0457618 0.332387
0.186496 0.0402533 0.374929
0.292393 0.0308843 0.418021
0.42266 0.0179294 0.456199
0.570932 0.00563058 0.487098
0.70399 0.00227359 0.515984
0.870466 0 0.528115
0.0016022 0.106157 0.398718
0.0421149 0.113573 0.439826
0.127123 0.1149 0.479286
0.235096 0.112245 0.509667
0.362661 0.105852 0.528847
0.501884 0.0979629 0.538659
0.644404 0.0909743 0.541573
0.756832 0.0936141 0.547967
0.906035 0.0871595 0.544396
0 0.212146 0.518425
0.0124971 0.221485 0.536538
0.119921 0.223651 0.546654
0.24152 0.223178 0.54934
0.373236 0.221073 0.547646
0.510567 0.218479 0.545693
0.650126 0.216175 0.544411
0.763622 0.221637 0.551354
0.916197 0.217258 0.549142
0 0.337118 0.540169
0.00303655 0.346899 0.544366
0.113649 0.35053 0.545815
0.238849 0.35259 0.546685
0.373022 0.352972 0.546578
0.512535 0.35259 0.546471
0.6542 0.352575 0.547082
0.769772 0.360479 0.555947
0.925216 0.358206 0.555001
0 0.469429 0.535637
0.000106813 0.481559 0.541253
0.111147 0.487495 0.544442
0.238758 0.491585 0.547082
0.375189 0.494179 0.548821
0.516991 0.496223 0.550484
0.660777 0.498497 0.552911
0.77818 0.508324 0.563409
0.936141 0.508186 0.564157
0 0.610178 0.537346
0 0.623941 0.54548
0.115816 0.63183 0.550591
0.246418 0.637873 0.555611
0.385321 0.642435 0.559518
0.530541 0.647395 0.564126
0.685039 0.660334 0.576959
0.825635 0.693477 0.610208
0.996307 0.707622 0.624613
0 0.756237 0.552239
0.0113832 0.772183 0.560983
0.132631 0.784955 0.569421
0.27779 0.806363 0.588373
0.442649 0.837171 0.617792
0.591714 0.846357 0.625895
0.737133 0.850111 0.629221
0.854139 0.859739 0.638697
0.999588 0.857816 0.636973
1.5259e-05 0.946563 0.592462
0.0546273 0.974502 0.613092
0.180163 0.9841 0.619898
0.311254 0.989929 0.623636
0.449073 0.993698 0.625589
0.590982 0.996307 0.6262
0.733822 0.998154 0.626444
0.849577 0.999359 0.634318
0.999496 0.999542 0.632044
0.0206912 0.0206912 0.219608
0.0374762 0.0215152 0.245716
0.0809491 0.0207065 0.295628
0.143542 0.016495 0.349111
0.230365 0.0081178 0.405127
0.346075 0 0.462287
0.492424 0 0.518532
0.64329 0 0.568338
0.812177 0 0.599237
0.0206455 0.043946 0.327779
0.0486915 0.0459144 0.373571
0.108293 0.0431678 0.428214
0.190204 0.0366827 0.482841
0.299123 0.0265049 0.5364
0.431998 0.0130312 0.582513
0.58114 0.00320439 0.617243
0.712932 0.00120546 0.64654
0.876982 0 0.656214
0 0.105638 0.514122
0.0376287 0.112078 0.567376
0.125048 0.112474 0.618112
0.234485 0.108827 0.654932
0.362966 0.102342 0.677684
0.50219 0.0948959 0.687861
0.643412 0.0887312 0.6878
0.755611 0.0921187 0.690272
0.905226 0.086244 0.683055
0 0.211231 0.659815
0.00793469 0.219562 0.686488
0.116854 0.22118 0.699779
0.239139 0.220798 0.702525
0.371206 0.219059 0.700877
0.508782 0.216785 0.698116
0.648768 0.214694 0.69546
0.762646 0.220523 0.700481
0.915602 0.216678 0.695659
0 0.33579 0.681346
0.00178531 0.345449 0.693355
0.111925 0.348989 0.698131
0.237186 0.350958 0.700954
0.371649 0.351614 0.701762
0.511452 0.351629 0.701701
0.653391 0.351827 0.701503
0.769253 0.359854 0.709148
0.925093 0.358083 0.706676
0 0.469169 0.674174
0 0.480873 0.688838
0.110353 0.48661 0.696193
0.238041 0.490898 0.701488
0.374594 0.493721 0.704967
0.516564 0.495781 0.70724
0.660487 0.498039 0.70956
0.77821 0.508339 0.719326
0.936873 0.509026 0.719432
0 0.611139 0.672801
6.10361e-05 0.624384 0.690776
0.115846 0.631876 0.701106
0.246372 0.637934 0.709377
0.385458 0.642649 0.715541
0.532219 0.649256 0.722911
0.691646 0.666972 0.740932
0.832776 0.700648 0.774517
0.996902 0.708385 0.781552
0 0.758129 0.684184
0.0126345 0.773724 0.703548
0.136416 0.788754 0.720928
0.287083 0.815793 0.749615
0.44625 0.840909 0.775845
0.592187 0.84683 0.782544
0.736828 0.849943 0.78613
0.853605 0.85922 0.79556
0.999741 0.85713 0.793347
0.00302129 0.955444 0.726696
0.0573129 0.976944 0.7523
0.181323 0.984863 0.764935
0.311482 0.990173 0.773205
0.448905 0.993851 0.77789
0.59057 0.996536 0.780346
0.733135 0.998428 0.781979
0.848753 0.999664 0.790539
0.999893 0.999908 0.788647
0.0206912 0.0206912 0.303792
0.0366369 0.020676 0.334707
0.0818952 0.018143 0.397955
0.147158 0.0121462 0.467872
0.237293 0.002121 0.541848
0.357824 0 0.619364
0.50605 0 0.691722
0.65597 0 0.75288
0.81976 0 0.789624
0.0176547 0.0410468 0.432929
0.0447089 0.0420691 0.48954
0.106126 0.0378882 0.561242
0.191073 0.0301823 0.634943
0.302678 0.0186618 0.705211
0.436881 0.00628672 0.764508
0.585595 0 0.808072
0.71603 0 0.843076
0.876783 0 0.854994
0 0.101503 0.677409
0.0296788 0.107179 0.742718
0.119097 0.106233 0.805264
0.230121 0.101869 0.85066
0.359228 0.095079 0.877958
0.49778 0.0879072 0.889006
0.63769 0.0827192 0.887678
0.749996 0.0864118 0.889937
0.899855 0.0809491 0.88275
0 0.20557 0.857359
0.00151064 0.213565 0.887892
0.110185 0.214954 0.901335
0.23328 0.214984 0.903197
0.365499 0.213382 0.901717
0.503349 0.211215 0.899153
0.643626 0.20943 0.896513
0.757855 0.215534 0.90161
0.910933 0.212024 0.896864
0 0.329946 0.880766
0.000274662 0.339803 0.893889
0.106401 0.343511 0.899275
0.232181 0.345846 0.90248
0.366659 0.346624 0.903624
0.506722 0.346746 0.903716
0.649058 0.347265 0.903853
0.765179 0.355642 0.911574
0.921111 0.354101 0.909163
0 0.464149 0.87422
0 0.476143 0.890059
0.105592 0.482033 0.89807
0.2336 0.486503 0.90396
0.370428 0.489448 0.907485
0.512566 0.491798 0.91014
0.656794 0.494408 0.912673
0.774792 0.504891 0.922774
0.935454 0.507637 0.924895
0 0.606943 0.873243
0 0.620401 0.892454
0.111711 0.628092 0.903502
0.242618 0.63447 0.912505
0.382162 0.639384 0.919036
0.531456 0.648615 0.929274
0.695766 0.671153 0.952117
0.83444 0.702358 0.9832
0.994949 0.705348 0.985626
0 0.754696 0.884855
0.0111696 0.771221 0.906737
0.137636 0.790021 0.928512
0.293065 0.82179 0.962234
0.443885 0.838575 0.980438
0.588617 0.843259 0.986038
0.73283 0.84593 0.989197
0.849485 0.8551 0.998566
0.999588 0.852811 0.996155
0.00189212 0.956268 0.930663
0.0545663 0.974563 0.954864
0.177569 0.98262 0.9673
0.307607 0.988571 0.975662
0.444739 0.992798 0.980529
0.586114 0.994522 0.98294
0.728603 0.995361 0.984588
0.844541 0.999695 0.993515
1 1 0.991241
