luts/Green Afternoon.cube
TITLE "Generated by Resolve"
LUT_3D_SIZE 33
0 0 0
0.00277714 0.0011902 0.0011902
0.00656138 0.00280766 0.00280766
0.0115511 0.004654 0.004654
0.01738 0.00665293 0.00665293
0.0240635 0.00872816 0.00872816
0.031693 0.010544 0.010544
0.0401617 0.012253 0.012253
0.0495003 0.0138094 0.0138094
0.0597543 0.0151827 0.0151827
0.0710002 0.0163577 0.0163577
0.0833295 0.0173037 0.0173037
0.0972457 0.0180819 0.0180819
0.112123 0.0185702 0.0185702
0.128283 0.0187533 0.0187533
0.14583 0.0186465 0.0186465
0.164782 0.0182345 0.0182345
0.18526 0.0175479 0.0175479
0.207584 0.0166018 0.0166018
0.231449 0.0153353 0.0153353
0.256794 0.0137636 0.0137636
0.28368 0.0118715 0.0118715
0.312337 0.00968948 0.00968948
0.343526 0.00726329 0.00726329
0.376547 0.00453193 0.00453193
0.411109 0.00155642 0.00155642
0.446754 0 0
0.481117 0 0
0.514549 0 0
0.55346 0 0
0.597818 0 0
0.644846 0 0
0.694316 0 0
0.00407416 0.00605783 0.00407416
0.00746166 0.00759899 0.00541695
0.0116732 0.0091249 0.00686656
0.0169833 0.0106355 0.00834669
0.0230259 0.0121462 0.00987259
0.0297246 0.01355 0.0113375
0.0372625 0.0147402 0.0126497
0.045655 0.0157626 0.0138552
0.0547341 0.0166018 0.0149538
0.0646982 0.017319 0.0159609
0.0754406 0.017792 0.0168154
0.0871138 0.0180667 0.0175631
0.100175 0.0182193 0.0182193
0.115282 0.0186618 0.0186618
0.131838 0.0187686 0.0187686
0.149767 0.0186007 0.0186007
0.169131 0.0181277 0.0181277
0.190066 0.01738 0.01738
0.212848 0.0163577 0.0163577
0.237125 0.0150149 0.0150149
0.262974 0.0133669 0.0133669
0.290318 0.0113832 0.0113832
0.319509 0.0091249 0.0091249
0.351553 0.00662242 0.00662242
0.384939 0.00381476 0.00381476
0.420005 0.00112917 0.00112917
0.455512 0 0
0.489372 0 0
0.523888 0 0
0.564599 0 0
0.609674 0 0
0.657618 0 0
0.708019 0 0
0.00965896 0.0143587 0.00965896
0.0133822 0.0160372 0.0109407
0.0183719 0.0178988 0.0123903
0.0245975 0.0195621 0.0137331
0.0313878 0.0209964 0.0148775
0.038941 0.0223239 0.0158999
0.0473182 0.0233768 0.0167086
0.056733 0.0242771 0.01738
0.0670024 0.0250248 0.0179294
0.0780804 0.0255589 0.0183566
0.0903029 0.0260166 0.0186923
0.103288 0.0261082 0.0187839
0.117479 0.0260014 0.0187228
0.132723 0.0256046 0.0184634
0.149248 0.0249638 0.0180056
0.167041 0.0240482 0.0173648
0.186297 0.0229038 0.016556
0.20676 0.0214542 0.0155337
0.228656 0.0197147 0.0143435
0.251865 0.0176852 0.0129397
0.276387 0.0153658 0.0113832
0.302251 0.0127413 0.00962844
0.329824 0.00985733 0.00775158
0.359442 0.00671397 0.00582895
0.390539 0.00332647 0.00332647
0.425864 0.000854505 0.000854505
0.461311 0 0
0.494804 0 0
0.530068 0 0
0.572168 0 0
0.61796 0 0
0.666407 0 0
0.717494 0 0
0.0141756 0.0243839 0.0141756
0.0179599 0.0261387 0.0151369
0.0235447 0.027985 0.0162203
0.030457 0.0296025 0.0170901
0.0381323 0.0310063 0.0178073
0.0466621 0.0322576 0.0183871
0.0561074 0.0332036 0.0187686
0.0666819 0.0339971 0.018967
0.0782788 0.034638 0.0190433
0.0908217 0.0350805 0.018967
0.104326 0.0352789 0.0187381
0.118883 0.0352026 0.0183108
0.134615 0.0348669 0.0176852
0.151598 0.034287 0.016846
0.170001 0.0334478 0.0157931
0.189822 0.0323491 0.0145724
0.211215 0.0309758 0.0131838
0.233753 0.0292821 0.0115511
0.257511 0.0272679 0.00973526
0.282933 0.0250401 0.00773632
0.310002 0.0224765 0.0056611
0.339025 0.0197757 0.00309758
0.369223 0.0168765 0.00114443
0.400916 0.0136873 0.000823987
0.434348 0.0102998 0.000595102
0.469444 0.00698863 0.000167849
0.503822 0.00460822 0
0.534112 0.00355535 0
0.566217 0.00259403 0
0.605753 0.000900282 0
0.6486 0 0
0.693309 0 0
0.740444 0 0
0.0179294 0.0355535 0.0179294
0.0216068 0.0373693 0.0184329
0.0278019 0.0392157 0.0190127
0.0353552 0.0407568 0.0193484
0.0438849 0.0420996 0.0195468
0.0534524 0.0432746 0.0195773
0.0640726 0.0442054 0.0194247
0.0759136 0.044892 0.019089
0.0887617 0.0453956 0.0186007
0.102647 0.045716 0.0179294
0.117556 0.0457008 0.0170748
0.13373 0.0455177 0.016022
0.151217 0.0450752 0.014786
0.170184 0.0443885 0.0133211
0.190387 0.0433356 0.0116732
0.212406 0.0421302 0.00979629
0.235538 0.0405127 0.00776684
0.260548 0.0387427 0.00543221
0.286748 0.0367285 0.0028687
0.31458 0.0344854 0.000808728
0.344213 0.0320287 0.000823987
0.375952 0.0293736 0.000534066
0.40943 0.0265354 0.000106813
0.443763 0.0233616 0
0.479667 0.0200351 0
0.517021 0.0166323 0
0.55314 0.0137636 0
0.583825 0.0124819 0
0.616526 0.0105898 0
0.657404 0.00686656 0
0.701137 0.00390631 0
0.746624 0.00228885 0
0.793683 0.00106813 0
0.0203098 0.047776 0.0203098
0.0237888 0.0496681 0.020325
0.0305638 0.051545 0.0203403
0.03888 0.0531319 0.0200961
0.0483558 0.0544594 0.0196994
0.0589151 0.0555581 0.0191196
0.0707408 0.0564584 0.0183413
0.0839246 0.057145 0.0173953
0.0981765 0.0575875 0.0162661
0.113542 0.0578012 0.0149538
0.130037 0.0577554 0.0134432
0.147799 0.057435 0.0117494
0.167117 0.0568704 0.00987259
0.188144 0.0562295 0.00773632
0.210575 0.0552834 0.00534066
0.23444 0.0540017 0.00283818
0.259846 0.0524605 0.00102235
0.287037 0.0507668 0.000885023
0.316335 0.0489052 0.00047303
0.347265 0.0468147 0
0.379507 0.0444343 0
0.413336 0.0418402 0
0.4486 0.0390021 0
0.485344 0.035996 0
0.523217 0.0329137 0
0.561807 0.0297093 0
0.597955 0.0272221 0
0.627619 0.0265202 0
0.660945 0.024918 0
0.701686 0.0213779 0
0.745235 0.0173342 0
0.790417 0.0128939 0
0.836042 0.00813306 0
0.0202029 0.061677 0.0202029
0.0235904 0.0634928 0.0199893
0.0311589 0.0654307 0.019501
0.0404364 0.0670787 0.0187228
0.0509499 0.0684367 0.0177462
0.0627756 0.0696574 0.0165713
0.0759136 0.0705882 0.0151369
0.0903182 0.0711376 0.0134737
0.105959 0.0715953 0.0116121
0.122866 0.0718395 0.00959792
0.141176 0.0719005 0.00741588
0.160937 0.071809 0.00500496
0.182223 0.0713817 0.00273136
0.205051 0.0707103 0.00132753
0.229755 0.0698253 0.0010071
0.256321 0.0687724 0.00047303
0.284504 0.0674296 0
0.314214 0.0659037 0
0.345647 0.0641337 0
0.378607 0.062089 0
0.412863 0.0598459 0
0.448341 0.0573892 0
0.484886 0.0546883 0
0.522759 0.0519112 0
0.56144 0.0490272 0
0.600275 0.0461585 0
0.635584 0.0440375 0
0.663859 0.0440681 0
0.696666 0.0428626 0
0.736965 0.0397803 0
0.779385 0.0361028 0
0.823026 0.032166 0
0.866682 0.0281987 0
0.0181582 0.0772717 0.0181582
0.021088 0.0792859 0.0175326
0.0294499 0.0813916 0.0163882
0.0396277 0.0831464 0.0149538
0.0512856 0.0846571 0.0133211
0.0643473 0.0859693 0.0114595
0.0788891 0.0869612 0.0093843
0.0950027 0.0877394 0.00704967
0.11223 0.0881971 0.00456245
0.130907 0.0885786 0.00263981
0.151049 0.0887922 0.00166323
0.173083 0.0889601 0.00106813
0.196674 0.088838 0.000411994
0.221836 0.0883955 0
0.248692 0.0876173 0
0.277333 0.0866712 0
0.307713 0.0855116 0
0.339391 0.084062 0
0.372519 0.0823987 0
0.406806 0.0804913 0
0.442039 0.0783703 0
0.478416 0.076051 0
0.51577 0.0736706 0
0.553826 0.071046 0
0.592218 0.068452 0
0.630289 0.0658427 0
0.664164 0.0643626 0
0.691112 0.0650034 0
0.723308 0.0643168 0
0.762264 0.0616159 0
0.803128 0.0585641 0
0.844434 0.0552987 0
0.886397 0.0520027 0
0.014023 0.0949264 0.014023
0.0164187 0.0971542 0.0130465
0.0256352 0.0995956 0.0112306
0.0368963 0.101579 0.00914015
0.0497292 0.103334 0.00680552
0.0640879 0.104723 0.00442512
0.0802319 0.105867 0.00291447
0.0979782 0.106889 0.00192264
0.117281 0.10782 0.000946059
0.138064 0.108598 0.000244144
0.16022 0.109041 0
0.184115 0.109331 0
0.209644 0.109331 0
0.236789 0.109041 0
0.265614 0.108446 0
0.29601 0.107652 0
0.32784 0.106569 0
0.360708 0.10518 0
0.394797 0.103593 0
0.429694 0.101823 0
0.465553 0.099855 0
0.502251 0.0977493 0
0.539559 0.0955367 0
0.577081 0.0932326 0
0.61474 0.090837 0
0.652155 0.0886244 0
0.68426 0.0879988 0
0.70985 0.0892195 0
0.740612 0.0889143 0
0.77789 0.0868086 0
0.816815 0.0843671 0
0.856397 0.0817884 0
0.896437 0.0793011 0
0.00766003 0.114992 0.00766003
0.0093843 0.117647 0.0065156
0.0195621 0.120455 0.00479133
0.0319829 0.12282 0.00326543
0.0462043 0.124956 0.00184634
0.062211 0.126711 0.000549325
0.0800183 0.128252 6.10361e-05
0.0996414 0.129549 0
0.120851 0.130663 0
0.143465 0.131701 0
0.16759 0.132433 0
0.193088 0.132723 0
0.220325 0.132784 0
0.248997 0.132555 0
0.279255 0.132189 0
0.31078 0.131334 0
0.343465 0.130251 0
0.377005 0.128985 0
0.411521 0.127367 0
0.446876 0.12578 0
0.48275 0.124025 0
0.519234 0.122118 0
0.555917 0.12015 0
0.592798 0.118074 0
0.629709 0.116121 0
0.665858 0.114443 0
0.696345 0.114488 0
0.720073 0.116182 0
0.749508 0.116411 0
0.784772 0.114977 0
0.82208 0.113344 0
0.860349 0.111254 0
0.899397 0.109163 0
0.000671397 0.138216 0.000671397
0.00230411 0.141283 0.000534066
0.0120394 0.144472 0.000137331
0.0249485 0.147387 0
0.0407263 0.149813 0
0.0584115 0.152087 0
0.0782025 0.153903 0
0.0995346 0.155398 0
0.122454 0.15668 0
0.146746 0.157702 0
0.172274 0.158328 0
0.199374 0.158755 0
0.227863 0.158846 0
0.257725 0.158648 0
0.288838 0.158129 0
0.321157 0.157198 0
0.354223 0.15613 0
0.388159 0.15494 0
0.42295 0.15349 0
0.458228 0.152041 0
0.49398 0.1505 0
0.529778 0.148821 0
0.565789 0.147158 0
0.601862 0.145495 0
0.637888 0.144106 0
0.672541 0.142947 0
0.700801 0.14345 0
0.722957 0.145754 0
0.751232 0.146334 0
0.786313 0.145373 0
0.823468 0.143893 0
0.861769 0.14197 0
0.900664 0.139956 0
0 0.165316 0
0.000488289 0.168551 0
0.00515755 0.172274 0
0.0164492 0.175326 0
0.0334936 0.178027 0
0.0528878 0.180301 0
0.074342 0.182345 0
0.0974441 0.183841 0
0.121874 0.185016 0
0.147463 0.185794 0
0.174365 0.186419 0
0.202487 0.186648 0
0.232044 0.18674 0
0.262745 0.186481 0
0.294423 0.18584 0
0.327123 0.184939 0
0.360708 0.183963 0
0.394858 0.182849 0
0.429496 0.181598 0
0.464454 0.180316 0
0.49955 0.179004 0
0.534737 0.177661 0
0.570001 0.176287 0
0.605188 0.175113 0
0.639979 0.174151 0
0.673289 0.173404 0
0.700786 0.17438 0
0.722881 0.176745 0
0.751797 0.177554 0
0.786984 0.17673 0
0.824262 0.175235 0
0.862669 0.173449 0
0.901762 0.171664 0
0 0.195346 0
0 0.198825 0
0 0.202625 0
0.00820935 0.205936 0
0.0247654 0.208545 0
0.0458686 0.210925 0
0.0688182 0.212497 0
0.0933547 0.213764 0
0.119142 0.214755 0
0.146014 0.215412 0
0.173938 0.215961 0
0.203159 0.216098 0
0.233387 0.215976 0
0.264637 0.215625 0
0.296834 0.215015 0
0.3299 0.214191 0
0.363561 0.213397 0
0.397696 0.212375 0
0.431998 0.211368 0
0.466499 0.210163 0
0.50106 0.209155 0
0.535668 0.208057 0
0.570352 0.207141 0
0.605158 0.206195 0
0.639719 0.205234 0
0.673167 0.204685 0
0.700542 0.205936 0
0.722942 0.208637 0
0.752224 0.209384 0
0.787549 0.208621 0
0.824918 0.207279 0
0.863584 0.205585 0
0.902968 0.204105 0
0 0.227787 0
0 0.231312 0
0 0.235126 0
0.00422675 0.238148 0
0.0151675 0.240482 0
0.0376745 0.242435 0
0.0621653 0.243763 0
0.0879683 0.244816 0
0.115038 0.245518 0
0.143084 0.246235 0
0.17203 0.246601 0
0.201892 0.246601 0
0.232792 0.246342 0
0.26453 0.245991 0
0.296925 0.245319 0
0.330236 0.244678 0
0.363897 0.243931 0
0.39762 0.243091 0
0.431693 0.242176 0
0.465873 0.24123 0
0.500404 0.240375 0
0.535149 0.239658 0
0.569909 0.238834 0
0.60473 0.237919 0
0.63949 0.237156 0
0.672953 0.236744 0
0.700359 0.2383 0
0.722942 0.241016 0
0.75256 0.241962 0
0.788022 0.241123 0
0.825589 0.239948 0
0.864698 0.238636 0
0.904005 0.23711 0
0 0.261067 0
0 0.264897 0
0 0.268162 0
0.00109865 0.270832 0
0.00582895 0.272984 0
0.0294499 0.274556 0
0.0552682 0.275685 0
0.0823377 0.276555 0
0.110491 0.277165 0
0.139498 0.277577 0
0.169177 0.277729 0
0.19971 0.277684 0
0.231006 0.277455 0
0.263127 0.277058 0
0.295735 0.276509 0
0.329137 0.27602 0
0.362585 0.275319 0
0.396414 0.274556 0
0.430655 0.273854 0
0.46511 0.273198 0
0.49987 0.272572 0
0.534569 0.271809 0
0.569467 0.270985 0
0.604471 0.270253 0
0.639323 0.269749 0
0.673075 0.269703 0
0.700298 0.271275 0
0.722957 0.274052 0
0.752819 0.274998 0
0.788571 0.274525 0
0.826596 0.27361 0
0.86569 0.272267 0
0.905013 0.270771 0
0 0.294636 0
0 0.298558 0
0 0.301549 0
0 0.303929 0
0.00103761 0.305669 0
0.0226902 0.306966 0
0.049073 0.307958 0
0.0773785 0.308568 0
0.106477 0.308949 0
0.136233 0.309163 0
0.166537 0.309255 0
0.197421 0.309102 0
0.229114 0.30901 0
0.261524 0.308827 0
0.294286 0.308415 0
0.327611 0.307988 0
0.361257 0.307347 0
0.395285 0.306783 0
0.429694 0.306371 0
0.464332 0.305745 0
0.499046 0.305211 0
0.533928 0.304509 0
0.569055 0.303929 0
0.604135 0.30341 0
0.639307 0.303105 0
0.672969 0.303075 0
0.700221 0.304891 0
0.723033 0.307881 0
0.753246 0.308873 0
0.789227 0.308568 0
0.827329 0.307683 0
0.866484 0.306386 0
0.906004 0.305211 0
0 0.328008 0
0 0.33196 0
0 0.334615 0
0 0.336706 0
0 0.338201 0
0.0184024 0.339345 0
0.0446784 0.339986 0
0.0738384 0.340505 0
0.103502 0.340673 0
0.133776 0.340932 0
0.16434 0.34107 0
0.195636 0.341238 0
0.227512 0.341207 0
0.25977 0.341115 0
0.292699 0.340871 0
0.326238 0.34052 0
0.360113 0.340124 0
0.394263 0.339803 0
0.42884 0.339437 0
0.463554 0.338903 0
0.498344 0.338445 0
0.533455 0.337972 0
0.568765 0.337697 0
0.604089 0.337285 0
0.639246 0.336996 0
0.672923 0.337163 0
0.700252 0.339086 0
0.723369 0.34226 0
0.753857 0.343511 0
0.789868 0.343206 0
0.828016 0.342321 0
0.867384 0.341238 0
0.90721 0.340261 0
0 0.36083 0
0 0.364645 0
0 0.367254 0
0 0.368994 0
0 0.370413 0
0.0162661 0.371283 0
0.0419318 0.372 0
0.0714275 0.372503 0
0.101335 0.372824 0
0.131731 0.37319 0
0.162692 0.373571 0
0.194049 0.373831 0
0.225895 0.374014 0
0.258442 0.373953 0
0.291432 0.373785 0
0.325093 0.373678 0
0.359243 0.373556 0
0.393545 0.373251 0
0.428092 0.372976 0
0.462989 0.372625 0
0.498024 0.372274 0
0.533303 0.372107 0
0.568704 0.371923 0
0.60415 0.371664 0
0.639368 0.37142 0
0.673259 0.37174 0
0.700664 0.373938 0
0.723934 0.377279 0
0.754467 0.378454 0
0.790707 0.378363 0
0.829114 0.377722 0
0.868589 0.37673 0
0.908507 0.375875 0
0 0.392996 0
0 0.396674 0
0 0.399359 0
0 0.401251 0
0 0.402533 0
0.0145876 0.403571 0
0.0397192 0.404334 0
0.0693217 0.405066 0
0.0995193 0.405646 0
0.130144 0.406195 0
0.16112 0.406729 0
0.192462 0.406973 0
0.224506 0.407233 0
0.25716 0.407401 0
0.290547 0.407492 0
0.324269 0.407462 0
0.358541 0.407431 0
0.392874 0.407294 0
0.427634 0.407095 0
0.462669 0.407004 0
0.497948 0.406912 0
0.533349 0.406729 0
0.568765 0.406546 0
0.604395 0.406485 0
0.639735 0.4065 0
0.673884 0.407111 0
0.701305 0.409339 0
0.724605 0.412665 0
0.755383 0.41413 0
0.79173 0.414008 0
0.830396 0.413718 0
0.870054 0.412894 0
0.909972 0.41207 0
0 0.425391 0
0 0.429206 0
0 0.431891 0
0 0.433845 0
0 0.435325 0
0.0132143 0.436545 0
0.0375982 0.43743 0
0.0674754 0.438407 0
0.0979019 0.439063 0
0.128542 0.439734 0
0.159655 0.440253 0
0.191196 0.440818 0
0.223453 0.441169 0
0.256397 0.441611 0
0.289723 0.441779 0
0.32369 0.441855 0
0.357977 0.44184 0
0.392523 0.441901 0
0.42742 0.441978 0
0.462715 0.442008 0
0.497993 0.442039 0
0.533501 0.441978 0
0.5691 0.441855 0
0.604913 0.441978 0
0.640497 0.442237 0
0.674601 0.442802 0
0.702113 0.445197 0
0.725521 0.448737 0
0.756573 0.45034 0
0.793225 0.450492 0
0.8318 0.450095 0
0.871626 0.449454 0
0.91165 0.448722 0
0 0.458183 0
0 0.462119 0
0 0.464973 0
0 0.467002 0
0 0.468666 0
0.0121462 0.469993 0
0.0360113 0.471275 0
0.0659342 0.472282 0
0.0963455 0.473014 0
0.127306 0.473732 0
0.158511 0.474464 0
0.190372 0.475212 0
0.222705 0.475761 0
0.255665 0.476219 0
0.289219 0.476493 0
0.323262 0.476753 0
0.357671 0.476982 0
0.392508 0.477211 0
0.427558 0.477317 0
0.462837 0.477455 0
0.498283 0.477516 0
0.533913 0.477684 0
0.569787 0.477867 0
0.605692 0.478172 0
0.641352 0.478401 0
0.675517 0.478996 0
0.703212 0.481483 0
0.726772 0.485298 0
0.758053 0.48716 0
0.794659 0.487266 0
0.833402 0.487022 0
0.873304 0.486458 0
0.913619 0.486015 0
0 0.491493 0
0 0.495583 0
0 0.498512 0
0 0.500893 0
0 0.502632 0
0.0113527 0.504204 0
0.0345769 0.505486 0
0.0646372 0.506462 0
0.0952773 0.507393 0
0.126223 0.508339 0
0.157748 0.509346 0
0.189776 0.51014 0
0.222141 0.510842 0
0.255207 0.511421 0
0.288838 0.511757 0
0.32311 0.512123 0
0.357839 0.512657 0
0.392691 0.512886 0
0.427893 0.51313 0
0.463325 0.513436 0
0.498848 0.513695 0
0.534768 0.514031 0
0.570718 0.51429 0
0.606714 0.514549 0
0.642435 0.514961 0
0.676814 0.51577 0
0.704738 0.518578 0
0.728389 0.522423 0
0.75964 0.524254 0
0.796414 0.524529 0
0.835294 0.524422 0
0.875486 0.524147 0
0.915801 0.523705 0
0 0.52546 0
0 0.52961 0
0 0.532753 0
0 0.535302 0
0 0.537255 0
0.0105592 0.538903 0
0.0332799 0.540185 0
0.0635386 0.541344 0
0.0944228 0.542473 0
0.125719 0.543603 0
0.157259 0.544656 0
0.189258 0.545663 0
0.221942 0.54641 0
0.255085 0.547066 0
0.289082 0.547768 0
0.32343 0.548318 0
0.358114 0.548806 0
0.393103 0.549172 0
0.428351 0.549462 0
0.464088 0.54992 0
0.499916 0.5505 0
0.535805 0.55079 0
0.57174 0.551141 0
0.607904 0.551583 0
0.64387 0.552102 0
0.678508 0.553246 0
0.706523 0.556023 0
0.730159 0.559991 0
0.761547 0.561883 0
0.798444 0.562402 0
0.837613 0.5626 0
0.877821 0.562325 0
0.918242 0.561883 0
0 0.56022 0
0 0.564492 0
0 0.567605 0
0 0.570077 0
0 0.572183 0
0.00999466 0.573892 0
0.0327001 0.575372 0
0.0631723 0.576806 0
0.0941939 0.578027 0
0.125643 0.579248 0
0.157321 0.580392 0
0.189395 0.581323 0
0.222171 0.582284 0
0.255833 0.583291 0
0.289799 0.584085 0
0.324178 0.584649 0
0.35903 0.585153 0
0.394232 0.585733 0
0.429648 0.586282 0
0.465522 0.587015 0
0.501427 0.587396 0
0.537377 0.587991 0
0.57348 0.588403 0
0.609705 0.588907 0
0.646082 0.589822 0
0.680766 0.590875 0
0.708858 0.593774 0
0.732616 0.597818 0
0.76408 0.600076 0
0.801282 0.600702 0
0.840391 0.600824 0
0.880812 0.600916 0
0.922347 0.601587 0
0 0.594995 0
0 0.599298 0
0 0.602487 0
0 0.605066 0
0 0.607187 0
0.00999466 0.608942 0
0.033814 0.610636 0
0.0645914 0.612116 0
0.0957504 0.613443 0
0.127428 0.61474 0
0.159228 0.615915 0
0.191546 0.617014 0
0.224811 0.61825 0
0.258289 0.619287 0
0.292424 0.62005 0
0.327047 0.620813 0
0.362127 0.621515 0
0.397635 0.622309 0
0.433249 0.622904 0
0.469062 0.623514 0
0.505058 0.624186 0
0.541176 0.62472 0
0.577676 0.625513 0
0.614069 0.626291 0
0.650248 0.627008 0
0.68513 0.628229 0
0.713375 0.631174 0
0.737285 0.635615 0
0.769024 0.638071 0
0.806897 0.639673 0
0.848066 0.641749 0
0.891096 0.644373 0
0.934981 0.647562 0
0 0.629435 0
0 0.633677 0
0 0.636942 0
0 0.639673 0
0 0.641886 0
0.0107729 0.643946 0
0.0374151 0.645609 0
0.0682994 0.647135 0
0.099733 0.648463 0
0.131563 0.64979 0
0.16379 0.651255 0
0.196506 0.652552 0
0.229618 0.653712 0
0.26331 0.65478 0
0.297536 0.655726 0
0.332418 0.65658 0
0.367758 0.657618 0
0.403189 0.658335 0
0.438956 0.659068 0
0.474968 0.659892 0
0.511055 0.660533 0
0.547524 0.661494 0
0.584024 0.662272 0
0.62063 0.663142 0
0.657206 0.664332 0
0.69279 0.666148 0
0.722454 0.670451 0
0.748562 0.677012 0
0.783017 0.682368 0
0.823621 0.68661 0
0.867231 0.691295 0
0.913619 0.697276 0
0.961089 0.70396 0
0 0.663996 0
0 0.668437 0
0 0.671763 0
0 0.674662 0
0.000259403 0.677104 0
0.0113222 0.679179 0
0.0409247 0.68101 0
0.0719463 0.682597 0
0.103548 0.684138 0
0.135454 0.685817 0
0.167788 0.687404 0
0.200381 0.688807 0
0.233616 0.690074 0
0.267338 0.691356 0
0.301747 0.692424 0
0.336812 0.693645 0
0.372168 0.694591 0
0.407706 0.69546 0
0.443534 0.696406 0
0.479698 0.697261 0
0.516274 0.698528 0
0.553216 0.699855 0
0.590631 0.701549 0
0.628534 0.703822 0
0.667292 0.707042 0
0.706065 0.712062 0
0.738979 0.719387 0
0.767651 0.728542 0
0.804791 0.736797 0
0.848081 0.743709 0
0.893568 0.750271 0.000427253
0.938766 0.755001 0.000671397
0.982147 0.757824 0.000823987
0 0.699901 0
0 0.704494 0
0 0.70808 0
0 0.71104 0
0.00132753 0.713664 0
0.0122988 0.715953 0
0.0424659 0.717906 0
0.0735027 0.719814 0
0.105287 0.721675 0
