luts/Green Indoor.cube
TITLE "Generated by Resolve"
LUT_3D_SIZE 33
0.0284581 0.0302892 0.0277714
0.0328527 0.0328527 0.0301061
0.0374609 0.035462 0.032929
0.0417487 0.0382544 0.0360723
0.0463264 0.0411383 0.0389868
0.0513008 0.0440528 0.0418097
0.056733 0.0469673 0.0445869
0.0626078 0.0498665 0.0473182
0.0689403 0.052781 0.0500343
0.075761 0.0556649 0.0527199
0.0830854 0.0585336 0.0553597
0.0909438 0.0613718 0.057969
0.0993362 0.0641642 0.0605173
0.108293 0.0669261 0.0630198
0.117815 0.0696422 0.0654765
0.127916 0.0722972 0.0678569
0.138628 0.0748913 0.0701915
0.149935 0.0774395 0.0724498
0.161852 0.0799115 0.0746471
0.17438 0.0823224 0.0767681
0.187533 0.0846723 0.0788128
0.201282 0.0869459 0.0807965
0.215625 0.0891585 0.0827192
0.230579 0.09131 0.0845655
0.246113 0.0933852 0.0863508
0.262211 0.0954147 0.0880751
0.278859 0.0973831 0.0897536
0.29604 0.0992905 0.091371
0.313741 0.101167 0.0929427
0.331914 0.102983 0.0944839
0.350545 0.104784 0.0959945
0.369619 0.106538 0.0974899
0.38909 0.108278 0.0989548
0.0363928 0.0415045 0.0354772
0.041474 0.0443427 0.0377966
0.0472419 0.0471199 0.0400244
0.0534371 0.0498512 0.04271
0.0593271 0.0527352 0.0460975
0.0650492 0.0558022 0.049546
0.0710918 0.0589151 0.0527352
0.0776074 0.0620279 0.0557412
0.0846418 0.0651255 0.0585946
0.0922255 0.0681926 0.0613565
0.100343 0.0712139 0.0640269
0.109026 0.0742046 0.0666209
0.118257 0.0771496 0.0691386
0.128084 0.0800336 0.0715953
0.138506 0.0828717 0.0739605
0.149493 0.0856489 0.0762798
0.161089 0.088365 0.0785077
0.173281 0.0910201 0.0806897
0.186069 0.0936141 0.0827802
0.199435 0.0961318 0.0848096
0.213397 0.0986038 0.0867781
0.227924 0.101015 0.0886854
0.243015 0.103349 0.090547
0.258656 0.105653 0.0923323
0.274815 0.107881 0.0940871
0.291493 0.110079 0.0957961
0.308675 0.11223 0.0974594
0.326314 0.114336 0.0991073
0.344381 0.116411 0.100725
0.36286 0.118471 0.102327
0.381704 0.120516 0.103929
0.4009 0.122545 0.105547
0.420401 0.124575 0.107164
0.0439918 0.0543984 0.042771
0.0497749 0.0574807 0.0449836
0.0563211 0.0604868 0.0470588
0.0637064 0.0633707 0.0489967
0.0717021 0.0661479 0.0513771
0.0795911 0.0690013 0.0545815
0.087068 0.0720378 0.0582589
0.0944686 0.075227 0.0618753
0.102205 0.0784619 0.0652476
0.11046 0.0816815 0.0683452
0.11928 0.0848554 0.0712291
0.128664 0.0879988 0.0739757
0.138659 0.0910964 0.0765698
0.149233 0.0941176 0.079057
0.160403 0.0970932 0.0814374
0.172168 0.100008 0.0837415
0.184527 0.102861 0.0859541
0.197452 0.105653 0.0880903
0.210956 0.108385 0.0901656
0.225025 0.111055 0.0921645
0.239643 0.113664 0.0941176
0.25478 0.116228 0.096025
0.270436 0.118746 0.0978714
0.286595 0.121218 0.0996872
0.303212 0.123644 0.101488
0.320272 0.12604 0.103258
0.337758 0.12842 0.105013
0.355642 0.13077 0.106752
0.373861 0.133104 0.108522
0.392416 0.135439 0.110292
0.411261 0.137774 0.112093
0.43035 0.140124 0.113939
0.449638 0.142504 0.115831
0.0508278 0.0690776 0.0492561
0.0573129 0.0723735 0.0512551
0.064683 0.0755627 0.0530861
0.0729686 0.0786145 0.0547494
0.0822003 0.0815137 0.0562295
0.0922103 0.0842451 0.0581826
0.102281 0.0869917 0.0610361
0.111925 0.0899062 0.0646067
0.121172 0.093019 0.0684825
0.130434 0.0962387 0.0722362
0.139986 0.0995041 0.0757458
0.150057 0.10277 0.0789502
0.160662 0.105989 0.0819104
0.171862 0.109163 0.0846723
0.183642 0.112291 0.0872663
0.196017 0.115358 0.0897231
0.208957 0.118364 0.0920729
0.222461 0.121309 0.0943313
0.2365 0.124208 0.0964981
0.251087 0.127062 0.0986038
0.266163 0.129854 0.100664
0.281727 0.132616 0.102663
0.297765 0.135332 0.104646
0.314214 0.138018 0.1066
0.33109 0.140673 0.108553
0.348333 0.143328 0.110506
0.365911 0.145953 0.112474
0.38381 0.148592 0.114458
0.401984 0.151232 0.116472
0.420386 0.153887 0.118547
0.438972 0.156573 0.120684
0.457725 0.159304 0.122896
0.47657 0.162066 0.125185
0.0565194 0.0855573 0.0545663
0.0637522 0.0890669 0.0562905
0.0719463 0.0924239 0.0578164
0.0811475 0.0956283 0.0591745
0.0913863 0.0986343 0.0603189
0.102678 0.101472 0.0612955
0.114839 0.104097 0.0627604
0.127199 0.106691 0.0651865
0.139193 0.109407 0.0684672
0.150652 0.112322 0.0723583
0.161746 0.115434 0.0764477
0.172824 0.118654 0.080415
0.184161 0.121935 0.0841382
0.195956 0.125216 0.087541
0.20824 0.128481 0.0906844
0.221073 0.131701 0.0936141
0.234424 0.134874 0.0963607
0.248325 0.138003 0.09897
0.262715 0.1411 0.101472
0.277607 0.144137 0.103883
0.292958 0.147158 0.106218
0.308736 0.150134 0.108522
0.324926 0.153094 0.110796
0.341482 0.156039 0.113069
0.358373 0.158984 0.115343
0.37557 0.161913 0.117632
0.393042 0.164858 0.119951
0.410727 0.167819 0.122332
0.428611 0.170809 0.124773
0.446616 0.173831 0.127306
0.464744 0.176913 0.129915
0.482902 0.180041 0.132647
0.501076 0.183261 0.1355
0.0608225 0.103914 0.0584726
0.0688487 0.107607 0.0598917
0.0779126 0.111101 0.0611124
0.0880293 0.114427 0.06215
0.0992599 0.117556 0.062974
0.111589 0.12047 0.0636149
0.125063 0.123171 0.0640726
0.139452 0.125643 0.065095
0.154101 0.128038 0.0671092
0.168475 0.130526 0.0700999
0.182269 0.133211 0.0738842
0.195422 0.136141 0.078172
0.208225 0.139239 0.0825971
0.220966 0.142489 0.0869001
0.23389 0.1458 0.090959
0.24712 0.149126 0.0947738
0.260868 0.152438 0.0982528
0.274998 0.155749 0.101564
0.28957 0.159045 0.104707
0.30457 0.16231 0.107713
0.319966 0.165576 0.110628
0.33576 0.168811 0.113466
0.351873 0.172045 0.116274
0.368307 0.17528 0.119066
0.385016 0.178531 0.121874
0.401938 0.181781 0.124712
0.419043 0.185077 0.127611
0.436301 0.188403 0.130571
0.453651 0.191791 0.133623
0.471046 0.195224 0.136782
0.488563 0.198718 0.140017
0.50634 0.202213 0.143236
0.524392 0.205707 0.146456
0.0636454 0.124117 0.060853
0.0724804 0.127947 0.0619974
0.0824292 0.131579 0.0629282
0.0935073 0.135012 0.0636759
0.105714 0.138216 0.0642405
0.119066 0.141207 0.0646067
0.133593 0.143969 0.0648051
0.149248 0.146502 0.0648508
0.16582 0.148806 0.0655375
0.182712 0.151003 0.0672618
0.199359 0.153277 0.0700389
0.215396 0.155734 0.0737621
0.230671 0.158434 0.078172
0.245289 0.161379 0.0830091
0.25951 0.164538 0.087953
0.273594 0.167834 0.0927901
0.287755 0.171221 0.0974136
0.302098 0.17467 0.101823
0.316838 0.178134 0.105928
0.331807 0.181613 0.109895
0.347112 0.185122 0.11371
0.362692 0.188632 0.117418
0.378546 0.192172 0.12105
0.394644 0.195727 0.124651
0.41091 0.199313 0.128267
0.427329 0.202945 0.131914
0.44387 0.206607 0.135607
0.460639 0.210315 0.139269
0.477699 0.214008 0.142885
0.495064 0.2177 0.146471
0.512703 0.221408 0.149996
0.530617 0.225116 0.153506
0.548821 0.22884 0.156985
0.0649882 0.146105 0.0617685
0.0746929 0.150057 0.0626688
0.0855726 0.15378 0.063386
0.0975967 0.15729 0.06392
0.110796 0.160571 0.0643015
0.125154 0.163607 0.0644999
0.140673 0.16643 0.0645609
0.157321 0.169009 0.0644541
0.175097 0.171374 0.064271
0.193744 0.17351 0.0648051
0.21268 0.175525 0.0664225
0.231403 0.1776 0.0691539
0.249485 0.179858 0.0729229
0.266758 0.182345 0.0775158
0.283116 0.185153 0.0828107
0.298772 0.188205 0.088426
0.313985 0.191485 0.0941176
0.328969 0.194934 0.099733
0.343877 0.198505 0.105196
0.358831 0.202167 0.110475
0.373922 0.205905 0.115572
0.389288 0.209659 0.120424
0.404715 0.213504 0.125231
0.42031 0.21738 0.129961
0.436194 0.221286 0.134508
0.452415 0.225177 0.138903
0.46894 0.229084 0.14316
0.485786 0.233005 0.147311
0.502937 0.236912 0.151369
0.520378 0.240833 0.155352
0.538125 0.244739 0.159258
0.556146 0.248661 0.163119
0.574472 0.252583 0.166934
0.0650339 0.169787 0.061387
0.0756542 0.173816 0.0621347
0.08748 0.1776 0.0627298
0.100496 0.18117 0.0631723
0.114672 0.184482 0.0634775
0.130007 0.187564 0.0636454
0.146487 0.190417 0.0636912
0.164065 0.193057 0.0636301
0.182742 0.195468 0.0634775
0.202457 0.197665 0.0633097
0.22295 0.199634 0.0639353
0.243671 0.201526 0.0657054
0.264164 0.203449 0.0686198
0.283986 0.205554 0.0726482
0.302907 0.207935 0.0776532
0.320836 0.210605 0.0834211
0.337774 0.213596 0.0897841
0.353964 0.216876 0.0964218
0.369604 0.220401 0.103151
0.384894 0.224125 0.10985
0.400046 0.227985 0.116365
0.415305 0.231937 0.12256
0.430716 0.23595 0.128466
0.44654 0.239979 0.133989
0.462531 0.244053 0.139315
0.478828 0.248142 0.144427
0.495415 0.252247 0.149355
0.512322 0.256352 0.154101
0.529534 0.260471 0.158709
0.547051 0.264591 0.163195
0.564874 0.268711 0.167575
0.582986 0.272831 0.171862
0.601373 0.276967 0.176059
0.0640879 0.19498 0.060029
0.0756847 0.199054 0.0607614
0.0884871 0.202884 0.0613565
0.10248 0.206455 0.0618296
0.117647 0.209796 0.062211
0.133928 0.212909 0.0624857
0.151324 0.215793 0.0626993
0.169787 0.218448 0.0628519
0.189288 0.220905 0.062974
0.209751 0.223163 0.0630655
0.231144 0.225223 0.0632029
0.253162 0.2271 0.0642557
0.275334 0.228901 0.0664683
0.2972 0.230762 0.0698558
0.318364 0.232807 0.074403
0.338537 0.235126 0.0800183
0.357656 0.237766 0.0864576
0.375692 0.240742 0.0935531
0.392905 0.244022 0.100893
0.409506 0.247578 0.108293
0.425711 0.251331 0.115572
0.441733 0.255253 0.122667
0.457694 0.259297 0.129503
0.473732 0.263432 0.136034
0.489937 0.267628 0.14229
0.506386 0.271855 0.148241
0.523217 0.276097 0.153872
0.5402 0.280385 0.15935
0.557488 0.284688 0.16463
0.575082 0.288991 0.169711
0.59295 0.293309 0.17467
0.611139 0.297642 0.179477
0.629587 0.301961 0.184176
0.062562 0.221485 0.0581369
0.0751812 0.225559 0.0589914
0.0890059 0.229389 0.0597391
0.10399 0.232975 0.0604257
0.120119 0.236316 0.0610513
0.137346 0.239414 0.0616312
0.155627 0.242313 0.0621958
0.174914 0.244999 0.0627604
0.195148 0.247486 0.0633249
0.216266 0.24979 0.0639506
0.238224 0.251942 0.064622
0.260929 0.253925 0.0654459
0.284108 0.255772 0.0672618
0.307301 0.257572 0.070222
0.33019 0.259449 0.0741588
0.352453 0.261509 0.0790417
0.373892 0.263828 0.0847791
0.394354 0.266423 0.091249
0.413901 0.269337 0.0982528
0.432486 0.272572 0.10573
0.45034 0.276081 0.11339
0.467658 0.27982 0.121065
0.484642 0.283772 0.128634
0.501442 0.287877 0.136004
0.518196 0.292088 0.14313
0.534997 0.296391 0.149996
0.551949 0.300771 0.156603
0.569085 0.305196 0.162921
0.586664 0.309621 0.168872
0.604364 0.314092 0.174685
0.622324 0.318578 0.180316
0.640574 0.323079 0.185748
0.659113 0.327596 0.191028
0.0610208 0.249058 0.0562753
0.0746929 0.253117 0.0574044
0.0895552 0.256901 0.0585031
0.105562 0.260456 0.0595712
0.122667 0.263767 0.0606394
0.140795 0.26685 0.0617227
0.159915 0.269734 0.0628367
0.17995 0.272435 0.0640269
0.200855 0.274952 0.0652934
0.222538 0.277302 0.0666514
0.244938 0.27953 0.0680247
0.268009 0.281666 0.0693065
0.291722 0.283696 0.070573
0.315877 0.285603 0.0725872
0.340093 0.287465 0.0755322
0.364065 0.289403 0.079408
0.387518 0.291493 0.084184
0.410224 0.293797 0.0897993
0.432059 0.296361 0.0961776
0.45301 0.299229 0.10309
0.472953 0.302403 0.110628
0.492103 0.305867 0.118456
0.510613 0.30959 0.126406
0.528618 0.313542 0.134386
0.54638 0.317662 0.142199
0.563943 0.321935 0.149844
0.58146 0.326329 0.157275
0.599023 0.330816 0.164446
0.616709 0.335363 0.171359
0.634562 0.339956 0.178027
0.652766 0.344564 0.184344
0.671214 0.349203 0.190463
0.689845 0.353872 0.196429
0.06009 0.277424 0.0550546
0.0748608 0.281407 0.0566873
0.0907912 0.28513 0.05832
0.107805 0.288609 0.0599832
0.125872 0.291875 0.0617075
0.144884 0.294926 0.063508
0.164782 0.297795 0.0654002
0.185443 0.300526 0.0672313
0.206821 0.303151 0.0689403
0.228885 0.305653 0.0705425
0.251637 0.308064 0.0720378
0.275044 0.310353 0.0734417
0.299092 0.312566 0.0747539
0.323766 0.314656 0.076051
0.348867 0.31664 0.0780957
0.374075 0.318593 0.0810254
0.3991 0.320577 0.0848249
0.423667 0.322698 0.0895094
0.447593 0.325002 0.0950179
0.47071 0.327565 0.101289
0.492927 0.330388 0.108232
0.514321 0.333501 0.115633
0.534768 0.336919 0.123552
0.554498 0.340612 0.131701
0.573663 0.344533 0.13994
0.592325 0.348684 0.148226
0.610849 0.352972 0.156252
0.62916 0.357412 0.164187
0.64741 0.361975 0.171893
0.665705 0.366613 0.17937
0.684108 0.371328 0.186587
0.702678 0.376104 0.193576
0.721431 0.380911 0.20032
0.060502 0.306264 0.0552529
0.0764172 0.310124 0.0575723
0.093431 0.313741 0.059968
0.111421 0.317159 0.0623941
0.13022 0.320424 0.0646982
0.149767 0.323568 0.0668803
0.170062 0.326589 0.0689403
0.191089 0.329488 0.0708782
0.212802 0.33228 0.0727092
0.235218 0.334966 0.0744335
0.258305 0.33753 0.0760662
0.282032 0.340002 0.0775769
0.306416 0.342367 0.078996
0.331426 0.34464 0.0803388
0.357046 0.346822 0.0816815
0.383093 0.348882 0.0837415
0.409247 0.350896 0.086656
0.435279 0.352941 0.090425
0.460914 0.355093 0.0950332
0.485985 0.357427 0.100435
0.510323 0.35996 0.1066
0.533822 0.362768 0.113466
0.556542 0.365835 0.120775
0.578286 0.369207 0.128725
0.599268 0.372839 0.136995
0.619577 0.376745 0.145464
0.639399 0.380865 0.153979
0.658763 0.385183 0.162509
0.677989 0.389654 0.170809
0.697017 0.394263 0.179004
0.715984 0.398978 0.186984
0.734997 0.403784 0.194736
0.754101 0.408667 0.202274
0.0629129 0.335286 0.0575265
0.0796368 0.339147 0.0603647
0.0972152 0.342855 0.0630503
0.115602 0.346426 0.0655985
0.134768 0.349859 0.0680247
0.154681 0.353155 0.0703288
0.175341 0.356344 0.0724956
0.196719 0.359411 0.0745556
0.218784 0.362356 0.0765087
0.241535 0.365209 0.0783398
0.264942 0.367941 0.0800793
0.289006 0.370581 0.0817273
0.31371 0.373114 0.0832685
0.339055 0.37554 0.0847028
0.364996 0.37789 0.0860609
0.391531 0.380133 0.0874495
0.418479 0.382269 0.0895399
0.445579 0.384344 0.0924544
0.472572 0.38645 0.0961776
0.499245 0.388647 0.10071
0.525399 0.390997 0.106035
0.550896 0.393545 0.112108
0.575616 0.396338 0.118883
0.599512 0.399374 0.126253
0.622644 0.402686 0.134035
0.644862 0.406287 0.142382
0.666377 0.410147 0.150973
0.687297 0.414237 0.159716
0.707744 0.41854 0.16849
0.72781 0.423041 0.177249
0.747707 0.427665 0.18584
0.767437 0.432441 0.194293
0.787121 0.437324 0.202548
0.0659342 0.365026 0.0604257
0.0830701 0.369039 0.0633707
0.10103 0.3729 0.0661784
0.119799 0.376623 0.0688487
0.13933 0.380224 0.0713817
0.159609 0.383688 0.0737774
0.180621 0.38703 0.0760662
0.202335 0.390249 0.0782483
0.22475 0.393362 0.0803082
0.247837 0.396368 0.0822614
0.27158 0.399268 0.084123
0.295964 0.40206 0.0858778
0.320989 0.404746 0.0875257
0.346639 0.407355 0.0890822
0.3729 0.409857 0.0905623
0.399756 0.412268 0.0919356
0.427207 0.414572 0.0933547
0.455039 0.416785 0.0954757
0.48304 0.418936 0.0983902
0.510964 0.421103 0.102083
0.538628 0.423346 0.106569
0.565835 0.425727 0.111818
0.592447 0.428275 0.1178
0.618341 0.431052 0.124483
0.643442 0.434073 0.131792
0.667796 0.437354 0.139559
0.691295 0.440894 0.147845
0.714 0.444709 0.156542
0.736065 0.448768 0.165438
0.757565 0.453056 0.174456
0.778653 0.457542 0.18349
0.799405 0.462196 0.192477
0.819959 0.467002 0.201328
0.0690013 0.395697 0.0633707
0.0865187 0.399863 0.0664225
0.104875 0.403876 0.069337
0.12401 0.407752 0.0720989
0.143908 0.411505 0.0747539
0.164538 0.415122 0.0772717
0.185901 0.418616 0.0796674
0.207965 0.422004 0.0819562
0.230701 0.425269 0.084123
0.254124 0.428428 0.0861982
0.278187 0.431479 0.0881666
0.302907 0.43444 0.0900282
0.328252 0.437293 0.0917983
0.354208 0.44004 0.0934768
0.380774 0.442695 0.0950484
0.40795 0.445274 0.0965438
0.435706 0.447745 0.0979477
0.464012 0.450126 0.0994125
0.492729 0.452399 0.101564
0.521599 0.454627 0.104479
0.550454 0.456855 0.108156
0.579065 0.459144 0.112581
0.607294 0.461555 0.117754
0.634958 0.464118 0.123659
0.661967 0.466896 0.130266
0.688243 0.469902 0.137499
0.713726 0.473152 0.145296
0.738521 0.476646 0.153445
0.762417 0.48043 0.162188
0.785626 0.484459 0.171191
0.80824 0.488701 0.180392
0.83035 0.493172 0.18967
0.852049 0.497841 0.198947
0.0720989 0.427283 0.0663462
0.0899977 0.431586 0.0695048
0.108736 0.435752 0.0725261
0.128237 0.43978 0.0753948
0.148486 0.443687 0.0781567
0.169482 0.447456 0.0807813
0.19118 0.451102 0.0832837
0.213581 0.454643 0.0856794
0.236667 0.458061 0.0879683
0.26041 0.461387 0.0901503
0.284794 0.464591 0.0922255
0.309834 0.467689 0.0941939
0.335485 0.470695 0.0960861
0.361761 0.47361 0.0978561
0.388632 0.476417 0.0995499
0.416098 0.479149 0.101152
0.44416 0.481773 0.102678
0.472786 0.484321 0.104097
0.501961 0.486763 0.105608
0.531518 0.489113 0.10779
0.561273 0.491402 0.110704
0.590997 0.49369 0.114351
0.620539 0.496025 0.118746
0.649744 0.498466 0.123873
0.678431 0.50106 0.129702
0.706523 0.503853 0.136217
0.733913 0.506844 0.143374
0.760571 0.510063 0.15111
0.786465 0.513542 0.159319
0.811643 0.517266 0.167926
0.835996 0.521248 0.17702
0.859724 0.525475 0.186328
0.882872 0.529915 0.195804
0.075227 0.45977 0.0693675
0.0935225 0.464225 0.0726177
0.112612 0.468528 0.0757305
0.132479 0.472709 0.0787213
0.153094 0.476753 0.0815747
0.174426 0.480674 0.0843214
0.196475 0.484474 0.0869306
0.219211 0.488167 0.0894331
0.242618 0.491737 0.0918288
0.266682 0.495201 0.0941176
0.291402 0.498558 0.0962997
0.316747 0.501808 0.0983902
0.342718 0.504967 0.100374
0.369284 0.508034 0.102266
0.39646 0.510994 0.104067
0.424231 0.513863 0.105776
0.452583 0.516655 0.107393
0.481498 0.519341 0.108934
0.510994 0.52195 0.110399
0.541009 0.524468 0.11194
0.57142 0.526879 0.114137
0.601999 0.529229 0.117067
0.632609 0.531579 0.120714
0.66305 0.533974 0.125063
0.693187 0.536461 0.130144
0.722866 0.539086 0.135897
0.751995 0.541863 0.142336
0.780468 0.544854 0.149432
0.80824 0.548074 0.157092
0.835248 0.551522 0.165301
0.861646 0.5552 0.1738
0.887144 0.559152 0.182925
0.911971 0.563333 0.19234
0.0783856 0.493126 0.0724041
0.0970626 0.497719 0.075761
0.116518 0.502174 0.078996
0.136751 0.506508 0.0820783
0.157717 0.510689 0.0850385
0.1794 0.514763 0.0878767
0.20177 0.518715 0.0905928
0.224842 0.522545 0.0932021
0.248569 0.526268 0.0957046
0.272969 0.52987 0.0981003
0.297993 0.533379 0.100389
0.323644 0.536782 0.102586
0.34992 0.540093 0.104677
0.376806 0.543297 0.106676
0.404288 0.54641 0.108583
0.432349 0.549432 0.110399
0.46099 0.552361 0.112139
0.490196 0.555215 0.113771
0.519966 0.557961 0.115343
0.550301 0.560632 0.116823
0.581155 0.56321 0.11841
0.612375 0.565698 0.120623
0.643793 0.568109 0.123583
0.675242 0.57052 0.127199
0.706554 0.572961 0.131533
0.737606 0.575494 0.136553
0.768261 0.578134 0.14226
0.798383 0.580941 0.148638
0.827909 0.583932 0.155642
0.856748 0.587137 0.163241
0.884871 0.59057 0.171405
0.912261 0.594232 0.180041
0.939055 0.598123 0.188952
0.08159 0.527352 0.0755016
0.100633 0.532097 0.0789502
0.120455 0.53669 0.0822766
0.141039 0.541161 0.0854658
0.162341 0.545495 0.0885328
0.184375 0.549706 0.0914626
0.20708 0.553796 0.0942855
0.230472 0.557763 0.0970016
0.254536 0.561639 0.0996109
0.27924 0.565393 0.102098
0.304585 0.569039 0.104494
0.330556 0.572595 0.106798
0.357122 0.576043 0.108995
0.384314 0.5794 0.111101
0.412085 0.58265 0.113115
0.440436 0.585824 0.115038
0.469368 0.588907 0.116869
0.498878 0.591882 0.118624
0.528923 0.594797 0.120287
0.559533 0.597604 0.121874
0.590692 0.600351 0.123369
0.622354 0.602991 0.125002
0.654383 0.605524 0.12726
0.68661 0.608011 0.13022
0.718898 0.610483 0.133837
0.751064 0.61297 0.13814
0.783017 0.615549 0.14313
0.814588 0.618235 0.148775
0.845685 0.621057 0.155077
0.876204 0.624048 0.16202
0.906096 0.627253 0.169558
0.935302 0.630655 0.177661
0.963806 0.634302 0.186252
0.0848249 0.562448 0.0786145
0.104234 0.567315 0.0821698
0.124422 0.572045 0.0855879
0.145342 0.576654 0.0888838
0.166995 0.581125 0.0920424
0.189364 0.585473 0.095079
0.212406 0.589715 0.0980087
0.236118 0.59382 0.100832
0.260502 0.597833 0.103532
0.285527 0.60174 0.106126
0.311177 0.605524 0.108629
0.337438 0.609216 0.111025
0.364324 0.612818 0.113329
0.391806 0.616312 0.115541
0.419867 0.619715 0.117647
0.448524 0.623026 0.119677
0.477745 0.626245 0.121614
0.50753 0.629374 0.123476
0.537865 0.632425 0.125246
0.56875 0.635386 0.126925
0.600183 0.63827 0.128542
0.632151 0.641062 0.130068
0.664607 0.643778 0.131731
0.697429 0.646372 0.13402
0.730465 0.64892 0.136995
0.763546 0.651453 0.140612
0.796567 0.654002 0.1449
0.829374 0.656611 0.149844
0.861845 0.659327 0.155444
0.893889 0.662181 0.1617
0.925383 0.665187 0.168566
0.956298 0.668391 0.176043
0.986542 0.671794 0.18407
0.0880903 0.598367 0.0817731
0.107866 0.603372 0.08542
0.128405 0.60824 0.0889448
0.149676 0.612985 0.0923323
0.171664 0.617594 0.0955825
0.194354 0.62208 0.0987259
0.217731 0.626444 0.101762
0.241779 0.630716 0.104677
0.266468 0.634852 0.107469
0.291798 0.638895 0.11017
0.317754 0.642832 0.112779
0.344335 0.646662 0.115282
0.371511 0.650401 0.117678
0.399283 0.654032 0.119982
0.427649 0.657572 0.12221
0.456596 0.661036 0.124331
0.486091 0.664393 0.126375
0.516167 0.667674 0.128328
0.546777 0.670863 0.130205
0.577951 0.673961 0.131991
0.609644 0.676982 0.1337
0.641886 0.679911 0.135332
0.674647 0.68278 0.136873
0.707897 0.685542 0.138582
0.741497 0.688212 0.140902
0.775311 0.690822 0.143893
0.809201 0.693401 0.147509
0.84303 0.69601 0.151781
0.876692 0.698665 0.156695
0.910033 0.701427 0.162264
0.942992 0.704295 0.16846
0.975448 0.707332 0.175265
1 0.710521 0.182666
0.0914015 0.635111 0.0849775
0.111528 0.640238 0.088716
0.132418 0.645243 0.0923171
0.154025 0.650126 0.0958114
0.176364 0.654871 0.0991684
0.199374 0.659495 0.102403
0.223072 0.664012 0.105531
0.24744 0.668406 0.108537
0.272435 0.672679 0.111452
0.298085 0.67686 0.114244
0.324346 0.680934 0.116945
0.351217 0.684901 0.119539
0.378698 0.688777 0.122042
0.406775 0.692561 0.124453
0.435416 0.696239 0.126772
0.464637 0.699825 0.129
0.494438 0.703334 0.131151
0.524773 0.706737 0.133196
0.555673 0.710063 0.135164
0.587121 0.713314 0.137057
0.619089 0.716472 0.138872
0.651591 0.719554 0.140597
0.684627 0.722545 0.142245
0.718166 0.725475 0.143832
0.752194 0.728298 0.145571
0.786572 0.731029 0.147921
0.821164 0.733684 0.150927
0.855833 0.736339 0.154559
0.890471 0.738994 0.158816
0.924941 0.741711 0.163699
0.959152 0.744488 0.169223
0.992737 0.747417 0.175982
1 0.750546 0.18529
0.0947433 0.672663 0.0881971
0.115221 0.677928 0.0920424
0.136446 0.68307 0.0957351
0.158404 0.688075 0.099321
0.181064 0.692958 0.10277
0.20441 0.697719 0.106111
0.228428 0.702358 0.109331
0.253101 0.706889 0.112428
0.278416 0.711299 0.115434
0.304372 0.715618 0.118334
0.330938 0.719829 0.121126
0.358114 0.723934 0.123827
0.385885 0.727947 0.126436
0.414237 0.731853 0.128939
0.443183 0.735683 0.131365
0.472694 0.739406 0.133684
0.502754 0.743038 0.135927
0.533379 0.746593 0.138079
0.564553 0.750057 0.140154
0.596277 0.753445 0.142138
0.628519 0.756741 0.144045
0.66128 0.759945 0.145876
0.694575 0.763088 0.147631
0.728389 0.76614 0.149294
0.762707 0.769116 0.150896
0.797498 0.772 0.152697
0.832624 0.774792 0.155062
0.867979 0.777523 0.158114
0.90312 0.780194 0.163027
0.93753 0.782849 0.170703
0.97084 0.785626 0.181262
1 0.788617 0.194919
1 0.791928 0.211795
0.0981155 0.711025 0.0914626
0.118944 0.716426 0.0953994
0.14052 0.721691 0.0991989
0.162814 0.726818 0.102861
0.185794 0.731838 0.106401
0.209461 0.736721 0.109834
0.233799 0.741497 0.113146
0.258793 0.746166 0.11635
0.284413 0.750713 0.119463
0.310658 0.755169 0.122454
0.33753 0.759503 0.125338
0.364996 0.763745 0.128145
0.393057 0.767895 0.130831
0.421714 0.771939 0.13344
0.450935 0.775891 0.135958
0.48072 0.779751 0.138384
0.51107 0.783536 0.140719
0.54197 0.787213 0.142977
0.573419 0.790814 0.145144
0.605402 0.794324 0.147219
0.637919 0.797757 0.149233
0.670954 0.801114 0.151156
0.704509 0.804379 0.153002
0.738582 0.807568 0.154772
0.773159 0.810666 0.156725
0.808087 0.813535 0.160372
0.843046 0.81622 0.166491
0.877653 0.818784 0.175586
0.911421 0.821317 0.187961
0.943923 0.823957 0.203723
0.974685 0.82681 0.223087
1 0.830014 0.246189
1 0.833677 0.273091
0.101534 0.750179 0.0947738
0.122698 0.755703 0.0987869
0.14461 0.76109 0.102678
0.167239 0.766354 0.106432
0.190539 0.771496 0.110079
0.214542 0.776516 0.113603
0.239185 0.78143 0.117006
0.264485 0.786221 0.120302
0.29041 0.790906 0.123507
0.31696 0.795483 0.126589
0.344121 0.799954 0.12958
0.371893 0.804334 0.132464
0.400244 0.808606 0.135256
0.429175 0.812787 0.137972
0.458686 0.816876 0.140581
0.488762 0.820874 0.143099
0.519387 0.824781 0.145525
0.550561 0.828595 0.147875
0.582269 0.832319 0.150149
0.614527 0.835966 0.152331
0.647303 0.839536 0.154421
