luts/Green Afternoon.cube
TITLE "Generated by Resolve"
LUT_3D_SIZE 5
0 0 0
0.0495003 0.0138094 0.0138094
0.164782 0.0182345 0.0182345
0.376547 0.00453193 0.00453193
0.694316 0 0
0.014023 0.0949264 0.014023
0.117281 0.10782 0.000946059
0.32784 0.106569 0
0.61474 0.090837 0
0.896437 0.0793011 0
0 0.328008 0
0.103502 0.340673 0
0.360113 0.340124 0
0.639246 0.336996 0
0.90721 0.340261 0
0 0.594995 0
0.0957504 0.613443 0
0.362127 0.621515 0
0.650248 0.627008 0
0.934981 0.647562 0
0 0.893111 0
0.136095 0.943679 0
0.427192 0.976532 0
0.715587 0.981765 0
0.984771 0.986267 0.00479133
0.00575265 0.00575265 0.028275
0.0582895 0.0166323 0.0543984
0.179599 0.0171817 0.0749828
0.3991 0.000396735 0.0778515
0.721187 0 0.0670176
0.00975052 0.100359 0.0988479
0.123049 0.112459 0.11043
0.343908 0.108782 0.106615
0.63006 0.0925765 0.090959
0.902678 0.083772 0.0829633
0 0.334203 0.0826734
0.108965 0.345953 0.0914473
0.36643 0.34638 0.0916609
0.645884 0.344152 0.089662
0.915221 0.348226 0.0942397
0 0.60209 0.0680095
0.10486 0.621332 0.0883192
0.372473 0.630274 0.0980697
0.661082 0.636881 0.10486
0.960174 0.671153 0.138827
0 0.906767 0.0856641
0.16051 0.967468 0.145281
0.437507 0.986358 0.163806
0.724132 0.990509 0.167895
0.992966 0.993667 0.173724
0.0126497 0.0126497 0.0831464
0.0680705 0.019089 0.129122
0.199496 0.014435 0.182773
0.433921 0 0.227741
0.761624 0 0.263813
0.00482185 0.103441 0.238941
0.125124 0.113649 0.288716
0.354055 0.106905 0.317205
0.638483 0.0906996 0.320409
0.903944 0.0848707 0.318364
0 0.33521 0.316182
0.110414 0.347387 0.326818
0.368856 0.348791 0.327901
0.649134 0.347539 0.326894
0.919448 0.352422 0.332372
0 0.605631 0.30605
0.109651 0.625696 0.327001
0.378271 0.635493 0.337621
0.669688 0.64509 0.347433
0.983307 0.693553 0.395651
0 0.923873 0.337163
0.172396 0.978439 0.390921
0.443046 0.99089 0.403098
0.728237 0.994904 0.406012
0.997223 0.997497 0.411795
0.0187381 0.0187381 0.16231
0.0774548 0.0209354 0.227268
0.220066 0.0108186 0.31754
0.473533 0 0.413046
0.79678 0 0.491112
0.0016022 0.106157 0.398718
0.127123 0.1149 0.479286
0.362661 0.105852 0.528847
0.644404 0.0909743 0.541573
0.906035 0.0871595 0.544396
0 0.337118 0.540169
0.113649 0.35053 0.545815
0.373022 0.352972 0.546578
0.6542 0.352575 0.547082
0.925216 0.358206 0.555001
0 0.610178 0.537346
0.115816 0.63183 0.550591
0.385321 0.642435 0.559518
0.685039 0.660334 0.576959
0.996307 0.707622 0.624613
1.5259e-05 0.946563 0.592462
0.180163 0.9841 0.619898
0.449073 0.993698 0.625589
0.733822 0.998154 0.626444
0.999496 0.999542 0.632044
0.0206912 0.0206912 0.303792
0.0818952 0.018143 0.397955
0.237293 0.002121 0.541848
0.50605 0 0.691722
0.81976 0 0.789624
0 0.101503 0.677409
0.119097 0.106233 0.805264
0.359228 0.095079 0.877958
0.63769 0.0827192 0.887678
0.899855 0.0809491 0.88275
0 0.329946 0.880766
0.106401 0.343511 0.899275
0.366659 0.346624 0.903624
0.649058 0.347265 0.903853
0.921111 0.354101 0.909163
0 0.606943 0.873243
0.111711 0.628092 0.903502
0.382162 0.639384 0.919036
0.695766 0.671153 0.952117
0.994949 0.705348 0.985626
0.00189212 0.956268 0.930663
0.177569 0.98262 0.9673
0.444739 0.992798 0.980529
0.728603 0.995361 0.984588
1 1 0.991241
