luts/Green light.cube
TITLE "Generated by Resolve"
LUT_3D_SIZE 5
0 0 0
0.0189059 0.00607309 0.00607309
0.0731365 0.0167239 0.0167239
0.213519 0.0321508 0.0321508
0.393164 0.0389868 0.0389868
0.0239261 0.111482 0.0239261
0.0996262 0.150561 0.0175631
0.270436 0.165637 0
0.507927 0.164004 0
0.720607 0.171084 0
0 0.35227 0
0.0915847 0.381628 0
0.357031 0.379736 0
0.653651 0.372625 0
0.862959 0.393912 0
0 0.631724 0
0.0881361 0.65362 0
0.419837 0.662989 0
0.775357 0.705409 0
1 0.790616 0.0195163
0 0.994614 0
0.276982 1 0.0704814
0.622889 1 0.0952621
0.925704 1 0.0862898
1 1 0.0706035
0.00224308 0.00224308 0.014847
0.0230411 0.00842298 0.0261234
0.0985428 0.0242618 0.0594339
0.25182 0.0346227 0.0992447
0.438849 0.0364233 0.134966
0.0224765 0.125017 0.0991073
0.102892 0.160067 0.122347
0.283558 0.169451 0.11957
0.529244 0.163348 0.102174
0.742 0.168444 0.0978103
0 0.360891 0.128862
0.0856641 0.386755 0.123583
0.358633 0.381872 0.0963149
0.65893 0.374502 0.0754559
0.867628 0.397971 0.094667
0 0.635981 0.117021
0.0936294 0.659113 0.137331
0.435645 0.678782 0.157076
0.798978 0.729061 0.207721
1 0.811734 0.291096
0.0177462 1 0.268086
0.293675 1 0.337285
0.629465 1 0.351781
0.917113 1 0.32752
1 1 0.307454
0.00419623 0.00419623 0.0326238
0.0297246 0.0122683 0.0545815
0.124285 0.0304723 0.119417
0.28986 0.0351568 0.186892
0.483986 0.0319829 0.25359
0.018967 0.136858 0.195361
0.104433 0.167941 0.250217
0.295064 0.171893 0.277653
0.548348 0.161669 0.288609
0.761028 0.165423 0.309468
0 0.3682 0.32636
0.0797894 0.390753 0.34406
0.360174 0.383856 0.333852
0.663172 0.37641 0.324605
0.872969 0.403311 0.351217
0 0.640101 0.369772
0.102068 0.667552 0.396963
0.454185 0.697276 0.426764
0.823651 0.753765 0.483543
1 0.828931 0.55903
0.0411383 1 0.542107
0.307591 1 0.601648
0.629908 1 0.602579
0.906645 1 0.567346
1 1 0.544244
0.00556954 0.00556954 0.0525368
0.0412451 0.0188144 0.10042
0.150423 0.0352178 0.19913
0.327337 0.0337224 0.296178
0.528099 0.0257877 0.395331
0.0135042 0.147417 0.314153
0.10428 0.17406 0.40087
0.304997 0.173007 0.457359
0.564691 0.158984 0.493172
0.777554 0.162188 0.535622
0 0.374121 0.540917
0.0741436 0.393744 0.577096
0.361563 0.385626 0.579736
0.66743 0.379294 0.578164
0.881498 0.411856 0.610941
0 0.644572 0.625177
0.113481 0.678935 0.659541
0.476905 0.719936 0.700557
0.846906 0.777066 0.757702
1 0.842512 0.823178
0.0621195 1 0.813504
0.317174 1 0.86157
0.626352 1 0.849317
0.894423 1 0.805386
1 1 0.781155
0.00796521 0.00796521 0.07953
0.0560769 0.0266728 0.169284
0.175921 0.0381476 0.299428
0.363668 0.0303349 0.427497
0.57055 0.0179599 0.559808
0.00613413 0.156374 0.455756
0.102678 0.178607 0.573571
0.313237 0.172854 0.656794
0.5794 0.155901 0.714153
0.791775 0.158984 0.773495
0 0.378897 0.769955
0.0691844 0.396292 0.820279
0.363195 0.387549 0.83125
0.671901 0.383429 0.833219
0.892302 0.422675 0.872435
0 0.649912 0.881209
0.129549 0.694942 0.926192
0.500465 0.74342 0.974502
0.867903 0.798077 1
1 0.852308 1
0.0786908 1 1
0.323522 1 1
0.617777 1 1
0.881468 1 1
1 1 1
