luts/Green Action.cube
TITLE "Generated by Resolve"
LUT_3D_SIZE 33
0 0 0
0 0 0
0 0 0
0 0 0
0 0 0
0 0 0
0 0 0
0 0 0
0 0 0
0 0 0
0 0 0
0 0 0
0 0 0
0 0 0
0 0 0
0 0 0
0 0 0
0 0 0
0.00263981 0 0
0.019379 0.0041352 0.00410468
0.0387427 0.00955215 0.00950637
0.059144 0.0144656 0.0144045
0.080705 0.0189364 0.0188602
0.103578 0.0229801 0.0228885
0.12784 0.0265965 0.0264897
0.153597 0.0297856 0.0296635
0.180819 0.0325475 0.0324102
0.20914 0.0348211 0.0346532
0.238239 0.0365759 0.0363928
0.265858 0.0375982 0.0373846
0.292271 0.0380255 0.0378119
0.317449 0.0379644 0.0377203
0.342306 0.0375372 0.0372778
0 0 0
0 0 0
0 0 0
0 0 0
0 0 0
0 0 0
0 0 0
0 0 0
0 0 0
0 0 0
0 0 0
0 0 0
0 0 0
0 0 0
0 0 0
0.00622568 0.000747692 0.000335698
0.0230564 0.007187 0.00608835
0.04065 0.0130617 0.0112306
0.059266 0.0184482 0.0158999
0.079057 0.0234073 0.0201267
0.100053 0.0279545 0.0238956
0.122377 0.0320592 0.0272068
0.145983 0.0357824 0.0301366
0.171069 0.0390784 0.0325933
0.19765 0.0419776 0.034638
0.225818 0.0444648 0.0362554
0.255497 0.04654 0.0374304
0.286091 0.0481117 0.0381018
0.31725 0.0491646 0.0382696
0.345998 0.0494392 0.0377966
0.373007 0.0491188 0.03682
0.398337 0.0483253 0.0354467
0.423209 0.0472114 0.0337835
0 0 0
0 0 0
0 0 0
0 0 0
0 0 0
0 0 0
0 0 0
0 0 0
0 0 0
0 0 0
0 0 0
0 0 0
0.0103304 0.00383001 0.00250248
0.0252384 0.0106661 0.00794995
0.0410315 0.0169985 0.0128634
0.0578927 0.0229038 0.0173037
0.0758526 0.0283818 0.0212863
0.0950179 0.0334478 0.0248264
0.115419 0.038117 0.027924
0.137118 0.0423743 0.0305638
0.160113 0.0462348 0.0327611
0.184497 0.0496834 0.0345312
0.210269 0.0527352 0.0358434
0.237568 0.0553902 0.0367285
0.266407 0.0576638 0.0371862
0.296849 0.059556 0.0372168
0.32874 0.0610361 0.0368048
0.361395 0.0620279 0.035935
0.394278 0.0624857 0.0346227
0.423941 0.0621195 0.0327764
0.451331 0.0611582 0.0305638
0.4766 0.0597086 0.0280766
0.501366 0.057969 0.0253758
0 0 0
0 0 0
0 0 0
0 0 0
0 0 0
0 0 0
0 0 0
0 0 0
0.00077821 0 0
0.0128328 0.00729381 0.00453193
0.025864 0.0145876 0.00970474
0.039826 0.0214237 0.0143893
0.0548409 0.0278325 0.0186007
0.0709697 0.0338445 0.0223392
0.0882429 0.0394751 0.0256352
0.106722 0.0447089 0.0284886
0.126452 0.049546 0.030869
0.147478 0.0540017 0.0328222
0.169802 0.0580606 0.0343175
0.193439 0.0617075 0.0353552
0.218448 0.0649729 0.0359503
0.244846 0.0678416 0.0361181
0.272663 0.0703288 0.0358434
0.301976 0.0724498 0.0351568
0.33283 0.0741894 0.0340429
0.365255 0.0755779 0.0325322
0.399039 0.0766003 0.0306096
0.433341 0.0771191 0.0283055
0.467567 0.0771191 0.0256199
0.497856 0.0762188 0.0225986
0.525399 0.0746624 0.0193332
0.550546 0.0726329 0.0159152
0.575051 0.0703288 0.0123751
0 0 0
0 0 0
0 0 0
0 0 0
0 0 0
0.0033875 0.00285344 0.000915541
0.0136721 0.0112001 0.00642405
0.0247807 0.0189975 0.0113375
0.0368505 0.0263523 0.0157626
0.049958 0.0333257 0.0197147
0.0641489 0.0399023 0.0231937
0.0794995 0.0460975 0.026215
0.0959945 0.0519265 0.0287938
0.11371 0.0573892 0.0309148
0.132662 0.0624552 0.0325628
0.152895 0.0671397 0.0337682
0.174441 0.0714427 0.0345159
0.197284 0.075349 0.0348058
0.221439 0.0788739 0.0346685
0.246952 0.0820172 0.0340887
0.273777 0.0847639 0.0330663
0.301991 0.0871443 0.0316472
0.331563 0.0891737 0.0298161
0.362615 0.090837 0.0276036
0.395132 0.092195 0.0250248
0.429114 0.0932174 0.0220798
0.464347 0.0938888 0.0187839
0.49984 0.0940719 0.015198
0.534981 0.0937514 0.0113375
0.565591 0.0923934 0.00733959
0.593149 0.0903487 0.00323491
0.618036 0.0877546 0
0.642298 0.0849165 0
0 0 0
0 0 0
0.00453193 0.00686656 0.00309758
0.0126192 0.0157015 0.00836194
0.0217746 0.0239414 0.0130007
0.0320134 0.0318303 0.0171664
0.0432136 0.0393378 0.0208743
0.0554665 0.046479 0.024094
0.0688182 0.0532692 0.0268711
0.0833295 0.0597086 0.0291752
0.0990158 0.0657664 0.0310063
0.115908 0.071458 0.0323949
0.13402 0.0767834 0.0333104
0.153429 0.0817273 0.0337835
0.174105 0.086305 0.0337835
0.196094 0.0905013 0.0333562
0.219379 0.0943008 0.0324865
0.243977 0.0977493 0.0311894
0.269886 0.100801 0.0294804
0.297047 0.103487 0.0273594
0.325521 0.105806 0.0248569
0.355306 0.107774 0.0219883
0.386374 0.109407 0.0187839
0.418799 0.110735 0.0152438
0.452613 0.111772 0.0113985
0.487785 0.112535 0.00726329
0.524025 0.112978 0.0028687
0.560281 0.112947 0
0.595682 0.112459 0
0.626383 0.110735 0
0.653788 0.108217 0
0.678325 0.105089 0
0.701946 0.101686 0
0.0106813 0.0215152 0.0106966
0.0174563 0.0302129 0.0151064
0.023331 0.0356756 0.0176089
0.0317388 0.0432593 0.0209354
0.0415961 0.0504005 0.0237125
0.05243 0.0572366 0.0260777
0.0641947 0.0638132 0.0280461
0.0769818 0.0700847 0.0296025
0.0908522 0.0760204 0.0307317
0.105852 0.0816358 0.0314336
0.121965 0.0869154 0.0317235
0.139254 0.0918746 0.0315862
0.157748 0.0964828 0.0310369
0.177417 0.10074 0.0300755
0.198306 0.104662 0.0287022
0.220432 0.108248 0.0269322
0.243748 0.111467 0.0247807
0.268299 0.114366 0.0222629
0.294057 0.116915 0.019379
0.320989 0.119142 0.0161593
0.349111 0.121035 0.0126192
0.378424 0.122621 0.00875868
0.408957 0.123903 0.00460822
0.440665 0.124926 0.000198367
0.47361 0.125689 0
0.507622 0.126177 0
0.542199 0.126406 0
0.576593 0.126101 0
0.610132 0.125231 0
0.64123 0.123568 0
0.669749 0.121157 0
0.695766 0.118105 0
0.722057 0.114946 0
0.0235904 0.0535439 0.023621
0.0306554 0.0607004 0.0260014
0.0385901 0.0671855 0.0278477
0.0477913 0.0736248 0.0293431
0.0588388 0.0797742 0.0303349
0.0709392 0.0858778 0.0310216
0.0839857 0.0918746 0.0314031
0.0982071 0.0977493 0.0314183
0.113558 0.103288 0.0310063
0.130037 0.108507 0.0301976
0.147707 0.11339 0.0289769
0.166537 0.117937 0.0273442
0.186587 0.122133 0.02533
0.207828 0.126009 0.0229343
0.230274 0.129549 0.0201572
0.253925 0.132738 0.0170291
0.278782 0.135607 0.0135805
0.304768 0.13814 0.00979629
0.33193 0.140352 0.00572213
0.360174 0.142245 0.00135805
0.389502 0.143832 0
0.419944 0.145129 0
0.451438 0.146166 0
0.483864 0.147005 0
0.51751 0.147601 0
0.552071 0.147982 0
0.587243 0.148058 0
0.621912 0.147616 0
0.655619 0.146593 0
0.686793 0.144671 0
0.715297 0.141909 0
0.741314 0.138415 0
0.767544 0.134844 0
0.0314031 0.0876326 0.0314641
0.0394141 0.0936904 0.0321508
0.0483864 0.0991226 0.0323644
0.0588235 0.104753 0.0322881
0.0714427 0.110216 0.0316625
0.0850843 0.115755 0.0307622
0.0996262 0.121309 0.0295872
0.115373 0.126772 0.0280766
0.13225 0.131914 0.0261845
0.150286 0.136751 0.0238956
0.169497 0.141253 0.0212406
0.189899 0.145418 0.0182193
0.211475 0.149248 0.014847
0.234241 0.152743 0.0111543
0.258167 0.155917 0.00714122
0.283223 0.158755 0.00283818
0.309422 0.161288 0
0.33669 0.163485 0
0.365026 0.165377 0
0.394324 0.166995 0
0.424521 0.168322 0
0.455146 0.169177 0
0.486259 0.169665 0
0.517815 0.169802 0
0.549828 0.16965 0
0.582162 0.169177 0
0.615503 0.168658 0
0.648875 0.167788 0
0.681849 0.166491 0
0.713115 0.164462 0
0.742412 0.161669 0
0.769467 0.158129 0
0.796658 0.154498 0
0.0332799 0.121523 0.0333715
0.0424811 0.126635 0.0325933
0.0527047 0.13106 0.0313725
0.0644694 0.135882 0.0298466
0.078706 0.140597 0.0276951
0.0938582 0.145525 0.02533
0.109819 0.150561 0.0227207
0.12697 0.155596 0.0198215
0.14522 0.160327 0.016556
0.164614 0.164736 0.0129702
0.185153 0.168826 0.00906386
0.206836 0.172595 0.00486763
0.229648 0.176028 0.000366217
0.25359 0.179141 0
0.278614 0.181949 0
0.304707 0.184436 0
0.331762 0.186618 0
0.359854 0.18851 0
0.388876 0.190127 0
0.418814 0.19147 0
0.449607 0.192569 0
0.481025 0.193332 0
0.513069 0.193835 0
0.545708 0.19408 0
0.578882 0.19408 0
0.612436 0.19382 0
0.64654 0.193393 0
0.680369 0.192554 0
0.713588 0.191211 0
0.744945 0.189014 0
0.774227 0.185931 0
0.801297 0.18201 0
0.828473 0.178012 0
0.0301061 0.158434 0.0302281
0.0408484 0.162463 0.0280766
0.0526589 0.165805 0.0255589
0.0660716 0.169818 0.0226902
0.0822309 0.1738 0.0191043
0.0991836 0.178164 0.0153353
0.116808 0.182712 0.0114137
0.135592 0.18735 0.00720226
0.155459 0.191684 0.00271611
0.176394 0.195697 0
0.198444 0.19939 0
0.221576 0.202777 0
0.245792 0.205829 0
0.271 0.208591 0
0.297261 0.211048 0
0.324483 0.213214 0
0.352621 0.215091 0
0.381659 0.216709 0
0.411551 0.218082 0
0.442222 0.219196 0
0.47364 0.220066 0
0.505608 0.220676 0
0.538079 0.220996 0
0.571023 0.221088 0
0.60441 0.220966 0
0.638086 0.220615 0
0.672221 0.220111 0
0.70602 0.219165 0
0.739147 0.217716 0
0.770428 0.215305 0
0.799695 0.211948 0
0.826795 0.207645 0
0.853956 0.203281 0
0.0217746 0.19707 0.0219425
0.0343328 0.199985 0.0186007
0.0479744 0.202213 0.0149691
0.0632181 0.205356 0.0109255
0.0814374 0.20856 0.00608835
0.100298 0.212314 0.00109865
0.119661 0.216358 0
0.140108 0.220554 0
0.161578 0.224445 0
0.18407 0.228046 0
0.207584 0.231312 0
0.232105 0.234302 0
0.257618 0.236988 0
0.284077 0.239384 0
0.311467 0.241505 0
0.339727 0.243351 0
0.368811 0.244953 0
0.398688 0.246311 0
0.429297 0.24744 0
0.460609 0.248341 0
0.492546 0.249027 0
0.524926 0.249454 0
0.557717 0.249638 0
0.59089 0.249607 0
0.624414 0.249363 0
0.658137 0.248905 0
0.692226 0.248325 0
0.725948 0.247318 0
0.758953 0.245731 0
0.790143 0.243137 0
0.819394 0.239506 0
0.846494 0.234821 0
0.873655 0.230106 0
0.00886549 0.237232 0.00906386
0.0234379 0.23888 0.00477607
0.0390936 0.240162 0.000213626
0.0563211 0.24242 0
0.0748302 0.237613 0
0.0952163 0.24126 0
0.115877 0.244938 0
0.137407 0.248508 0
0.159838 0.251881 0
0.18323 0.254994 0
0.207553 0.257832 0
0.232807 0.260395 0
0.258946 0.262669 0
0.285954 0.264698 0
0.313787 0.266468 0
0.342412 0.267994 0
0.371771 0.269276 0
0.401831 0.270359 0
0.432547 0.271214 0
0.46389 0.271885 0
0.495781 0.272358 0
0.528038 0.272572 0
0.560647 0.272557 0
0.593561 0.272328 0
0.626795 0.271931 0
0.660151 0.271305 0
0.693858 0.270588 0
0.727398 0.269551 0
0.760586 0.268116 0
0.792309 0.265751 0
0.822568 0.262501 0
0.850355 0.257908 0
0.876524 0.252476 0
0 0.268864 0
0.00906386 0.270985 0
0.0263218 0.272572 0
0.045243 0.274296 0
0.0672923 0.275715 0
0.0895552 0.277974 0
0.111864 0.280568 0
0.13492 0.283406 0
0.158831 0.286137 0
0.183688 0.288823 0
0.209384 0.291264 0
0.235904 0.293416 0
0.263233 0.295354 0
0.291325 0.297017 0
0.32015 0.298466 0
0.349645 0.299702 0
0.379797 0.300725 0
0.410559 0.301549 0
0.441855 0.30219 0
0.473686 0.302647 0
0.505989 0.302953 0
0.538567 0.303014 0
0.57142 0.302861 0
0.604517 0.30251 0
0.637827 0.302007 0
0.671229 0.301305 0
0.70489 0.300511 0
0.738338 0.299397 0
0.771405 0.297887 0
0.803021 0.295384 0
0.833188 0.29192 0
0.861021 0.287022 0
0.887282 0.281239 0
0 0.309941 0
0 0.31104 0
0.0115053 0.31165 0
0.0323644 0.312535 0
0.0565957 0.3131 0
0.080827 0.314656 0
0.104906 0.316655 0
0.12961 0.318959 0
0.155047 0.321233 0
0.181323 0.323476 0
0.208331 0.32549 0
0.236072 0.327276 0
0.264515 0.328832 0
0.293614 0.330175 0
0.323339 0.331304 0
0.353643 0.33225 0
0.384512 0.332998 0
0.415869 0.333593 0
0.4477 0.334005 0
0.479973 0.334295 0
0.512612 0.334432 0
0.54548 0.33434 0
0.578531 0.334051 0
0.611154 0.333181 0
0.643549 0.331884 0
0.675639 0.330205 0
0.707576 0.328252 0
0.738933 0.325765 0
0.770428 0.323262 0
0.800916 0.320012 0
0.830289 0.315969 0
0.85771 0.310628 0
0.883909 0.30454 0
0 0.342565 0
0 0.343511 0
0 0.343847 0
0.0167697 0.344259 0
0.0425727 0.344213 0
0.0682078 0.34519 0
0.0934768 0.346639 0
0.119249 0.348424 0
0.145632 0.35021 0
0.172763 0.352026 0
0.200549 0.353643 0
0.228962 0.355047 0
0.257984 0.356252 0
0.287587 0.357275 0
0.317723 0.358099 0
0.348379 0.358755 0
0.379522 0.359258 0
0.411109 0.359609 0
0.443091 0.359823 0
0.475441 0.359899 0
0.50811 0.359869 0
0.541039 0.35967 0
0.574182 0.359365 0
0.607431 0.358862 0
0.640787 0.358221 0
0.674083 0.357351 0
0.707393 0.356329 0
0.740337 0.354925 0
0.772869 0.353124 0
0.804044 0.350256 0
0.833906 0.346395 0
0.861646 0.341009 0
0.887938 0.3346 0
0 0.383749 0
0 0.383825 0
0 0.383291 0
0.000534066 0.382879 0
0.0283513 0.38204 0
0.0558175 0.382361 0
0.0827192 0.38323 0
0.110002 0.384512 0
0.137789 0.38584 0
0.166201 0.387228 0
0.195163 0.388449 0
0.224659 0.389487 0
0.254658 0.390356 0
0.28513 0.391058 0
0.316075 0.391608 0
0.347433 0.392004 0
0.379171 0.392264 0
0.411276 0.392401 0
0.443702 0.392432 0
0.476417 0.392325 0
0.509392 0.392142 0
0.542535 0.391821 0
0.57583 0.391394 0
0.609155 0.390784 0
0.642527 0.390051 0
0.675807 0.389105 0
0.709041 0.388022 0
0.741863 0.386542 0
0.774258 0.384649 0
0.80531 0.381659 0
0.835065 0.377646 0
0.862776 0.372 0
0.889097 0.365316 0
0 0.424979 0
0 0.424186 0
0 0.422812 0
0 0.421637 0
0.0133059 0.420035 0
0.0424811 0.419699 0
0.0709239 0.420005 0
0.0996262 0.420798 0
0.128725 0.421668 0
0.158358 0.42266 0
0.188418 0.423499 0
0.218906 0.424186 0
0.249805 0.424735 0
0.281086 0.425147 0
0.312734 0.425422 0
0.344732 0.425574 0
0.37702 0.425605 0
0.409598 0.425544 0
0.442405 0.425376 0
0.475425 0.425116 0
0.508644 0.424796 0
0.541955 0.424353 0
0.575372 0.423804 0
0.608759 0.423102 0
0.64213 0.422293 0
0.675364 0.421271 0
0.708492 0.420111 0
0.741192 0.41857 0
0.773419 0.416617 0
0.804318 0.413504 0
0.833936 0.409323 0
0.861585 0.403479 0
0.887892 0.396536 0
0 0.465965 0
0 0.464363 0
0 0.46215 0
0 0.460105 0
0 0.45774 0
0.0285801 0.456519 0
0.0599985 0.460182 0
0.0902571 0.460548 0
0.120775 0.460975 0
0.151675 0.461494 0
0.18291 0.461936 0
0.214496 0.462303 0
0.246372 0.462547 0
0.278538 0.462669 0
0.310994 0.462684 0
0.343664 0.462608 0
0.376562 0.462425 0
0.409644 0.462181 0
0.442893 0.461845 0
0.47628 0.461448 0
0.509758 0.46099 0
0.543282 0.460426 0
0.576822 0.4598 0
0.610269 0.459007 0
0.643641 0.458122 0
0.676814 0.457038 0
0.709834 0.455833 0
0.742412 0.454261 0
0.774533 0.452308 0
0.805524 0.449393 0
0.835569 0.44564 0
0.864073 0.440497 0
0.891615 0.434516 0
0 0.503639 0
0 0.501717 0
0 0.499504 0
0 0.497719 0
0 0.495644 0
0.0153964 0.495079 0
0.0471199 0.495445 0
0.0788586 0.496056 0
0.110674 0.496529 0
0.142702 0.496925 0
0.174914 0.497124 0
0.207294 0.497169 0
0.239902 0.497124 0
0.272709 0.496971 0
0.305715 0.496757 0
0.338872 0.496452 0
0.372168 0.496086 0
0.405585 0.495644 0
0.439094 0.495155 0
0.472663 0.494606 0
0.506294 0.494011 0
0.539895 0.493339 0
0.573449 0.492607 0
0.606882 0.491737 0
0.640192 0.490776 0
0.673259 0.489632 0
0.706127 0.48838 0
0.738521 0.486778 0
0.770428 0.484779 0
0.801205 0.481773 0
0.831006 0.477913 0
0.859297 0.472648 0
0.886641 0.466499 0
0 0.543481 0
0 0.540871 0
0 0.538018 0
0 0.535607 0
0 0.532967 0
0.00216678 0.531899 0
0.0351415 0.531838 0
0.0679942 0.532036 0
0.100832 0.532143 0
0.133791 0.532204 0
0.166796 0.532082 0
0.199908 0.531838 0
0.233158 0.531518 0
0.266514 0.531121 0
0.299992 0.530678 0
0.333562 0.530175 0
0.367193 0.52961 0
0.400885 0.529 0
0.434607 0.528344 0
0.468345 0.527672 0
0.502068 0.52697 0
0.535714 0.526192 0
0.569284 0.525383 0
0.60267 0.524453 0
0.635874 0.52343 0
0.668498 0.521935 0
0.700694 0.520119 0
0.73228 0.517815 0
0.763241 0.514961 0
0.792859 0.510857 0
0.821744 0.506081 0
0.849058 0.49984 0
0.875349 0.492622 0
0 0.56936 0
0 0.566293 0
0 0.563027 0
0 0.560311 0
0 0.557336 0
0 0.555978 0
0.0170748 0.555611 0
0.0503243 0.55552 0
0.0834974 0.555337 0
0.116686 0.555093 0
0.149905 0.554696 0
0.183169 0.554192 0
0.216526 0.553613 0
0.249958 0.552972 0
0.283452 0.552285 0
0.317021 0.551553 0
0.350637 0.55079 0
0.384283 0.549981 0
0.417929 0.549157 0
0.451575 0.548318 0
0.485206 0.547448 0
0.518761 0.546563 0
0.552224 0.545632 0
0.585595 0.544701 0
0.61886 0.54377 0
0.65214 0.542931 0
0.685466 0.542275 0
0.718517 0.541421 0
0.751263 0.540352 0
0.783123 0.538491 0
0.813657 0.535378 0
0.842145 0.530312 0
0.869245 0.523903 0
0 0.607462 0
0 0.603845 0
0 0.600061 0
0 0.596826 0
0 0.593362 0
0 0.591592 0
0.0055848 0.590829 0
0.0397955 0.590402 0
0.0738079 0.589883 0
0.107759 0.589349 0
0.141649 0.588663 0
0.175494 0.5879 0
0.209369 0.587076 0
0.243244 0.586236 0
0.27715 0.585367 0
0.311055 0.584466 0
0.344945 0.583551 0
0.37882 0.582635 0
0.41265 0.581689 0
0.446403 0.580728 0
0.48011 0.579782 0
0.51368 0.57882 0
0.547127 0.577844 0
0.580484 0.576898 0
0.613733 0.575952 0
0.647013 0.575128 0
0.680339 0.574472 0
0.71339 0.573617 0
0.74612 0.572534 0
0.777966 0.570642 0
0.808423 0.567468 0
0.836805 0.562295 0
0.863767 0.555764 0
0 0.644755 0
0 0.640635 0
0 0.636362 0
0 0.632685 0
0 0.628794 0
0 0.626596 0
0 0.625483 0
0.0301518 0.624735 0
0.0648966 0.623911 0
0.0995346 0.623102 0
0.134005 0.622187 0
0.168368 0.62118 0
0.202701 0.620172 0
0.236988 0.61915 0
0.271229 0.618112 0
0.305409 0.617075 0
0.339529 0.616022 0
0.373571 0.614969 0
0.407507 0.613947 0
0.441321 0.61294 0
0.475029 0.611963 0
0.508598 0.611002 0
0.542046 0.610025 0
0.575402 0.609064 0
0.608667 0.608133 0
0.641932 0.607309 0
0.675258 0.606638 0
0.708309 0.605798 0
0.741024 0.6047 0
0.772824 0.602792 0
0.803235 0.599557 0
0.831495 0.594263 0
0.85832 0.58761 0
0 0.681163 0
0 0.6766 0
0 0.671901 0
0 0.667811 0
0 0.663462 0
0 0.660807 0
0 0.658991 0
0.020737 0.657374 0
0.0596628 0.660487 0
0.0944381 0.658808 0
0.129183 0.657343 0
0.163973 0.656046 0
0.198718 0.654826 0
0.233371 0.653635 0
0.267918 0.652461 0
0.302296 0.651347 0
0.336507 0.650263 0
0.370596 0.64921 0
0.404547 0.648188 0
0.438392 0.647211 0
0.472099 0.64625 0
0.505699 0.645289 0
0.539162 0.644327 0
0.572519 0.643381 0
0.605768 0.642435 0
0.639048 0.641627 0
0.672389 0.64097 0
0.705425 0.640131 0
0.738125 0.639017 0
0.76997 0.637156 0
0.800473 0.634028 0
0.828977 0.628992 0
0.85626 0.622797 0
0 0.717235 0
0 0.712688 0
0 0.70782 0
0 0.703349 0
0 0.69865 0
0 0.695613 0
0 0.693706 0
0.0152285 0.692531 0
0.0515908 0.691585 0
0.0876326 0.690593 0
0.123339 0.689479 0
0.158679 0.688289 0
0.193698 0.687083 0
0.228428 0.685863 0
0.262974 0.684672 0
0.297353 0.683543 0
0.331579 0.68246 0
0.365652 0.681407 0
0.399603 0.680385 0
0.433433 0.679393 0
0.467155 0.678431 0
0.50074 0.67747 0
0.534188 0.676493 0
0.567544 0.675547 0
0.600793 0.674601 0
0.634058 0.673777 0
0.667399 0.673136 0
0.700435 0.672282 0
0.733104 0.671168 0
0.76492 0.669276 0
0.795361 0.666087 0
0.823758 0.660945 0
0.850919 0.654627 0
0 0.75172 0
0 0.746838 0
0 0.74165 0
0 0.736889 0
0 0.731884 0
0 0.728588 0
0 0.726421 0
0.00959792 0.725002 0
0.0463874 0.723888 0
0.0826581 0.72282 0
0.11841 0.721675 0
0.153765 0.720485 0
0.1888 0.71928 0
0.223529 0.718044 0
0.258076 0.716869 0
0.292454 0.715724 0
0.326665 0.714641 0
0.360739 0.713573 0
0.39469 0.712551 0
0.428519 0.711559 0
0.462226 0.710582 0
0.495811 0.709606 0
0.529259 0.708644 0
0.5626 0.707683 0
0.59585 0.706752 0
0.629129 0.705943 0
0.662455 0.705287 0
0.695537 0.704479 0
0.728252 0.70341 0
0.760052 0.701503 0
0.790417 0.698268 0
0.818402 0.692714 0
0.844831 0.685679 0
0 0.775921 0
0 0.769314 0
0 0.762509 0
0 0.756512 0
0 0.750317 0
0 0.746059 0
0 0.743099 0
0 0.741222 0
0.0252079 0.739773 0
