luts/HLG 3 (Sony) - KORNEV LUT.cube
TITLE "Generated by Resolve"
LUT_3D_SIZE 33
0 0.0435492 0
0 0.0436255 0
0 0.0440375 0
0 0.0442817 0
0 0.0441596 4.57771e-05
0.0136721 0.0434882 0.000106813
0.0512856 0.0430762 0.000656138
0.0905928 0.0429084 0.00190738
0.131853 0.0431525 0.00360113
0.173037 0.0440528 0.00630198
0.21181 0.0456092 0.00994888
0.247837 0.0475624 0.0142519
0.281346 0.0497902 0.0195621
0.312642 0.052369 0.0254978
0.341802 0.0553445 0.0322271
0.368521 0.0586709 0.0398413
0.393591 0.0623178 0.0480507
0.419638 0.066804 0.0579232
0.447898 0.0724346 0.0698863
0.478248 0.0795758 0.0843061
0.510689 0.0883803 0.101579
0.54461 0.0994125 0.121965
0.580636 0.112932 0.145586
0.618692 0.129137 0.170977
0.659403 0.148394 0.198764
0.703426 0.170748 0.229816
0.751354 0.195911 0.264164
0.803204 0.223636 0.301167
0.859998 0.254093 0.340444
0.921035 0.286961 0.380468
0.950439 0.321477 0.420127
0.978698 0.356847 0.460319
0.982025 0.400031 0.509239
0 0.0440223 0
0 0.0440528 0
0 0.044358 0
0 0.0443122 0
0 0.0441596 0
0.0139467 0.0435492 0
0.0514992 0.043122 4.57771e-05
0.0907301 0.0429847 0.0012665
0.131868 0.0432288 0.00292973
0.173053 0.0441444 0.00555428
0.211719 0.0457008 0.00918593
0.2477 0.0476387 0.0135042
0.281239 0.0498817 0.0186923
0.312474 0.0524758 0.0246433
0.341695 0.055436 0.0313268
0.368307 0.0587625 0.038941
0.393439 0.0624247 0.0471046
0.419532 0.0668803 0.0569162
0.447715 0.0725567 0.0689097
0.478096 0.0796674 0.0833143
0.510475 0.0884565 0.100587
0.544381 0.0994278 0.120912
0.580423 0.112963 0.14464
0.618418 0.129183 0.170123
0.659175 0.148379 0.19794
0.70312 0.170687 0.229007
0.751064 0.19585 0.263416
0.802823 0.22356 0.300359
0.859556 0.254032 0.339742
0.920623 0.286809 0.379767
0.95024 0.321294 0.419486
0.978454 0.35668 0.459693
0.982086 0.399725 0.508583
0 0.0459907 0.000686656
0 0.046067 0.000442512
0 0.0461891 0.000869764
0 0.0463417 0.000671397
0 0.0460212 0.000183108
0.0128023 0.0448005 0
0.0509651 0.0434424 0
0.0917067 0.043183 0
0.132509 0.0434882 0.000747692
0.173541 0.0444343 0.00325017
0.212055 0.0460059 0.00672923
0.247852 0.0479438 0.011017
0.281437 0.0501717 0.0160678
0.312535 0.052781 0.021912
0.341619 0.0558328 0.0284886
0.368231 0.059144 0.0360266
0.393362 0.0627756 0.0441138
0.41944 0.0672618 0.0539712
0.447608 0.0729229 0.0659648
0.47805 0.0800336 0.080354
0.510353 0.0888991 0.0976272
0.544198 0.0999008 0.117998
0.58027 0.11339 0.141878
0.618219 0.129519 0.167773
0.658946 0.148699 0.195697
0.702922 0.171008 0.226993
0.750805 0.196063 0.261524
0.802579 0.223804 0.298665
0.859251 0.254154 0.338201
0.920348 0.286854 0.378317
0.950088 0.321294 0.418173
0.978256 0.356634 0.458534
0.982116 0.399558 0.507408
0 0.05037 0.00355535
0 0.0504463 0.00321965
0 0.0504921 0.00242618
0 0.0508583 0.00309758
0 0.050721 0.00248722
0.0107118 0.049958 0.00141909
0.0493172 0.0488289 0.00047303
0.089189 0.0476539 0
0.130999 0.0464332 0
0.17229 0.0453651 0
0.212253 0.04654 0.00247196
0.248035 0.0484321 0.00654612
0.281361 0.0507057 0.0115816
0.312551 0.053315 0.0171359
0.341711 0.0563973 0.0237278
0.368109 0.0597696 0.030808
0.39324 0.0634165 0.0390021
0.419318 0.0680247 0.0487526
0.44741 0.073579 0.0606394
0.477974 0.0807813 0.0749981
0.510109 0.0896773 0.0923476
0.544076 0.100664 0.112947
0.580209 0.114107 0.137041
0.618097 0.130282 0.163516
0.658793 0.149371 0.191913
0.702922 0.171572 0.223575
0.750637 0.196582 0.258305
0.802457 0.224186 0.295842
0.858991 0.254551 0.335454
0.920104 0.28716 0.375967
0.949996 0.321538 0.416083
0.978103 0.356802 0.456611
0.982162 0.399603 0.505653
0 0.057969 0.00794995
0 0.0579232 0.00747692
0 0.0584115 0.00596628
0 0.05832 0.00567636
0 0.0587167 0.00622568
0.00717174 0.057847 0.00491341
0.0460212 0.0572366 0.00392157
0.0869459 0.0564431 0.00328069
0.128969 0.0554818 0.00299077
0.170855 0.054612 0.00314336
0.210086 0.0537728 0.00370794
0.245991 0.0529488 0.00456245
0.278996 0.0522164 0.00569162
0.311513 0.0543984 0.0105135
0.341466 0.0572519 0.0166018
0.367773 0.0606394 0.0234989
0.392981 0.0642252 0.0314031
0.419013 0.0690013 0.041001
0.447074 0.0746166 0.052903
0.477729 0.0818341 0.0672465
0.509911 0.0908064 0.0846265
0.544015 0.101778 0.105501
0.580056 0.115221 0.12987
0.617975 0.131365 0.157305
0.658686 0.150408 0.186297
0.702754 0.172534 0.218448
0.750515 0.197452 0.253666
0.802335 0.224948 0.291676
0.85893 0.255131 0.331792
0.919936 0.287755 0.372641
0.94992 0.321996 0.413092
0.977966 0.357153 0.453941
0.982193 0.399847 0.503227
0 0.0700084 0.0141756
0 0.0699474 0.0136416
0 0.0703288 0.0119936
0 0.0702373 0.00907912
0 0.0707103 0.0100557
0.00560006 0.0708019 0.010193
0.0420844 0.069688 0.00875868
0.0830243 0.069276 0.00802625
0.126253 0.0688334 0.00770581
0.168887 0.0681926 0.00787366
0.208606 0.0676738 0.00856031
0.244831 0.0670939 0.00956741
0.278416 0.0663005 0.0107729
0.30988 0.0653239 0.0121462
0.339132 0.0641031 0.013611
0.365057 0.0631418 0.0153353
0.391485 0.0662852 0.0220188
0.418265 0.0703136 0.0305638
0.446571 0.0759747 0.0423133
0.477256 0.0832685 0.0567025
0.50956 0.0922713 0.0740978
0.543786 0.103258 0.0953536
0.579889 0.116655 0.120012
0.61799 0.132769 0.14873
0.65861 0.151736 0.178882
0.702724 0.173861 0.211673
0.750423 0.198672 0.247532
0.802319 0.225986 0.286137
0.858808 0.256077 0.326863
0.919783 0.288518 0.368277
0.949859 0.322683 0.409247
0.977859 0.357733 0.450538
0.982208 0.400244 0.50013
0 0.0871595 0.0223697
0 0.0871138 0.0217746
0 0.0872206 0.0199435
0 0.0879988 0.0161746
0 0.0877394 0.0144808
0.000228885 0.0881666 0.0153201
0.0399786 0.0881361 0.0154269
0.079118 0.0871443 0.0141909
0.121904 0.0867933 0.0136263
0.165682 0.086717 0.0138399
0.206867 0.0865492 0.0146029
0.243442 0.0862593 0.0157015
0.27715 0.0857099 0.016968
0.30869 0.0849012 0.0184939
0.338277 0.0838483 0.0201419
0.365118 0.0826886 0.0218662
0.389853 0.0812695 0.023682
0.415442 0.07953 0.0258488
0.444144 0.0797131 0.0310826
0.476036 0.0855268 0.0436255
0.508965 0.0940566 0.0606088
0.543374 0.105058 0.0820325
0.579736 0.118486 0.107424
0.617807 0.134524 0.13698
0.658549 0.15346 0.169162
0.702708 0.175479 0.202853
0.7505 0.200046 0.239704
0.802274 0.227207 0.279164
0.858824 0.257237 0.320638
0.919707 0.28954 0.36289
0.949813 0.323552 0.404471
0.977813 0.35845 0.446372
0.982238 0.400824 0.496437
0 0.109117 0.0327306
0 0.109056 0.0320592
0 0.108995 0.0298924
0 0.109621 0.0262303
0 0.110033 0.0206302
0 0.109987 0.0211795
0.0327459 0.109911 0.0217746
0.0770275 0.110323 0.0223392
0.118379 0.109178 0.021149
0.161547 0.108766 0.0208896
0.203998 0.109194 0.021561
0.241932 0.109422 0.0227512
0.275868 0.109331 0.024155
0.3075 0.108965 0.0256809
0.337224 0.108293 0.0274205
0.36405 0.107454 0.0294804
0.389136 0.106249 0.0316014
0.415213 0.104677 0.0340734
0.44332 0.102724 0.0370336
0.473426 0.100237 0.0404669
0.50605 0.0992142 0.0472267
0.542199 0.108202 0.0662852
0.579309 0.120653 0.09131
0.617639 0.13669 0.121874
0.658656 0.15555 0.156527
0.702739 0.177508 0.191867
0.750652 0.201892 0.230076
0.802411 0.228885 0.270588
0.858946 0.25864 0.313054
0.919844 0.290852 0.356374
0.949828 0.324681 0.398733
0.977996 0.359411 0.441566
0.982238 0.401633 0.492058
0 0.134478 0.0449531
0 0.134463 0.0441749
0 0.134371 0.0419776
0 0.1346 0.0380102
0 0.135531 0.0313573
0 0.135286 0.0274662
0.021561 0.135393 0.0284733
0.0699626 0.135393 0.0295262
0.116106 0.135973 0.0305943
0.158785 0.134783 0.0295109
0.20061 0.134325 0.0295415
0.239261 0.135103 0.0306859
0.274205 0.135714 0.0322118
0.306325 0.135821 0.0339361
0.336065 0.135561 0.035874
0.363455 0.135042 0.0379187
0.388556 0.134295 0.0401007
0.414145 0.13315 0.0426795
0.442176 0.131685 0.0458381
0.472648 0.129564 0.0497902
0.505287 0.126802 0.0545205
0.539651 0.123476 0.0603494
0.577081 0.126406 0.0751507
0.617288 0.139422 0.103304
0.658793 0.157992 0.139696
0.703075 0.179736 0.1785
0.750942 0.204028 0.218189
0.802762 0.230838 0.260227
0.859205 0.260502 0.304021
0.920134 0.292454 0.34847
0.949889 0.326131 0.392004
0.978149 0.360586 0.435798
0.982238 0.402731 0.487144
0 0.162264 0.0595102
0 0.162264 0.0587778
0 0.162188 0.0564889
0 0.162097 0.0521706
0 0.16286 0.045594
0 0.163622 0.0363928
0.00895705 0.163256 0.0361181
0.0593271 0.16318 0.0373541
0.108629 0.16347 0.0390631
0.156741 0.164065 0.0407111
0.198886 0.163073 0.0399329
0.236408 0.162402 0.0400549
0.272282 0.163363 0.0415045
0.304967 0.164126 0.0432288
0.335393 0.164523 0.045182
0.363134 0.164401 0.0473335
0.388327 0.16408 0.0497139
0.413962 0.163409 0.0524758
0.441703 0.162432 0.0556497
0.471901 0.160815 0.0596323
0.504189 0.158816 0.0647135
0.538476 0.15613 0.0708171
0.575235 0.152728 0.0782483
0.614557 0.148287 0.0873579
0.658122 0.162783 0.120653
0.70341 0.182498 0.161227
0.751369 0.206531 0.203525
0.803403 0.233143 0.247868
0.859724 0.262623 0.293248
0.920653 0.294469 0.339178
0.95024 0.32781 0.38439
0.978393 0.362097 0.429129
0.982223 0.404105 0.481529
0 0.191196 0.0757763
0 0.19118 0.0750286
0 0.191135 0.0726177
0 0.191073 0.0683146
0 0.191409 0.0617533
0 0.192416 0.0519112
0.000793469 0.191638 0.0444038
0.0450294 0.191928 0.0459297
0.0986038 0.192126 0.0477607
0.149203 0.192325 0.049897
0.19704 0.19324 0.0522164
0.23592 0.192462 0.0515145
0.269917 0.191623 0.0517433
0.302998 0.192599 0.053315
0.334035 0.193317 0.0553597
0.362737 0.193866 0.0576333
0.388357 0.194018 0.0600137
0.414008 0.19379 0.0627451
0.441657 0.193225 0.066041
0.471626 0.192401 0.0702678
0.503685 0.190951 0.075288
0.537835 0.189075 0.081651
0.574182 0.186511 0.0892042
0.612619 0.183108 0.0984817
0.6542 0.178729 0.109804
0.701167 0.188296 0.141222
0.751705 0.209201 0.185473
0.804135 0.235843 0.232746
0.86067 0.265003 0.280613
0.92163 0.296666 0.328466
0.95053 0.32987 0.375433
0.978821 0.363943 0.421592
0.982193 0.405783 0.475196
0 0.219486 0.0931868
0 0.21944 0.0924086
0 0.219379 0.0900282
0 0.219348 0.0857252
0 0.219272 0.079057
0.000564584 0.220096 0.0695659
0.00331121 0.221134 0.0560616
0.0291142 0.220417 0.0545357
0.0855268 0.220035 0.0564431
0.139025 0.220432 0.0590219
0.189639 0.220676 0.0617685
0.234607 0.221897 0.0644694
0.26981 0.221271 0.0639963
0.301045 0.220554 0.064271
0.331762 0.221164 0.0657206
0.361273 0.222049 0.0678111
0.387304 0.222721 0.0702678
0.413397 0.223102 0.0731212
0.441367 0.223102 0.0766003
0.47158 0.222614 0.0806897
0.503563 0.221729 0.085893
0.537408 0.220554 0.0922103
0.573419 0.218784 0.100069
0.611322 0.216373 0.109453
0.652338 0.213153 0.120882
0.696986 0.20882 0.134356
0.746929 0.215198 0.164843
0.801785 0.237247 0.211383
0.859297 0.266728 0.263432
0.921584 0.29865 0.31487
0.950927 0.33225 0.365179
0.979416 0.366033 0.413046
0.982315 0.407828 0.468421
0.00560006 0.247623 0.111376
0.00567636 0.247654 0.110628
0.00590524 0.247517 0.108263
0.00648508 0.247517 0.104021
0.00729381 0.247395 0.0973831
0.00860609 0.247822 0.0882582
0.0105287 0.248844 0.075227
0.0200504 0.248417 0.0644236
0.0692607 0.248203 0.0650339
0.125795 0.248188 0.0674754
0.1794 0.248692 0.0706035
0.227878 0.249348 0.0741283
0.26833 0.250751 0.0772412
0.300526 0.250172 0.0767834
0.330114 0.249561 0.0771801
0.358923 0.249805 0.0785687
0.385885 0.250782 0.0806744
0.41207 0.251499 0.0833448
0.440345 0.252018 0.0867933
0.470741 0.252201 0.0910506
0.502876 0.251911 0.0961013
0.536843 0.251179 0.102541
0.572763 0.250095 0.110353
0.610544 0.248341 0.119951
0.650874 0.246082 0.131334
0.694652 0.242817 0.145068
0.742657 0.238437 0.16083
0.796628 0.243778 0.191104
0.856291 0.267567 0.241032
0.918242 0.299062 0.295857
0.949447 0.33228 0.349004
0.978164 0.366384 0.400259
0.982483 0.408301 0.458167
0.0132753 0.275563 0.129702
0.0133669 0.275502 0.128893
0.0136873 0.275486 0.126528
0.0142367 0.275425 0.122408
0.0150454 0.27541 0.116091
0.0161288 0.275303 0.106996
0.0177462 0.276249 0.095079
0.0205234 0.277409 0.0776989
0.0517739 0.275822 0.0731975
0.11043 0.276081 0.0758068
0.167178 0.276249 0.0787671
0.219089 0.277028 0.0823682
0.262547 0.278096 0.0864881
0.299489 0.279591 0.0900435
0.328847 0.279057 0.0895552
0.357015 0.278508 0.0898451
0.383001 0.278325 0.0909895
0.409751 0.279393 0.0935531
0.438209 0.280201 0.0966812
0.468864 0.280827 0.100664
0.501411 0.281041 0.105837
0.535531 0.281102 0.1122
0.571466 0.2804 0.120027
0.609064 0.279393 0.129488
0.649058 0.277852 0.140856
0.692409 0.275364 0.154482
0.739605 0.272023 0.170306
0.792004 0.267399 0.18732
0.850507 0.274342 0.220554
0.915358 0.29984 0.27361
0.948135 0.332586 0.330297
0.976364 0.366323 0.38471
0.982849 0.407187 0.44419
0.0200504 0.303227 0.148119
0.0201572 0.303273 0.147372
0.0204623 0.303212 0.145037
0.0209964 0.303151 0.141054
0.0218509 0.303151 0.135027
0.0233768 0.303029 0.12639
0.025452 0.303456 0.114717
0.0281376 0.304509 0.0988327
0.0422065 0.304189 0.0843519
0.0913405 0.303853 0.0835279
0.151812 0.303761 0.0864881
0.207645 0.304341 0.0903487
0.255222 0.305486 0.0945754
0.294499 0.306676 0.0990158
0.32784 0.308293 0.102617
0.355612 0.30779 0.102083
0.381674 0.30724 0.10248
0.406683 0.306493 0.103563
0.435264 0.307774 0.106416
0.465904 0.308766 0.110155
0.498558 0.309361 0.114946
0.532998 0.309789 0.121157
0.5691 0.30988 0.128801
0.607141 0.309545 0.138293
0.647089 0.308492 0.149538
0.689799 0.306828 0.162951
0.736294 0.304356 0.178256
0.787381 0.300801 0.194812
0.845106 0.295628 0.213565
0.910018 0.306142 0.253101
0.946868 0.333288 0.308827
0.974792 0.366552 0.367269
0.983093 0.406485 0.428702
0.0269627 0.33051 0.166247
0.0271153 0.330541 0.165576
0.0275578 0.33048 0.163348
0.0282292 0.330404 0.159548
0.0291447 0.330465 0.153841
0.0305791 0.330282 0.145678
0.0324254 0.330388 0.134569
0.0353094 0.331334 0.120073
0.0392309 0.332341 0.0999161
0.0702983 0.330419 0.0912795
0.13315 0.33109 0.0944381
0.19292 0.331289 0.0979324
0.24506 0.332372 0.102296
0.287785 0.333593 0.107118
0.323537 0.334798 0.112093
0.354665 0.336461 0.115923
0.380591 0.336019 0.115267
0.405829 0.335576 0.115709
0.432425 0.335088 0.117021
0.463035 0.335714 0.120211
0.495903 0.336797 0.124666
0.530312 0.337591 0.130434
0.566674 0.337957 0.137819
0.604501 0.33814 0.146914
0.644633 0.337804 0.158038
0.68748 0.336873 0.171115
0.73312 0.335241 0.185626
0.783307 0.332525 0.201617
0.839857 0.328405 0.220172
0.904021 0.322652 0.240711
0.945006 0.338613 0.288396
0.973709 0.367071 0.347051
0.983474 0.406119 0.411658
0.0344396 0.356802 0.184314
0.0345769 0.356756 0.183673
0.0349737 0.356634 0.181689
0.0356909 0.356588 0.178286
0.0367285 0.356573 0.173007
0.0382849 0.356512 0.165576
0.0404822 0.356374 0.155276
0.0434272 0.357031 0.141772
0.0469215 0.358083 0.123491
0.0607767 0.358099 0.105318
0.111635 0.357259 0.102525
0.175143 0.357458 0.106157
0.232181 0.358206 0.110445
0.279316 0.359609 0.115557
0.318486 0.360784 0.120745
0.351232 0.362081 0.125933
0.380087 0.363775 0.129778
0.405203 0.363439 0.129091
0.432212 0.363134 0.129732
0.461173 0.36257 0.131456
0.492958 0.362844 0.13489
0.527764 0.363912 0.140246
0.56405 0.364797 0.147143
0.601892 0.365301 0.155886
0.641917 0.365499 0.166461
0.684489 0.365209 0.178836
0.730251 0.364187 0.192798
0.77995 0.36231 0.208621
0.835233 0.359289 0.226658
0.898543 0.354772 0.246876
0.943008 0.347646 0.268605
0.971756 0.370825 0.326421
0.983886 0.406088 0.392477
0.0428931 0.383658 0.202396
0.0430762 0.383703 0.201785
0.0435798 0.383627 0.200031
0.04448 0.383642 0.196963
0.0457618 0.383566 0.192416
0.0472725 0.383474 0.185885
0.0492714 0.383459 0.177005
0.0520943 0.383658 0.16466
0.0561532 0.38468 0.148562
0.0616007 0.38587 0.126497
0.0914015 0.384756 0.114565
0.153231 0.384939 0.115572
0.215579 0.385306 0.11989
0.267201 0.386648 0.124849
0.310124 0.38822 0.130236
0.346044 0.38938 0.135561
0.376898 0.390738 0.141085
0.405203 0.392325 0.145556
0.432105 0.391867 0.144778
0.461112 0.391577 0.14551
0.492012 0.39115 0.147585
0.524834 0.390768 0.151324
0.561654 0.391897 0.15787
0.599817 0.392782 0.166003
0.639765 0.393332 0.175921
0.682124 0.393469 0.18735
0.727153 0.39295 0.200488
0.776196 0.391897 0.2159
0.830472 0.389883 0.233555
0.893324 0.38645 0.25359
0.941283 0.380728 0.274861
0.96939 0.377508 0.303899
0.984344 0.407843 0.37084
0.0531472 0.412818 0.22269
0.0533303 0.412818 0.222141
0.0539254 0.412726 0.220401
0.054902 0.412726 0.217517
0.0563058 0.412665 0.213245
0.0579843 0.41265 0.207446
0.0602274 0.412558 0.199695
0.0630045 0.412451 0.189334
0.0665904 0.413489 0.176135
0.0713512 0.414801 0.157397
0.0788739 0.415976 0.133639
0.125551 0.414176 0.126482
0.192142 0.414969 0.130739
0.250462 0.415793 0.135805
0.297978 0.417258 0.141176
0.338048 0.418906 0.146838
0.372183 0.419989 0.152377
0.401785 0.4215 0.158541
0.431983 0.423255 0.163561
0.461006 0.422797 0.162722
0.492241 0.422385 0.163684
0.525093 0.421851 0.166262
0.559335 0.421027 0.170443
0.597086 0.421988 0.177508
0.637201 0.422919 0.186297
0.679515 0.423499 0.196872
0.724285 0.423514 0.20943
0.772564 0.422919 0.224201
0.826001 0.42153 0.24126
0.886793 0.41912 0.260822
0.93872 0.415 0.282414
0.96669 0.407935 0.304555
0.984283 0.414389 0.347021
0.0660105 0.444266 0.245319
0.0661784 0.444236 0.244816
0.0666209 0.44419 0.243244
0.0674144 0.444266 0.24062
0.0687266 0.444175 0.236698
0.0706188 0.444083 0.231312
0.0730449 0.444038 0.224231
0.0757458 0.443915 0.215061
0.079408 0.444572 0.203677
0.0839246 0.445945 0.189349
0.0896315 0.447501 0.168978
0.1093 0.448051 0.148943
0.160891 0.447227 0.143694
0.227481 0.447623 0.14847
0.281147 0.448875 0.153903
0.325628 0.450568 0.159579
0.363531 0.452049 0.165301
0.396811 0.453285 0.171283
0.428428 0.454826 0.178103
0.461204 0.456809 0.183734
0.492393 0.456168 0.182834
0.525429 0.455695 0.18381
0.560082 0.45507 0.186694
0.595819 0.454246 0.191318
0.634562 0.454307 0.19823
0.67686 0.455283 0.207965
0.721843 0.455772 0.219913
0.769619 0.455787 0.234211
0.821118 0.455207 0.251041
0.878874 0.453971 0.270802
0.934462 0.451453 0.292576
0.962203 0.445548 0.313573
0.982651 0.439826 0.339361
0.0809033 0.478264 0.270405
0.081117 0.478248 0.269932
0.0816968 0.478264 0.268467
0.0826429 0.478248 0.265995
0.0839857 0.478157 0.262394
0.0855421 0.478141 0.257588
0.0877699 0.478096 0.251225
0.0904555 0.477943 0.243046
0.0937057 0.478035 0.232731
0.0977951 0.479606 0.220783
0.102693 0.48127 0.205173
0.108156 0.483009 0.184268
0.136553 0.483528 0.167926
0.194125 0.482155 0.163302
0.256825 0.483055 0.168368
0.3075 0.484535 0.173938
0.350393 0.486351 0.179583
0.388312 0.487709 0.185351
0.422858 0.48893 0.191806
0.457267 0.490593 0.198947
0.492302 0.492668 0.204944
0.525505 0.491951 0.203937
0.56054 0.491295 0.205188
0.59678 0.490608 0.208591
0.634607 0.489723 0.213916
0.674098 0.488746 0.22153
0.718318 0.489921 0.233326
0.764904 0.490654 0.247715
0.814649 0.490883 0.264836
0.869184 0.490898 0.285054
0.926757 0.490028 0.307378
0.956558 0.485359 0.327001
0.978195 0.480644 0.350866
0.0978561 0.514626 0.297963
0.0980392 0.514656 0.297581
0.098558 0.514626 0.296223
0.099443 0.514626 0.293996
0.100694 0.514595 0.290684
0.102373 0.514473 0.28632
0.104204 0.514458 0.28072
0.106722 0.514351 0.273518
0.109651 0.51426 0.264424
0.113436 0.515587 0.25417
0.118105 0.517357 0.241443
0.123262 0.519326 0.224964
0.130388 0.521416 0.20325
0.161975 0.522103 0.189624
0.222721 0.519753 0.184283
0.281621 0.520836 0.189532
0.330236 0.522469 0.194827
0.374365 0.524514 0.200595
0.413138 0.525719 0.206668
0.450507 0.527062 0.213687
0.487922 0.528679 0.221881
0.525292 0.530816 0.229084
0.560418 0.529915 0.228412
0.596765 0.529335 0.230716
0.634638 0.528542 0.235492
0.673671 0.527733 0.242695
0.714031 0.526711 0.252338
0.758144 0.527352 0.266392
0.805798 0.528725 0.284428
0.857038 0.5299 0.305455
0.911482 0.530602 0.328618
0.949538 0.527199 0.346624
0.972427 0.523445 0.368246
0.116289 0.553414 0.327688
0.116457 0.553414 0.327276
0.116976 0.553399 0.326101
0.1178 0.553384 0.324025
0.11899 0.553368 0.321065
0.120363 0.553307 0.31722
0.122271 0.553246 0.312184
0.124575 0.553216 0.305821
0.127291 0.553124 0.297917
0.130602 0.553887 0.288945
0.135241 0.555764 0.278737
0.140047 0.557794 0.265782
0.145983 0.560052 0.249088
0.154849 0.562463 0.227726
0.186572 0.562219 0.212528
0.245014 0.559792 0.206317
0.301991 0.561135 0.211597
0.352361 0.562921 0.217319
0.397726 0.564904 0.22385
0.439887 0.566033 0.230991
0.480735 0.567315 0.239734
0.520531 0.568811 0.250401
0.559838 0.570947 0.260227
0.59588 0.570214 0.261143
0.633417 0.569451 0.265324
0.671916 0.568963 0.272663
0.711406 0.568505 0.28275
0.75201 0.567987 0.295354
0.795041 0.568032 0.311421
0.843305 0.57055 0.333333
0.894972 0.572747 0.357092
0.942107 0.570459 0.373678
0.965942 0.567712 0.39266
0.136995 0.594247 0.359838
0.137118 0.594202 0.359472
0.137591 0.594186 0.358419
0.138323 0.594247 0.35671
0.139315 0.594263 0.354162
0.14078 0.594125 0.350607
0.14258 0.594125 0.346151
0.144747 0.594079 0.34052
0.147082 0.594034 0.333715
0.150011 0.594095 0.32546
0.154391 0.596139 0.317174
0.158892 0.598428 0.306905
0.164065 0.600732 0.294072
0.169635 0.603342 0.278279
0.17821 0.606394 0.258076
0.2094 0.604807 0.238849
0.261845 0.602014 0.230411
0.321202 0.603586 0.235966
0.376089 0.605417 0.243183
0.424186 0.606638 0.252033
0.470527 0.607355 0.262486
0.514061 0.608423 0.274907
0.555566 0.610071 0.289296
0.595743 0.612436 0.303029
0.632258 0.611811 0.306325
0.669612 0.611566 0.313237
0.707851 0.611612 0.323537
0.747356 0.611811 0.336172
0.78822 0.612085 0.351141
0.831403 0.612497 0.368078
0.881834 0.615122 0.389639
0.935882 0.614008 0.404669
0.960891 0.612024 0.421332
0.159426 0.637613 0.393408
0.159548 0.637675 0.393072
0.159976 0.637598 0.392126
0.160693 0.637613 0.390494
0.161715 0.637583 0.38819
0.163027 0.637537 0.385153
0.164569 0.637537 0.381292
0.1664 0.637491 0.376577
0.168627 0.63743 0.370748
0.171267 0.63743 0.36376
0.174807 0.639124 0.356909
0.1794 0.641413 0.349035
0.184039 0.643946 0.339086
0.189349 0.646708 0.32694
0.195056 0.649897 0.312398
0.201785 0.651789 0.291951
0.2262 0.650507 0.26862
0.280507 0.6477 0.260166
0.344701 0.647822 0.265049
0.403708 0.648753 0.276371
0.457313 0.648905 0.289891
0.507088 0.64921 0.305547
0.5523 0.650263 0.322881
0.594049 0.652415 0.341711
0.633997 0.655604 0.358785
0.669917 0.655711 0.363775
0.707057 0.656214 0.371832
0.74583 0.657008 0.382254
0.786603 0.657954 0.394675
0.830472 0.659007 0.408499
0.878798 0.659754 0.423239
0.933288 0.657206 0.434134
0.959121 0.656092 0.448798
0.186511 0.68304 0.42945
0.186633 0.683009 0.429114
0.186999 0.683024 0.42829
0.18761 0.682979 0.426886
0.18851 0.682979 0.424811
0.189624 0.682994 0.422187
0.190875 0.682963 0.418845
0.192569 0.682994 0.414725
0.194537 0.682979 0.40972
0.196796 0.682933 0.403662
0.199969 0.684001 0.397482
0.204685 0.686488 0.391379
0.209552 0.689158 0.384054
0.215122 0.692012 0.375372
0.220768 0.695125 0.364858
0.2271 0.698726 0.35256
0.231037 0.698787 0.33106
0.246616 0.697993 0.302617
0.308797 0.693904 0.296513
0.378088 0.691676 0.303014
0.442542 0.691203 0.32105
0.500237 0.690455 0.340688
0.55053 0.691264 0.361318
0.594446 0.69369 0.380987
0.635264 0.697322 0.400046
0.67512 0.701823 0.415869
0.711543 0.702678 0.419242
0.750011 0.704021 0.425238
0.791363 0.705364 0.433402
0.836316 0.706691 0.443687
0.885618 0.707668 0.455436
0.936385 0.70486 0.464225
0.96051 0.701427 0.474815
0.231922 0.727382 0.468482
0.232013 0.727413 0.468254
0.232166 0.727428 0.467506
0.232639 0.727459 0.466361
0.233478 0.727535 0.464607
0.234195 0.727474 0.462287
0.235386 0.72752 0.459419
0.236683 0.72752 0.455909
0.238163 0.727581 0.451682
0.23978 0.727535 0.446677
0.241886 0.727947 0.441093
0.247227 0.730419 0.436988
0.252415 0.733074 0.43183
0.257984 0.735866 0.425681
0.264302 0.738781 0.41857
0.271122 0.74226 0.410254
0.276143 0.744518 0.398001
0.278889 0.744198 0.377325
0.291707 0.74342 0.349477
0.354543 0.738048 0.34258
0.42446 0.733547 0.352422
0.49337 0.732509 0.376776
0.549126 0.733471 0.398688
0.595728 0.736843 0.417624
0.637751 0.741421 0.434134
0.67834 0.746731 0.449516
0.719509 0.752453 0.46302
0.757763 0.753887 0.465507
0.799298 0.755459 0.471107
0.844694 0.757168 0.478889
0.894942 0.758297 0.488334
0.941573 0.755657 0.495842
0.963134 0.753048 0.505669
0.301091 0.768597 0.51252
0.301152 0.768597 0.512306
0.301366 0.768597 0.511696
0.301823 0.768612 0.510658
