luts/HLG 3 (Sony) - KORNEV LUT.cube
TITLE "Generated by Resolve"
LUT_3D_SIZE 5
0 0.0435492 0
0.131853 0.0431525 0.00360113
0.393591 0.0623178 0.0480507
0.659403 0.148394 0.198764
0.982025 0.400031 0.509239
0 0.134478 0.0449531
0.116106 0.135973 0.0305943
0.388556 0.134295 0.0401007
0.658793 0.157992 0.139696
0.982238 0.402731 0.487144
0.0344396 0.356802 0.184314
0.0469215 0.358083 0.123491
0.380087 0.363775 0.129778
0.641917 0.365499 0.166461
0.983886 0.406088 0.392477
0.159426 0.637613 0.393408
0.168627 0.63743 0.370748
0.2262 0.650507 0.26862
0.633997 0.655604 0.358785
0.959121 0.656092 0.448798
0.551537 0.993194 0.73492
0.55375 0.993133 0.72845
0.569848 0.998718 0.722805
0.609201 1 0.647929
0.970474 1 0.708705
0 0.0450904 0.0390173
0.122469 0.0445106 0.0621195
0.388708 0.0630961 0.118196
0.645182 0.141848 0.240253
0.983536 0.378378 0.509026
0 0.138293 0.099443
0.0992294 0.135073 0.102602
0.414237 0.133028 0.128862
0.685206 0.171664 0.229938
0.975814 0.448707 0.564019
0.0353552 0.357458 0.227268
0.0468452 0.356497 0.192309
0.39086 0.37586 0.149371
0.671321 0.365133 0.227283
0.977844 0.450477 0.489204
0.155993 0.637018 0.414542
0.165225 0.636774 0.3953
0.214893 0.673594 0.327016
0.65864 0.683085 0.398459
0.959258 0.659586 0.474784
0.551003 0.993118 0.741711
0.553124 0.993072 0.735531
0.57026 0.998779 0.731243
0.639857 1 0.720928
0.971054 1 0.752728
0 0.0499733 0.201541
0.111818 0.0462654 0.222507
0.38291 0.0690623 0.263325
0.640192 0.147097 0.352712
0.983383 0.368872 0.556466
0 0.151553 0.249699
0.0332952 0.13814 0.288762
0.385016 0.122942 0.288731
0.640604 0.155413 0.334096
0.98323 0.373281 0.54107
0.0452583 0.363455 0.32668
0.0543069 0.360937 0.324422
0.349874 0.361349 0.336248
0.683406 0.3561 0.372519
0.974502 0.460945 0.569741
0.162783 0.639384 0.475685
0.171023 0.638865 0.46424
0.199329 0.637613 0.410269
0.672236 0.698589 0.434546
0.960098 0.684001 0.565652
0.549004 0.992935 0.761578
0.551339 0.992828 0.756008
0.558328 0.992554 0.737392
0.643565 1 0.773312
0.971344 1 0.774548
0 0.0704051 0.458762
0.0670787 0.0564736 0.473243
0.374517 0.0788891 0.491936
0.633188 0.166445 0.546838
0.97969 0.378851 0.69279
0 0.171633 0.484825
0.00320439 0.150576 0.511467
0.3467 0.136919 0.520485
0.631479 0.17203 0.547601
0.979522 0.382803 0.68452
0 0.37586 0.518349
0.0269932 0.375174 0.53695
0.242954 0.361486 0.5935
0.627237 0.34107 0.59469
0.978882 0.394476 0.65478
0.183856 0.646738 0.603418
0.189822 0.645808 0.602594
0.209705 0.642435 0.599878
0.607294 0.644678 0.617075
0.958709 0.658991 0.685084
0.556878 0.994751 0.821653
0.559075 0.994629 0.817639
0.565667 0.994293 0.80444
0.585809 0.99324 0.751339
0.971557 1 0.791791
0 0.177737 0.895552
0 0.164508 0.920577
0.313756 0.13959 0.925139
0.617716 0.21059 0.943206
0.968338 0.41561 0.97731
0 0.243748 0.903029
0 0.225528 0.922148
0.249653 0.177752 0.935119
0.604852 0.222858 0.946975
0.967895 0.418097 0.977218
0 0.409216 0.911345
0 0.400443 0.923995
0.177737 0.386954 0.95581
0.546304 0.375753 0.964385
0.966857 0.425055 0.976761
0 0.644739 0.932113
0.0122225 0.659327 0.953384
0.153552 0.66247 0.961685
0.436591 0.648859 0.989288
0.952682 0.628 0.97023
0.582193 0.99968 0.983841
0.583734 0.99971 0.983673
0.588449 0.999771 0.983154
0.603738 0.998398 0.981613
0.973846 1 1
