luts/HLG 3 (Sony) - KORNEV LUT.cube
TITLE "Generated by Resolve"
LUT_3D_SIZE 9
0 0.0435492 0
0 0.0441596 4.57771e-05
0.131853 0.0431525 0.00360113
0.281346 0.0497902 0.0195621
0.393591 0.0623178 0.0480507
0.510689 0.0883803 0.101579
0.659403 0.148394 0.198764
0.859998 0.254093 0.340444
0.982025 0.400031 0.509239
0 0.057969 0.00794995
0 0.0587167 0.00622568
0.128969 0.0554818 0.00299077
0.278996 0.0522164 0.00569162
0.392981 0.0642252 0.0314031
0.509911 0.0908064 0.0846265
0.658686 0.150408 0.186297
0.85893 0.255131 0.331792
0.982193 0.399847 0.503227
0 0.134478 0.0449531
0 0.135531 0.0313573
0.116106 0.135973 0.0305943
0.274205 0.135714 0.0322118
0.388556 0.134295 0.0401007
0.505287 0.126802 0.0545205
0.658793 0.157992 0.139696
0.859205 0.260502 0.304021
0.982238 0.402731 0.487144
0.00560006 0.247623 0.111376
0.00729381 0.247395 0.0973831
0.0692607 0.248203 0.0650339
0.26833 0.250751 0.0772412
0.385885 0.250782 0.0806744
0.502876 0.251911 0.0961013
0.650874 0.246082 0.131334
0.856291 0.267567 0.241032
0.982483 0.408301 0.458167
0.0344396 0.356802 0.184314
0.0367285 0.356573 0.173007
0.0469215 0.358083 0.123491
0.232181 0.358206 0.110445
0.380087 0.363775 0.129778
0.492958 0.362844 0.13489
0.641917 0.365499 0.166461
0.835233 0.359289 0.226658
0.983886 0.406088 0.392477
0.0809033 0.478264 0.270405
0.0839857 0.478157 0.262394
0.0937057 0.478035 0.232731
0.136553 0.483528 0.167926
0.350393 0.486351 0.179583
0.492302 0.492668 0.204944
0.634607 0.489723 0.213916
0.814649 0.490883 0.264836
0.978195 0.480644 0.350866
0.159426 0.637613 0.393408
0.161715 0.637583 0.38819
0.168627 0.63743 0.370748
0.184039 0.643946 0.339086
0.2262 0.650507 0.26862
0.457313 0.648905 0.289891
0.633997 0.655604 0.358785
0.786603 0.657954 0.394675
0.959121 0.656092 0.448798
0.387549 0.807889 0.561486
0.388266 0.807889 0.558755
0.390829 0.808042 0.55021
0.40238 0.812131 0.53933
0.42945 0.824674 0.529534
0.446693 0.825833 0.468254
0.637156 0.838911 0.494621
0.819257 0.868055 0.553399
0.970748 0.866789 0.570642
0.551537 0.993194 0.73492
0.551995 0.99321 0.733333
0.55375 0.993133 0.72845
0.557412 0.994171 0.721172
0.569848 0.998718 0.722805
0.582956 0.998795 0.709224
0.609201 1 0.647929
0.787564 1 0.649012
0.970474 1 0.708705
0 0.0441138 0.00451667
0 0.0446021 0.00894179
0.125673 0.043473 0.0168002
0.276799 0.0497444 0.0355535
0.390845 0.0619516 0.0659953
0.506386 0.0867475 0.11841
0.653315 0.144137 0.208408
0.850416 0.24773 0.343709
0.982635 0.391012 0.505928
0 0.058732 0.0163882
0 0.0582742 0.0174563
0.148043 0.0554055 0.0195163
0.290562 0.0542611 0.0277562
0.403082 0.0663005 0.0578927
0.523339 0.0948043 0.115526
0.676188 0.158053 0.214679
0.886 0.268086 0.359808
0.979171 0.422415 0.535088
0 0.13492 0.0583658
0 0.13434 0.0472419
0.124514 0.142138 0.035523
0.289754 0.136522 0.0476081
0.404028 0.131762 0.0590982
0.521492 0.120943 0.0751965
0.675563 0.164157 0.17293
0.885008 0.272465 0.333501
0.979614 0.423957 0.519127
0.00537118 0.247318 0.125032
0.00691234 0.247059 0.112917
0.0471046 0.253712 0.0706798
0.276143 0.257923 0.0825971
0.392721 0.25153 0.0932784
0.515206 0.251713 0.114412
0.669032 0.24329 0.154086
0.885634 0.281209 0.280262
0.979614 0.430121 0.493523
0.0336614 0.356374 0.195041
0.0359655 0.356176 0.185275
0.0455024 0.355764 0.140169
0.223713 0.3673 0.116045
0.387854 0.372534 0.13611
0.496666 0.362753 0.146014
0.651652 0.366064 0.182818
0.853437 0.358267 0.245014
0.981994 0.422919 0.427207
0.0798047 0.478035 0.278492
0.082887 0.477943 0.271061
0.0925154 0.477638 0.243427
0.120882 0.490272 0.175845
0.346456 0.49836 0.186786
0.503059 0.504891 0.213581
0.635554 0.488884 0.221683
0.821576 0.492241 0.277684
0.977523 0.482811 0.367208
0.158556 0.637522 0.398825
0.160876 0.637476 0.393835
0.167788 0.637278 0.377111
0.183917 0.644953 0.346822
0.220264 0.667475 0.290135
0.459724 0.663508 0.303746
0.647623 0.670863 0.379522
0.790463 0.661265 0.402487
0.959228 0.657176 0.455802
0.387366 0.807767 0.56437
0.388174 0.807813 0.561715
0.390661 0.80795 0.553307
0.396902 0.809354 0.538888
0.444755 0.834363 0.544625
0.47126 0.843488 0.49955
0.644724 0.859998 0.509194
0.839551 0.891646 0.570764
0.971344 0.875532 0.579171
0.5514 0.993179 0.736599
0.551858 0.993179 0.735042
0.553582 0.993118 0.73022
0.556512 0.992996 0.721675
0.574212 0.99881 0.731228
0.596338 0.999039 0.735103
0.622583 1 0.676722
0.797635 1 0.665751
0.970718 1 0.727001
0 0.0450904 0.0390173
0 0.0446326 0.0477607
0.122469 0.0445106 0.0621195
0.274937 0.0509651 0.0868849
0.388708 0.0630961 0.118196
0.500893 0.0867628 0.163531
0.645182 0.141848 0.240253
0.837385 0.241398 0.361166
0.983536 0.378378 0.509026
0 0.06215 0.0565347
0 0.0592508 0.0716259
0.127398 0.0534524 0.0717479
0.275349 0.0523537 0.078172
0.389471 0.0649119 0.10724
0.508354 0.0913558 0.158633
0.657633 0.150378 0.240848
0.858839 0.254643 0.368902
0.981674 0.399527 0.526802
0 0.138293 0.099443
0 0.136995 0.098024
0.0992294 0.135073 0.102602
0.309346 0.130404 0.110277
0.414237 0.133028 0.128862
0.528069 0.130648 0.152285
0.685206 0.171664 0.229938
0.907561 0.284886 0.37847
0.975814 0.448707 0.564019
0.00756847 0.249577 0.167178
0.00917067 0.249104 0.160433
0.0214847 0.251225 0.128893
0.281559 0.263203 0.0988022
0.414969 0.253269 0.144564
0.53434 0.247639 0.170367
0.688853 0.234821 0.205982
0.908186 0.291936 0.33402
0.975998 0.45333 0.540505
0.0353552 0.357458 0.227268
0.0375677 0.357259 0.220478
0.0468452 0.356497 0.192309
0.170642 0.372 0.134813
0.39086 0.37586 0.149371
0.510246 0.363684 0.184955
0.671321 0.365133 0.227283
0.885588 0.351705 0.288502
0.977844 0.450477 0.489204
0.0795605 0.478202 0.302937
0.082536 0.478065 0.29691
0.0918746 0.477623 0.274952
0.110796 0.481071 0.216342
0.321004 0.50576 0.199268
0.507942 0.510994 0.223636
0.639139 0.485924 0.246983
0.837263 0.493095 0.311284
0.976516 0.483787 0.403418
0.155993 0.637018 0.414542
0.158312 0.636912 0.410086
0.165225 0.636774 0.3953
0.177523 0.636423 0.36376
0.214893 0.673594 0.327016
0.448569 0.675944 0.318379
0.65864 0.683085 0.398459
0.792462 0.660258 0.415961
0.959258 0.659586 0.474784
0.38674 0.807416 0.572747
0.387564 0.807416 0.57026
0.38999 0.807477 0.562417
0.394064 0.807721 0.547601
0.442634 0.832853 0.553155
0.49163 0.865705 0.539528
0.647562 0.884123 0.526268
0.861997 0.918105 0.59115
0.971969 0.883391 0.592691
0.551003 0.993118 0.741711
0.551492 0.993103 0.74023
0.553124 0.993072 0.735531
0.556054 0.99295 0.72723
0.57026 0.998779 0.731243
0.613947 0.999527 0.771771
0.639857 1 0.720928
0.807645 1 0.690089
0.971054 1 0.752728
0 0.0468605 0.113451
0 0.0453651 0.125154
0.119387 0.0451514 0.139406
0.270802 0.0528115 0.161486
0.387091 0.065507 0.189059
0.500252 0.0897536 0.227161
0.641276 0.143114 0.291569
0.826337 0.238132 0.393988
0.984161 0.366888 0.521538
0 0.0654459 0.134005
0 0.0606546 0.148592
0.111528 0.0550851 0.155215
0.269581 0.0539559 0.161486
0.387335 0.0672923 0.184756
0.500572 0.0919356 0.220905
0.641474 0.145342 0.284901
0.826642 0.239826 0.388342
0.983536 0.373846 0.523659
0 0.145647 0.170535
0 0.14226 0.176059
0.0629435 0.136202 0.20412
0.283955 0.12108 0.203159
0.394568 0.122332 0.201358
0.502022 0.119875 0.211582
0.648356 0.155261 0.266667
0.852171 0.258335 0.386862
0.980743 0.404379 0.54078
0.0114748 0.253178 0.22063
0.0126345 0.252354 0.219791
0.0213931 0.25156 0.21944
0.240162 0.248966 0.225834
0.414633 0.248356 0.236606
0.542031 0.246296 0.25481
0.687739 0.246799 0.289799
0.905318 0.294255 0.38407
0.975219 0.453513 0.565896
0.0390936 0.360037 0.273777
0.0416114 0.359609 0.270314
0.0499275 0.358373 0.256596
0.0987411 0.367178 0.223774
0.395087 0.382071 0.199512
0.540734 0.365774 0.25478
0.691203 0.360082 0.293797
0.904616 0.349569 0.352987
0.975616 0.459998 0.531731
0.0839551 0.479942 0.341253
0.0865339 0.479759 0.337163
0.0952468 0.479118 0.322347
0.111803 0.478248 0.284749
0.246647 0.514351 0.227207
0.513512 0.5178 0.244144
0.657862 0.490425 0.299702
0.870558 0.498985 0.372915
0.975479 0.482155 0.453651
0.158389 0.637873 0.44152
0.160555 0.637705 0.437903
0.167163 0.637568 0.426078
0.178958 0.63714 0.401175
0.202411 0.649744 0.356222
0.41117 0.684413 0.33077
0.664134 0.689403 0.412634
0.787945 0.650126 0.432059
0.959442 0.666163 0.50901
0.385702 0.806851 0.586084
0.386557 0.806882 0.583886
0.389044 0.806851 0.576852
0.393133 0.807065 0.563668
0.398932 0.807324 0.540978
0.497658 0.873991 0.569787
0.636774 0.891768 0.53489
0.870375 0.927977 0.601373
0.971511 0.87538 0.600534
0.550179 0.993042 0.750118
0.550744 0.993011 0.748653
0.5523 0.992981 0.744198
0.555276 0.992859 0.736309
0.55935 0.992691 0.724254
0.598444 0.999191 0.755337
0.64181 1 0.742641
0.802243 1 0.698848
0.971191 1 0.762325
0 0.0499733 0.201541
0 0.0466468 0.211978
0.111818 0.0462654 0.222507
0.266575 0.0543832 0.239307
0.38291 0.0690623 0.263325
0.497642 0.0937667 0.296986
0.640192 0.147097 0.352712
0.82565 0.241138 0.442206
0.983383 0.368872 0.556466
0 0.0697642 0.218189
0 0.062623 0.229023
0.0937209 0.0567941 0.237995
0.261662 0.0559243 0.244251
0.382345 0.0704356 0.263569
0.497765 0.0956741 0.294392
0.640482 0.149081 0.348714
0.825788 0.242832 0.437888
0.983337 0.370016 0.552773
0 0.151553 0.249699
0 0.147478 0.257206
0.0332952 0.13814 0.288762
0.255131 0.126711 0.290486
0.385016 0.122942 0.288731
0.497749 0.121599 0.294057
0.640604 0.155413 0.334096
0.826139 0.247761 0.423774
0.98323 0.373281 0.54107
0.00128176 0.259922 0.286305
0.00497444 0.258396 0.289403
0.0221103 0.252064 0.301137
0.19852 0.249531 0.324559
0.388556 0.237964 0.32697
0.511788 0.230518 0.326101
0.644297 0.229847 0.340932
0.828977 0.257313 0.396979
0.981826 0.394308 0.537194
0.0452583 0.363455 0.32668
0.0470588 0.362905 0.326101
0.0543069 0.360937 0.324422
0.093019 0.366598 0.330983
0.349874 0.361349 0.336248
0.527977 0.358984 0.347616
0.683406 0.3561 0.372519
0.892927 0.360037 0.424964
0.974502 0.460945 0.569741
0.0898909 0.482292 0.386145
0.0923476 0.482033 0.383886
0.100008 0.481224 0.375921
0.114748 0.479759 0.357305
0.192523 0.490623 0.329107
0.512856 0.518395 0.30631
0.68423 0.493721 0.371298
0.886687 0.496529 0.432639
0.972854 0.491371 0.515496
0.162783 0.639384 0.475685
0.164706 0.639292 0.472999
0.171023 0.638865 0.46424
0.181979 0.638315 0.446433
0.199329 0.637613 0.410269
0.302861 0.699641 0.350805
0.672236 0.698589 0.434546
0.806973 0.659266 0.478447
0.960098 0.684001 0.565652
0.390967 0.807279 0.606455
0.391821 0.807279 0.604562
0.394125 0.807324 0.598627
0.398459 0.80734 0.587427
0.404135 0.807523 0.56878
0.451698 0.831144 0.552316
0.611002 0.898482 0.543404
0.88098 0.940063 0.614343
0.970474 0.858183 0.609339
0.549004 0.992935 0.761578
0.549599 0.992905 0.76022
0.551339 0.992828 0.756008
0.554131 0.992752 0.748638
0.558328 0.992554 0.737392
0.567056 0.995392 0.719417
0.643565 1 0.773312
0.787854 1 0.7084
0.971344 1 0.774548
0 0.0558785 0.30988
0 0.0502327 0.320272
0.0972152 0.049134 0.327047
0.261265 0.0565194 0.339681
0.378912 0.0727092 0.356954
0.493217 0.100267 0.384085
0.637797 0.153521 0.431098
0.82388 0.24625 0.507942
0.982116 0.372229 0.607065
0 0.0760662 0.322057
0 0.0690318 0.331518
0.0704509 0.0594034 0.340856
0.25069 0.0592966 0.345861
0.376379 0.0742962 0.360433
0.492851 0.101823 0.384466
0.637842 0.155383 0.429252
0.82414 0.247776 0.505211
0.982055 0.373342 0.604135
0 0.158831 0.348806
0 0.154986 0.357061
0.0195773 0.142519 0.380941
0.224445 0.133089 0.386221
0.36907 0.127596 0.388388
0.490242 0.124254 0.391516
0.637369 0.161013 0.42237
0.824247 0.252399 0.495674
0.982101 0.37641 0.594949
0 0.265675 0.376211
0 0.264668 0.381918
0.0200809 0.256382 0.397498
0.151446 0.24979 0.435676
0.360372 0.237201 0.438224
0.496773 0.230503 0.43125
0.637812 0.231922 0.43592
0.823926 0.26006 0.476921
0.981903 0.381643 0.577951
0.02121 0.371038 0.402106
0.0247349 0.370199 0.404273
0.0396887 0.366796 0.411337
0.109285 0.364096 0.430838
0.302846 0.361517 0.448859
0.494667 0.349737 0.453696
0.648371 0.340475 0.455573
0.819593 0.340673 0.477958
0.981933 0.388937 0.550698
0.0991531 0.48632 0.446067
0.101183 0.485939 0.445731
0.107515 0.484718 0.444739
0.119417 0.482246 0.442756
0.172213 0.490913 0.452384
0.457176 0.486763 0.459998
0.673411 0.482567 0.475257
0.858473 0.485573 0.511315
0.970489 0.494713 0.579049
0.169879 0.64181 0.52462
0.171725 0.641642 0.523049
0.177203 0.64123 0.517891
0.187152 0.640391 0.507591
0.202731 0.639261 0.488258
0.269841 0.651743 0.451392
0.658885 0.684413 0.461585
0.833234 0.665461 0.543801
0.959915 0.681285 0.616098
0.399039 0.808179 0.637156
0.399802 0.808194 0.635691
0.402167 0.808118 0.631098
0.406241 0.808026 0.622522
0.4121 0.80798 0.60853
0.421378 0.808026 0.57705
0.554421 0.902388 0.562325
0.8916 0.952728 0.631693
0.971038 0.860121 0.648203
0.551369 0.993469 0.782147
0.551812 0.993469 0.780941
0.553521 0.993408 0.777203
0.556405 0.993255 0.770565
0.560296 0.993103 0.760616
0.567163 0.992767 0.741741
0.604486 0.999222 0.732235
0.754147 1 0.715389
0.971527 1 0.788281
0 0.0704051 0.458762
0 0.0649424 0.467109
0.0670787 0.0564736 0.473243
0.249165 0.0633555 0.479942
0.374517 0.0788891 0.491936
0.489677 0.108782 0.509926
0.633188 0.166445 0.546838
0.820493 0.256046 0.610727
0.97969 0.378851 0.69279
0 0.0899825 0.465599
0 0.0831617 0.473762
0.0270848 0.0653086 0.484138
0.232685 0.0675212 0.486458
0.368444 0.0823224 0.496529
0.487648 0.110719 0.512657
0.632807 0.167849 0.547112
0.820523 0.257389 0.609339
0.979614 0.379843 0.69073
0 0.171633 0.484825
0 0.168444 0.492882
0.00320439 0.150576 0.511467
0.187015 0.141421 0.518944
0.3467 0.136919 0.520485
0.47866 0.131395 0.523888
0.631479 0.17203 0.547601
0.820081 0.261463 0.604837
0.979522 0.382803 0.68452
0 0.27306 0.50312
0 0.272999 0.510384
0.0165255 0.266819 0.528527
0.13312 0.256062 0.554116
0.312566 0.248005 0.56199
0.466423 0.240467 0.563775
0.626108 0.235721 0.566522
0.818998 0.26807 0.596017
0.979156 0.387717 0.672892
0 0.37586 0.518349
0.00328069 0.376867 0.523735
0.0269932 0.375174 0.53695
0.103471 0.366339 0.556008
0.242954 0.361486 0.5935
0.449989 0.350072 0.600809
0.627237 0.34107 0.59469
0.810971 0.343816 0.602945
0.978882 0.394476 0.65478
0.0395972 0.496208 0.548196
0.0442206 0.495781 0.54992
0.0620584 0.49395 0.555169
0.104372 0.488945 0.563989
0.19588 0.487846 0.585672
0.394003 0.486931 0.611124
0.633509 0.469657 0.61706
0.814893 0.463844 0.616983
0.97203 0.461387 0.641321
0.183856 0.646738 0.603418
0.185367 0.64651 0.60322
0.189822 0.645808 0.602594
0.197757 0.64445 0.601526
0.209705 0.642435 0.599878
0.261875 0.650538 0.609155
0.607294 0.644678 0.617075
0.826352 0.651469 0.64361
0.958709 0.658991 0.685084
0.41384 0.810254 0.690242
0.414527 0.810193 0.689342
0.416785 0.810056 0.686732
0.420523 0.80975 0.681865
0.425818 0.80943 0.674083
0.434867 0.808728 0.657374
0.502037 0.818952 0.619791
0.848981 0.903792 0.636728
0.972168 0.870085 0.728359
0.556878 0.994751 0.821653
0.557443 0.99472 0.820661
0.559075 0.994629 0.817639
0.5617 0.994507 0.812375
0.565667 0.994293 0.80444
0.572198 0.993957 0.7897
0.585809 0.99324 0.751339
0.688197 1 0.731411
0.971557 1 0.791791
0 0.105928 0.648249
0 0.102113 0.656474
0 0.0788739 0.668025
0.215305 0.0821393 0.667048
0.359396 0.0973068 0.673594
0.48249 0.124193 0.685527
0.62884 0.182437 0.711574
0.812634 0.275273 0.761761
0.975052 0.391775 0.829282
0 0.117327 0.649561
0 0.112184 0.656855
0 0.0889754 0.673793
0.191135 0.0873732 0.673136
0.349859 0.101991 0.678233
0.477882 0.127947 0.688899
0.62742 0.184314 0.713405
0.81239 0.276265 0.761883
0.974945 0.39266 0.828214
0 0.19501 0.661646
0 0.191501 0.667475
0 0.179019 0.688197
0.126696 0.156512 0.697734
0.316655 0.151278 0.697185
0.461967 0.145525 0.699489
0.622751 0.190021 0.718746
0.811582 0.279133 0.762188
0.974685 0.395193 0.824857
0 0.288045 0.671702
0 0.285664 0.676219
0.00721752 0.286381 0.699458
0.102358 0.268299 0.718807
0.263554 0.260548 0.730175
0.432029 0.25626 0.733288
0.608743 0.248478 0.739162
0.809613 0.283757 0.761837
0.974411 0.399374 0.818891
0 0.380789 0.676326
0 0.381323 0.681743
0.0112154 0.387915 0.703853
0.0798505 0.377386 0.722957
0.223392 0.370428 0.748531
0.390982 0.364248 0.76257
0.586145 0.355428 0.767437
0.796963 0.350164 0.773968
0.973709 0.405264 0.809323
0 0.495521 0.694148
0 0.498375 0.70016
0.0262455 0.503456 0.715251
0.0788739 0.500191 0.730617
0.185794 0.491402 0.749477
0.329976 0.488075 0.793912
0.568536 0.474617 0.805112
0.789883 0.465126 0.797055
0.965774 0.466224 0.801389
0.0772259 0.658564 0.73753
0.083772 0.65832 0.738689
0.104204 0.657237 0.742336
0.138842 0.654902 0.748409
0.18764 0.650156 0.757534
0.283528 0.648341 0.781353
0.518486 0.6448 0.811368
0.800275 0.631861 0.790066
0.956207 0.629572 0.789044
0.439582 0.815183 0.775937
0.440146 0.815076 0.77583
0.441978 0.814725 0.775525
0.444907 0.814069 0.774975
0.448936 0.813199 0.774227
0.456214 0.811566 0.772747
0.506279 0.817945 0.780545
0.79617 0.848386 0.826764
0.971908 0.85687 0.862303
0.567437 0.997223 0.895079
0.56788 0.997208 0.894469
0.56939 0.997101 0.892485
0.571939 0.996918 0.889174
0.575372 0.996704 0.884184
0.58146 0.996277 0.875013
0.594125 0.995422 0.85214
0.661631 1 0.801572
0.971542 1 0.790921
0 0.177737 0.895552
0 0.171557 0.899321
0 0.164508 0.920577
0.114519 0.126635 0.923629
0.313756 0.13959 0.925139
0.457877 0.163455 0.931228
0.617716 0.21059 0.943206
0.804898 0.297459 0.959899
0.968338 0.41561 0.97731
0 0.186023 0.897307
0 0.17969 0.900847
0 0.171206 0.920699
0.0828412 0.132906 0.927321
0.29868 0.144701 0.927108
0.450965 0.16788 0.932769
0.614694 0.213596 0.944121
0.803815 0.298802 0.960281
0.968215 0.416266 0.977295
0 0.243748 0.903029
0 0.23772 0.906355
0 0.225528 0.922148
0.0488594 0.194018 0.938567
0.249653 0.177752 0.935119
0.428641 0.181308 0.937545
0.604852 0.222858 0.946975
0.800595 0.302724 0.961334
0.967895 0.418097 0.977218
0 0.32546 0.907179
0 0.32134 0.910201
0 0.313527 0.92401
0.0489509 0.304143 0.949126
0.202426 0.280919 0.951278
0.39202 0.277913 0.952316
0.583398 0.270909 0.95494
0.794141 0.309651 0.963058
0.967361 0.421073 0.977005
0 0.409216 0.911345
0 0.40647 0.914015
0 0.400443 0.923995
0.0433509 0.40621 0.952819
0.177737 0.386954 0.95581
0.337331 0.380514 0.961425
0.546304 0.375753 0.964385
0.776165 0.366567 0.968261
0.966857 0.425055 0.976761
0 0.508843 0.919432
0 0.507103 0.921569
0 0.504356 0.930449
0.0414893 0.518593 0.956939
0.149523 0.50692 0.959899
0.308263 0.499306 0.968429
0.501335 0.491676 0.975723
0.750149 0.481086 0.977478
0.959335 0.474678 0.976425
0 0.644739 0.932113
0 0.645777 0.935241
0.0122225 0.659327 0.953384
0.0634775 0.666194 0.959319
0.153552 0.66247 0.961685
0.270146 0.651835 0.968093
0.436591 0.648859 0.989288
0.767452 0.63418 0.97467
0.952682 0.628 0.97023
0.33492 0.826291 0.927062
0.339773 0.826276 0.927886
0.354025 0.826123 0.930282
0.375982 0.825574 0.934279
0.402426 0.824247 0.939834
0.441398 0.820829 0.949416
0.52752 0.816617 0.961715
0.770611 0.837293 0.992584
0.968719 0.828733 1
0.582193 0.99968 0.983841
0.582559 0.99968 0.983795
0.583734 0.99971 0.983673
0.585565 0.999756 0.983474
0.588449 0.999771 0.983154
0.593179 0.99971 0.982635
0.603738 0.998398 0.981613
0.651865 1 0.985992
0.973846 1 1
