luts/HORROR DAY.cube
TITLE "Generated by Resolve"
LUT_3D_SIZE 33
0 0 0
0.00550851 0 0
0.0188907 0 0
0.0360266 0 0
0.0559396 0 0
0.078172 0 0
0.102419 0 0
0.12845 0 0
0.1561 0 0
0.185275 0 0
0.215839 0 0
0.247715 0 0
0.280827 0 0
0.315114 0 0
0.35053 0 0
0.38703 0 0
0.424552 0 0
0.463066 0 0
0.502525 0 0
0.542931 0 0
0.584222 0 0
0.626383 0 0
0.669398 0 0
0.713222 0 0
0.757855 0 0
0.803265 0 0
0.849439 0 0
0.896361 0 0
0.944015 0 0
0.99237 0 0
1 0 0
1 0 0
1 0 0
0 0.00648508 0
0.00418097 0.00816358 0
0.0185702 0.00852979 0
0.0365301 0.00822461 0
0.0572061 0.00743114 0
0.0801251 0.0062562 0
0.105043 0.00474556 0
0.131777 0.00291447 0
0.160174 0.000823987 0
0.189944 0 0
0.221073 0 0
0.253483 0 0
0.287098 0 0
0.321874 0 0
0.357748 0 0
0.394675 0 0
0.432624 0 0
0.471534 0 0
0.511406 0 0
0.552178 0 0
0.593835 0 0
0.636362 0 0
0.679713 0 0
0.723888 0 0
0.768841 0 0
0.814588 0 0
0.861067 0 0
0.908309 0 0
0.956252 0 0
1 0 0
1 0 0
1 0 0
1 0 0
0 0.0236362 0
0.00205997 0.026215 0
0.0167849 0.0273899 0
0.0351263 0.0277867 0
0.0561685 0.0276341 0
0.0794537 0.027039 0
0.104677 0.0260777 0
0.13164 0.0247959 0
0.160204 0.0232242 0
0.190234 0.0213931 0
0.221637 0.0193179 0
0.254337 0.0170138 0
0.288273 0.0145113 0
0.323369 0.0117952 0
0.359579 0.00889601 0
0.396872 0.00579843 0
0.435218 0.00251774 0
0.474601 0 0
0.515038 0 0
0.556252 0 0
0.598321 0 0
0.641215 0 0
0.684932 0 0
0.729442 0 0
0.774731 0 0
0.820798 0 0
0.867597 0 0
0.915114 0 0
0.963363 0 0
1 0 0
1 0 0
1 0 0
1 0 0
0 0.0440375 0
0 0.0471962 0
0.0147402 0.0489967 0
0.033341 0.0499275 0
0.0546731 0.0502632 0
0.0782483 0.0501259 0
0.103761 0.0495918 0
0.131014 0.0487221 0
0.159854 0.0475471 0
0.190143 0.0460822 0
0.221805 0.044358 0
0.254749 0.0424048 0
0.288899 0.040238 0
0.324208 0.0378424 0
0.360601 0.0352636 0
0.398077 0.0325017 0
0.436545 0.0295415 0
0.476005 0.0264134 0
0.516411 0.0231327 0
0.557733 0.0196689 0
0.599939 0.0160678 0
0.643015 0.0122988 0
0.686931 0.00839246 0
0.73167 0.00433356 0
0.777234 0.000137331 0
0.823575 0 0
0.870726 0 0
0.918685 0 0
0.967468 0 0
1 0 0
1 0 0
1 0 0
1 0 0
0 0.0667735 0
0 0.0703899 0
0.012604 0.0727092 0
0.0313725 0.0740826 0
0.0529183 0.0748302 0
0.0767224 0.0750896 0
0.10248 0.0749218 0
0.129976 0.074403 0
0.159045 0.0735485 0
0.189578 0.0724193 0
0.221469 0.0710002 0
0.254643 0.0693523 0
0.289021 0.0674754 0
0.324544 0.0653697 0
0.361166 0.0630655 0
0.39884 0.0605631 0
0.437522 0.0578622 0
0.477165 0.0549935 0
0.517754 0.051957 0
0.559243 0.0487526 0
0.601617 0.0453803 0
0.644862 0.0418708 0
0.688914 0.0381933 0
0.733791 0.0343786 0
0.779461 0.0304265 0
0.82591 0.0263371 0
0.873106 0.0220951 0
0.921035 0.0177462 0
0.969696 0.0132448 0
1 0.00863661 0
1 0.00389105 0
1 0 0
1 0 0
0 0.0914015 0
0 0.0953536 0
0.0104524 0.0981308 0
0.0293278 0.0999161 0
0.0510262 0.10103 0
0.0750134 0.101625 0
0.100969 0.101793 0
0.128664 0.101579 0
0.157946 0.10103 0
0.188693 0.100175 0
0.220798 0.0990463 0
0.254185 0.097673 0
0.288762 0.0960555 0
0.324498 0.0942092 0
0.361318 0.0921492 0
0.399176 0.0898756 0
0.438056 0.0874189 0
0.477882 0.0847944 0
0.518654 0.0819715 0
0.560342 0.0789807 0
0.602884 0.0758373 0
0.646296 0.0725414 0
0.690532 0.0690776 0
0.735561 0.0654612 0
0.781399 0.0617075 0
0.827985 0.0578164 0
0.875334 0.0537881 0
0.9234 0.0496223 0
0.972198 0.0453346 0
1 0.0409094 0
1 0.0363775 0
1 0.0317082 0
1 0.0269169 0
0 0.117632 0
0 0.121813 0
0.00830091 0.125063 0
0.0272221 0.127199 0
0.0490425 0.128634 0
0.0731823 0.129549 0
0.0993057 0.130007 0
0.127184 0.130083 0
0.156649 0.129809 0
0.187579 0.129213 0
0.219867 0.128344 0
0.253437 0.127214 0
0.288212 0.125826 0
0.324117 0.124224 0
0.361135 0.122393 0
0.399176 0.120348 0
0.438224 0.11812 0
0.478248 0.115694 0
0.519188 0.113085 0
0.561044 0.110307 0
0.603769 0.107362 0
0.647349 0.10425 0
0.691752 0.100984 0
0.73695 0.0975662 0
0.78294 0.0939956 0
0.829679 0.0902876 0
0.87718 0.0864424 0
0.925414 0.0824598 0
0.97435 0.0783551 0
1 0.0740978 0
1 0.0697337 0
1 0.0652323 0
1 0.0606241 0
0 0.145266 0
0 0.14966 0
0.00616464 0.153307 0
0.0251164 0.155779 0
0.047013 0.157519 0
0.0712749 0.158709 0
0.0975357 0.159442 0
0.125566 0.159777 0
0.1552 0.159747 0
0.186282 0.159411 0
0.218753 0.15877 0
0.252476 0.15787 0
0.287419 0.15671 0
0.323507 0.155322 0
0.360693 0.153704 0
0.398901 0.151873 0
0.438132 0.149844 0
0.478309 0.147616 0
0.519432 0.145205 0
0.56144 0.142611 0
0.604334 0.139864 0
0.648066 0.136934 0
0.692622 0.133852 0
0.737987 0.130617 0
0.784131 0.12723 0
0.831037 0.12369 0
0.878691 0.120012 0
0.927062 0.116197 0
0.97615 0.112261 0
1 0.108171 0
1 0.10396 0
1 0.0996262 0
1 0.0951705 0
0 0.174166 0
0 0.178729 0
0.00408942 0.182742 0
0.0229953 0.185519 0
0.0449683 0.187549 0
0.0693217 0.188998 0
0.0957046 0.189975 0
0.123857 0.190555 0
0.153628 0.190768 0
0.184863 0.190661 0
0.217472 0.190249 0
0.251362 0.189563 0
0.286458 0.188617 0
0.322698 0.187427 0
0.360037 0.186007 0
0.398413 0.184375 0
0.437797 0.182528 0
0.478141 0.180499 0
0.519402 0.178271 0
0.561578 0.17586 0
0.604623 0.173281 0
0.648508 0.170535 0
0.693217 0.16762 0
0.738735 0.164553 0
0.785031 0.161334 0
0.832074 0.157961 0
0.879881 0.154452 0
0.928405 0.15079 0
0.977646 0.147005 0
1 0.143084 0
1 0.139025 0
1 0.134844 0
1 0.130526 0
0 0.204196 0
0 0.208927 0
0.00205997 0.21326 0
0.0209049 0.216327 0
0.0429084 0.218616 0
0.0673381 0.220325 0
0.0938125 0.221546 0
0.122087 0.222339 0
0.15198 0.222782 0
0.183352 0.222889 0
0.216083 0.222675 0
0.250126 0.222187 0
0.285359 0.221439 0
0.321752 0.220447 0
0.359228 0.219226 0
0.397742 0.217777 0
0.437278 0.216114 0
0.47776 0.214252 0
0.519188 0.212207 0
0.561502 0.209979 0
0.604685 0.207568 0
0.648722 0.204974 0
0.693584 0.202228 0
0.739239 0.199329 0
0.785672 0.196262 0
0.832868 0.193057 0
0.880812 0.189685 0
0.929473 0.186191 0
0.978851 0.182544 0
1 0.178775 0
1 0.174868 0
1 0.170825 0
1 0.166659 0
0 0.235279 0
0 0.240146 0
9.15541e-05 0.24477 0
0.0188449 0.248127 0
0.0408484 0.25066 0
0.0653391 0.252598 0
0.0918898 0.254047 0
0.120256 0.25507 0
0.150256 0.255711 0
0.18175 0.256016 0
0.214618 0.256016 0
0.248768 0.255726 0
0.284138 0.255161 0
0.320668 0.254353 0
0.358282 0.2533 0
0.396933 0.252033 0
0.436591 0.250553 0
0.477226 0.248859 0
0.518776 0.246983 0
0.561242 0.244907 0
0.604562 0.242664 0
0.648737 0.240238 0
0.693736 0.237644 0
0.739528 0.234897 0
0.786099 0.231983 0
0.833432 0.228916 0
0.881498 0.225711 0
0.930297 0.222354 0
0.979812 0.218845 0
1 0.215213 0
1 0.211444 0
1 0.207553 0
1 0.203525 0
0 0.267338 0
0 0.272312 0
0 0.277195 0
0.0168154 0.280827 0
0.0388037 0.283619 0
0.0633249 0.285786 0
0.0899519 0.287434 0
0.11841 0.28867 0
0.148501 0.289509 0
0.180087 0.290013 0
0.213077 0.290196 0
0.247349 0.290089 0
0.282826 0.289708 0
0.319478 0.289067 0
0.357214 0.288197 0
0.396002 0.287098 0
0.435798 0.285771 0
0.476555 0.284245 0
0.518242 0.282521 0
0.56083 0.280613 0
0.604288 0.278523 0
0.648585 0.276249 0
0.693706 0.273808 0
0.739635 0.271199 0
0.786328 0.268437 0
0.833799 0.265522 0
0.882002 0.262455 0
0.930922 0.259236 0
0.98056 0.255879 0
1 0.252384 0
1 0.248753 0
1 0.244984 0
1 0.241093 0
0 0.300313 0
0 0.305379 0
0 0.310491 0
0.0148165 0.314412 0
0.0367895 0.317418 0
0.061326 0.319799 0
0.0879988 0.321675 0
0.116518 0.323095 0
0.1467 0.324132 0
0.178393 0.324804 0
0.211475 0.32517 0
0.245853 0.325231 0
0.281453 0.325032 0
0.318212 0.324559 0
0.356054 0.323857 0
0.394965 0.322911 0
0.434882 0.321752 0
0.475761 0.320394 0
0.517571 0.318822 0
0.560281 0.317052 0
0.603861 0.315114 0
0.64828 0.312993 0
0.693538 0.310689 0
0.739574 0.308232 0
0.786404 0.305608 0
0.833997 0.302831 0
0.882322 0.299901 0
0.931365 0.296818 0
0.981125 0.293599 0
1 0.290227 0
1 0.286717 0
1 0.283085 0
1 0.279316 0
0 0.334142 0
0 0.339254 0
0 0.344579 0
0.0128634 0.348791 0
0.0347906 0.352041 0
0.0593423 0.35462 0
0.0860456 0.35668 0
0.114626 0.358297 0
0.144884 0.359518 0
0.176654 0.360372 0
0.209827 0.360906 0
0.244297 0.361151 0
0.280003 0.361105 0
0.316869 0.3608 0
0.354833 0.36025 0
0.393851 0.359457 0
0.433875 0.358465 0
0.474861 0.357244 0
0.516793 0.355825 0
0.559609 0.354208 0
0.603311 0.352407 0
0.647852 0.350423 0
0.693233 0.348272 0
0.739391 0.345937 0
0.786343 0.34345 0
0.834043 0.34081 0
0.88249 0.338018 0
0.931655 0.335058 0
0.981537 0.33196 0
1 0.328725 0
1 0.325353 0
1 0.321843 0
1 0.318196 0
0 0.36878 0
0 0.373922 0
0 0.3794 0
0.0109712 0.383948 0
0.0328069 0.387411 0
0.0573587 0.390204 0
0.0841077 0.392447 0
0.112734 0.394247 0
0.143053 0.395636 0
0.174899 0.396674 0
0.208148 0.397375 0
0.24271 0.397772 0
0.278508 0.397879 0
0.315465 0.397742 0
0.353536 0.397345 0
0.39266 0.396704 0
0.432792 0.39585 0
0.473884 0.394781 0
0.515923 0.3935 0
0.558862 0.392035 0
0.60267 0.390372 0
0.647318 0.388525 0
0.692805 0.386496 0
0.739086 0.384314 0
0.786145 0.381949 0
0.833951 0.379431 0
0.882521 0.376761 0
0.931792 0.373938 0
0.981781 0.370977 0
1 0.367864 0
1 0.364599 0
1 0.361212 0
1 0.357687 0
0 0.404181 0
0 0.409323 0
0 0.415 0
0.0091249 0.419821 0
0.0308843 0.423514 0
0.0554055 0.426505 0
0.0821698 0.428931 0
0.110842 0.4309 0
0.141207 0.432471 0
0.173114 0.433661 0
0.206439 0.434516 0
0.241093 0.43508 0
0.276982 0.435355 0
0.314031 0.435355 0
0.352178 0.435096 0
0.391409 0.434607 0
0.431632 0.433906 0
0.472831 0.432975 0
0.514977 0.43183 0
0.558007 0.430488 0
0.601923 0.428962 0
0.646693 0.427253 0
0.692271 0.425361 0
0.738659 0.423301 0
0.785824 0.421073 0
0.833753 0.418677 0
0.882414 0.416129 0
0.931807 0.413443 0
0.981918 0.41059 0
1 0.407599 0
1 0.404456 0
1 0.40119 0
1 0.397772 0
0 0.440314 0
0 0.445472 0
0 0.451331 0
0.00735485 0.456413 0
0.0289769 0.460304 0
0.0534829 0.463478 0
0.0802472 0.466102 0
0.108949 0.468238 0
0.139361 0.469963 0
0.171328 0.471321 0
0.20473 0.472343 0
0.239445 0.473045 0
0.27541 0.473457 0
0.312535 0.47361 0
0.35079 0.473503 0
0.390097 0.473152 0
0.430426 0.472587 0
0.471717 0.471794 0
0.513954 0.470787 0
0.557092 0.469581 0
0.601114 0.468177 0
0.645975 0.46659 0
0.691661 0.464836 0
0.738155 0.462898 0
0.785428 0.460792 0
0.833448 0.458534 0
0.882216 0.456107 0
0.931716 0.453513 0
0.981918 0.450782 0
1 0.447913 0
1 0.444892 0
1 0.441733 0
1 0.438437 0
0 0.47715 0
0 0.482338 0
0 0.48835 0
0.00563058 0.493645 0
0.0271305 0.497765 0
0.0515755 0.501122 0
0.0783398 0.503914 0
0.107057 0.506218 0
0.137514 0.50811 0
0.169543 0.509621 0
0.202991 0.510781 0
0.237781 0.511635 0
0.273808 0.5122 0
0.311025 0.512489 0
0.349355 0.51252 0
0.388754 0.512322 0
0.42916 0.511879 0
0.470542 0.511208 0
0.512871 0.510338 0
0.556115 0.509255 0
0.600229 0.507988 0
0.645182 0.506539 0
0.690974 0.504891 0
0.73756 0.503075 0
0.784924 0.501091 0
0.833051 0.498955 0
0.881926 0.496635 0
0.931517 0.494179 0
0.981826 0.491554 0
1 0.488792 0
1 0.485893 0
1 0.482841 0
1 0.479652 0
0 0.514656 0
0 0.51986 0
0 0.52604 0
0.00399786 0.531518 0
0.0253147 0.535851 0
0.0496986 0.539406 0
0.0764477 0.542367 0
0.105196 0.544823 0
0.135683 0.546868 0
0.167742 0.548531 0
0.201251 0.549844 0
0.236103 0.550851 0
0.272206 0.551553 0
0.309483 0.55198 0
0.34789 0.552148 0
0.387366 0.552071 0
0.427863 0.551751 0
0.469337 0.551217 0
0.511742 0.550469 0
0.555077 0.549523 0
0.599268 0.548379 0
0.644327 0.547036 0
0.690211 0.545525 0
0.736889 0.543832 0
0.78436 0.541955 0
0.832578 0.539925 0
0.881544 0.537728 0
0.931243 0.535378 0
0.981643 0.532876 0
1 0.530221 0
1 0.527428 0
1 0.524483 0
1 0.521416 0
0 0.552804 0
0 0.558038 0
0 0.564355 0
0.00244144 0.570001 0
0.0235447 0.574548 0
0.0478676 0.578286 0
0.0745861 0.581415 0
0.103334 0.584039 0
0.133852 0.586236 0
0.165942 0.588037 0
0.199512 0.589502 0
0.234409 0.590631 0
0.270573 0.59147 0
0.307927 0.592035 0
0.34641 0.59234 0
0.385946 0.592386 0
0.42652 0.592203 0
0.468071 0.591791 0
0.510567 0.591165 0
0.553979 0.590341 0
0.598276 0.589319 0
0.643412 0.588098 0
0.689387 0.586694 0
0.736156 0.585122 0
0.783703 0.583368 0
0.832029 0.581445 0
0.881086 0.579355 0
0.930877 0.577127 0
0.981369 0.574731 0
1 0.572183 0
1 0.569497 0
1 0.566659 0
1 0.563684 0
0 0.591577 0
0 0.596841 0
0 0.603281 0
0.000976577 0.609064 0
0.0218204 0.61384 0
0.0460517 0.617761 0
0.072755 0.621042 0
0.101503 0.623819 0
0.132021 0.626169 0
0.164157 0.628122 0
0.197757 0.629725 0
0.232715 0.630991 0
0.26894 0.631968 0
0.306355 0.632654 0
0.3449 0.633082 0
0.384512 0.633265 0
0.425162 0.633204 0
0.466789 0.632914 0
0.509361 0.63241 0
0.55285 0.631693 0
0.597223 0.630793 0
0.642451 0.629694 0
0.688502 0.628397 0
0.735363 0.626932 0
0.783001 0.625299 0
0.831403 0.623484 0
0.880552 0.621515 0
0.930434 0.619379 0
0.981018 0.61709 0
1 0.614664 0
1 0.61207 0
1 0.609339 0
1 0.60647 0
0 0.630945 0
0 0.63624 0
0 0.642786 0
0 0.648676 0
0.0201572 0.653712 0
0.0442969 0.657801 0
0.0709544 0.66125 0
0.0996872 0.664179 0
0.13022 0.666667 0
0.162387 0.668757 0
0.196017 0.670497 0
0.231022 0.671901 0
0.267292 0.672999 0
0.304753 0.673823 0
0.343359 0.674372 0
0.383047 0.674662 0
0.423758 0.674723 0
0.465461 0.674556 0
0.50811 0.674174 0
0.551675 0.673579 0
0.596124 0.672786 0
0.641443 0.671794 0
0.687572 0.670619 0
0.734508 0.669276 0
0.782238 0.667735 0
0.830732 0.666041 0
0.879957 0.664164 0
0.929931 0.66215 0
0.980606 0.659968 0
1 0.657633 0
1 0.655146 0
1 0.652522 0
1 0.649744 0
0 0.670893 0
0 0.676219 0
0 0.682857 0
0 0.688777 0
0.0185397 0.694118 0
0.0425574 0.698375 0
0.0691691 0.701991 0
0.0978866 0.705074 0
0.128435 0.707698 0
0.160616 0.709926 0
0.194278 0.711803 0
0.229313 0.713329 0
0.265644 0.714565 0
0.303166 0.715511 0
0.341833 0.716182 0
0.381567 0.716594 0
0.422354 0.716777 0
0.464118 0.716731 0
0.506844 0.716457 0
0.550484 0.715984 0
0.59501 0.715297 0
0.640391 0.714412 0
0.686595 0.713344 0
0.733623 0.712108 0
0.78143 0.710674 0
0.829999 0.709087 0
0.879316 0.707317 0
0.929366 0.705394 0
0.980117 0.703319 0
1 0.701091 0
1 0.698711 0
1 0.696178 0
1 0.693507 0
0 0.711391 0
0 0.716747 0
0 0.723476 0
0 0.729473 0
0.0169985 0.735058 0
0.0408789 0.739498 0
0.0674296 0.743267 0
0.0961166 0.746487 0
0.126665 0.749264 0
0.158862 0.751629 0
0.192554 0.753628 0
0.227619 0.755291 0
0.263981 0.756634 0
0.301564 0.757702 0
0.340276 0.758495 0
0.380087 0.75903 0
0.42092 0.759335 0
0.46276 0.759396 0
0.505547 0.759243 0
0.549249 0.758862 0
0.593851 0.758297 0
0.639307 0.757519 0
0.685588 0.756558 0
0.732692 0.755428 0
0.780575 0.754101 0
0.829221 0.752605 0
0.878614 0.750957 0
0.92874 0.749126 0
0.979583 0.747143 0
1 0.745022 0
1 0.742733 0
1 0.740307 0
1 0.737728 0
0 0.752438 0
0 0.757824 0
0 0.76463 0
0 0.770718 0
0.0155032 0.776501 0
0.0392309 0.781125 0
0.0657054 0.785046 0
0.094377 0.788418 0
0.12491 0.791333 0
0.157122 0.79382 0
0.190829 0.795956 0
0.22594 0.797742 0
0.262333 0.799222 0
0.299962 0.800397 0
0.33872 0.801312 0
0.378576 0.801968 0
0.419471 0.802365 0
0.461372 0.802548 0
0.504219 0.802502 0
0.547997 0.802243 0
0.59266 0.80177 0
0.638178 0.801114 0
0.68455 0.800259 0
0.731716 0.799207 0
0.779675 0.798001 0
0.828397 0.796613 0
0.877867 0.795041 0
0.928069 0.793332 0
0.978988 0.79144 0
1 0.78941 0
1 0.787213 0
1 0.784878 0
1 0.782406 0
0 0.794018 0
0 0.799435 0
0 0.806302 0
0 0.812497 0
0.0140841 0.818448 0
0.0376287 0.823255 0
0.0640269 0.827344 0
0.0926528 0.830854 0
0.123186 0.83389 0
0.155398 0.836515 0
0.18912 0.838773 0
0.224262 0.840681 0
0.2607 0.842283 0
0.298344 0.84358 0
0.337163 0.844602 0
0.377066 0.845365 0
0.418021 0.845884 0
0.459968 0.846174 0
0.502892 0.846235 0
0.546715 0.846082 0
0.591455 0.845716 0
0.637049 0.845151 0
0.683467 0.844404 0
0.730709 0.843473 0
0.778744 0.842344 0
0.827527 0.841062 0
0.877073 0.839597 0
0.927352 0.83798 0
0.978347 0.836194 0
1 0.834257 0
1 0.832151 0
1 0.829923 0
1 0.827527 0
0 0.836103 0
0 0.84155 0
0 0.848463 0
0 0.85478 0
0.0127413 0.860883 0
0.0360876 0.865873 0
0.0623941 0.870115 0
0.0909743 0.873762 0
0.121477 0.876936 0
0.153689 0.879698 0
0.187427 0.882078 0
0.222583 0.884108 0
0.259052 0.885817 0
0.296742 0.887236 0
0.335607 0.888365 0
0.375555 0.88925 0
0.416556 0.889876 0
0.458564 0.890257 0
0.501534 0.890425 0
0.545434 0.890379 0
0.590219 0.89012 0
0.635874 0.889662 0
0.682368 0.889006 0
0.729671 0.888167 0
0.777768 0.88716 0
0.826642 0.885954 0
0.876249 0.884596 0
0.926604 0.88307 0
0.977661 0.881376 0
1 0.87953 0
1 0.877531 0
1 0.87538 0
1 0.873091 0
0 0.878691 0
0 0.884153 0
0 0.891096 0
0 0.897551 0
0.01149 0.903777 0
0.0345769 0.908965 0
0.0607767 0.913359 0
0.0893111 0.917159 0
0.119799 0.920455 0
