luts/HORROR DAY.cube
TITLE "Generated by Resolve"
LUT_3D_SIZE 9
0 0 0
0.0559396 0 0
0.1561 0 0
0.280827 0 0
0.424552 0 0
0.584222 0 0
0.757855 0 0
0.944015 0 0
1 0 0
0 0.0667735 0
0.0529183 0.0748302 0
0.159045 0.0735485 0
0.289021 0.0674754 0
0.437522 0.0578622 0
0.601617 0.0453803 0
0.779461 0.0304265 0
0.969696 0.0132448 0
1 0 0
0 0.174166 0
0.0449683 0.187549 0
0.153628 0.190768 0
0.286458 0.188617 0
0.437797 0.182528 0
0.604623 0.173281 0
0.785031 0.161334 0
0.977646 0.147005 0
1 0.130526 0
0 0.300313 0
0.0367895 0.317418 0
0.1467 0.324132 0
0.281453 0.325032 0
0.434882 0.321752 0
0.603861 0.315114 0
0.786404 0.305608 0
0.981125 0.293599 0
1 0.279316 0
0 0.440314 0
0.0289769 0.460304 0
0.139361 0.469963 0
0.27541 0.473457 0
0.430426 0.472587 0
0.601114 0.468177 0
0.785428 0.460792 0
0.981918 0.450782 0
1 0.438437 0
0 0.591577 0
0.0218204 0.61384 0
0.132021 0.626169 0
0.26894 0.631968 0
0.425162 0.633204 0
0.597223 0.630793 0
0.783001 0.625299 0
0.981018 0.61709 0
1 0.60647 0
0 0.752438 0
0.0155032 0.776501 0
0.12491 0.791333 0
0.262333 0.799222 0
0.419471 0.802365 0
0.59266 0.80177 0
0.779675 0.798001 0
0.978988 0.79144 0
1 0.782406 0
0 0.921752 0
0.0103304 0.947112 0
0.118151 0.964431 0
0.255802 0.974258 0
0.413626 0.979187 0
0.587716 0.980255 0
0.775753 0.978073 0
0.976196 0.973037 0
1 0.965469 0
0 1 0
0.00680552 1 0
0.111803 1 0
0.249439 1 0
0.407736 1 0
0.582559 1 0
0.771481 1 0
0.972885 1 0
1 1 0
0 0 0.0633555
0.0556954 0 0.0638437
0.156756 0 0.0594644
0.2822 0 0.0521553
0.426551 0 0.0425116
0.586755 0 0.0309148
0.760845 0 0.0176547
0.947372 0 0.00297551
1 0 0
0 0.0692607 0.0586709
0.0556802 0.0779889 0.065919
0.162203 0.0772869 0.0658427
0.292607 0.0717327 0.0618143
0.44152 0.0625925 0.0548714
0.606012 0.0505379 0.0455482
0.784192 0.0359655 0.0342412
0.974731 0.0191348 0.0211948
1 0.000244144 0.00669871
0 0.178531 0.0515602
0.0494087 0.192264 0.0627146
0.158389 0.195834 0.0657511
0.291569 0.194018 0.0643168
0.443229 0.188266 0.0595712
0.610391 0.179339 0.0521401
0.791135 0.167697 0.0424048
0.984039 0.153658 0.0306554
1 0.137453 0.0171206
0 0.305928 0.0446174
0.0424659 0.323293 0.0586709
0.152728 0.330205 0.0643015
0.287755 0.33135 0.065095
0.441474 0.328328 0.0623331
0.610758 0.321935 0.0566873
0.793591 0.312688 0.0485695
0.988586 0.300908 0.0382849
1 0.286854 0.0260471
0 0.446876 0.0381476
0.0356298 0.467109 0.0544289
0.146426 0.476905 0.0623484
0.28275 0.480568 0.0651102
0.438025 0.479866 0.0641337
0.608972 0.47567 0.0601205
0.793545 0.468482 0.0535286
0.990311 0.458686 0.0446479
1 0.446525 0.0337072
0 0.598901 0.0322271
0.0292363 0.621439 0.0502632
0.139971 0.633829 0.0602579
0.277165 0.63975 0.0648051
0.433646 0.641138 0.0654459
0.605951 0.63888 0.0629587
0.791959 0.633539 0.0577707
0.990219 0.625513 0.0502022
1 0.615061 0.040528
0 0.760403 0.026978
0.0234836 0.784802 0.0462959
0.133608 0.799634 0.0582284
0.271366 0.807614 0.0643931
0.428748 0.81088 0.0665446
0.602167 0.810407 0.0654459
0.789395 0.80676 0.0615854
0.988937 0.800351 0.0552682
1 0.791455 0.0467689
0 0.93022 0.022446
0.0185855 0.956085 0.0425727
0.127504 0.973297 0.0563516
0.265522 0.9832 0.0640421
0.423606 0.98822 0.0675822
0.597925 0.989395 0.0677958
0.786191 0.987305 0.0651713
0.986831 0.982391 0.0600443
1 0.974945 0.0526589
0 1 0.0188144
0.0150912 1 0.0390326
0.121736 1 0.0547494
0.259785 1 0.0638437
0.418372 1 0.0686809
0.593423 1 0.0700999
0.782559 1 0.0686503
0.984176 1 0.0646372
1 1 0.0583352
0 0 0.176211
0.0526589 0 0.178271
0.154131 0 0.174426
0.280064 0 0.167239
0.424872 0 0.157473
0.585565 0 0.14551
0.760113 0 0.131609
0.947127 0 0.115953
1 0 0.0987106
0 0.0680705 0.175113
0.0551766 0.0775464 0.183429
0.161852 0.0774701 0.183886
0.292515 0.0724498 0.180148
0.441718 0.063798 0.173281
0.606531 0.0521706 0.163912
0.785031 0.0380102 0.152377
0.975891 0.0215763 0.138964
1 0.00308232 0.123919
0 0.179202 0.169528
0.0504921 0.193378 0.181811
0.159548 0.19736 0.185473
0.292912 0.195926 0.184421
0.4448 0.190539 0.179889
0.612207 0.181949 0.172534
0.793194 0.170626 0.162768
0.986389 0.156893 0.150866
1 0.140978 0.137041
0 0.307897 0.163531
0.0447547 0.325551 0.178836
0.155093 0.332769 0.185199
0.290288 0.334203 0.186481
0.44419 0.331456 0.184024
0.613672 0.325338 0.178576
0.796735 0.316335 0.170535
0.991958 0.304814 0.16022
1 0.29102 0.147875
0 0.449882 0.157626
0.0389258 0.470314 0.175372
0.149813 0.480323 0.184131
0.286275 0.484215 0.187472
0.441718 0.483742 0.186908
0.612863 0.479759 0.183169
0.79762 0.472801 0.176745
0.994583 0.463203 0.167941
1 0.45127 0.157
0 0.602777 0.151995
0.0333715 0.625467 0.171725
0.144259 0.63801 0.182696
0.28159 0.644099 0.187915
0.438224 0.645655 0.189075
0.610697 0.643595 0.186938
0.796887 0.638437 0.181994
0.995331 0.630594 0.174609
1 0.620325 0.164996
0 0.765042 0.146715
0.028336 0.789563 0.168063
0.138705 0.804486 0.181109
0.2766 0.812589 0.188083
0.434134 0.816007 0.190829
0.607706 0.815686 0.190188
0.795102 0.812192 0.186648
0.994812 0.805936 0.180575
1 0.797192 0.172229
0 0.935576 0.141863
0.0240024 0.961563 0.164431
0.133318 0.978759 0.179507
0.271504 0.988754 0.188144
0.429725 0.993896 0.19237
0.604196 0.995178 0.193118
0.792615 0.99324 0.190906
0.993423 0.988464 0.186084
1 0.981155 0.178927
0 1 0.137423
0.0206912 1 0.16083
0.128206 1 0.177981
0.266438 1 0.188174
0.425177 1 0.19382
0.600366 1 0.19588
0.789654 1 0.194919
0.991409 1 0.191287
1 1 0.185275
0 0 0.316625
0.0480964 0 0.320058
0.149706 0 0.31693
0.275944 0 0.310155
0.421118 0 0.300587
0.582147 0 0.288701
0.757046 0 0.274769
0.944411 0 0.259007
1 0 0.24155
0 0.0648966 0.318715
0.0528725 0.0751202 0.327977
0.159533 0.0756695 0.32903
0.290349 0.0711681 0.325673
0.43978 0.062974 0.319066
0.604822 0.0517891 0.30985
0.783597 0.0380102 0.29839
0.974731 0.0219425 0.284977
1 0.00378424 0.269841
0 0.177783 0.314717
0.0496529 0.192447 0.327886
0.158648 0.196887 0.332143
0.292103 0.195834 0.331502
0.44416 0.190799 0.327276
0.611749 0.182528 0.320119
0.79295 0.171527 0.31046
0.986343 0.158083 0.298619
1 0.142458 0.28481
0 0.307744 0.30985
0.0450752 0.325734 0.32607
0.155352 0.333303 0.333059
0.290623 0.335042 0.334768
0.444648 0.332586 0.332662
0.614282 0.326726 0.327443
0.797513 0.317998 0.31957
0.992935 0.306722 0.309377
1 0.293172 0.297078
0 0.450721 0.304799
0.0402075 0.471397 0.323507
0.151064 0.481697 0.332921
0.287602 0.485832 0.336751
0.443153 0.485603 0.336553
0.61442 0.481849 0.333104
0.799329 0.475105 0.326894
0.99646 0.465736 0.318242
1 0.454002 0.307393
0 0.604456 0.299825
0.0354925 0.627344 0.320577
0.146365 0.640101 0.33225
0.283772 0.646403 0.338003
0.440513 0.648173 0.339574
0.613108 0.646296 0.337758
0.799435 0.641337 0.333089
0.998016 0.633677 0.325887
1 0.62359 0.316411
0 0.767452 0.295048
0.0311742 0.792142 0.317494
0.141588 0.807233 0.331304
0.279561 0.815518 0.338857
0.437201 0.819104 0.342061
0.61088 0.818936 0.341772
0.798413 0.815625 0.338537
0.998245 0.809537 0.332692
1 0.800961 0.324529
0 0.938643 0.290562
0.027451 0.964782 0.314336
0.136904 0.982101 0.330236
0.275181 0.992233 0.339467
0.433509 0.997528 0.344213
0.608087 0.998962 0.345373
0.796628 0.997162 0.343481
0.997559 0.992523 0.338933
1 0.985367 0.332006
0 1 0.286381
0.0245823 1 0.311147
0.132448 1 0.329122
0.270787 1 0.339986
0.429618 1 0.346181
0.604929 1 0.348699
0.794324 1 0.348104
0.996201 1 0.344778
1 1 0.339025
0 0 0.478386
0.0424353 0 0.483009
0.143954 0 0.480674
0.270375 0 0.474372
0.415793 0 0.465141
0.577111 0 0.453468
0.7523 0 0.439673
0.939941 0 0.423972
1 0 0.4065
0 0.0602121 0.483406
0.0492409 0.0711681 0.493538
0.155734 0.0723583 0.495201
0.286641 0.0683757 0.492271
0.436225 0.0606394 0.486
0.60148 0.0498512 0.477012
0.780468 0.0364538 0.465736
0.971832 0.020737 0.45243
1 0.00289921 0.437369
0 0.174807 0.480949
0.047364 0.189944 0.494926
0.156191 0.194858 0.499779
0.289677 0.194202 0.49955
0.441825 0.189517 0.495644
0.609567 0.181598 0.488731
0.790936 0.170886 0.479271
0.984512 0.157733 0.467567
1 0.142397 0.453834
0 0.305989 0.477256
0.0439002 0.324331 0.494255
0.154009 0.332265 0.501823
0.289281 0.33434 0.503975
0.443397 0.332174 0.502205
0.613138 0.326589 0.497261
0.796506 0.31812 0.489601
0.992081 0.307088 0.479561
1 0.293782 0.467384
0 0.449943 0.473136
0.0399786 0.470878 0.492622
0.150683 0.481483 0.502647
0.287221 0.485908 0.50692
0.442832 0.485924 0.507088
0.614191 0.482399 0.503929
0.799222 0.475883 0.497948
0.99649 0.466728 0.489494
1 0.455207 0.478782
0 0.604501 0.468925
0.0360876 0.627588 0.490471
0.146838 0.64062 0.50277
0.284245 0.64715 0.508995
0.441032 0.649134 0.510948
0.613718 0.647456 0.509453
0.800153 0.642695 0.505028
0.998856 0.635233 0.498039
1 0.62533 0.488746
0 0.768231 0.464775
0.0324865 0.793072 0.488045
0.142809 0.808377 0.50251
0.280797 0.816861 0.510552
0.438483 0.82063 0.514168
0.612253 0.820661 0.514214
0.799878 0.817517 0.511254
0.999817 0.811597 0.505653
1 0.803189 0.497688
0 0.940063 0.460807
0.0294041 0.966339 0.485466
0.138827 0.983825 0.502022
0.277104 0.994141 0.511788
0.435492 0.999588 0.51696
0.610147 1 0.518471
0.798779 0.999542 0.516899
0.999817 0.995056 0.512612
1 0.988052 0.505898
0 1 0.457053
0.0270542 1 0.482765
0.134997 1 0.501427
0.273365 1 0.51284
0.432258 1 0.519493
0.607645 1 0.522393
0.797131 1 0.522133
0.9991 1 0.519097
1 1 0.513573
0 0 0.658045
0.0359045 0 0.663706
0.137102 0 0.662211
0.263615 0 0.656443
0.409201 0 0.647593
0.570733 0 0.63621
0.746166 0 0.622614
0.934066 0 0.60705
1 0 0.589685
0 0.0543221 0.665827
0.0445411 0.0659648 0.676738
0.150744 0.0677958 0.679057
0.281651 0.064332 0.676585
0.431357 0.0570382 0.67068
0.59678 0.0466468 0.661982
0.775952 0.0336309 0.650919
0.967529 0.0182498 0.637812
1 0.000732433 0.622904
0 0.170535 0.664851
0.0439002 0.18616 0.679576
0.152453 0.191562 0.685008
0.285908 0.191302 0.685222
0.438117 0.186984 0.681651
0.605966 0.179385 0.675029
0.787472 0.168978 0.665797
0.981201 0.156115 0.654261
1 0.141054 0.640665
0 0.302907 0.662333
0.0415045 0.321599 0.680034
0.151339 0.329946 0.688182
0.286564 0.332341 0.690776
0.440711 0.33048 0.689342
0.610544 0.32517 0.684688
0.794018 0.31696 0.677256
0.989715 0.306188 0.667414
1 0.293111 0.65539
0 0.447837 0.659175
0.0384985 0.469032 0.679332
0.148943 0.479973 0.689937
0.28542 0.484672 0.694667
0.441062 0.484947 0.695186
0.612497 0.481666 0.692317
0.79762 0.47538 0.68658
0.994995 0.466438 0.678325
1 0.455131 0.667796
0 0.603204 0.655756
0.0354009 0.62649 0.677989
0.145922 0.639811 0.690883
0.283284 0.646586 0.697566
0.440085 0.648798 0.69987
0.612833 0.647334 0.69868
0.799344 0.642771 0.69453
0.998154 0.635493 0.687755
1 0.625788 0.678645
0 0.767636 0.652308
0.0325322 0.792645 0.676249
0.142657 0.808194 0.691325
0.280583 0.816892 0.69984
0.4383 0.820874 0.703822
0.612116 0.821088 0.704204
0.799802 0.818128 0.701518
0.999847 0.812375 0.696147
1 0.804135 0.68838
0 0.940108 0.64892
0.0300908 0.966506 0.674281
0.139345 0.984222 0.691463
0.277592 0.99472 0.701701
0.435996 1 0.707271
0.610712 1 0.709133
0.799405 1 0.707835
1 0.996307 0.703807
1 0.989456 0.697307
0 1 0.645685
0.0283055 1 0.672129
0.136141 1 0.691417
0.274495 1 0.703319
0.433402 1 0.710399
0.608835 1 0.713649
0.798383 1 0.713695
1 1 0.710918
1 1 0.705638
0 0 0.853361
0.028687 0 0.859907
0.12932 0 0.859297
0.255818 0 0.854109
0.401541 0 0.84567
0.563226 0 0.834607
0.738857 0 0.821256
0.926955 0 0.80589
1 0 0.788678
0 0.0474098 0.863813
0.0389563 0.0596628 0.875425
0.144747 0.0621347 0.878386
0.275608 0.0591897 0.876402
0.425376 0.0523384 0.870878
0.590921 0.042359 0.862501
0.77026 0.0296941 0.851713
0.962036 0.0146487 0.838819
1 0 0.82414
0 0.165179 0.86424
0.0394446 0.181247 0.879622
0.147616 0.187152 0.885649
0.28098 0.187304 0.88632
0.433219 0.183337 0.883101
0.601144 0.176059 0.876768
0.782757 0.165972 0.867781
0.976623 0.153399 0.856458
1 0.138598 0.843046
0 0.298711 0.862867
0.038056 0.317723 0.881209
0.147539 0.326497 0.889937
0.282658 0.329229 0.892958
0.43682 0.327672 0.891875
0.606699 0.322652 0.88751
0.790265 0.314702 0.880339
0.986068 0.304173 0.870695
1 0.291325 0.858854
0 0.444572 0.86067
0.035935 0.466011 0.881437
0.146044 0.477333 0.892622
0.282429 0.482322 0.89778
0.438056 0.482856 0.89865
0.609522 0.47982 0.896086
0.79472 0.473762 0.890608
0.992187 0.465049 0.882567
1 0.453941 0.872236
0 0.600748 0.858091
0.0336461 0.624216 0.880903
0.143832 0.637858 0.894377
0.281102 0.644892 0.901488
0.437888 0.647334 0.904158
0.610651 0.646097 0.903288
0.797238 0.641733 0.899382
0.996109 0.634653 0.892851
1 0.625132 0.883925
0 0.765881 0.855344
0.0314946 0.791028 0.879881
0.141299 0.806867 0.895521
0.279133 0.815793 0.904479
0.436835 0.819974 0.908843
0.610681 0.820386 0.909529
0.798428 0.817609 0.907118
0.998535 0.812039 0.901991
1 0.803983 0.894438
0 0.938994 0.852598
0.0296941 0.965484 0.878538
0.138659 0.983459 0.8963
0.276829 0.994156 0.907012
0.435218 0.999969 0.912947
0.609949 1 0.915129
0.798688 1 0.914122
0.999863 0.996445 0.910338
1 0.989746 0.904067
0 1 0.849912
0.0284886 1 0.876951
0.13608 1 0.896834
0.274357 1 0.909209
0.433265 1 0.916671
0.608713 1 0.920256
0.798306 1 0.920592
1 1 0.91809
1 1 0.913039
0 0 1
0.0209812 0 1
0.120714 0 1
0.24712 0 1
0.392905 0 1
0.554726 0 1
0.73051 0 1
0.918791 0 1
1 0 1
0 0.0395666 1
0.032639 0.052369 1
0.137865 0.0555276 1
0.26862 0.0530861 1
0.418402 0.0466773 1
0.584054 0.0370794 1
0.763546 0.0247654 1
0.955505 0.0100404 1
1 0 1
0 0.158862 1
0.0341344 0.175326 1
0.141802 0.18175 1
0.275044 0.182315 1
0.427268 0.178714 1
0.595254 0.171771 1
0.776944 0.161975 1
0.970916 0.149691 1
1 0.135164 1
0 0.293507 1
0.0337072 0.31284 1
0.142718 0.322057 1
0.277699 0.325139 1
0.43183 0.323873 1
0.60174 0.319142 1
0.785367 0.311452 1
0.981262 0.301167 1
1 0.288563 1
0 0.440299 1
0.0324559 0.461967 1
0.142107 0.473671 1
0.27834 0.478965 1
0.433936 0.479774 1
0.605432 0.476982 1
0.790677 0.471153 1
0.988205 0.462654 1
1 0.451774 1
0 0.597269 1
0.03093 0.620905 1
0.140688 0.634882 1
0.277821 0.642191 1
0.434562 0.644877 1
0.60734 0.643854 1
0.793957 0.639704 1
0.992889 0.632822 1
1 0.623499 1
0 0.763088 1
0.0294804 0.788357 1
0.138872 0.804517 1
0.276585 0.813687 1
0.434241 0.818082 1
0.608072 0.818692 1
0.795865 0.816098 1
0.996017 0.810712 1
1 0.802823 1
0 0.936812 1
0.028336 0.963394 1
0.136904 0.981659 1
0.274952 0.992584 1
0.433295 0.998581 1
0.608026 1 1
0.796796 0.999573 1
0.998016 0.995575 1
1 0.989029 1
0 1 1
0.0277562 1 1
0.134936 1 1
0.273091 1 1
0.431968 1 1
0.607416 1 1
0.79704 1 1
0.999191 1 1
1 1 1
0 0 1
0.0131838 0 1
0.111391 0 1
0.237613 0 1
0.383398 0 1
0.545312 0 1
0.721233 0 1
0.909651 0 1
1 0 1
0 0.0308843 1
0.025742 0.0441596 1
0.13022 0.0480201 1
0.260792 0.0460822 1
0.410574 0.040116 1
0.576303 0.0309148 1
0.755932 0.0189517 1
0.948074 0.00453193 1
1 0 1
0 0.151659 1
0.0281071 0.168475 1
0.135149 0.175463 1
0.268193 0.17644 1
0.420371 0.173205 1
0.588373 0.166583 1
0.770138 0.157092 1
0.964202 0.145098 1
1 0.130831 1
0 0.287404 1
0.0285649 0.307012 1
0.136995 0.316701 1
0.271809 0.320134 1
0.425864 0.319188 1
0.595789 0.314733 1
0.779446 0.307301 1
0.975418 0.297276 1
1 0.284901 1
0 0.435096 1
0.0281376 0.456992 1
0.13724 0.469093 1
0.273304 0.474708 1
0.428824 0.475776 1
0.600305 0.473243 1
0.78558 0.467643 1
0.983169 0.459373 1
1 0.448692 1
0 0.592844 1
0.0273747 0.616632 1
0.136599 0.630991 1
0.273548 0.638575 1
0.430228 0.641505 1
0.602991 0.640696 1
0.789624 0.636774 1
0.988617 0.630091 1
1 0.620951 1
0 0.759365 1
0.026627 0.784726 1
0.1355 0.801236 1
0.27303 0.810651 1
0.43061 0.815259 1
0.60444 0.816083 1
0.792233 0.813672 1
0.992432 0.808469 1
1 0.800763 1
0 0.9337 1
0.0261387 0.960342 1
0.134188 0.978927 1
0.272053 0.990066 1
0.430335 0.996277 1
0.605035 0.998596 1
0.79382 0.99762 1
0.995087 0.993805 1
1 0.987427 1
0 1 1
0.0261845 1 1
0.13283 1 1
0.270817 1 1
0.429618 1 1
0.605051 1 1
0.794675 1 1
0.996872 1 1
1 1 1
