luts/HORROR DAY.cube
TITLE "Generated by Resolve"
LUT_3D_SIZE 5
0 0 0
0.1561 0 0
0.424552 0 0
0.757855 0 0
1 0 0
0 0.174166 0
0.153628 0.190768 0
0.437797 0.182528 0
0.785031 0.161334 0
1 0.130526 0
0 0.440314 0
0.139361 0.469963 0
0.430426 0.472587 0
0.785428 0.460792 0
1 0.438437 0
0 0.752438 0
0.12491 0.791333 0
0.419471 0.802365 0
0.779675 0.798001 0
1 0.782406 0
0 1 0
0.111803 1 0
0.407736 1 0
0.771481 1 0
1 1 0
0 0 0.176211
0.154131 0 0.174426
0.424872 0 0.157473
0.760113 0 0.131609
1 0 0.0987106
0 0.179202 0.169528
0.159548 0.19736 0.185473
0.4448 0.190539 0.179889
0.793194 0.170626 0.162768
1 0.140978 0.137041
0 0.449882 0.157626
0.149813 0.480323 0.184131
0.441718 0.483742 0.186908
0.79762 0.472801 0.176745
1 0.45127 0.157
0 0.765042 0.146715
0.138705 0.804486 0.181109
0.434134 0.816007 0.190829
0.795102 0.812192 0.186648
1 0.797192 0.172229
0 1 0.137423
0.128206 1 0.177981
0.425177 1 0.19382
0.789654 1 0.194919
1 1 0.185275
0 0 0.478386
0.143954 0 0.480674
0.415793 0 0.465141
0.7523 0 0.439673
1 0 0.4065
0 0.174807 0.480949
0.156191 0.194858 0.499779
0.441825 0.189517 0.495644
0.790936 0.170886 0.479271
1 0.142397 0.453834
0 0.449943 0.473136
0.150683 0.481483 0.502647
0.442832 0.485924 0.507088
0.799222 0.475883 0.497948
1 0.455207 0.478782
0 0.768231 0.464775
0.142809 0.808377 0.50251
0.438483 0.82063 0.514168
0.799878 0.817517 0.511254
1 0.803189 0.497688
0 1 0.457053
0.134997 1 0.501427
0.432258 1 0.519493
0.797131 1 0.522133
1 1 0.513573
0 0 0.853361
0.12932 0 0.859297
0.401541 0 0.84567
0.738857 0 0.821256
1 0 0.788678
0 0.165179 0.86424
0.147616 0.187152 0.885649
0.433219 0.183337 0.883101
0.782757 0.165972 0.867781
1 0.138598 0.843046
0 0.444572 0.86067
0.146044 0.477333 0.892622
0.438056 0.482856 0.89865
0.79472 0.473762 0.890608
1 0.453941 0.872236
0 0.765881 0.855344
0.141299 0.806867 0.895521
0.436835 0.819974 0.908843
0.798428 0.817609 0.907118
1 0.803983 0.894438
0 1 0.849912
0.13608 1 0.896834
0.433265 1 0.916671
0.798306 1 0.920592
1 1 0.913039
0 0 1
0.111391 0 1
0.383398 0 1
0.721233 0 1
1 0 1
0 0.151659 1
0.135149 0.175463 1
0.420371 0.173205 1
0.770138 0.157092 1
1 0.130831 1
0 0.435096 1
0.13724 0.469093 1
0.428824 0.475776 1
0.78558 0.467643 1
1 0.448692 1
0 0.759365 1
0.1355 0.801236 1
0.43061 0.815259 1
0.792233 0.813672 1
1 0.800763 1
0 1 1
0.13283 1 1
0.429618 1 1
0.794675 1 1
1 1 1
