luts/Hydracore.cube
TITLE "Generated by Resolve"
LUT_3D_SIZE 5
0 0 0.013901
0.310048 0 0.000427253
0.852735 0 0.0138705
1 0 0.0280308
1 0 0.0280308
0 0.210742 0.0160067
0.16022 0.16585 0.00848402
0.752575 0.0849165 0.012665
1 0.0121157 0.0294194
1 0.0047303 0.0285801
0 0.618936 0.0358129
0 0.609079 0.0348516
0.569741 0.537301 0.00889601
1 0.482811 0.0180819
1 0.477226 0.0184024
0 1 0.0673381
0 1 0.0673686
0.352667 0.985153 0.0356603
0.964233 0.909453 0.0135805
1 0.898589 0.0123445
0 1 0.0673686
0 1 0.0673686
0.282506 1 0.0411078
0.888014 0.999664 0.0142214
1 0.997589 0.0121614
0 0 0.332158
0.29308 0 0.281346
0.840726 0 0.205951
1 0 0.116808
1 0 0.0789349
0 0.196674 0.209888
0.146487 0.154253 0.172671
0.743404 0.0747082 0.105821
1 0.00888075 0.0447547
1 0.00294499 0.0336309
0 0.611337 0.0350652
0 0.603876 0.0343328
0.566308 0.534035 0.00885023
1 0.479637 0.018265
1 0.474052 0.0185855
0 1 0.0673228
0 1 0.0673533
0.348287 0.984512 0.0359808
0.961166 0.906584 0.013611
1 0.892073 0.0123598
0 1 0.0673686
0 1 0.0673686
0.266102 1 0.0424048
0.874098 0.999817 0.0144198
1 0.997589 0.0121614
0 0 0.817304
0.260502 0 0.776974
0.821118 0 0.724102
1 0 0.663401
1 0 0.631891
0 0.169818 0.725216
0.117983 0.130938 0.695415
0.726345 0.051606 0.64184
1 0 0.596139
1 0 0.582605
0 0.592035 0.557778
0 0.586892 0.553063
0.547524 0.516381 0.487053
1 0.46006 0.43772
1 0.454429 0.432746
0 1 0.387045
0 1 0.383459
0.321996 0.96733 0.310719
0.939315 0.886091 0.219623
1 0.867918 0.195956
0 1 0.354635
0 1 0.335241
0.226596 1 0.240543
0.84361 0.999542 0.111894
1 0.997223 0.0667582
0 0 0.942229
0.212284 0 0.933532
0.792767 0 0.940932
1 0.00164797 0.959548
1 0.00164797 0.959548
0 0.132433 0.946777
0.0789044 0.0988327 0.941802
0.70399 0.0224613 0.938399
1 0.00164797 0.959548
1 0.00164797 0.959548
0 0.57232 0.955428
0 0.568689 0.955261
0.527428 0.498116 0.929335
1 0.439399 0.937026
1 0.433906 0.937591
0 0.997284 0.93492
0 0.998001 0.938781
0.288289 0.946273 0.878569
0.9093 0.85803 0.79675
1 0.835416 0.776089
0 1 0.917845
0 1 0.900832
0.17641 1 0.822583
0.802853 0.996765 0.706401
1 0.993912 0.668009
0 0 0.942229
0.187808 0 0.934203
0.775616 0 0.939956
1 0.00164797 0.959548
1 0.00164797 0.959548
0 0.114748 0.946487
0.0623636 0.0848249 0.941848
0.692561 0.0136721 0.937407
1 0.00164797 0.959548
1 0.00164797 0.959548
0 0.564797 0.955077
0 0.562524 0.954971
0.522332 0.493355 0.929564
1 0.433783 0.937606
1 0.429282 0.938064
0 0.99707 0.974914
0 0.997726 0.974929
0.280079 0.94255 0.94815
0.90135 0.85066 0.920821
1 0.824399 0.9187
0 1 0.974792
0 1 0.974792
0.15523 1 0.958389
0.787747 0.998779 0.922286
1 0.995819 0.919326
