luts/Hydracore.cube
TITLE "Generated by Resolve"
LUT_3D_SIZE 33
0 0 0.013901
0 0 0.013901
0.000900282 0 0.0109712
0.0240024 0 0.00894179
0.0773785 0 0.00720226
0.132052 0 0.00529488
0.188449 0 0.0034638
0.2477 0 0.00163272
0.310048 0 0.000427253
0.375677 0 0
0.44387 0 0
0.512367 0 0
0.581445 0 0.000396735
0.650538 0 0.00263981
0.72018 0 0.00611887
0.786587 0 0.00975052
0.852735 0 0.0138705
0.919509 0 0.0182193
0.98555 0 0.0224308
1 0 0.026978
1 0 0.0280308
1 0 0.0280308
1 0 0.0280308
1 0 0.0280308
1 0 0.0280308
1 0 0.0280308
1 0 0.0280308
1 0 0.0280308
1 0 0.0280308
1 0 0.0280308
1 0 0.0280308
1 0 0.0280308
1 0 0.0280308
0 0 0.013901
0 0 0.013901
0 0 0.0119631
0.00485237 0 0.00950637
0.0584878 0 0.0078584
0.112947 0 0.00596628
0.169482 0 0.00407416
0.228885 0 0.00218204
0.291463 0 0.000717174
0.357488 0 0
0.42652 0 0
0.496132 0 0
0.566171 0 6.10361e-05
0.63595 0 0.00207523
0.706004 0 0.00540169
0.772992 0 0.0089723
0.838926 0 0.0129702
0.905684 0 0.0173495
0.975006 0 0.021622
1 0 0.0260929
1 0 0.0280308
1 0 0.0280308
1 0 0.0280308
1 0 0.0280308
1 0 0.0280308
1 0 0.0280308
1 0 0.0280308
1 0 0.0280308
1 0 0.0280308
1 0 0.0280308
1 0 0.0280308
1 0 0.0280308
1 0 0.0280308
0 0.00047303 0.0140383
0 0.000366217 0.0140078
0 0.000167849 0.0131991
0.00257877 0 0.0104982
0.0400702 0 0.00854505
0.0946517 0 0.00660716
0.151339 0 0.00466926
0.210681 0 0.00274662
0.27364 0 0.00105287
0.340368 0 0
0.410025 0 0
0.480186 0 0
0.551217 0 0
0.621836 0 0.00157168
0.69247 0 0.00469978
0.759731 0 0.00820935
0.82623 0 0.0121462
0.893324 0 0.0165713
0.962692 0 0.0208743
1 0 0.0252384
1 0 0.0280308
1 0 0.0280308
1 0 0.0280308
1 0 0.0280308
1 0 0.0280308
1 0 0.0280308
1 0 0.0280308
1 0 0.0280308
1 0 0.0280308
1 0 0.0280308
1 0 0.0280308
1 0 0.0280308
1 0 0.0280308
0 0.0209506 0.0145418
0 0.0159152 0.0144503
0 0.0111543 0.0143435
0.000823987 0.00541695 0.0120851
0.0227359 0.000656138 0.0100557
0.0773632 0 0.0080415
0.134066 0 0.00595102
0.193683 0 0.00396735
0.256794 0 0.00187686
0.323491 0 0.000350958
0.393713 0 0
0.464744 0 0
0.536736 0 0
0.608164 0 0.00111391
0.679118 0 0.0039826
0.74696 0 0.0075227
0.813794 0 0.0113832
0.881285 0 0.0157931
0.950744 0 0.0201419
1 0 0.0244144
1 0 0.0280308
1 0 0.0280308
1 0 0.0280308
1 0 0.0280308
1 0 0.0280308
1 0 0.0280308
1 0 0.0280308
1 0 0.0280308
1 0 0.0280308
1 0 0.0280308
1 0 0.0280308
1 0 0.0280308
1 0 0.0280308
0 0.0560769 0.0150607
0 0.0510109 0.0150149
0 0.0462196 0.0149691
0 0.0402991 0.0136416
0.00576791 0.0332036 0.0113222
0.0596475 0.0269627 0.00935378
0.116762 0.0208133 0.00740063
0.176699 0.0148013 0.00553903
0.24036 0.00859083 0.00366217
0.307652 0.00241093 0.00181582
0.378729 0 0.000335698
0.450324 0 0.000122072
0.522591 0 0.000167849
0.594568 0 0.000686656
0.666026 0 0.00328069
0.734432 0 0.0068513
0.801617 0 0.0106508
0.869337 0 0.0149844
0.939071 0 0.0194247
0.998657 0 0.0236362
1 0 0.0280308
1 0 0.0280308
1 0 0.0280308
1 0 0.0280308
1 0 0.0280308
1 0 0.0280308
1 0 0.0280308
1 0 0.0280308
1 0 0.0280308
1 0 0.0280308
1 0 0.0280308
1 0 0.0280308
1 0 0.0280308
0 0.092195 0.0152743
0 0.087068 0.015259
0 0.0823835 0.0152438
0 0.0772412 0.014786
0.00329595 0.0703593 0.0125429
0.0410315 0.0633097 0.0105135
0.0984512 0.0560311 0.00869764
0.158907 0.0482948 0.00698863
0.22295 0.0395209 0.00511177
0.291081 0.0295262 0.00329595
0.362875 0.0208591 0.00173953
0.435828 0.0137484 0.000976577
0.509087 0.00619516 0.0009308
0.581933 0 0.00184634
0.653849 0 0.00384527
0.721889 0 0.00650034
0.789166 0 0.0099031
0.857374 0 0.0141756
0.927535 0 0.0187076
0.99144 0 0.0229648
1 0 0.027863
1 0 0.0280308
1 0 0.0280308
1 0 0.0280308
1 0 0.0280308
1 0 0.0280308
1 0 0.0280308
1 0 0.0280308
1 0 0.0280308
1 0 0.0280308
1 0 0.0280308
1 0 0.0280308
1 0 0.0280308
0 0.129686 0.0153658
0 0.124666 0.0153506
0 0.120089 0.0153353
0 0.115511 0.0153353
0.00015259 0.109148 0.0135195
0.0207828 0.102327 0.0115358
0.0787213 0.0954299 0.00988785
0.139666 0.0877241 0.00817884
0.204166 0.0790265 0.00634775
0.273228 0.0693675 0.00457771
0.346044 0.0589151 0.00326543
0.420172 0.0480659 0.00230411
0.494575 0.0367132 0.00215152
0.568841 0.0254673 0.0030518
0.641672 0.0180056 0.00518807
0.710445 0.00856031 0.00782788
0.778042 0 0.0109102
0.846159 0.00112917 0.0144961
0.915938 0.0010071 0.0182803
0.983978 0 0.0222934
1 0 0.0271458
1 0 0.0280308
1 0 0.0280308
1 0 0.0280308
1 0 0.0280308
1 0 0.0280308
1 0 0.0280308
1 0 0.0280308
1 0 0.0280308
1 0 0.0280308
1 0 0.0280308
1 0 0.0280308
1 0 0.0280308
0 0.168933 0.0155337
0 0.164172 0.0155032
0 0.159716 0.0154726
0 0.155413 0.0154421
0 0.150286 0.0146029
0.00553903 0.143526 0.0125582
0.0569619 0.136873 0.0109102
0.118212 0.129397 0.00918593
0.183261 0.121111 0.00738537
0.253361 0.111543 0.00563058
0.327016 0.101427 0.00434882
0.402228 0.0906081 0.00331121
0.478111 0.0794537 0.00311284
0.554025 0.0683452 0.0041352
0.628214 0.0576638 0.00616464
0.697627 0.0476387 0.0087892
0.766247 0.0378271 0.0120394
0.835203 0.0286412 0.0158694
0.905577 0.0195163 0.0197299
0.976028 0.0106203 0.0235294
1 0.00982681 0.0276951
1 0.0047303 0.0285801
1 0 0.0280308
1 0 0.0280308
1 0 0.0280308
1 0 0.0280308
1 0 0.0280308
1 0 0.0280308
1 0 0.0280308
1 0 0.0280308
1 0 0.0280308
1 0 0.0280308
1 0 0.0280308
0 0.210742 0.0160067
0 0.206088 0.0159304
0 0.201892 0.0158694
0 0.197848 0.0158083
0 0.193652 0.0157473
0.0016022 0.187579 0.013962
0.0327153 0.18088 0.0119936
0.094377 0.173831 0.0102541
0.16022 0.16585 0.00848402
0.230961 0.156771 0.00675975
0.305776 0.146853 0.00526436
0.382132 0.136217 0.0040589
0.459648 0.125353 0.00381476
0.537057 0.114519 0.00462348
0.612451 0.104067 0.00654612
0.682841 0.0941176 0.00917067
0.752575 0.0849165 0.012665
0.822461 0.0758679 0.0166018
0.893339 0.0671855 0.0205692
0.96466 0.0590524 0.0247807
1 0.0505379 0.0290074
1 0.0396277 0.0308232
1 0.0270085 0.0303349
1 0.0162051 0.0298924
1 0.0121157 0.0294194
1 0.00900282 0.0290684
1 0.00680552 0.028809
1 0.00550851 0.0286717
1 0.00479133 0.0285801
1 0.00453193 0.0285496
1 0.00453193 0.0285496
1 0.00466926 0.0285649
1 0.0047303 0.0285801
0 0.254978 0.0165866
0 0.250797 0.0165408
0 0.246921 0.016495
0 0.243336 0.0164492
0 0.239612 0.0164034
0 0.234699 0.0154726
0.00735485 0.228244 0.0132753
0.067689 0.221561 0.0114595
0.134249 0.214023 0.00968948
0.205676 0.20557 0.00802625
0.281468 0.195834 0.00627146
0.359106 0.185473 0.00491341
0.438254 0.174823 0.00445563
0.517113 0.164187 0.00488289
0.59411 0.153811 0.00646983
0.665782 0.144442 0.00918593
0.736202 0.135363 0.0124971
0.806943 0.126665 0.0163119
0.878798 0.118502 0.0206912
0.950515 0.110613 0.0249332
1 0.102419 0.0291447
1 0.0928969 0.0321965
1 0.0808576 0.0319524
1 0.0701457 0.0317235
1 0.0613413 0.0315251
1 0.0548867 0.0313878
1 0.0504921 0.0312352
1 0.0481422 0.0311437
1 0.0471046 0.0310979
1 0.0471046 0.0310979
1 0.0476997 0.0311284
1 0.0484321 0.0311589
1 0.0491646 0.0311894
0 0.302205 0.0173342
0 0.298482 0.0172732
0 0.295048 0.0172122
0 0.291783 0.0171664
0 0.288502 0.0171054
0 0.285069 0.0170443
0.00180056 0.279271 0.0150759
0.038056 0.272862 0.0130465
0.105379 0.265919 0.011368
0.177325 0.257633 0.0093843
0.254292 0.24828 0.00740063
0.333288 0.238422 0.00593576
0.41384 0.227985 0.005066
0.494408 0.21735 0.00503548
0.573266 0.207263 0.00631724
0.64596 0.198154 0.00872816
0.717159 0.189395 0.01178
0.78883 0.180972 0.0154574
0.861189 0.17322 0.0198215
0.93341 0.165896 0.0240024
0.99675 0.157977 0.0281834
1 0.150134 0.0324254
1 0.13875 0.0325322
1 0.128511 0.0326085
1 0.120394 0.032517
1 0.114473 0.0324407
1 0.110628 0.0324102
1 0.108721 0.0323796
1 0.108125 0.0323796
1 0.108721 0.0323796
1 0.109606 0.0323949
1 0.110628 0.0324102
1 0.111818 0.0324102
0 0.351705 0.0184482
0 0.34844 0.0183261
0 0.345464 0.0182193
0 0.342657 0.0181125
0 0.339834 0.0180362
0 0.336706 0.0179751
0 0.332677 0.0173037
0.00877394 0.326467 0.0150149
0.0739147 0.319844 0.0130922
0.14667 0.311879 0.0109712
0.224567 0.302937 0.00888075
0.304814 0.293385 0.00721752
0.386923 0.283146 0.00575265
0.469123 0.272725 0.00529488
0.549767 0.262852 0.00610361
0.62385 0.253925 0.00802625
0.696025 0.245396 0.0106966
0.768887 0.237675 0.0143282
0.841428 0.230335 0.0183261
0.913832 0.223392 0.0223087
0.987381 0.216266 0.0267033
1 0.208972 0.03093
1 0.198779 0.0316625
1 0.18938 0.0318456
1 0.181704 0.0319982
1 0.176349 0.0320897
1 0.172869 0.032166
1 0.171283 0.0321965
1 0.170993 0.0321965
1 0.17171 0.0321813
1 0.172732 0.032166
1 0.173877 0.0321355
1 0.175036 0.0321202
0 0.403464 0.0204623
0 0.400687 0.0203403
0 0.398047 0.0202335
0 0.395697 0.0201419
0 0.393362 0.0200351
0 0.39086 0.0199435
0 0.38793 0.0198215
0.000869764 0.382681 0.0179446
0.0402838 0.375814 0.0154269
0.113451 0.368521 0.0131075
0.192203 0.360189 0.0109407
0.273838 0.350607 0.00862135
0.357092 0.340536 0.00669871
0.44126 0.330358 0.00567636
0.523705 0.320516 0.00587472
0.599329 0.311543 0.0071107
0.672892 0.303593 0.00952163
0.746395 0.295949 0.0127108
0.819486 0.288975 0.0162661
0.892348 0.28246 0.0201267
0.968765 0.275654 0.0241855
1 0.268544 0.0280766
1 0.259983 0.0298466
1 0.250996 0.0301366
1 0.243992 0.0303655
1 0.238849 0.0305333
1 0.235691 0.0306249
1 0.234257 0.0306706
1 0.234257 0.0306706
1 0.234974 0.0306401
1 0.236118 0.0306096
1 0.237263 0.0305791
1 0.23856 0.0305333
0 0.456977 0.0230259
0 0.454551 0.0228733
0 0.452537 0.0227665
0 0.45066 0.0226749
0 0.448631 0.0225834
0 0.446601 0.0224765
0 0.444144 0.0223545
0 0.440803 0.0218967
0.0106203 0.434241 0.0189364
0.0787976 0.427222 0.0164492
0.158282 0.419074 0.0138094
0.240711 0.409812 0.011017
0.325475 0.399924 0.00863661
0.411368 0.389761 0.00689708
0.495644 0.379843 0.00611887
0.573007 0.371054 0.0065919
0.647578 0.363058 0.00836194
0.721782 0.355642 0.0108034
0.795361 0.348882 0.0139162
0.868498 0.342718 0.0174716
0.944625 0.335927 0.0209812
1 0.329015 0.0245975
1 0.321706 0.0272221
1 0.313436 0.0277104
1 0.306706 0.0280156
1 0.301946 0.0282139
1 0.299001 0.0283513
1 0.297734 0.028397
1 0.297734 0.028397
1 0.298573 0.0283665
1 0.299702 0.0283207
1 0.300816 0.0282597
1 0.301946 0.0282139
0 0.511528 0.0264744
0 0.50956 0.0263371
0 0.508003 0.0262303
0 0.5066 0.0261234
0 0.505043 0.0260166
0 0.503487 0.0259098
0 0.501518 0.0257725
0 0.498985 0.0255894
0 0.494133 0.023743
0.043534 0.487312 0.0207523
0.123415 0.479271 0.0176242
0.206744 0.470207 0.0144808
0.292775 0.460533 0.0115206
0.380209 0.450278 0.00894179
0.466117 0.440238 0.00721752
0.54551 0.431373 0.00698863
0.62118 0.423209 0.00776684
0.696162 0.415717 0.00949111
0.770443 0.409094 0.0120851
0.843305 0.402762 0.0148318
0.919188 0.396109 0.0178683
0.991394 0.389197 0.0209506
1 0.382864 0.023743
1 0.374884 0.0241855
1 0.368643 0.0245365
1 0.364172 0.0247807
1 0.361471 0.0249332
1 0.360113 0.0250095
1 0.359716 0.0250248
1 0.359976 0.0250095
1 0.3608 0.0249638
1 0.361471 0.0249332
1 0.362142 0.0248875
0 0.5664 0.030869
0 0.56463 0.0307164
0 0.563409 0.0306096
0 0.562188 0.0304875
0 0.560937 0.0303807
0 0.559548 0.0302739
0 0.55787 0.0301366
0 0.555642 0.0299382
0 0.552712 0.0296941
0.015259 0.545373 0.0259556
0.0903334 0.537194 0.0223697
0.174456 0.528542 0.0188296
0.261463 0.518807 0.0152438
0.349844 0.508278 0.0118105
0.437537 0.498116 0.0093843
0.518349 0.488823 0.00808728
0.595422 0.480491 0.00788891
0.671336 0.473136 0.00895705
0.745861 0.466102 0.0106508
0.818723 0.459602 0.0127565
0.894499 0.453208 0.0153658
0.971099 0.44622 0.0177005
1 0.439536 0.0199588
1 0.432517 0.0209201
1 0.426505 0.0212406
1 0.422202 0.0214694
1 0.419333 0.021622
1 0.418021 0.0216983
1 0.417762 0.0217136
1 0.418143 0.0216831
1 0.418936 0.0216526
1 0.419593 0.0216068
1 0.420233 0.0215763
0 0.618936 0.0358129
0 0.617594 0.0356909
0 0.6168 0.0356146
0 0.616129 0.0355383
0 0.615335 0.035462
0 0.614542 0.0353857
0 0.613336 0.0352636
0 0.611475 0.0350805
0 0.609079 0.0348516
0 0.6038 0.032578
0.0586252 0.595529 0.028275
0.143267 0.586908 0.0243381
0.230671 0.576898 0.0200046
0.319814 0.566247 0.0158999
0.408957 0.55581 0.0124971
0.491188 0.546105 0.010071
0.569741 0.537301 0.00889601
0.646326 0.529427 0.00909438
0.721187 0.521996 0.00987259
0.794522 0.515663 0.0114595
0.869688 0.508873 0.0131838
0.945632 0.501686 0.0149233
1 0.495003 0.0166323
1 0.488548 0.0177615
1 0.482811 0.0180819
1 0.47863 0.0183261
1 0.475959 0.0184787
1 0.474556 0.018555
1 0.474311 0.0185702
1 0.474815 0.0185397
1 0.475578 0.0185092
1 0.476463 0.0184482
1 0.477226 0.0184024
0 0.671519 0.0413062
0 0.670741 0.0412146
0 0.670359 0.0411688
0 0.6701 0.0411383
0 0.669841 0.0411078
0 0.669459 0.0410773
0 0.668818 0.041001
0 0.667643 0.0408637
0 0.665843 0.0406653
0 0.662943 0.0403143
0.0287785 0.654734 0.0355077
0.112795 0.645777 0.0308843
0.200336 0.635843 0.0259861
0.29044 0.625177 0.0213016
0.380163 0.614115 0.0168002
0.463874 0.60383 0.0133974
0.543816 0.594583 0.0112459
0.621225 0.58613 0.0102235
0.696666 0.578454 0.0101167
0.769985 0.571649 0.0108186
0.844846 0.564508 0.0118105
0.920195 0.557382 0.0129702
0.993378 0.550423 0.0139162
1 0.544213 0.0148013
1 0.538628 0.0150912
1 0.534737 0.0153048
1 0.532296 0.0154269
1 0.531197 0.0154879
1 0.531075 0.0154879
1 0.531563 0.0154574
1 0.532296 0.0154269
1 0.533028 0.0153811
1 0.533761 0.0153506
0 0.725521 0.0471351
0 0.725383 0.0471199
0 0.725521 0.0471351
0 0.725887 0.0471809
0 0.726146 0.0471962
0 0.726146 0.0471962
0 0.725887 0.0471809
0 0.725017 0.0470893
0 0.723507 0.0469215
0 0.721111 0.0466773
0.00404364 0.714778 0.0433814
0.0834363 0.705257 0.0379034
0.171023 0.695354 0.0326238
0.261158 0.68423 0.0271153
0.351614 0.672694 0.0218204
0.436774 0.661891 0.0175479
0.517754 0.651926 0.0143587
0.596292 0.642847 0.0122835
0.672663 0.634821 0.01149
0.745983 0.627314 0.0112306
0.820798 0.620081 0.0116274
0.895659 0.61268 0.0122072
0.969024 0.605386 0.0125429
1 0.599054 0.013077
1 0.59379 0.0133211
1 0.589929 0.0134279
1 0.587472 0.013489
1 0.586419 0.0135195
1 0.586175 0.0135195
1 0.586648 0.0135042
1 0.587579 0.013489
1 0.588525 0.0134585
1 0.589578 0.0134432
0 0.779522 0.0523232
0 0.779767 0.0523537
0 0.780255 0.0523995
0 0.780972 0.0524605
0 0.781582 0.0525216
0 0.781949 0.0525521
0 0.782071 0.0525673
0 0.781582 0.0525216
0 0.780377 0.0524147
0 0.778317 0.0522164
0 0.774273 0.0510109
0.0551766 0.764569 0.0449073
0.142519 0.754299 0.0391241
0.232609 0.742748 0.0329442
0.323766 0.730907 0.0271458
0.409506 0.719417 0.0220035
0.491753 0.708721 0.0178988
0.572091 0.69894 0.0150454
0.649027 0.690105 0.0132906
0.722728 0.682185 0.0123598
0.797803 0.674617 0.0122072
0.872084 0.666911 0.0121614
0.944854 0.659388 0.012192
0.999863 0.652644 0.012192
1 0.647257 0.0122225
1 0.643519 0.0122683
1 0.64126 0.0122988
1 0.64036 0.012314
1 0.640574 0.012314
1 0.641489 0.0122988
1 0.642725 0.0122835
1 0.644083 0.0122683
1 0.645335 0.0122377
0 0.834348 0.0572519
0 0.834928 0.0572976
0 0.835752 0.0573739
0 0.83682 0.0574655
0 0.837751 0.0575418
0 0.838575 0.0576181
0 0.838926 0.0576486
0 0.838804 0.0576333
0 0.83798 0.057557
0 0.836225 0.0574044
0 0.833402 0.0571603
0.0244297 0.824933 0.0522316
0.111818 0.81413 0.045716
0.201877 0.802411 0.0391699
0.293446 0.789929 0.032639
0.37969 0.77789 0.0267796
0.463416 0.766613 0.0218662
0.545113 0.755947 0.0180362
0.623087 0.746334 0.0153964
0.697749 0.738018 0.0139925
0.772824 0.729778 0.013077
0.846754 0.721599 0.0125887
0.919234 0.714 0.0124666
0.98854 0.707027 0.0119783
1 0.701671 0.0117494
1 0.698207 0.0117494
1 0.696208 0.0117494
1 0.695644 0.0117647
1 0.695979 0.0117494
1 0.696986 0.0117494
1 0.698207 0.0117494
1 0.699428 0.0117494
1 0.700648 0.0117342
0 0.890272 0.0614786
0 0.891188 0.0615244
0 0.892317 0.0616007
0 0.893568 0.061677
0 0.894697 0.0617533
0 0.895506 0.061799
0 0.895949 0.0618296
0 0.895949 0.0618296
0 0.895048 0.0617685
0 0.893339 0.0616617
0 0.890623 0.0614939
0.00450141 0.884764 0.059144
0.0797131 0.873213 0.051957
0.169741 0.861204 0.045182
0.261097 0.848234 0.0380865
0.348241 0.835676 0.0317082
0.433188 0.823575 0.0261082
0.516213 0.811994 0.0213626
0.595819 0.801709 0.0180514
0.67126 0.792706 0.0159304
0.747082 0.784054 0.0144503
0.821637 0.775982 0.0137179
0.893797 0.768292 0.0130617
0.962844 0.761486 0.0124208
0.999985 0.756252 0.0119326
1 0.75259 0.0116274
1 0.750759 0.0116274
1 0.750103 0.0116274
1 0.750423 0.0116274
1 0.751293 0.0116274
1 0.752377 0.0116274
1 0.75346 0.0116274
1 0.754437 0.0116426
0 0.945281 0.0645914
0 0.946288 0.0646372
0 0.947417 0.0646983
0 0.94876 0.0647593
0 0.949889 0.0648203
0 0.95079 0.0648661
0 0.951232 0.0648814
0 0.951125 0.0648814
0 0.950225 0.0648356
0 0.948425 0.064744
0 0.945617 0.0646067
0 0.941909 0.0644236
0.0479591 0.930739 0.0577249
0.137606 0.918105 0.0504158
0.229068 0.904707 0.043061
0.316793 0.891722 0.036347
0.402914 0.87895 0.0300603
0.487633 0.866865 0.0246738
0.569329 0.856062 0.0206607
0.64622 0.846632 0.0178225
0.723095 0.837827 0.0160525
0.798123 0.829465 0.0148165
0.870329 0.821744 0.0139315
0.939193 0.815015 0.0132753
0.999924 0.809415 0.0123751
1 0.805524 0.0117952
1 0.803586 0.0117952
1 0.802838 0.01178
1 0.802945 0.01178
1 0.803586 0.0117952
1 0.80444 0.0117952
1 0.805097 0.0117952
1 0.805737 0.0117952
0 0.996933 0.0666056
0 0.997055 0.0666361
0 0.997192 0.0666514
0 0.997345 0.0666819
0 0.997482 0.0667124
0 0.997559 0.0667277
0 0.997604 0.0667277
0 0.997574 0.0667277
0 0.997482 0.0667124
0 0.997253 0.0666667
0 0.996918 0.0666056
0 0.994614 0.0665141
0.0177615 0.985687 0.0621805
0.108171 0.972641 0.05449
0.200031 0.959243 0.0471046
0.288334 0.945968 0.0399329
0.375296 0.933013 0.0332952
0.462028 0.920577 0.0274815
0.545495 0.909117 0.0227665
0.623941 0.899382 0.0195468
0.701839 0.89015 0.0173648
0.777264 0.881346 0.0157778
0.849683 0.873487 0.0148318
0.918242 0.86659 0.0139773
0.98175 0.860746 0.0130159
1 0.856672 0.0124666
1 0.854307 0.0122072
1 0.853346 0.0122072
1 0.853132 0.0122072
1 0.853346 0.0122072
1 0.853773 0.0122072
1 0.854093 0.0122072
1 0.8542 0.0122072
0 1 0.0673381
0 1 0.0673533
0 1 0.0673533
0 1 0.0673686
0 1 0.0673686
0 1 0.0673686
0 1 0.0673686
0 1 0.0673686
0 1 0.0673686
0 1 0.0673533
0 1 0.0673381
0 1 0.0673075
0.00695811 1 0.0652476
0.0851301 1 0.0573739
0.176806 1 0.0496986
0.264973 0.997559 0.0424506
0.352667 0.985153 0.0356603
0.440986 0.972015 0.0292821
0.52575 0.960113 0.0241703
0.605676 0.94992 0.0206302
0.684276 0.940002 0.0180056
0.76025 0.930953 0.0163424
0.8327 0.922728 0.0153048
0.900984 0.915343 0.0143435
0.964233 0.909453 0.0135805
1 0.90483 0.0128176
1 0.901793 0.0123293
1 0.900404 0.0123445
1 0.899763 0.0123445
1 0.899443 0.0123445
1 0.899336 0.0123445
1 0.899123 0.0123445
1 0.898589 0.0123445
0 1 0.0673686
0 1 0.0673686
0 1 0.0673686
0 1 0.0673686
0 1 0.0673686
0 1 0.0673686
0 1 0.0673686
0 1 0.0673686
0 1 0.0673686
0 1 0.0673686
0 1 0.0673686
0 1 0.0673686
0.00172427 1 0.066865
0.068452 1 0.0588846
0.15906 1 0.0512245
0.247303 1 0.0439155
0.335485 1 0.0369268
0.424811 1 0.0302281
0.510826 0.998795 0.0249332
0.591791 0.993118 0.0209201
0.67097 0.985626 0.0182345
0.747173 0.977371 0.0165408
0.819455 0.968811 0.0153201
0.88751 0.961105 0.0145113
0.950164 0.954726 0.0137179
1 0.949447 0.0128481
1 0.945891 0.012314
1 0.943847 0.0122988
1 0.94255 0.0122988
1 0.941802 0.0122988
1 0.941054 0.0122988
1 0.9402 0.0122988
1 0.939132 0.0122988
0 1 0.0673686
0 1 0.0673686
0 1 0.0673686
0 1 0.0673686
0 1 0.0673686
0 1 0.0673686
0 1 0.0673686
0 1 0.0673686
0 1 0.0673686
0 1 0.0673686
0 1 0.0673686
0 1 0.0673686
0 1 0.0673686
0.0578622 1 0.0597696
0.146792 1 0.0522621
0.235111 1 0.044892
0.323674 1 0.0378576
0.41387 1 0.0309911
0.500252 1 0.0255436
0.582345 1 0.0212253
0.661433 1 0.0183719
0.73756 1 0.0164645
0.809384 1 0.0152132
0.877012 0.999786 0.014374
0.93901 0.996262 0.01355
0.995254 0.990585 0.0128634
1 0.986419 0.0123598
1 0.983597 0.0122683
1 0.981781 0.0122835
1 0.980377 0.0122988
1 0.97908 0.0122988
1 0.977691 0.012314
1 0.975967 0.0123293
0 1 0.0673686
0 1 0.0673686
0 1 0.0673686
0 1 0.0673686
0 1 0.0673686
0 1 0.0673686
0 1 0.0673686
0 1 0.0673686
0 1 0.0673686
