luts/Hydracore.cube
TITLE "Generated by Resolve"
LUT_3D_SIZE 9
0 0 0.013901
0.0773785 0 0.00720226
0.310048 0 0.000427253
0.581445 0 0.000396735
0.852735 0 0.0138705
1 0 0.0280308
1 0 0.0280308
1 0 0.0280308
1 0 0.0280308
0 0.0560769 0.0150607
0.00576791 0.0332036 0.0113222
0.24036 0.00859083 0.00366217
0.522591 0 0.000167849
0.801617 0 0.0106508
1 0 0.0280308
1 0 0.0280308
1 0 0.0280308
1 0 0.0280308
0 0.210742 0.0160067
0 0.193652 0.0157473
0.16022 0.16585 0.00848402
0.459648 0.125353 0.00381476
0.752575 0.0849165 0.012665
1 0.0505379 0.0290074
1 0.0121157 0.0294194
1 0.00479133 0.0285801
1 0.0047303 0.0285801
0 0.403464 0.0204623
0 0.393362 0.0200351
0.0402838 0.375814 0.0154269
0.357092 0.340536 0.00669871
0.672892 0.303593 0.00952163
0.968765 0.275654 0.0241855
1 0.243992 0.0303655
1 0.234257 0.0306706
1 0.23856 0.0305333
0 0.618936 0.0358129
0 0.615335 0.035462
0 0.609079 0.0348516
0.230671 0.576898 0.0200046
0.569741 0.537301 0.00889601
0.869688 0.508873 0.0131838
1 0.482811 0.0180819
1 0.474311 0.0185702
1 0.477226 0.0184024
0 0.834348 0.0572519
0 0.837751 0.0575418
0 0.83798 0.057557
0.111818 0.81413 0.045716
0.463416 0.766613 0.0218662
0.772824 0.729778 0.013077
1 0.701671 0.0117494
1 0.695979 0.0117494
1 0.700648 0.0117342
0 1 0.0673381
0 1 0.0673686
0 1 0.0673686
0.00695811 1 0.0652476
0.352667 0.985153 0.0356603
0.684276 0.940002 0.0180056
0.964233 0.909453 0.0135805
1 0.899763 0.0123445
1 0.898589 0.0123445
0 1 0.0673686
0 1 0.0673686
0 1 0.0673686
0 1 0.0673686
0.311711 1 0.0388037
0.649668 1 0.0186465
0.92314 0.999176 0.0137331
1 0.997589 0.0121614
1 0.997589 0.0121614
0 1 0.0673686
0 1 0.0673686
0 1 0.0673686
0 1 0.0673686
0.282506 1 0.0411078
0.619913 1 0.0196994
0.888014 0.999664 0.0142214
1 0.997589 0.0121614
1 0.997589 0.0121614
0 0 0.138109
0.0695811 0 0.115755
0.302266 0 0.0873426
0.574639 0 0.0512856
0.845853 0 0.0170596
1 0 0.0280308
1 0 0.0280308
1 0 0.0280308
1 0 0.0280308
0 0.0489509 0.0843061
0.0049897 0.0265202 0.0646372
0.231647 0.00283818 0.0366369
0.514702 0 0.000686656
0.795407 0 0.0102693
1 0 0.0280308
1 0 0.0280308
1 0 0.0280308
1 0 0.0280308
0 0.203021 0.0198825
0 0.186618 0.0156558
0.15288 0.159457 0.00857557
0.453574 0.119631 0.00369268
0.747723 0.0798505 0.0122835
1 0.0463569 0.0286412
1 0.0108186 0.0292821
1 0.00389105 0.0284733
1 0.00421149 0.0285191
0 0.398047 0.0202335
0 0.388663 0.019852
0.0361791 0.372274 0.0154421
0.353933 0.337682 0.00671397
0.670237 0.301457 0.00943008
0.967956 0.274342 0.0241855
1 0.243137 0.030396
1 0.233829 0.0306859
1 0.23827 0.0305486
0 0.615869 0.035523
0 0.613077 0.0352483
0 0.607202 0.0346685
0.230411 0.57557 0.0199283
0.568917 0.536507 0.00889601
0.870405 0.508125 0.0132296
1 0.482048 0.0181277
1 0.473671 0.018616
1 0.476585 0.0184482
0 0.833997 0.0572213
0 0.837873 0.057557
0 0.838224 0.0575875
0.111833 0.814466 0.0457465
0.462013 0.766903 0.0219425
0.772702 0.729671 0.013077
1 0.7019 0.0117494
1 0.696208 0.0117494
1 0.700648 0.0117342
0 1 0.0673381
0 1 0.0673686
0 1 0.0673686
0.00695811 1 0.0652476
0.351461 0.985565 0.0357519
0.684276 0.940002 0.0180056
0.963653 0.908919 0.0135805
1 0.898375 0.0123445
1 0.896239 0.0123445
0 1 0.0673686
0 1 0.0673686
0 1 0.0673686
0 1 0.0673686
0.308522 1 0.0390478
0.646632 1 0.0187381
0.91931 0.999222 0.0137942
1 0.997589 0.0121614
1 0.997589 0.0121614
0 1 0.0673686
0 1 0.0673686
0 1 0.0673686
0 1 0.0673686
0.275532 1 0.0416571
0.613718 1 0.0199435
0.881956 0.999741 0.0142977
1 0.997589 0.0121614
1 0.997589 0.0121614
0 0 0.332158
0.0598611 0 0.310094
0.29308 0 0.281346
0.567956 0 0.243488
0.840726 0 0.205951
1 0 0.166918
1 0 0.116808
1 0 0.09131
1 0 0.0789349
0 0.0406958 0.277028
0.00422675 0.0189517 0.257359
0.222858 0 0.228244
0.508431 0 0.189014
0.79028 0 0.152438
1 0 0.120867
1 0 0.0767529
1 0 0.057557
1 0 0.0517281
0 0.196674 0.209888
0 0.180652 0.196201
0.146487 0.154253 0.172671
0.448142 0.114427 0.13817
0.743404 0.0747082 0.105821
1 0.0412604 0.079881
1 0.00888075 0.0447547
1 0.00215152 0.0321355
1 0.00294499 0.0336309
0 0.392538 0.110552
0 0.38381 0.103792
0.0313726 0.368078 0.0905928
0.349874 0.334127 0.0608377
0.666682 0.297948 0.0318151
0.965652 0.271107 0.0241855
1 0.240574 0.0304723
1 0.231525 0.0307469
1 0.236118 0.0306096
0 0.611337 0.0350652
0 0.609201 0.0348669
0 0.603876 0.0343328
0.227802 0.5729 0.0198367
0.566308 0.534035 0.00885023
0.869429 0.505547 0.0132753
1 0.479637 0.018265
1 0.471382 0.0187533
1 0.474052 0.0185855
0 0.83212 0.0570535
0 0.836454 0.057435
0 0.83682 0.0574655
0.109361 0.81326 0.0458076
0.458671 0.765576 0.022034
0.770947 0.728008 0.0130465
1 0.70045 0.0117647
1 0.694865 0.0117647
1 0.699092 0.0117494
0 1 0.0673228
0 1 0.0673686
0 1 0.0673533
0.00619516 1 0.0654612
0.348287 0.984512 0.0359808
0.682383 0.938338 0.0180514
0.961166 0.906584 0.013611
1 0.895064 0.0123445
1 0.892073 0.0123598
0 1 0.0673686
0 1 0.0673686
0 1 0.0673686
0 1 0.0673686
0.303059 1 0.0394751
0.641474 1 0.0189212
0.913695 0.999313 0.0138705
1 0.997589 0.0121614
1 0.997589 0.0121614
0 1 0.0673686
0 1 0.0673686
0 1 0.0673686
0 1 0.0673686
0.266102 1 0.0424048
0.605447 1 0.0202792
0.874098 0.999817 0.0144198
1 0.997604 0.0121767
1 0.997589 0.0121614
0 0 0.57348
0.0445258 0 0.553704
0.278248 0 0.527504
0.556146 0 0.49369
0.831174 0 0.460746
1 0 0.426398
1 0 0.377783
1 0 0.352163
1 0 0.339757
0 0.027863 0.524193
0.000366217 0.00666819 0.506737
0.207507 0 0.479713
0.49691 0 0.443763
0.781567 0 0.410391
1 0 0.380911
1 0 0.337728
1 0 0.318105
1 0 0.311986
0 0.184237 0.464088
0 0.169055 0.451377
0.1337 0.143633 0.429236
0.43801 0.104448 0.396399
0.735668 0.0645762 0.36492
1 0.0325933 0.339269
1 0.00469978 0.303471
1 0 0.290257
1 0 0.290898
0 0.38262 0.370336
0 0.374746 0.363424
0.021622 0.360281 0.350454
0.34139 0.326635 0.320058
0.660914 0.290776 0.289647
0.961089 0.26421 0.268589
1 0.234379 0.243992
1 0.22562 0.236606
1 0.230503 0.240726
0 0.603708 0.259617
0 0.602274 0.261143
0 0.597467 0.259052
0.219547 0.566796 0.229496
0.559213 0.527504 0.190402
0.863783 0.498314 0.162402
1 0.472389 0.138552
1 0.464149 0.132143
1 0.466804 0.135439
0 0.825376 0.168856
0 0.829908 0.17351
0 0.830488 0.17319
0.099855 0.807385 0.147845
0.449546 0.759503 0.0967575
0.764187 0.721584 0.0561685
1 0.694347 0.0276646
1 0.688594 0.0209812
1 0.692622 0.0234836
0 1 0.0857862
0 1 0.0891432
0 1 0.0882277
0.00331121 1 0.0738231
0.33904 0.979095 0.0365911
0.67509 0.932006 0.0182498
0.953429 0.899382 0.0136721
1 0.886946 0.0123598
1 0.883116 0.0123445
0 1 0.0673686
0 1 0.0673686
0 1 0.0673686
0 1 0.0673686
0.291005 1 0.0404364
0.630823 1 0.0193179
0.902922 0.999451 0.0140078
1 0.997589 0.0121614
1 0.997589 0.0121614
0 1 0.0673686
0 1 0.0673686
0 1 0.0673686
0 1 0.0673686
0.250263 1 0.0436713
0.591821 1 0.0208286
0.86154 0.999939 0.0145876
1 0.997772 0.0123293
1 0.997589 0.0121614
0 0 0.817304
0.025742 0 0.800412
0.260502 0 0.776974
0.543023 0 0.748486
0.821118 0 0.724102
1 0 0.701595
1 0 0.663401
1 0 0.642832
1 0 0.631891
0 0.0140078 0.774227
0 0.0059205 0.759869
0.189242 0 0.735576
0.482918 0 0.705837
0.771984 0 0.681132
1 0 0.661463
1 0 0.628321
1 0 0.611627
1 0 0.605356
0 0.169818 0.725216
0 0.155093 0.714321
0.117983 0.130938 0.695415
0.425025 0.0915389 0.66656
0.726345 0.051606 0.64184
0.998047 0.0207675 0.623972
1 0 0.596139
1 0 0.58407
1 0 0.582605
0 0.369879 0.649241
0 0.362814 0.64268
0.0141909 0.349905 0.630945
0.329259 0.316365 0.603586
0.652079 0.279759 0.577401
0.953063 0.253025 0.561151
1 0.223743 0.540444
1 0.21529 0.532799
1 0.220279 0.535576
0 0.592035 0.557778
0 0.591226 0.557031
0 0.586892 0.553063
0.205447 0.556924 0.524529
0.547524 0.516381 0.487053
0.853544 0.486442 0.460517
1 0.46006 0.43772
1 0.451682 0.43032
1 0.454429 0.432746
0 0.813107 0.474342
0 0.818006 0.475517
0 0.818692 0.472343
0.0827955 0.796277 0.44654
0.43331 0.747494 0.394797
0.750942 0.708873 0.353017
1 0.681682 0.322271
1 0.675914 0.313771
1 0.679469 0.315206
0 1 0.387045
0 1 0.387045
0 1 0.383459
0 0.999634 0.368032
0.321996 0.96733 0.310719
0.660716 0.919249 0.257679
0.939315 0.886091 0.219623
1 0.872663 0.202914
1 0.867918 0.195956
0 1 0.355993
0 1 0.357336
0 1 0.352926
0 1 0.333364
0.270619 1 0.27245
0.613352 1 0.207599
0.886229 0.998444 0.159258
1 0.996765 0.133776
1 0.996857 0.119448
0 1 0.354635
0 1 0.348501
0 1 0.335241
0 1 0.306416
0.226596 1 0.240543
0.571542 1 0.166476
0.84361 0.999542 0.111894
0.999985 0.997482 0.0830243
1 0.997223 0.0667582
0 0 0.942229
0.0118563 0 0.939635
0.238895 0 0.93283
0.52694 0 0.930526
0.81091 0 0.941985
1 0.000854505 0.950195
1 0.000106813 0.913237
1 0 0.894163
1 0 0.885084
0 0.0059205 0.942611
0 0 0.942229
0.170062 0 0.934691
0.468528 0 0.929839
0.763745 0 0.93431
1 0 0.914519
1 0 0.884291
1 0 0.869902
1 0 0.866133
0 0.154803 0.947066
0 0.141085 0.946899
0.102647 0.119219 0.941741
0.413092 0.0805371 0.926665
0.718837 0.0402991 0.90132
0.999969 0.0127718 0.884703
1 0 0.861173
1 0 0.85272
1 0 0.854704
0 0.358984 0.907652
0 0.352651 0.903944
0.00544747 0.341375 0.896086
0.318914 0.307973 0.870939
0.645487 0.270741 0.84625
0.947387 0.243671 0.833005
1 0.214923 0.816968
1 0.206607 0.812406
1 0.211658 0.816815
0 0.582986 0.822003
0 0.582681 0.824659
0 0.578744 0.824521
0.193088 0.549142 0.800458
0.537484 0.50724 0.765911
0.844938 0.47567 0.743358
1 0.448707 0.725597
1 0.439948 0.721035
1 0.442908 0.725155
0 0.802808 0.751125
0 0.807599 0.755474
0 0.808057 0.755901
0.0659953 0.786511 0.735531
0.417365 0.736568 0.687724
0.738155 0.696712 0.650507
0.999283 0.66865 0.624903
1 0.66244 0.619287
1 0.665309 0.621881
0 0.998642 0.679561
0 0.999512 0.683177
0 0.999588 0.683497
0 0.996719 0.671962
0.302892 0.954742 0.619867
0.643915 0.904738 0.570123
0.922179 0.869947 0.534539
1 0.855253 0.51899
1 0.8495 0.512917
0 1 0.661479
0 1 0.664424
0 1 0.661585
0 1 0.644602
0.246845 1 0.588693
0.591821 1 0.525399
0.865766 0.995727 0.478279
1 0.991012 0.45304
1 0.978058 0.438972
0 1 0.663905
0 1 0.658747
0 1 0.647059
0 1 0.621393
0.199039 1 0.560632
0.546731 1 0.487449
0.821256 0.996597 0.43212
0.997467 0.994537 0.402792
1 0.994263 0.386618
0 0 0.942229
0 0 0.940703
0.212284 0 0.933532
0.504112 0 0.930205
0.792767 0 0.940932
1 0.000106813 0.957748
1 0.00164797 0.959548
1 0.00164797 0.959548
1 0.00164797 0.959548
0 0 0.942229
0 0 0.942229
0.144533 0 0.935409
0.44651 0 0.929824
0.746761 0 0.938415
1 0 0.955184
1 0.00164797 0.959548
1 0.00164797 0.959548
1 0.00164797 0.959548
0 0.132433 0.946777
0 0.119509 0.946563
0.0789044 0.0988327 0.941802
0.392203 0.0612192 0.93431
0.70399 0.0224613 0.938399
0.993362 0 0.953338
1 0.00164797 0.959548
1 0.00164797 0.959548
1 0.00164797 0.959548
0 0.341283 0.949157
0 0.336004 0.949126
0 0.326543 0.947845
0.303319 0.294331 0.937896
0.634913 0.257832 0.936934
0.939116 0.231708 0.950057
1 0.204776 0.958404
1 0.196796 0.958846
1 0.201694 0.958572
0 0.57232 0.955428
0 0.57232 0.955428
0 0.568689 0.955261
0.180041 0.540291 0.942992
0.527428 0.498116 0.929335
0.837736 0.466148 0.931334
1 0.439399 0.937026
1 0.430655 0.937926
1 0.433906 0.937591
0 0.794522 0.967941
0 0.799344 0.9682
0 0.799695 0.968215
0.0521401 0.779278 0.960586
0.405173 0.728985 0.934936
0.729015 0.688319 0.90544
0.999557 0.659739 0.881117
1 0.652964 0.875395
1 0.655192 0.877241
0 0.997284 0.93492
0 0.99794 0.938506
0 0.998001 0.938781
0 0.995956 0.927855
0.288289 0.946273 0.878569
0.631281 0.894377 0.829969
0.9093 0.85803 0.79675
1 0.8421 0.782162
1 0.835416 0.776089
0 1 0.918135
0 1 0.920272
0 1 0.916976
0 1 0.90045
0.227726 1 0.848554
0.574624 1 0.788525
0.849363 0.996506 0.74612
1 0.974792 0.724117
1 0.961013 0.711727
0 1 0.917845
0 1 0.912245
0 1 0.900832
0 1 0.876997
0.17641 1 0.822583
0.525826 1 0.755016
0.802853 0.996765 0.706401
0.984771 0.994446 0.681575
1 0.993912 0.668009
0 0 0.942229
0 0 0.94136
0.197009 0 0.933959
0.491005 0 0.930022
0.782193 0 0.940322
1 0 0.957061
1 0.00164797 0.959548
1 0.00164797 0.959548
1 0.00164797 0.959548
0 0 0.942229
0 0 0.942229
0.130617 0 0.935821
0.43447 0 0.929854
0.737331 0 0.937926
1 0 0.954696
1 0.00164797 0.959548
1 0.00164797 0.959548
1 0.00164797 0.959548
0 0.120851 0.946593
0 0.108812 0.94638
0.0674907 0.0891127 0.941833
0.382147 0.052079 0.934066
0.69601 0.0148318 0.937697
0.987823 0 0.952987
1 0.00164797 0.959548
1 0.00164797 0.959548
1 0.00164797 0.959548
0 0.332326 0.949111
0 0.328069 0.949081
0 0.319615 0.948089
0.296284 0.288045 0.938048
0.629465 0.252094 0.93695
0.935332 0.226337 0.950134
1 0.199878 0.958679
1 0.192035 0.959091
1 0.196658 0.958846
0 0.566278 0.955154
0 0.566674 0.955169
0 0.563317 0.955016
0.174762 0.535668 0.943099
0.522591 0.493614 0.929549
0.83447 0.461448 0.931609
1 0.434531 0.93753
1 0.42591 0.938399
1 0.429419 0.938048
0 0.790707 0.967742
0 0.79556 0.968002
0 0.795789 0.968017
0.0458228 0.77557 0.9608
0.399329 0.725612 0.935256
0.725429 0.68484 0.923049
0.999802 0.656428 0.921279
1 0.649073 0.921141
1 0.650614 0.92108
0 0.997055 0.974899
0 0.99765 0.974914
0 0.997696 0.974914
0 0.99501 0.974868
0.281941 0.943145 0.947997
0.626184 0.890257 0.926421
0.904051 0.853178 0.92079
1 0.836393 0.918776
1 0.828794 0.91873
0 1 0.974792
0 1 0.974792
0 1 0.974792
0 1 0.974792
0.217762 1 0.953033
0.565957 1 0.928527
0.841581 0.991806 0.915953
0.999924 0.966842 0.893812
1 0.952865 0.881331
0 1 0.974792
0 1 0.974792
0 1 0.974792
0 1 0.974792
0.163699 1 0.957641
0.515007 1 0.924376
0.793896 0.998337 0.876127
0.975937 0.996124 0.852323
1 0.995453 0.839048
0 0 0.942229
0 0 0.941756
0.187808 0 0.934203
0.482902 0 0.929915
0.775616 0 0.939956
1 0 0.956649
1 0.00164797 0.959548
1 0.00164797 0.959548
1 0.00164797 0.959548
0 0 0.942229
0 0 0.942229
0.122667 0 0.936049
0.427741 0 0.929915
0.732067 0 0.937667
1 0 0.954482
1 0.00164797 0.959548
1 0.00164797 0.959548
1 0.00164797 0.959548
0 0.114748 0.946487
0 0.103456 0.946288
0.0623636 0.0848249 0.941848
0.377798 0.0485389 0.933974
0.692561 0.0136721 0.937407
0.986389 0 0.952895
1 0.00164797 0.959548
1 0.00164797 0.959548
1 0.00164797 0.959548
0 0.328939 0.949081
0 0.325277 0.949065
0 0.317906 0.948135
0.295171 0.287053 0.938079
0.628305 0.251637 0.936934
0.935576 0.2262 0.950149
1 0.199878 0.958679
1 0.192035 0.959091
1 0.196521 0.958862
0 0.564797 0.955077
0 0.565469 0.955108
0 0.562524 0.954971
0.175067 0.535271 0.943084
0.522332 0.493355 0.929564
0.834974 0.46096 0.931655
1 0.433783 0.937606
1 0.425666 0.93843
1 0.429282 0.938064
0 0.790936 0.967758
0 0.795895 0.968017
0 0.795895 0.968017
0.0453346 0.775723 0.960845
0.398596 0.726116 0.935317
0.72578 0.685176 0.923049
0.999802 0.656321 0.921279
1 0.64863 0.921157
1 0.649287 0.921126
0 0.99707 0.974914
0 0.997681 0.974914
0 0.997726 0.974929
0 0.994904 0.974868
0.280079 0.94255 0.94815
0.624323 0.888609 0.926467
0.90135 0.85066 0.920821
1 0.832868 0.918761
1 0.824399 0.9187
0 1 0.974792
0 1 0.974792
0 1 0.974792
0 1 0.974792
0.211688 1 0.953536
0.560265 1 0.928786
0.836088 0.986374 0.921813
0.999603 0.961379 0.91986
1 0.947143 0.919387
0 1 0.974792
0 1 0.974792
0 1 0.974792
0 1 0.974792
0.15523 1 0.958389
0.507286 1 0.93164
0.787747 0.998779 0.922286
0.970214 0.996857 0.920378
1 0.995819 0.919326
