luts/JustPeachy.cube
TITLE "Generated by Resolve"
LUT_3D_SIZE 33
0 0 0
0 0 0
0 0 0
0 0 0
0 0 0
0.00843824 0 0
0.037705 0 0
0.0675669 0 0
0.0973526 0 0
0.127947 0 0
0.15874 0 0
0.190661 0 0
0.223392 0 0
0.257267 0 0
0.292775 0 0
0.32929 0 0
0.366873 0 0
0.404395 0 0
0.441535 0 0
0.477714 0 0
0.513649 0 0
0.549157 0 0
0.583291 0 0
0.61941 0 0
0.657694 0 0
0.695781 0 0
0.732891 0 0
0.768856 0 0
0.804303 0 0
0.838773 0 0
0.872023 0 0
0.904952 0 0
0.936797 0 0
0 0 0
0 0 0
0 0 0
0 0 0
0 0 0
0.00775158 0 0
0.037232 0 0
0.067277 0 0
0.0971237 0 0
0.12752 0 0
0.158343 0 0
0.189197 0 0
0.221988 0 0
0.256153 0 0
0.292073 0 0
0.329091 0 0
0.36669 0 0
0.404318 0 0
0.441382 0 0
0.477073 0 0
0.51281 0 0
0.548363 0 0
0.583688 0 0
0.619669 0 0
0.657816 0 0
0.696086 0 0
0.732982 0 0
0.768887 0 0
0.804105 0 0
0.838712 0 0
0.872099 0 0
0.905013 0 0
0.936736 0 0
0 0 0
0 0 0
0 0 0
0 0 0
0 0 0
0.00660716 0 0
0.0365301 0 0
0.0663462 0 0
0.0953841 0 0
0.125643 0 0
0.156741 0 0
0.188495 0 0
0.221561 0 0
0.255467 0 0
0.291386 0 0
0.327916 0 0
0.365103 0 0
0.403159 0 0
0.440452 0 0
0.476631 0 0
0.512505 0 0
0.547982 0 0
0.583108 0 0
0.619501 0 0
0.657511 0 0
0.695247 0 0
0.732341 0 0
0.768338 0 0
0.803693 0 0
0.838468 0 0
0.871733 0 0
0.904509 0 0
0.936217 0 0
0 0 0
0 0 0
0 0 0
0 0 0
0 0 0
0.00457771 0 0
0.0344244 0 0
0.064332 0 0
0.0945296 0 0
0.124834 0 0
0.156161 0 0
0.187991 0 0
0.219974 0 0
0.253971 0 0
0.289982 0 0
0.327214 0 0
0.365118 0 0
0.402792 0 0
0.440192 0 0
0.476112 0 0
0.511696 0 0
0.547341 0 0
0.582712 0 0
0.618753 0 0
0.656825 0 0
0.694591 0 0
0.731472 0 0
0.767865 0 0
0.803449 0 0
0.837751 0 0
0.871366 0 0
0.904219 0 0
0.935912 0 0
0 0 0
0 0 0
0 0 0
0 0 0
0 0 0
0.00358587 0 0
0.0332952 0 0
0.0633555 0 0
0.0935225 0 0
0.123491 0 0
0.15465 0 0
0.186496 0 0
0.21944 0 0
0.253544 0 0
0.289372 0 0
0.32668 0 0
0.36437 0 0
0.401999 0 0
0.439094 0 0
0.475456 0 0
0.510796 0 0
0.546517 0 0
0.581827 0 0
0.617884 0 0
0.65594 0 0
0.694011 0 0
0.731228 0 0
0.767391 0 0
0.80296 0 0
0.8374 0 0
0.870863 0 0
0.904158 0 0
0.936233 0 0
0 0.0132143 0
0 0.0119936 0
0 0.0107118 0
0 0.00943008 0
0 0.00798047 0
0.00210575 0.00601205 0
0.031754 0.00437934 0
0.0623178 0.00317388 0
0.0926986 0.00195315 0
0.123186 0.000381476 0
0.15433 0 0
0.186191 0 0
0.219211 0 0
0.253513 0 0
0.289509 0 0
0.326131 0 0
0.363729 0 0
0.401236 0 0
0.438346 0 0
0.474845 0 0
0.510445 0 0
0.545815 0 0
0.580972 0 0
0.617365 0 0
0.655528 0 0
0.693767 0 0
0.731167 0 0
0.767391 0 0
0.802838 0 0
0.837705 0 0
0.871366 0 0
0.904814 0 0
0.937041 0 0
0 0.0398566 0
0 0.0388342 0
0 0.0366827 0
0 0.0353704 0
0 0.0339971 0
0.000961318 0.0330358 0
0.0307774 0.0316014 0
0.0611734 0.0301823 0
0.0915084 0.0289311 0
0.122103 0.0272221 0
0.153033 0.0254215 0
0.185046 0.023621 0
0.217975 0.0213474 0
0.251942 0.0187839 0
0.288045 0.0161288 0
0.325017 0.0130159 0
0.362295 0.00987259 0
0.400183 0.00689708 0
0.437644 0.00384527 0
0.473915 0.000854505 0
0.509758 0 0
0.545144 0 0
0.580423 0 0
0.616663 0 0
0.655482 0 0
0.693629 0 0
0.730999 0 0
0.76759 0 0
0.803159 0 0
0.838239 0 0
0.872343 0 0
0.905852 0 0
0.938094 0 0
0 0.065919 0
0 0.0647593 0
0 0.063447 0
0 0.0623789 0
0 0.0609445 0
0.00015259 0.0596933 0
0.0298314 0.0585946 0
0.059968 0.0570077 0
0.0901198 0.0553902 0
0.120806 0.0539559 0
0.15172 0.0521096 0
0.183932 0.0501869 0
0.216938 0.0480507 0
0.250599 0.0454719 0
0.286442 0.0425727 0
0.323705 0.0397345 0
0.361471 0.0366217 0
0.399023 0.0336309 0
0.436637 0.0307317 0
0.472999 0.0277104 0
0.508659 0.0247959 0
0.544457 0.0220493 0
0.579934 0.0195163 0
0.61651 0.0168765 0
0.654932 0.014435 0
0.693477 0.0122835 0
0.731014 0.0101778 0
0.767666 0.00836194 0
0.804105 0.00723278 0
0.839216 0.00598154 0
0.873365 0.00500496 0
0.907012 0.00421149 0
0.939757 0.00404364 0
0 0.092668 0
0 0.0916457 0
0 0.0902724 0
0 0.0889906 0
0 0.0878614 0
0 0.0864576 0
0.0285344 0.0849622 0
0.0585641 0.0837262 0
0.0887922 0.0820935 0
0.119203 0.0804913 0
0.150744 0.078996 0
0.182513 0.076936 0
0.21532 0.0745861 0
0.249424 0.072221 0
0.285145 0.0694438 0
0.322301 0.0664836 0
0.360494 0.0637369 0
0.398398 0.0605631 0
0.435492 0.0576181 0
0.472267 0.0549477 0
0.508171 0.052079 0
0.544091 0.0493935 0
0.579538 0.046952 0
0.616434 0.0445869 0
0.655268 0.0421759 0
0.693812 0.0399634 0
0.731838 0.0382849 0
0.768887 0.0369116 0
0.805051 0.035523 0
0.840391 0.0344091 0
0.875059 0.0338598 0
0.908949 0.0332341 0
0.941878 0.0331731 0
0 0.119463 0
0 0.118425 0
0 0.117052 0
0 0.115831 0
0 0.114626 0
0 0.113237 0
0.0268711 0.111757 0
0.0569314 0.110384 0
0.0872969 0.108904 0
0.1178 0.1075 0
0.149081 0.105867 0
0.180941 0.103929 0
0.213825 0.101656 0
0.247715 0.0991073 0
0.28423 0.0968032 0
0.321248 0.0939345 0
0.359121 0.0908827 0
0.397452 0.0880903 0
0.435019 0.0851301 0
0.471519 0.0824903 0
0.507851 0.0799268 0
0.544091 0.0775006 0
0.579736 0.0750286 0
0.616663 0.0726177 0
0.655879 0.0706951 0
0.694835 0.0687572 0
0.733043 0.0671244 0
0.77023 0.0656443 0
0.806867 0.0646067 0
0.842527 0.0637369 0
0.877211 0.0631266 0
0.911345 0.0629282 0
0.944671 0.0629282 0
0 0.146365 0
0 0.145296 0
0 0.144198 0
0 0.142779 0
0 0.141329 0
0 0.140139 0
0.0248417 0.138842 0
0.0552071 0.13753 0
0.0855268 0.136309 0
0.116167 0.134676 0
0.147204 0.132967 0
0.179095 0.131106 0
0.21236 0.129137 0
0.246632 0.126925 0
0.282734 0.124269 0
0.320104 0.121752 0
0.358099 0.118868 0
0.396277 0.115984 0
0.434501 0.113466 0
0.471458 0.111055 0
0.50779 0.108476 0
0.543923 0.10602 0
0.579889 0.103853 0
0.617227 0.101762 0
0.656809 0.0997635 0
0.696071 0.0980697 0
0.734401 0.0964828 0
0.77203 0.095491 0
0.808667 0.0944839 0
0.844556 0.0937514 0
0.879835 0.0935988 0
0.914122 0.0934462 0
0.947936 0.0937972 0
0 0.173739 0
0 0.172534 0
0 0.17116 0
0 0.170047 0
0 0.168688 0
0 0.167346 0
0.0226444 0.166567 0
0.0527504 0.165179 0
0.0830396 0.163745 0
0.113863 0.162524 0
0.145006 0.160937 0
0.177218 0.159091 0
0.21059 0.157259 0
0.244999 0.15523 0
0.281086 0.152804 0
0.318624 0.150134 0
0.356893 0.147631 0
0.395789 0.145159 0
0.433936 0.142504 0
0.470832 0.140108 0
0.50753 0.137972 0
0.544015 0.135668 0
0.58027 0.133532 0
0.618067 0.131746 0
0.657908 0.129854 0
0.697353 0.128527 0
0.73579 0.127153 0
0.77351 0.126085 0
0.810636 0.125338 0
0.847059 0.125017 0
0.882689 0.12488 0
0.917342 0.125063 0
0.950912 0.125475 0
0 0.201282 0
0 0.200275 0
0 0.198962 0
0 0.197681 0
0 0.196765 0
0 0.19556 0
0.0195621 0.19443 0
0.0499275 0.193423 0
0.0803845 0.192111 0
0.11104 0.190799 0
0.142657 0.189532 0
0.17499 0.188266 0
0.208286 0.186374 0
0.242557 0.184253 0
0.279103 0.182055 0
0.317021 0.179706 0
0.35584 0.177356 0
0.394354 0.174838 0
0.432715 0.172457 0
0.470405 0.170367 0
0.507012 0.168215 0
0.543725 0.166079 0
0.58056 0.16434 0
0.618372 0.162661 0
0.658686 0.161181 0
0.69836 0.159731 0
0.737072 0.158602 0
0.775189 0.157748 0
0.812802 0.157366 0
0.849287 0.157061 0
0.885084 0.157275 0
0.92015 0.157534 0
0.953964 0.158099 0
0 0.229435 0
0 0.228351 0
0 0.22742 0
0 0.226368 0
0 0.225284 0
0 0.224399 0
0.016144 0.223453 0
0.0466163 0.222293 0
0.0771344 0.221347 0
0.108446 0.220447 0
0.139925 0.219257 0
0.172244 0.217838 0
0.205737 0.216144 0
0.240421 0.214481 0
0.277012 0.212329 0
0.315297 0.210269 0
0.353918 0.207935 0
0.392996 0.205829 0
0.431739 0.203555 0
0.469505 0.201419 0
0.506661 0.19971 0
0.543664 0.197818 0
0.580575 0.196139 0
0.618769 0.194766 0
0.659312 0.193271 0
0.69926 0.192035 0
0.738643 0.191394 0
0.77702 0.190707 0
0.814603 0.19028 0
0.85156 0.190326 0
0.887449 0.1906 0
0.92253 0.191089 0
0.957183 0.192035 0
0 0.258198 0
0 0.257191 0
0 0.256367 0
0 0.255604 0
0 0.254582 0
0 0.253605 0
0.0127413 0.252872 0
0.043473 0.252277 0
0.0743725 0.251453 0
0.105348 0.250523 0
0.137011 0.249546 0
0.169894 0.248447 0
0.203571 0.246967 0
0.238361 0.245426 0
0.275135 0.243641 0
0.313298 0.24184 0
0.352377 0.239689 0
0.39173 0.237507 0
0.430549 0.235477 0
0.468849 0.233799 0
0.506096 0.23209 0
0.543526 0.23061 0
0.580667 0.229114 0
0.619074 0.227771 0
0.659937 0.226474 0
0.700328 0.225727 0
0.739773 0.224933 0
0.778408 0.22446 0
0.816266 0.224216 0
0.853513 0.224506 0
0.889525 0.224857 0
0.925246 0.225727 0
0.959579 0.226658 0
0 0.287221 0
0 0.286854 0
0 0.285954 0
0 0.2851 0
0 0.284276 0
0 0.283757 0
0.00926223 0.283284 0
0.0402228 0.282658 0
0.0709697 0.281971 0
0.102358 0.281498 0
0.134356 0.280613 0
0.167025 0.279622 0
0.201022 0.278508 0
0.23595 0.277119 0
0.273075 0.275746 0
0.311391 0.273945 0
0.350576 0.272007 0
0.390204 0.270039 0
0.429618 0.268513 0
0.467964 0.266819 0
0.505638 0.265278 0
0.543114 0.264027 0
0.580575 0.262638 0
0.619577 0.261677 0
0.660761 0.2607 0
0.700984 0.259922 0
0.740688 0.259281 0
0.779507 0.258946 0
0.817655 0.258854 0
0.855283 0.259327 0
0.891676 0.260044 0
0.927169 0.260884 0
0.961547 0.261952 0
0 0.317388 0
0 0.316747 0
0 0.316045 0
0 0.315633 0
0 0.314992 0
0 0.314672 0
0.00588998 0.31429 0
0.0367742 0.313832 0
0.0679332 0.313527 0
0.0995193 0.312932 0
0.131563 0.312413 0
0.164614 0.311849 0
0.198688 0.310826 0
0.233936 0.309819 0
0.271015 0.3084 0
0.309636 0.306798 0
0.349126 0.305257 0
0.389197 0.303639 0
0.428702 0.301976 0
0.467109 0.300526 0
0.50518 0.299321 0
0.542733 0.298131 0
0.580667 0.297124 0
0.619837 0.296178 0
0.66125 0.295262 0
0.701747 0.294621 0
0.741711 0.294179 0
0.780728 0.293996 0
0.819226 0.294331 0
0.856596 0.294743 0
0.892943 0.29543 0
0.928512 0.296361 0
0.963027 0.297581 0
0 0.347692 0
0 0.347494 0
0 0.34699 0
0 0.346548 0
0 0.34638 0
0 0.346059 0
0.00285344 0.346136 0
0.0338445 0.345846 0
0.0652628 0.345525 0
0.09691 0.345281 0
0.12929 0.345113 0
0.162493 0.34461 0
0.19704 0.343999 0
0.232074 0.343023 0
0.269413 0.341787 0
0.308415 0.340444 0
0.34815 0.339147 0
0.388144 0.337652 0
0.427939 0.336187 0
0.466545 0.334966 0
0.504768 0.333867 0
0.542809 0.33312 0
0.580774 0.332097 0
0.620172 0.331258 0
0.661784 0.33048 0
0.702419 0.329976 0
0.742718 0.329824 0
0.782071 0.329976 0
0.820432 0.330205 0
0.857847 0.330678 0
0.894408 0.331395 0
0.930083 0.332418 0
0.964889 0.33402 0
0 0.378973 0
0 0.378744 0
0 0.378439 0
0 0.378485 0
0 0.378393 0
0 0.378424 0
0.000503548 0.378424 0
0.0314031 0.378424 0
0.0631266 0.378637 0
0.0948348 0.378607 0
0.127321 0.378439 0
0.16083 0.378347 0
0.195254 0.377752 0
0.230655 0.376974 0
0.268254 0.376257 0
0.307362 0.375006 0
0.347326 0.373632 0
0.387442 0.37229 0
0.427436 0.370993 0
0.4663 0.369985 0
0.504784 0.369146 0
0.542687 0.368246 0
0.580865 0.367453 0
0.620554 0.366827 0
0.662425 0.366262 0
0.703426 0.366018 0
0.743832 0.365957 0
0.783093 0.366064 0
0.821546 0.36643 0
0.859037 0.367071 0
0.895476 0.367971 0
0.931304 0.369314 0
0.966018 0.370916 0
0 0.410773 0
0 0.411017 0
0 0.411017 0
0 0.411261 0
0 0.411307 0
0 0.411414 0
0 0.411643 0
0.0291905 0.412116 0
0.0606394 0.412329 0
0.0924697 0.412497 0
0.12517 0.412543 0
0.158679 0.412604 0
0.193347 0.412299 0
0.229129 0.411948 0
0.266575 0.411139 0
0.305867 0.410071 0
0.346059 0.408896 0
0.386343 0.407721 0
0.426535 0.406607 0
0.46569 0.405905 0
0.504158 0.405005 0
0.542168 0.404211 0
0.580453 0.403449 0
0.620249 0.402823 0
0.66247 0.402655 0
0.703532 0.402487 0
0.743832 0.402441 0
0.783123 0.40264 0
0.821408 0.403159 0
0.859205 0.404211 0
0.896056 0.405478 0
0.931945 0.40676 0
0.966751 0.408362 0
0 0.443809 0
0 0.444099 0
0 0.444419 0
0 0.444785 0
0 0.445029 0
0 0.445335 0
0 0.445991 0
0.0267948 0.446479 0
0.0584115 0.446906 0
0.090425 0.447257 0
0.123217 0.447456 0
0.157015 0.447883 0
0.191913 0.447822 0
0.227649 0.44744 0
0.265248 0.446784 0
0.304662 0.445838 0
0.344869 0.444831 0
0.385794 0.444099 0
0.426001 0.443107 0
0.465064 0.442252 0
0.503471 0.441459 0
0.541711 0.440742 0
0.579995 0.440208 0
0.620493 0.439933 0
0.662272 0.439551 0
0.703471 0.439368 0
0.743969 0.43946 0
0.783352 0.439902 0
0.82208 0.440696 0
0.859968 0.441871 0
0.896635 0.443168 0
0.932555 0.444724 0
0.967651 0.44651 0
0 0.477501 0
0 0.47808 0
0 0.478538 0
0 0.478965 0
0 0.479576 0
0 0.480171 0
0 0.480781 0
0.0251926 0.481422 0
0.0569924 0.482033 0
0.0892195 0.482567 0
0.122347 0.483207 0
0.156207 0.483406 0
0.191119 0.48333 0
0.226963 0.483055 0
0.265003 0.482795 0
0.304585 0.481987 0
0.345144 0.481407 0
0.385916 0.48043 0
0.426062 0.479606 0
0.465354 0.478859 0
0.503792 0.478187 0
0.542184 0.477516 0
0.580926 0.477378 0
0.621439 0.476997 0
0.663478 0.476875 0
0.70486 0.47689 0
0.745159 0.477211 0
0.785092 0.478141 0
0.823865 0.479026 0
0.861875 0.480095 0
0.898634 0.481529 0
0.93463 0.483192 0
0.96968 0.485237 0
0 0.511711 0
0 0.512352 0
0 0.51313 0
0 0.513863 0
0 0.514626 0
0 0.515312 0
0 0.516121 0
0.0247654 0.51693 0
0.0566415 0.517662 0
0.0893721 0.518608 0
0.122515 0.519142 0
0.156344 0.519539 0
0.191363 0.519585 0
0.2271 0.519417 0
0.265522 0.519203 0
0.305364 0.518608 0
0.345724 0.517845 0
0.386572 0.516945 0
0.426764 0.516197 0
0.46627 0.51574 0
0.50515 0.51548 0
0.543587 0.515038 0
0.582422 0.514702 0
0.62327 0.514626 0
0.66566 0.514488 0
0.706981 0.514702 0
0.747921 0.515511 0
0.787549 0.516258 0
0.826337 0.51725 0
0.863981 0.518578 0
0.901015 0.520088 0
0.93724 0.521874 0
0.972549 0.524239 0
0 0.546563 0
0 0.547402 0
0 0.548379 0
0 0.549432 0
0 0.55021 0
0 0.551034 0
0 0.551995 0
0.0252384 0.553079 0
0.0573892 0.554147 0
0.0897536 0.55494 0
0.12282 0.555611 0
0.156878 0.556085 0
0.192126 0.556207 0
0.228351 0.556329 0
0.26685 0.556039 0
0.306645 0.555489 0
0.347326 0.554864 0
0.388357 0.554208 0
0.428763 0.553643 0
0.468238 0.553552 0
0.507332 0.553216 0
0.545861 0.552987 0
0.585031 0.552834 0
0.626123 0.552819 0
0.668559 0.552895 0
0.710277 0.553613 0
0.751141 0.554147 0
0.790585 0.555077 0
0.829389 0.556176 0
0.867185 0.557534 0
0.90428 0.559518 0
0.94049 0.561318 0
0.975509 0.563439 0
0 0.581933 0
0 0.583124 0
0 0.584009 0
0 0.584985 0
0 0.586069 0
0 0.58703 0
0 0.588235 0
0.0260624 0.589471 0
0.0582437 0.590585 0
0.0909133 0.591455 0
0.124025 0.592218 0
0.158053 0.592767 0
0.193698 0.593393 0
0.230106 0.593454 0
0.268864 0.593271 0
0.308797 0.59292 0
0.349783 0.592386 0
0.391119 0.592081 0
0.431968 0.591775 0
0.471214 0.591562 0
0.510185 0.591363 0
0.549004 0.59118 0
0.58822 0.591165 0
0.630076 0.591302 0
0.672526 0.591745 0
0.713954 0.592004 0
0.754299 0.592691 0
0.794003 0.593622 0
0.832898 0.594736 0
0.870985 0.596475 0
0.907668 0.598169 0
0.943587 0.6 0
0.978744 0.602029 0
0 0.617716 0
0 0.61883 0
0 0.619821 0
0 0.620783 0
0 0.621881 0
0 0.62327 0
0 0.62443 0
0.0273442 0.625544 0
0.0597543 0.626581 0
0.0923934 0.627649 0
0.125841 0.628702 0
0.16051 0.629633 0
0.196109 0.630014 0
0.232792 0.630198 0
0.271641 0.630198 0
0.312093 0.629953 0
0.353231 0.629801 0
0.394766 0.629541 0
0.435172 0.629282 0
0.474464 0.629175 0
0.513695 0.629068 0
0.552453 0.629023 0
0.592554 0.629175 0
0.634623 0.629435 0
0.677012 0.629694 0
0.718364 0.630228 0
0.758923 0.630915 0
0.798215 0.631907 0
0.837201 0.633417 0
0.875013 0.63476 0
0.911604 0.636393 0
0.947433 0.638209 0
0.982361 0.640192 0
0 0.653086 0
0 0.654246 0
0 0.65539 0
0 0.656535 0
0 0.657984 0
0 0.659113 0
0 0.660563 0
0.0299687 0.66186 0
0.0623636 0.663157 0
0.0954452 0.664347 0
0.129381 0.66566 0
0.163958 0.666545 0
0.199557 0.66717 0
0.236606 0.667445 0
0.276143 0.667399 0
0.316945 0.667597 0
0.358297 0.667338 0
0.399496 0.667109 0
0.439963 0.666911 0
0.47921 0.666835 0
0.518471 0.666926 0
0.557717 0.667079 0
0.597528 0.667155 0
0.63975 0.66717 0
0.68188 0.667369 0
0.723262 0.667918 0
0.763989 0.668727 0
0.80351 0.66981 0
0.841993 0.670954 0
0.879423 0.672297 0
0.915908 0.673854 0
0.951705 0.675547 0
0.986633 0.677714 0
0 0.688533 0
0 0.68983 0
0 0.691417 0
0 0.692683 0
0 0.694057 0
0 0.69543 0
0.00125124 0.697032 0
0.0340429 0.698344 0
0.0669413 0.70013 0
