luts/JustPeachy.cube
TITLE "Generated by Resolve"
LUT_3D_SIZE 5
0 0 0
0.0973526 0 0
0.366873 0 0
0.657694 0 0
0.936797 0 0
0 0.092668 0
0.0887922 0.0820935 0
0.360494 0.0637369 0
0.655268 0.0421759 0
0.941878 0.0331731 0
0 0.317388 0
0.0679332 0.313527 0
0.349126 0.305257 0
0.66125 0.295262 0
0.963027 0.297581 0
0 0.581933 0
0.0582437 0.590585 0
0.349783 0.592386 0
0.672526 0.591745 0
0.978744 0.602029 0
0 0.868223 0
0.10309 0.882521 0
0.405005 0.884932 0
0.726101 0.881086 0
1 0.884657 0
0 0 0.103319
0.0966964 0 0.0928817
0.366613 0 0.0725872
0.657755 0 0.0495766
0.936568 0 0.0359808
0 0.0922103 0.0964523
0.0869612 0.0817121 0.0844282
0.361028 0.0630198 0.0686198
0.656977 0.0428016 0.0495766
0.945037 0.0349432 0.0421149
0 0.31841 0.0738994
0.069276 0.316258 0.0709087
0.353613 0.309026 0.0646525
0.667796 0.299992 0.0580911
0.971084 0.303288 0.0619974
0 0.587533 0.0584421
0.0632639 0.596826 0.0650492
0.356695 0.59971 0.0656596
0.68127 0.599313 0.0648814
0.987381 0.609628 0.0738384
0 0.876158 0.0930648
0.109712 0.889693 0.104234
0.411658 0.891249 0.104494
0.731945 0.886275 0.0995956
1 0.888579 0.102434
0 0 0.343664
0.0902724 0 0.333257
0.361776 0 0.314275
0.654337 0 0.290532
0.933654 0 0.275273
0 0.0884108 0.337545
0.0843671 0.0783093 0.328939
0.357702 0.0607462 0.311284
0.656199 0.0416266 0.2907
0.946273 0.035172 0.282628
0 0.317372 0.316289
0.0698405 0.316655 0.315465
0.35613 0.310643 0.308659
0.672892 0.302449 0.301518
0.976333 0.306752 0.30518
0 0.590738 0.303319
0.0661631 0.600702 0.310658
0.36054 0.604944 0.312276
0.687312 0.60441 0.31133
0.993591 0.614267 0.321645
0 0.881148 0.342229
0.113497 0.894255 0.353902
0.414435 0.89482 0.354284
0.733715 0.888136 0.349035
1 0.889158 0.352132
0 0 0.616526
0.0832837 0 0.606027
0.352987 0 0.586496
0.64654 0 0.561502
0.927153 0 0.545357
0 0.0825055 0.610864
0.0785382 0.0731212 0.601785
0.350256 0.0568093 0.585595
0.650752 0.0383001 0.564858
0.943771 0.0329595 0.55726
0 0.313954 0.592142
0.0697795 0.314275 0.593393
0.354757 0.31017 0.591302
0.673182 0.302586 0.58352
0.978378 0.307759 0.586923
0 0.591379 0.582086
0.0685283 0.602213 0.592569
0.36286 0.606958 0.597223
0.691463 0.606104 0.59736
0.996887 0.615549 0.604791
0 0.883177 0.623758
0.114992 0.895598 0.635904
0.414038 0.894728 0.635386
0.731472 0.887816 0.628092
1 0.887495 0.629419
0 0 0.850736
0.0785229 0 0.841337
0.347601 0 0.82446
0.639902 0 0.802258
0.921889 0 0.788479
0 0.078294 0.846357
0.0744945 0.069337 0.838682
0.34583 0.0544137 0.825559
0.647211 0.0370489 0.809293
0.94258 0.0327611 0.804501
0 0.312322 0.833112
0.0710765 0.314168 0.836454
0.355932 0.311147 0.835386
0.674235 0.305089 0.830381
0.980774 0.310536 0.833951
0 0.593194 0.826642
0.0730755 0.605234 0.837278
0.368444 0.610117 0.841321
0.694316 0.610346 0.841978
1 0.618738 0.847913
0 0.886702 0.863996
0.119051 0.898344 0.874571
0.417594 0.896193 0.87245
0.732952 0.888243 0.865293
1 0.886458 0.865049
