luts/JustPeachy.cube
TITLE "Generated by Resolve"
LUT_3D_SIZE 9
0 0 0
0 0 0
0.0973526 0 0
0.223392 0 0
0.366873 0 0
0.513649 0 0
0.657694 0 0
0.804303 0 0
0.936797 0 0
0 0 0
0 0 0
0.0935225 0 0
0.21944 0 0
0.36437 0 0
0.510796 0 0
0.65594 0 0
0.80296 0 0
0.936233 0 0
0 0.092668 0
0 0.0878614 0
0.0887922 0.0820935 0
0.21532 0.0745861 0
0.360494 0.0637369 0
0.508171 0.052079 0
0.655268 0.0421759 0
0.805051 0.035523 0
0.941878 0.0331731 0
0 0.201282 0
0 0.196765 0
0.0803845 0.192111 0
0.208286 0.186374 0
0.35584 0.177356 0
0.507012 0.168215 0
0.658686 0.161181 0
0.812802 0.157366 0
0.953964 0.158099 0
0 0.317388 0
0 0.314992 0
0.0679332 0.313527 0
0.198688 0.310826 0
0.349126 0.305257 0
0.50518 0.299321 0
0.66125 0.295262 0
0.819226 0.294331 0
0.963027 0.297581 0
0 0.443809 0
0 0.445029 0
0.0584115 0.446906 0
0.191913 0.447822 0
0.344869 0.444831 0
0.503471 0.441459 0
0.662272 0.439551 0
0.82208 0.440696 0
0.967651 0.44651 0
0 0.581933 0
0 0.586069 0
0.0582437 0.590585 0
0.193698 0.593393 0
0.349783 0.592386 0
0.510185 0.591363 0
0.672526 0.591745 0
0.832898 0.594736 0
0.978744 0.602029 0
0 0.724041 0
0 0.73022 0
0.0719463 0.736751 0
0.210071 0.741176 0
0.370535 0.741695 0
0.530434 0.741527 0
0.695018 0.741772 0
0.852811 0.744442 0
0.995956 0.750149 0
0 0.868223 0
0 0.875654 0
0.10309 0.882521 0
0.243519 0.886 0
0.405005 0.884932 0
0.561135 0.882933 0
0.726101 0.881086 0
0.878752 0.881483 0
1 0.884657 0
0 0 0
0 0 0
0.0974746 0 0
0.222385 0 0
0.366918 0 0
0.513405 0 0
0.657877 0 0
0.804349 0 0
0.936736 0 0
0 0 0
0 0 0
0.0933852 0 0
0.219959 0 0
0.364477 0 0
0.510765 0 0
0.65594 0 0
0.803143 0 0
0.936416 0 0
0 0.0927596 0
0 0.0876783 0
0.0883345 0.0818799 0
0.215747 0.0744182 0
0.360861 0.0635233 0
0.508659 0.052079 0
0.656107 0.0424811 0
0.806287 0.0361334 0
0.943343 0.0339666 0
0 0.201266 0
0 0.196811 0
0.0799878 0.192538 0
0.208774 0.186923 0
0.35668 0.177874 0
0.508629 0.169253 0
0.660761 0.162402 0
0.815503 0.159152 0
0.957214 0.160143 0
0 0.318059 0
0 0.316045 0
0.0687572 0.314916 0
0.200061 0.312566 0
0.351263 0.307073 0
0.507485 0.301427 0
0.664622 0.29778 0
0.822828 0.296986 0
0.967117 0.300404 0
0 0.445579 0
0 0.447181 0
0.0602884 0.449424 0
0.194095 0.450355 0
0.34786 0.447791 0
0.506752 0.444526 0
0.666407 0.442725 0
0.82623 0.444099 0
0.972122 0.450278 0
0 0.58468 0
0 0.588952 0
0.060853 0.593545 0
0.196292 0.596475 0
0.35314 0.59588 0
0.513741 0.595026 0
0.67686 0.595453 0
0.837308 0.598825 0
0.98323 0.606043 0
0 0.727504 0
0 0.733989 0
0.0755169 0.740749 0
0.21387 0.745068 0
0.374395 0.745464 0
0.534066 0.745205 0
0.699062 0.745281 0
0.857023 0.747906 0
0.99968 0.753384 0
0 0.872221 0
0 0.879652 0
0.106722 0.886442 0
0.247318 0.889662 0
0.408576 0.88835 0
0.564431 0.886046 0
0.729091 0.883665 0
0.881666 0.88397 0
1 0.886885 0
0 0 0.103319
0 0 0.0988174
0.0966964 0 0.0928817
0.221927 0 0.0840162
0.366613 0 0.0725872
0.512276 0 0.0597391
0.657755 0 0.0495766
0.804196 0 0.0411536
0.936568 0 0.0359808
0 0 0.100221
0 0 0.0964828
0.0932021 0 0.0901503
0.220081 0 0.0823529
0.364202 0 0.0709239
0.510674 0 0.0589456
0.656123 0 0.0484169
0.803265 0 0.0403906
0.936843 0 0.0358434
0 0.0922103 0.0964523
0 0.0872053 0.0914778
0.0869612 0.0817121 0.0844282
0.216388 0.0738537 0.0787213
0.361028 0.0630198 0.0686198
0.509178 0.052079 0.0583352
0.656977 0.0428016 0.0495766
0.80737 0.0366369 0.0437629
0.945037 0.0349432 0.0421149
0 0.200946 0.0880293
0 0.196841 0.0835431
0.079057 0.193057 0.0788891
0.209232 0.187488 0.0736095
0.358022 0.178576 0.0671702
0.510384 0.17026 0.0601358
0.663081 0.163699 0.0547951
0.817914 0.160647 0.0521096
0.959869 0.162066 0.0536965
0 0.31841 0.0738994
0 0.317052 0.0721294
0.069276 0.316258 0.0709087
0.201205 0.314427 0.0688792
0.353613 0.309026 0.0646525
0.510307 0.303609 0.0605631
0.667796 0.299992 0.0580911
0.826291 0.299535 0.0582742
0.971084 0.303288 0.0619974
0 0.447272 0.0617685
0 0.449149 0.0627146
0.0621347 0.451972 0.0644236
0.195697 0.452964 0.0645762
0.350317 0.450553 0.0619669
0.509651 0.447364 0.0593271
0.670268 0.445808 0.05832
0.830198 0.447471 0.0598459
0.976349 0.453727 0.0654765
0 0.587533 0.0584421
0 0.59202 0.0616617
0.0632639 0.596826 0.0650492
0.199237 0.599878 0.0670329
0.356695 0.59971 0.0656596
0.517662 0.598886 0.0645762
0.68127 0.599313 0.0648814
0.841642 0.602502 0.0674601
0.987381 0.609628 0.0738384
0 0.73106 0.0674601
0 0.737652 0.0725414
0.0785382 0.744427 0.0778058
0.217136 0.748989 0.0811017
0.378302 0.749416 0.0806744
0.537774 0.749035 0.0797284
0.703105 0.748791 0.0793469
0.860868 0.751217 0.0816815
1 0.756405 0.0865644
0 0.876158 0.0930648
0 0.883314 0.0990005
0.109712 0.889693 0.104234
0.250462 0.892912 0.106493
0.411658 0.891249 0.104494
0.566918 0.888594 0.101778
0.731945 0.886275 0.0995956
0.884443 0.886168 0.099794
1 0.888579 0.102434
0 0 0.216968
0 0 0.212238
0.0935225 0 0.206165
0.220264 0 0.198291
0.365255 0 0.186481
0.511437 0 0.173465
0.656825 0 0.162631
0.80354 0 0.153796
0.935729 0 0.147982
0 0 0.214374
0 0 0.210132
0.0908522 0 0.20473
0.218555 0 0.197131
0.36286 0 0.184756
0.509834 0 0.172122
0.655329 0 0.161105
0.802747 0 0.152682
0.936858 0 0.147951
0 0.090898 0.210849
0 0.0858625 0.20621
0.0863813 0.080293 0.202197
0.215274 0.0729229 0.194644
0.360525 0.0623026 0.182712
0.509071 0.0517128 0.171695
0.657359 0.0427558 0.162631
0.808118 0.0368658 0.156527
0.946303 0.035584 0.154879
0 0.199985 0.20209
0 0.196078 0.198428
0.0783551 0.192737 0.194934
0.208591 0.187533 0.188251
0.359503 0.178653 0.181659
0.511925 0.170871 0.174151
0.665003 0.164782 0.168627
0.820356 0.16202 0.16585
0.962585 0.163806 0.167376
0 0.318486 0.188205
0 0.31751 0.186816
0.0696269 0.317143 0.18587
0.20116 0.31574 0.183322
0.355276 0.310445 0.178439
0.513069 0.305272 0.174975
0.670832 0.301762 0.17232
0.829648 0.301457 0.172641
0.974273 0.305684 0.176486
0 0.448646 0.176455
0 0.450904 0.177676
0.0635233 0.453864 0.17937
0.197162 0.455451 0.179553
0.352285 0.453193 0.176516
0.512337 0.449973 0.173892
0.673381 0.44831 0.173114
0.834348 0.450431 0.175402
0.980453 0.456977 0.181338
0 0.589654 0.173556
0 0.594614 0.177234
0.0654917 0.599649 0.180835
0.201419 0.603052 0.182803
0.359686 0.602991 0.181842
0.520317 0.602121 0.180545
0.684779 0.602319 0.180728
0.845701 0.605753 0.184512
0.991333 0.612711 0.19118
0 0.733883 0.183749
0 0.740719 0.189563
0.0813153 0.747478 0.195117
0.220249 0.752316 0.198779
0.381262 0.752636 0.19826
0.540383 0.751919 0.19704
0.706127 0.751354 0.196994
0.863355 0.753506 0.199557
1 0.758297 0.204837
0 0.879194 0.210956
0 0.886442 0.217685
0.112322 0.892622 0.223087
0.25304 0.895613 0.225528
0.413779 0.89369 0.223514
0.56878 0.890578 0.220737
0.733577 0.887663 0.218616
0.885908 0.887495 0.219394
1 0.889525 0.222065
0 0 0.343664
0 0 0.338933
0.0902724 0 0.333257
0.217151 0 0.325826
0.361776 0 0.314275
0.509087 0 0.30164
0.654337 0 0.290532
0.800763 0 0.281209
0.933654 0 0.275273
0 0 0.340978
0 0 0.336049
0.0880446 0 0.331609
0.214939 0 0.324651
0.35967 0 0.312703
0.507149 0 0.300053
0.652842 0 0.288838
0.800534 0 0.280003
0.935454 0 0.275471
0 0.0884108 0.337545
0 0.0834669 0.333165
0.0843671 0.0783093 0.328939
0.211749 0.0713664 0.322316
0.357702 0.0607462 0.311284
0.507256 0.0503243 0.299931
0.656199 0.0416266 0.2907
0.807492 0.0360418 0.284352
0.946273 0.035172 0.282628
0 0.197848 0.329427
0 0.194141 0.326131
0.0781109 0.190906 0.323522
0.20737 0.185962 0.319875
0.358557 0.177798 0.311894
0.511757 0.170123 0.30312
0.665461 0.164645 0.297185
0.821347 0.162325 0.294179
0.963973 0.164416 0.295583
0 0.317372 0.316289
0 0.316732 0.315496
0.0698405 0.316655 0.315465
0.200992 0.315724 0.314366
0.35613 0.310643 0.308659
0.514946 0.305623 0.304646
0.672892 0.302449 0.301518
0.83183 0.302464 0.30164
0.976333 0.306752 0.30518
0 0.448737 0.305547
0 0.451347 0.307118
0.0641031 0.454459 0.308797
0.197513 0.45658 0.309651
0.352255 0.454826 0.306294
0.513741 0.451469 0.303197
0.676158 0.449836 0.302846
0.837278 0.452186 0.305486
0.983352 0.4589 0.311482
0 0.590738 0.303319
0 0.595666 0.307012
0.0661631 0.600702 0.310658
0.202258 0.604761 0.313207
0.36054 0.604944 0.312276
0.521492 0.60415 0.310613
0.687312 0.60441 0.31133
0.848341 0.607752 0.315175
0.993591 0.614267 0.321645
0 0.735714 0.314565
0 0.742748 0.320607
0.0827497 0.749355 0.325795
0.221576 0.754208 0.329549
0.382559 0.754604 0.329198
0.541405 0.753506 0.328038
0.707469 0.752956 0.327794
0.864713 0.754711 0.330373
1 0.759106 0.335454
0 0.881148 0.342229
0 0.888319 0.348623
0.113497 0.894255 0.353902
0.254002 0.896925 0.356268
0.414435 0.89482 0.354284
0.568948 0.891325 0.351232
0.733715 0.888136 0.349035
0.885832 0.887602 0.349691
1 0.889158 0.352132
0 0 0.474159
0 0 0.469612
0.0871138 0 0.463554
0.213413 0 0.456123
0.357244 0 0.443809
0.50576 0 0.431846
0.650782 0 0.420249
0.797482 0 0.410742
0.930617 0 0.404959
0 0 0.471824
0 0 0.466667
0.0850233 0 0.462135
0.211139 0 0.454658
0.35555 0 0.443
0.50396 0 0.430411
0.649744 0 0.418875
0.798016 0 0.41004
0.933227 0 0.405661
0 0.0857404 0.468482
0 0.0808728 0.463966
0.0817884 0.0760662 0.459312
0.208194 0.0692607 0.452689
0.354223 0.0590524 0.442359
0.504723 0.0487068 0.431266
0.653666 0.0400549 0.421592
0.806119 0.0349126 0.415717
0.945403 0.0342565 0.413977
0 0.195392 0.460746
0 0.191913 0.457633
0.0773175 0.188952 0.455192
0.206104 0.184588 0.45156
0.355779 0.177218 0.444572
0.510292 0.169558 0.436545
0.664836 0.164141 0.429953
0.821332 0.162051 0.426917
0.964675 0.164645 0.428595
0 0.315877 0.448539
0 0.315328 0.447929
0.0701152 0.315755 0.448722
0.201999 0.315007 0.448631
0.355291 0.310613 0.445731
0.514809 0.305547 0.440665
0.674113 0.30277 0.436408
0.83331 0.303044 0.436011
0.977951 0.307561 0.439551
0 0.448264 0.438193
0 0.451331 0.440726
0.0648966 0.454536 0.443015
0.198383 0.456748 0.444816
0.352575 0.455177 0.442969
0.515526 0.45153 0.439933
0.678737 0.450462 0.438148
0.839628 0.453147 0.440635
0.98558 0.460075 0.446769
0 0.591379 0.436805
0 0.596399 0.441016
0.0674144 0.601816 0.445594
0.203555 0.606134 0.449149
0.361563 0.606622 0.448554
0.521706 0.606073 0.446296
0.689158 0.605798 0.446204
0.850629 0.608896 0.450599
0.995422 0.615305 0.457633
0 0.736858 0.449271
0 0.743877 0.45568
0.0843519 0.751034 0.462318
0.223041 0.75584 0.466712
0.383673 0.756191 0.466545
0.541848 0.755047 0.464759
0.708156 0.754192 0.463767
0.865721 0.755474 0.466423
1 0.759152 0.471641
0 0.882445 0.479271
0 0.889158 0.486259
0.114336 0.895186 0.492653
0.254582 0.897597 0.495399
0.414054 0.894911 0.492775
0.568505 0.8916 0.489525
0.733211 0.888212 0.486488
0.884947 0.887144 0.486732
1 0.888579 0.489784
0 0 0.616526
0 0 0.610941
0.0832837 0 0.606027
0.209461 0 0.598795
0.352987 0 0.586496
0.501808 0 0.573983
0.64654 0 0.561502
0.793683 0 0.551263
0.927153 0 0.545357
0 0 0.613657
0 0 0.609201
0.0815137 0 0.604685
0.206973 0 0.597055
0.351171 0 0.585336
0.49984 0 0.572732
0.645335 0 0.560571
0.794491 0 0.551431
0.930343 0 0.546746
0 0.0825055 0.610864
0 0.0777295 0.606287
0.0785382 0.0731212 0.601785
0.204669 0.0666361 0.595361
0.350256 0.0568093 0.585595
0.501274 0.0467384 0.574731
0.650752 0.0383001 0.564858
0.803922 0.0334325 0.558831
0.943771 0.0329595 0.55726
0 0.192432 0.603525
0 0.189242 0.600748
0.0752117 0.186404 0.598383
0.20412 0.182773 0.595346
0.353079 0.175891 0.588754
0.508019 0.168688 0.581674
0.663233 0.163439 0.575265
0.820493 0.161547 0.572457
0.964157 0.164157 0.574365
0 0.313954 0.592142
0 0.31371 0.592187
0.0697795 0.314275 0.593393
0.201755 0.313802 0.593774
0.354757 0.31017 0.591302
0.512871 0.305394 0.586969
0.673182 0.302586 0.58352
0.833188 0.302907 0.58294
0.978378 0.307759 0.586923
0 0.447501 0.582757
0 0.450553 0.585855
0.0656138 0.454154 0.589181
0.199359 0.456458 0.591669
0.354086 0.454841 0.590875
0.51429 0.452049 0.58967
0.679438 0.45098 0.588418
0.840848 0.453895 0.589487
0.986984 0.460792 0.595026
0 0.591379 0.582086
0 0.596551 0.587045
0.0685283 0.602213 0.592569
0.204791 0.606592 0.596689
0.36286 0.606958 0.597223
0.522347 0.606607 0.596689
0.691463 0.606104 0.59736
0.852827 0.609277 0.599222
0.996887 0.615549 0.604791
0 0.737682 0.595728
0 0.744656 0.602457
0.0855879 0.751904 0.609171
0.224048 0.75639 0.613169
0.384329 0.756374 0.612833
0.541665 0.755367 0.611444
0.706996 0.754528 0.609369
0.865705 0.755123 0.610498
1 0.758648 0.615228
0 0.883177 0.623758
0 0.88983 0.630213
0.114992 0.895598 0.635904
0.255039 0.897688 0.638102
0.414038 0.894728 0.635386
0.567712 0.891066 0.6318
0.731472 0.887816 0.628092
0.883009 0.88629 0.626825
1 0.887495 0.629419
0 0 0.739879
0 0 0.734981
0.0804761 0 0.730526
0.206073 0 0.723751
0.349722 0 0.712779
0.49836 0 0.701411
0.642405 0 0.690257
0.790005 0 0.68127
0.923995 0 0.675822
0 0 0.737163
0 0 0.733303
0.0784924 0 0.729046
0.203616 0 0.722438
0.347387 0 0.71194
0.496269 0 0.700633
0.641733 0 0.689815
0.791409 0 0.681987
0.928023 0 0.67808
0 0.0798657 0.734905
0 0.0751354 0.731014
0.0759899 0.070634 0.72697
0.201923 0.0645304 0.72134
0.347173 0.0551003 0.712673
0.498436 0.0451972 0.703441
0.648203 0.0370794 0.69514
0.802182 0.0324407 0.690028
0.94255 0.0322576 0.689082
0 0.190188 0.728832
0 0.187304 0.726589
0.0737011 0.184771 0.724834
0.202579 0.181582 0.722438
0.3514 0.174975 0.71696
0.506416 0.168063 0.710887
0.66186 0.163165 0.705776
0.819883 0.161608 0.703639
0.963851 0.164172 0.705531
0 0.312566 0.719371
0 0.312551 0.720012
0.0698711 0.313619 0.721736
0.202029 0.313497 0.722423
0.354696 0.310109 0.72015
0.512505 0.305913 0.716701
0.672755 0.303273 0.714076
0.833265 0.303639 0.713832
0.978714 0.308339 0.717067
0 0.447242 0.711849
0 0.450233 0.714931
0.0664073 0.454185 0.718395
0.200687 0.456825 0.721065
0.355703 0.455406 0.720333
0.515267 0.453147 0.718975
0.679683 0.452537 0.718654
0.841505 0.455253 0.719921
0.987793 0.461952 0.724453
0 0.59173 0.711421
0 0.596887 0.71603
0.0702068 0.60296 0.721553
0.206912 0.607523 0.725658
0.36495 0.607904 0.72607
0.525154 0.607706 0.726162
0.691569 0.607813 0.727504
0.853834 0.610346 0.728847
0.998199 0.616373 0.732799
0 0.738979 0.723735
0 0.745907 0.730022
0.0874647 0.753124 0.736553
0.226261 0.757748 0.740719
0.386587 0.757382 0.740261
0.54345 0.756268 0.739178
0.707927 0.755199 0.738277
0.86772 0.754986 0.73933
1 0.758373 0.740856
0 0.884535 0.750317
0 0.890883 0.756313
0.116335 0.896376 0.761486
0.256458 0.898283 0.763287
0.415305 0.89514 0.760311
0.568292 0.891264 0.756603
0.730999 0.887694 0.752667
0.881544 0.886442 0.750118
1 0.887007 0.751217
0 0 0.850736
0 0 0.845792
0.0785229 0 0.841337
0.203281 0 0.83444
0.347601 0 0.82446
0.496056 0 0.813367
0.639902 0 0.802258
0.787671 0 0.793591
0.921889 0 0.788479
0 0 0.848173
0 0 0.844572
0.076524 0 0.840253
0.201816 0 0.833814
0.345205 0 0.82385
0.494301 0 0.812863
0.639673 0 0.802609
0.789899 0 0.795331
0.926833 0 0.792035
0 0.078294 0.846357
0 0.0737469 0.842573
0.0744945 0.069337 0.838682
0.200534 0.0635386 0.833707
0.34583 0.0544137 0.825559
0.497154 0.0446479 0.816815
0.647211 0.0370489 0.809293
0.801572 0.0324102 0.804746
0.94258 0.0327611 0.804501
0 0.189136 0.841108
0 0.18645 0.839353
0.0735027 0.184329 0.838132
0.202533 0.181491 0.836271
0.3514 0.175341 0.831235
0.506447 0.168795 0.825864
0.662135 0.164172 0.821347
0.820706 0.162921 0.819867
0.96495 0.165606 0.82179
0 0.312322 0.833112
0 0.312718 0.834333
0.0710765 0.314168 0.836454
0.203372 0.314366 0.837552
0.355932 0.311147 0.835386
0.513817 0.307439 0.832547
0.674235 0.305089 0.830381
0.834592 0.305699 0.830365
0.980774 0.310536 0.833951
0 0.448249 0.826886
0 0.451469 0.83003
0.0686198 0.455528 0.833875
0.202731 0.458183 0.836454
0.357748 0.456764 0.835584
0.51751 0.455177 0.834485
0.681453 0.455009 0.834272
0.843381 0.457801 0.835935
0.990158 0.464759 0.840833
0 0.593194 0.826642
0 0.598901 0.831678
0.0730755 0.605234 0.837278
0.210178 0.609918 0.841367
0.368444 0.610117 0.841321
0.52842 0.609888 0.841505
0.694316 0.610346 0.841978
0.855161 0.612757 0.844068
1 0.618738 0.847913
0 0.741039 0.838544
0 0.748516 0.845167
0.0907454 0.755688 0.851499
0.229801 0.760113 0.855406
0.389883 0.759548 0.854704
0.546609 0.758053 0.853376
0.711513 0.756664 0.852552
0.86772 0.756786 0.853544
1 0.759548 0.855497
0 0.886702 0.863996
0 0.893141 0.869856
0.119051 0.898344 0.874571
0.258747 0.899519 0.875639
0.417594 0.896193 0.87245
0.570504 0.89221 0.86894
0.732952 0.888243 0.865293
0.882521 0.886915 0.864317
1 0.886458 0.865049
