luts/Killstreak.cube
TITLE "Generated by Resolve"
LUT_3D_SIZE 33
0 0.0126497 0.00808728
0 0.00427253 0
0 0 0
0.0133974 0 0
0.0444038 0 0
0.075639 0 0
0.108186 0 0
0.143206 0 0
0.18175 0 0
0.224201 0 0
0.270832 0 0
0.321263 0 0
0.373785 0 0
0.426291 0 0
0.477028 0 0
0.524865 0 0
0.571694 0 0
0.617334 0 0
0.660945 0 0
0.701793 0 0
0.739284 0 0
0.772885 0 0
0.80238 0 0
0.828122 0 0
0.850523 0 0
0.869978 0 0
0.886931 0 0
0.902052 0 0
0.915984 0 0
0.929381 0 0
0.942718 0 0
0.956436 0 0
0.970916 0 0
0 0.0360723 0.00534066
0 0.0280766 0
0 0.0225376 0
0.000274662 0.018616 0
0.0331121 0.0149691 0
0.0692149 0.0101167 0
0.104341 0.00529488 0
0.14049 0.000122072 0
0.179431 0 0
0.222019 0 0
0.268727 0 0
0.319005 0 0
0.370947 0 0
0.422705 0 0
0.472587 0 0
0.519509 0 0
0.565408 0 0
0.610056 0 0
0.652689 0 0
0.692622 0 0
0.729274 0 0
0.762158 0 0
0.791028 0 0
0.816281 0 0
0.838361 0 0
0.857649 0 0
0.874754 0 0
0.890562 0 0
0.905562 0 0
0.920226 0 0
0.934997 0 0
0.950286 0 0
0.966552 0 0
0 0.0601511 0.0031281
0 0.052781 0
0 0.0462196 0
0 0.0419776 0
0.0195926 0.0382849 0
0.0517586 0.0346685 0
0.0905776 0.0294041 0
0.130648 0.0232548 0
0.172961 0.0163729 0
0.217853 0.00874342 0
0.265797 0.000274662 0
0.316381 0 0
0.368093 0 0
0.419272 0 0
0.468406 0 0
0.514504 0 0
0.559472 0 0
0.603189 0 0
0.644907 0 0
0.683986 0 0
0.71989 0 0
0.752178 0 0
0.780636 0 0
0.805661 0 0
0.827832 0 0
0.847791 0 0
0.866011 0 0
0.883146 0 0
0.899687 0 0
0.91603 0 0
0.932631 0 0
0.949905 0 0
0.968215 0 0
0 0.0834821 0.000717174
0 0.0775769 0
0 0.0694743 0
0 0.0649424 0
0.00842298 0.0611276 0
0.0397803 0.0573892 0
0.0733196 0.0534676 0
0.115206 0.0476997 0
0.160464 0.0403754 0
0.208408 0.0321355 0
0.258885 0.0231785 0
0.311238 0.0137484 0
0.363867 0.00434882 0
0.415198 0 0
0.464057 0 0
0.509621 0 0
0.553918 0 0
0.596902 0 0
0.637842 0 0
0.676249 0 0
0.711604 0 0
0.743526 0 0
0.771954 0 0
0.797589 0 0
0.82089 0 0
0.842252 0 0
0.862089 0 0
0.88101 0 0
0.899458 0 0
0.917876 0 0
0.936614 0 0
0.956069 0 0
0.976608 0 0
0 0.106767 0
0 0.101488 0
0 0.0930037 0
0 0.0882124 0
0 0.0843214 0
0.0287175 0.0805829 0
0.061677 0.076585 0
0.0984207 0.0720989 0
0.144945 0.0654917 0
0.19527 0.0571603 0
0.248112 0.0479591 0
0.302663 0.0383001 0
0.356893 0.0288243 0
0.409262 0.0200351 0
0.45864 0.0122835 0
0.504234 0.00581369 0
0.548318 0 0
0.590921 0 0
0.631479 0 0
0.669566 0 0
0.704814 0 0
0.737209 0 0
0.766751 0 0
0.79382 0 0
0.818784 0 0
0.842008 0 0
0.863828 0 0
0.884871 0 0
0.905516 0 0
0.926146 0.00375372 0
0.947127 0.00790417 0
0.968856 0.0120546 0
0.991714 0.0160983 0
0 0.130694 0
0 0.125963 0
0 0.117662 0
0 0.112474 0
0 0.108492 0
0.0173495 0.104692 0
0.051194 0.100694 0
0.0871901 0.0961776 0
0.128664 0.0910201 0
0.180041 0.0835889 0
0.234928 0.0745403 0
0.291341 0.0649119 0
0.347387 0.0554818 0
0.401221 0.0468147 0
0.451591 0.0393378 0
0.497917 0.0332952 0
0.542504 0.0280156 0
0.585351 0.0235599 0
0.626108 0.0200198 0
0.664729 0.0173953 0
0.701106 0.0156863 0
0.734981 0.0149538 0
0.766217 0.0152132 0
0.795193 0.0163424 0
0.822202 0.0182498 0
0.847578 0.0208438 0
0.871626 0.0240177 0
0.894911 0.0276188 0
0.9178 0.0315557 0
0.940703 0.0357061 0
0.963958 0.0399634 0
0.987686 0.0442969 0
1 0.0487526 0
0 0.155917 0
0 0.151751 0
0 0.144717 0
0 0.138186 0
0 0.133928 0
0.00585946 0.130068 0
0.0407874 0.126116 0
0.0776684 0.121736 0
0.117525 0.116747 0
0.164218 0.110994 0
0.220264 0.102922 0
0.278523 0.0936599 0
0.336141 0.0845197 0
0.391577 0.0761578 0
0.443397 0.0690318 0
0.490959 0.063386 0
0.536568 0.0585946 0
0.580636 0.0545815 0
0.622889 0.0513771 0
0.663203 0.0490425 0
0.701427 0.0475776 0
0.737316 0.0470436 0
0.770687 0.0474708 0
0.801877 0.0487526 0
0.831174 0.0507973 0
0.858839 0.0535286 0
0.885145 0.0568399 0
0.910704 0.0605936 0
0.935775 0.0646677 0
0.960266 0.0691081 0
0.984482 0.0738384 0
1 0.0787518 0
1 0.0837262 0
0 0.183001 0
0 0.179126 0
0 0.173816 0
0 0.165759 0
0 0.161105 0
0 0.157168 0
0.0305028 0.153277 0
0.0684977 0.149065 0
0.109209 0.144289 0
0.15317 0.139086 0
0.205356 0.132921 0
0.265034 0.124697 0
0.324407 0.116091 0
0.381323 0.108171 0
0.434745 0.101442 0
0.484001 0.0961471 0
0.531518 0.0916457 0
0.577661 0.0878614 0
0.622171 0.0848402 0
0.664958 0.0826276 0
0.705592 0.0813001 0
0.743893 0.0809033 0
0.779675 0.0814527 0
0.813245 0.082887 0
0.844862 0.085069 0
0.874769 0.0879225 0
0.903044 0.0914168 0
0.92987 0.095491 0
0.955627 0.100069 0
0.980713 0.104997 0
1 0.11017 0
1 0.115465 0
1 0.12079 0
0 0.211872 0
0 0.208179 0
0 0.203555 0
0 0.196063 0
0 0.190478 0
0 0.186374 0
0.0207065 0.182559 0
0.0602274 0.178546 0
0.102144 0.17409 0
0.146685 0.169131 0
0.195041 0.163973 0
0.251987 0.157656 0
0.312963 0.150011 0
0.371633 0.142672 0
0.426673 0.136416 0
0.477897 0.131487 0
0.527657 0.127245 0
0.576288 0.123659 0
0.623423 0.12079 0
0.668803 0.1187 0
0.712154 0.117479 0
0.753094 0.117189 0
0.791485 0.1178 0
0.827359 0.119295 0
0.860807 0.121645 0
0.891875 0.124819 0
0.920867 0.128725 0
0.948333 0.133196 0
0.974655 0.138094 0
1 0.143328 0
1 0.14876 0
1 0.154284 0
1 0.159777 0
0 0.242451 0
0 0.238895 0
0 0.23473 0
0 0.22977 0
0 0.222232 0
0 0.217777 0
0.0127565 0.213931 0
0.0541085 0.210086 0
0.0974746 0.205905 0
0.14313 0.201343 0
0.191226 0.196475 0
0.243778 0.191608 0
0.303136 0.185794 0
0.36321 0.179477 0
0.419928 0.173892 0
0.472877 0.169482 0
0.524712 0.165667 0
0.575692 0.162371 0
0.625376 0.159716 0
0.67335 0.157763 0
0.719203 0.156603 0
0.762493 0.156344 0
0.802686 0.157076 0
0.839872 0.158801 0
0.874327 0.16141 0
0.906249 0.164813 0
0.936065 0.168917 0
0.964202 0.173556 0
0.991058 0.178622 0
1 0.183963 0
1 0.189471 0
1 0.19501 0
1 0.200488 0
0 0.274708 0
0 0.271199 0
0 0.267247 0
0 0.263035 0
0 0.257145 0
0 0.251057 0
0.00813306 0.247074 0
0.0515602 0.243336 0
0.0965286 0.239429 0
0.143374 0.235294 0
0.191974 0.231006 0
0.242298 0.226963 0
0.296773 0.223102 0
0.355749 0.218616 0
0.413687 0.214115 0
0.468193 0.210452 0
0.521599 0.207187 0
0.574258 0.204303 0
0.625803 0.201907 0
0.6757 0.200122 0
0.723384 0.199069 0
0.768215 0.198917 0
0.809689 0.199771 0
0.84802 0.201587 0
0.883452 0.204273 0
0.916228 0.207736 0
0.946654 0.211887 0
0.975341 0.216526 0
1 0.221546 0
1 0.226825 0
1 0.232197 0
1 0.237598 0
1 0.242863 0
0 0.308003 0
0 0.304356 0
0 0.300435 0
0 0.296483 0
0 0.292103 0
0 0.285634 0
0.00906386 0.281315 0
0.0546426 0.277714 0
0.100633 0.274311 0
0.147524 0.271046 0
0.195697 0.267811 0
0.245075 0.264668 0
0.29575 0.262135 0
0.34995 0.259724 0
0.406638 0.256947 0
0.461753 0.254337 0
0.516106 0.251789 0
0.569711 0.249439 0
0.622415 0.247364 0
0.67364 0.245716 0
0.722667 0.244739 0
0.768765 0.244602 0
0.811368 0.245441 0
0.850706 0.247196 0
0.887007 0.249805 0
0.920501 0.253147 0
0.951553 0.25716 0
0.980743 0.261646 0
1 0.266453 0
1 0.271473 0
1 0.27657 0
1 0.281621 0
1 0.286519 0
0 0.341024 0
0 0.337072 0
0 0.332998 0
0 0.329107 0
0 0.32517 0
0 0.320775 0
0.018143 0.315877 0
0.0639963 0.313085 0
0.109255 0.310811 0
0.154986 0.308766 0
0.201785 0.306798 0
0.249744 0.304875 0
0.298131 0.303273 0
0.347585 0.302281 0
0.399252 0.301442 0
0.45211 0.300511 0
0.5066 0.298924 0
0.561471 0.296971 0
0.615503 0.295048 0
0.667887 0.293492 0
0.717906 0.2925 0
0.764858 0.292317 0
0.808301 0.293034 0
0.848386 0.294621 0
0.885328 0.297017 0
0.919356 0.30013 0
0.950835 0.303868 0
0.980362 0.308034 0
1 0.31249 0
1 0.317159 0
1 0.322042 0
1 0.327031 0
1 0.332006 0
0 0.372396 0
0 0.368124 0
0 0.363882 0
0 0.360098 0
0 0.356924 0
0 0.354238 0
0.0332952 0.35137 0
0.0775464 0.349889 0
0.1205 0.349096 0
0.163836 0.348531 0
0.208301 0.347967 0
0.254078 0.347341 0
0.300435 0.346822 0
0.346716 0.346716 0
0.394003 0.346944 0
0.443091 0.347189 0
0.495857 0.346654 0
0.550896 0.345357 0
0.605814 0.343725 0
0.659205 0.342214 0
0.710124 0.341161 0
0.757809 0.34081 0
0.801801 0.341314 0
0.842298 0.342657 0
0.879561 0.344747 0
0.913832 0.347509 0
0.945602 0.350942 0
0.97554 0.354971 0
1 0.359426 0
1 0.364218 0
1 0.369192 0
1 0.374258 0
1 0.379263 0
0 0.401129 0
0 0.396796 0
0 0.39324 0
0 0.390784 0
0 0.389288 0
0.00984207 0.38854 0
0.0511177 0.388342 0
0.0920729 0.388556 0
0.131472 0.389471 0
0.171511 0.390494 0
0.212924 0.391379 0
0.255863 0.392096 0
0.300618 0.392401 0
0.346532 0.392432 0
0.392645 0.392645 0
0.439017 0.393225 0
0.488212 0.393439 0
0.540749 0.392966 0
0.59498 0.391897 0
0.648707 0.39057 0
0.700175 0.389456 0
0.74844 0.388891 0
0.792874 0.38912 0
0.833829 0.390265 0
0.871611 0.392294 0
0.906493 0.395148 0
0.938842 0.398733 0
0.969284 0.402869 0
0.998322 0.407431 0
1 0.412284 0
1 0.417288 0
1 0.422354 0
1 0.427329 0
0 0.428153 0
0 0.425345 0
0 0.423606 0
0 0.423133 0
0 0.423728 0
0.0329595 0.425147 0
0.0686351 0.427192 0
0.103853 0.429618 0
0.138949 0.432319 0
0.175082 0.434928 0
0.214237 0.436805 0
0.256748 0.437781 0
0.301549 0.438132 0
0.347463 0.438163 0
0.393362 0.438163 0
0.438529 0.438529 0
0.485237 0.438788 0
0.534371 0.438712 0
0.585763 0.438163 0
0.638117 0.437278 0
0.689555 0.436469 0
0.738308 0.436179 0
0.783536 0.436683 0
0.825269 0.438041 0
0.863722 0.440223 0
0.899199 0.443198 0
0.932036 0.44686 0
0.962921 0.451041 0
0.992325 0.455619 0
1 0.460456 0
1 0.465431 0
1 0.47042 0
1 0.475288 0
0 0.45771 0
0 0.457099 0
0 0.457633 0
0 0.459434 0
0.0162661 0.462257 0
0.0475166 0.465843 0
0.0775464 0.469993 0
0.107393 0.474357 0
0.139834 0.47805 0
0.175494 0.480873 0
0.214633 0.482719 0
0.257069 0.483635 0
0.301747 0.483879 0
0.347509 0.483742 0
0.393194 0.483528 0
0.437919 0.483467 0
0.483436 0.483436 0
0.530449 0.483497 0
0.579049 0.483543 0
0.628977 0.483543 0
0.679057 0.483574 0
0.727565 0.483879 0
0.773083 0.484794 0
0.815229 0.486397 0
0.8542 0.488746 0
0.890135 0.491783 0
0.923384 0.495476 0
0.95462 0.499657 0
0.984314 0.504173 0
1 0.508919 0
1 0.513771 0
1 0.518624 0
1 0.523308 0
0 0.491569 0
0 0.493416 0
0 0.496345 0
0 0.50045 0
0.0245823 0.505486 0
0.0505074 0.510933 0
0.0778668 0.515984 0
0.107362 0.520424 0
0.139727 0.524025 0
0.17525 0.526711 0
0.214206 0.528389 0
0.256413 0.529061 0
0.300847 0.529061 0
0.346471 0.528801 0
0.392187 0.528618 0
0.437095 0.52871 0
0.482612 0.528725 0
0.528847 0.528847 0
0.575753 0.529168 0
0.623255 0.529671 0
0.670909 0.530358 0
0.717708 0.531319 0
0.762356 0.532723 0
0.804303 0.534676 0
0.843351 0.537224 0
0.879499 0.540352 0
0.912886 0.54406 0
0.94432 0.54818 0
0.974182 0.552605 0
1 0.557214 0
1 0.561883 0
1 0.566506 0
1 0.570947 0
0 0.530404 0
0 0.534707 0
0 0.540017 0
0 0.545769 0
0.0247807 0.551415 0
0.0505531 0.556786 0
0.07776 0.561685 0
0.107073 0.565927 0
0.139178 0.569284 0
0.174487 0.571756 0
0.213382 0.573358 0
0.255665 0.574121 0
0.300298 0.574319 0
0.34612 0.574243 0
0.392004 0.574228 0
0.437049 0.574472 0
0.482689 0.574563 0
0.528786 0.574594 0
0.574884 0.574884 0
0.620829 0.575494 0
0.666377 0.576471 0
0.710903 0.577829 0
0.753719 0.579675 0
0.7944 0.581979 0
0.832685 0.584756 0
0.868391 0.588006 0
0.901656 0.59173 0
0.932998 0.595789 0
0.962798 0.600092 0
0.99144 0.604517 0
1 0.608972 0
1 0.613321 0
1 0.617456 0
0 0.574289 0
0 0.579934 0
0 0.585489 0
0.000488289 0.591073 0
0.0252232 0.596506 0
0.0507515 0.601617 0
0.0777905 0.606348 0
0.107088 0.610574 0
0.13933 0.614069 0
0.174853 0.616754 0
0.213931 0.61854 0
0.256367 0.619455 0
0.301137 0.619776 0
0.347051 0.619806 0
0.393011 0.619867 0
0.438102 0.620142 0
0.483742 0.620264 0
0.529824 0.620264 0
0.575662 0.620325 0
0.620798 0.620798 0
0.664942 0.621729 0
0.707683 0.623163 0
0.748501 0.625162 0
0.787396 0.627649 0
0.824201 0.630594 0
0.858793 0.633936 0
0.891218 0.637675 0
0.921935 0.641672 0
0.951247 0.645823 0
0.979568 0.65005 0
1 0.654231 0
1 0.658274 0
1 0.662074 0
0 0.618936 0
0 0.624353 0
0 0.629664 0
0.0019379 0.635142 0
0.0267185 0.64062 0
0.05243 0.645899 0
0.0796674 0.650843 0
0.109133 0.655238 0
0.141527 0.658885 0
0.177172 0.661677 0
0.216327 0.663554 0
0.258824 0.66453 0
0.303624 0.664897 0
0.349569 0.664942 0
0.395483 0.664958 0
0.440528 0.665202 0
0.486107 0.665232 0
0.532082 0.665125 0
0.577783 0.665034 0
0.622522 0.665171 0
0.665843 0.665843 0
0.707347 0.667109 0
0.74667 0.668986 0
0.783886 0.671412 0
0.818998 0.674296 0
0.85211 0.677592 0
0.883238 0.681224 0
0.91284 0.685084 0
0.941238 0.689052 0
0.968688 0.693034 0
0.995651 0.696925 0
1 0.700633 0
1 0.704021 0
0 0.662181 0
0 0.667689 0
0 0.673213 0
0.00595102 0.678874 0
0.0308843 0.68452 0
0.056733 0.689937 0
0.0840772 0.694987 0
0.113634 0.699458 0
0.146075 0.703151 0
0.181735 0.705974 0
0.22089 0.707851 0
0.263371 0.708797 0
0.30811 0.709102 0
0.353964 0.709056 0
0.399756 0.708965 0
0.444663 0.709056 0
0.490059 0.708934 0
0.535851 0.708614 0
0.581323 0.708293 0
0.625788 0.708125 0
0.668589 0.708385 0
0.70927 0.70927 0
0.747478 0.710826 0
0.783383 0.712963 0
0.817105 0.715587 0
0.848753 0.718624 0
0.878431 0.721996 0
0.906691 0.725582 0
0.933822 0.729229 0
0.960143 0.732876 0
0.986038 0.736416 0
1 0.739742 0
1 0.742779 0
0 0.704982 0
0 0.710658 0
0 0.716289 0
0.0128939 0.722057 0
0.0379034 0.727764 0
0.0637827 0.733227 0
0.0911574 0.738293 0
0.120684 0.742748 0
0.153094 0.746395 0
0.188678 0.749157 0
0.227741 0.750927 0
0.270085 0.751751 0
0.314672 0.751904 0
0.360342 0.751675 0
0.405936 0.751385 0
0.450599 0.751232 0
0.495735 0.750851 0
0.541238 0.75024 0
0.586389 0.749599 0
0.630503 0.749081 0
0.672908 0.748882 0
0.712963 0.749264 0
0.750347 0.750347 0
0.785214 0.752026 0
0.817761 0.754208 0
0.848142 0.756802 0
0.87657 0.759762 0
0.903502 0.762905 0
0.929351 0.766155 0
0.954467 0.769406 0
0.979217 0.77258 0
1 0.77554 0
1 0.778225 0
0 0.747234 0
0 0.752956 0
0 0.758633 0
0.022385 0.764401 0
0.0473793 0.770077 0
0.0732128 0.775494 0
0.100496 0.780468 0
0.129915 0.784833 0
0.162188 0.788342 0
0.19762 0.790936 0
0.236484 0.792523 0
0.278614 0.793118 0
0.322957 0.793027 0
0.368353 0.792523 0
0.413642 0.791913 0
0.457969 0.79144 0
0.502754 0.790692 0
0.54786 0.789715 0
0.592599 0.788647 0
0.636271 0.787701 0
0.678218 0.78703 0
0.717739 0.786816 0
0.754391 0.787289 0
0.788403 0.788403 0
0.819989 0.790036 0
0.849332 0.792126 0
0.876677 0.794583 0
0.902556 0.797269 0
0.927321 0.800092 0
0.951308 0.802915 0
0.974975 0.805692 0
0.998688 0.808286 0
1 0.810605 0
0 0.788647 0
0 0.794339 0
0.00932326 0.799954 0
0.0339666 0.805631 0
0.0588388 0.8112 0
0.0845197 0.816464 0
0.111635 0.821271 0
0.140871 0.825422 0
0.1729 0.828717 0
0.208072 0.831052 0.00180056
0.246662 0.832349 0.00309758
0.288472 0.832639 0.0033875
0.332479 0.832197 0.00296025
0.377508 0.831327 0.00209049
0.4224 0.830335 0.00108339
0.466316 0.829435 0.000198367
0.510643 0.828244 0
0.555261 0.826764 0
0.599496 0.825208 0
0.642634 0.823713 0
0.684047 0.822507 0
0.723003 0.821744 0
0.759075 0.821591 0
0.792386 0.82211 0
0.823194 0.823194 0
0.851698 0.824765 0
0.878187 0.826734 0
0.903166 0.828946 0
0.927001 0.831296 0
0.950103 0.833707 0
0.972808 0.836072 0
0.995514 0.838254 0
1 0.840208 0
0 0.829007 0
0 0.834577 0
0.0227054 0.840024 0
0.0471656 0.845518 0
0.0718242 0.850874 0
0.097261 0.855909 0
0.124117 0.860441 0.00450141
0.153048 0.864302 0.00836194
0.184756 0.867277 0.0113222
0.219577 0.869261 0.0133059
0.257786 0.870176 0.0142367
0.299199 0.870054 0.0141146
0.342763 0.869184 0.0132448
0.387335 0.867857 0.0119173
0.431739 0.866377 0.0104219
0.475135 0.864958 0.00901808
0.518929 0.863218 0.00727855
0.562997 0.861204 0.00526436
0.606683 0.859098 0.00315862
0.649302 0.857084 0.00112917
0.690181 0.855329 0
0.728618 0.854047 0
0.764172 0.853361 0
0.796902 0.8533 0
0.82707 0.853849 0
0.854887 0.854887 0
0.880644 0.856367 0
0.904875 0.858122 0
0.927947 0.860014 0
0.95024 0.861997 0
0.972152 0.863935 0
0.994064 0.865721 0
1 0.867292 0
0 0.868086 0
0.0125887 0.873426 0
0.0372168 0.87863 0
0.0614176 0.883848 0.00383001
0.085771 0.888899 0.00888075
0.110872 0.893584 0.0135653
0.137362 0.897765 0.0177615
0.165911 0.901244 0.0212253
0.197208 0.903792 0.0237736
0.231586 0.905333 0.0253147
0.269322 0.905776 0.0257572
0.310231 0.905165 0.0251469
0.353262 0.903761 0.023743
0.397299 0.9019 0.0218814
0.441154 0.899855 0.019852
0.484016 0.897902 0.0178988
0.527276 0.895644 0.0156252
0.570825 0.893095 0.0130922
0.613993 0.890471 0.0104677
0.656092 0.887938 0.00793469
0.696468 0.885695 0.00567636
0.734417 0.883925 0.00390631
0.769467 0.882734 0.00271611
0.801709 0.882155 0.00202945
0.831342 0.88217 0.00117494
0.858564 0.882719 9.15541e-05
0.883711 0.883711 0
0.907286 0.884993 0
0.929702 0.886458 0
0.951324 0.887999 0
0.972534 0.889525 0
0.993713 0.890929 0
1 0.892119 0
0.00360113 0.90573 0.00360113
0.0278172 0.910765 0.00862135
0.0521096 0.915633 0.013489
0.0759289 0.92047 0.0183413
0.0998703 0.925124 0.0229953
0.124559 0.929397 0.0272526
0.150591 0.93312 0.0309911
0.178653 0.93611 0.0339666
0.209445 0.93814 0.0360113
