luts/Killstreak.cube
TITLE "Generated by Resolve"
LUT_3D_SIZE 5
0 0.0126497 0.00808728
0.18175 0 0
0.571694 0 0
0.850523 0 0
0.970916 0 0
0 0.211872 0
0.102144 0.17409 0
0.527657 0.127245 0
0.860807 0.121645 0
1 0.159777 0
0 0.45771 0
0.139834 0.47805 0
0.483436 0.483436 0
0.8542 0.488746 0
1 0.523308 0
0 0.788647 0
0.1729 0.828717 0
0.510643 0.828244 0
0.823194 0.823194 0
1 0.840208 0
0.0681163 1 0.0681163
0.253925 1 0.0804913
0.561532 1 0.0498817
0.847593 1 0.0183413
1 1 0.0101167
0 0.00505074 0.296696
0.161898 0 0.255421
0.530327 0 0.164065
0.794278 0 0.0968032
0.927428 0 0.0941939
0 0.20264 0.25211
0.111269 0.170718 0.202945
0.491066 0.144671 0.148699
0.820111 0.146624 0.146624
1 0.187274 0.187274
0 0.456535 0.114519
0.153887 0.492088 0.153887
0.496925 0.496925 0.156893
0.872847 0.499962 0.102861
1 0.534096 0.135714
0 0.802609 0.146807
0.185473 0.841276 0.185473
0.520378 0.837964 0.182162
0.82945 0.82945 0.170108
1 0.843107 0.145876
0.0733196 1 0.246754
0.256199 1 0.256199
0.5617 1 0.223484
0.84651 1 0.190692
1 1 0.182849
0 0 0.844923
0.129061 0 0.794705
0.49279 0 0.632807
0.755062 0 0.473884
0.906752 0 0.42681
0 0.174472 0.738903
0.117647 0.156115 0.593057
0.481636 0.146197 0.483452
0.803342 0.153338 0.488548
1 0.195544 0.530739
0 0.45272 0.45272
0.155947 0.493812 0.493812
0.498802 0.498802 0.498802
0.83331 0.507881 0.507881
1 0.546151 0.546151
0 0.804288 0.486809
0.185458 0.841108 0.523583
0.517021 0.834607 0.517021
0.82269 0.82269 0.50338
1 0.831022 0.469688
0.0657511 1 0.577279
0.245823 1 0.583993
0.549462 1 0.549462
0.833265 1 0.515663
1 1 0.5093
0 0 1
0.100694 0 1
0.4607 0 0.999741
0.728969 0 0.773648
0.898833 0 0.729747
0 0.151934 1
0.131106 0.150423 0.885161
0.483452 0.147631 0.79881
0.807294 0.156909 0.807294
1 0.198993 0.84918
0 0.456352 0.773251
0.159243 0.496574 0.813352
0.502586 0.502586 0.818616
0.828534 0.513558 0.828534
1 0.551461 0.8663
0 0.806943 0.806943
0.186267 0.841382 0.841382
0.51426 0.831525 0.831525
0.816388 0.816388 0.816388
0.998108 0.82295 0.82295
0.0588998 1 0.887541
0.236484 1 0.891859
0.538445 1 0.855909
0.821363 0.991913 0.821363
0.988083 0.988083 0.816602
0 0 1
0.0929274 0 1
0.448295 0 1
0.724361 0 0.919249
0.906569 0 0.906569
0 0.148791 1
0.152499 0.160021 1
0.496498 0.16054 0.981414
0.821881 0.171252 0.991089
1 0.212467 1
0 0.470573 0.957443
0.173205 0.510369 0.997009
0.51696 0.51696 1
0.842206 0.527001 1
1 0.5626 1
0 0.819623 0.989929
0.196429 0.851209 1
0.521019 0.837964 1
0.819913 0.819913 0.989624
0.994461 0.82533 0.994461
0.0616159 1 1
0.237095 1 1
0.537789 1 1
0.820142 0.990509 0.990509
0.986954 0.986954 0.986954
