luts/Killstreak.cube
TITLE "Generated by Resolve"
LUT_3D_SIZE 9
0 0.0126497 0.00808728
0.0444038 0 0
0.18175 0 0
0.373785 0 0
0.571694 0 0
0.739284 0 0
0.850523 0 0
0.915984 0 0
0.970916 0 0
0 0.106767 0
0 0.0843214 0
0.144945 0.0654917 0
0.356893 0.0288243 0
0.548318 0 0
0.704814 0 0
0.818784 0 0
0.905516 0 0
0.991714 0.0160983 0
0 0.211872 0
0 0.190478 0
0.102144 0.17409 0
0.312963 0.150011 0
0.527657 0.127245 0
0.712154 0.117479 0
0.860807 0.121645 0
0.974655 0.138094 0
1 0.159777 0
0 0.341024 0
0 0.32517 0
0.109255 0.310811 0
0.298131 0.303273 0
0.5066 0.298924 0
0.717906 0.2925 0
0.885328 0.297017 0
1 0.31249 0
1 0.332006 0
0 0.45771 0
0.0162661 0.462257 0
0.139834 0.47805 0
0.301747 0.483879 0
0.483436 0.483436 0
0.679057 0.483574 0
0.8542 0.488746 0
0.984314 0.504173 0
1 0.523308 0
0 0.618936 0
0.0267185 0.64062 0
0.141527 0.658885 0
0.303624 0.664897 0
0.486107 0.665232 0
0.665843 0.665843 0
0.818998 0.674296 0
0.941238 0.689052 0
1 0.704021 0
0 0.788647 0
0.0588388 0.8112 0
0.1729 0.828717 0
0.332479 0.832197 0.00296025
0.510643 0.828244 0
0.684047 0.822507 0
0.823194 0.823194 0
0.927001 0.831296 0
1 0.840208 0
0.019028 0.941802 0.019028
0.113497 0.959381 0.0366064
0.22092 0.97026 0.0474861
0.372732 0.965988 0.0432136
0.542687 0.953811 0.0310369
0.708049 0.940032 0.0172732
0.839292 0.932815 0.0100252
0.933654 0.933654 0.00590524
1 0.936736 0
0.0681163 1 0.0681163
0.154376 1 0.0774853
0.253925 1 0.0804913
0.398306 1 0.0687877
0.561532 1 0.0498817
0.72108 1 0.0303044
0.847593 1 0.0183413
0.937987 1 0.0148318
1 1 0.0101167
0 0.00984207 0.13695
0.0362707 0 0.115496
0.169375 0 0.0967422
0.353384 0 0.0582284
0.541741 0 0.0150759
0.704845 0 0
0.815793 0 0
0.884367 0 0
0.944884 0 0
0 0.103731 0.126543
0 0.0813764 0.104067
0.130831 0.0639658 0.0841688
0.31873 0.0350652 0.048188
0.506325 0.00991836 0.0153811
0.666728 0 0
0.788281 0 0
0.882033 0.0115969 0.0117189
0.973449 0.0278019 0.0278019
0 0.208515 0.0973678
0 0.187732 0.0796216
0.106554 0.173083 0.0681926
0.318029 0.150271 0.0297551
0.519203 0.133501 0.02121
0.697261 0.127764 0.0213474
0.844373 0.133562 0.0289158
0.957443 0.151064 0.0471809
1 0.173266 0.0698711
0 0.335378 0.030396
0 0.321202 0.0395972
0.125933 0.312856 0.0499733
0.30779 0.309453 0.0548104
0.516899 0.305318 0.011841
0.724834 0.29926 0.00166323
0.888792 0.304341 0.00888075
1 0.320119 0.0268101
1 0.340536 0.049134
0 0.456733 0.00737011
0.0307622 0.467658 0.0322423
0.147601 0.485817 0.0510567
0.309239 0.491371 0.056611
0.490837 0.490837 0.0537423
0.689326 0.490639 0.00842298
0.864469 0.495247 0
0.993347 0.510552 1.5259e-05
1 0.529503 0.0174258
0 0.626276 0.0123903
0.0342565 0.648157 0.0342565
0.149264 0.666621 0.0527199
0.311391 0.672648 0.0587472
0.493706 0.672831 0.0589456
0.67306 0.67306 0.0558633
0.826612 0.680873 0.0347295
0.949615 0.69453 0.0195163
1 0.708263 0.0138857
0 0.796368 0.0440223
0.066331 0.818677 0.066331
0.17998 0.835798 0.0834363
0.338964 0.838697 0.0863355
0.516365 0.833967 0.0816052
0.688884 0.827359 0.0749981
0.827176 0.827176 0.0707713
0.930419 0.834485 0.0627298
1 0.842542 0.0504005
0.0252689 0.948028 0.102159
0.118898 0.964782 0.118898
0.225467 0.974807 0.128923
0.376455 0.969711 0.123827
0.545632 0.956756 0.110872
0.710262 0.94226 0.096376
0.840833 0.934356 0.0884718
0.934646 0.934646 0.0841993
1 0.937316 0.0755016
0.0715496 1 0.14844
0.157046 1 0.157046
0.255894 1 0.15935
0.399649 1 0.147021
0.562387 1 0.127642
0.721569 1 0.107683
0.847791 1 0.0954299
0.938003 1 0.0919051
1 1 0.0873274
0 0.00505074 0.296696
0.0280613 0 0.274922
0.161898 0 0.255421
0.345266 0 0.214374
0.530327 0 0.164065
0.687358 0 0.120439
0.794278 0 0.0968032
0.863569 0 0.0912795
0.927428 0 0.0941939
0 0.0986343 0.28629
0 0.0762798 0.262715
0.1252 0.0594186 0.237552
0.307881 0.0338903 0.192905
0.486931 0.0137636 0.148775
0.643549 0.00482185 0.118532
0.768246 0.00779736 0.109728
0.8663 0.0205539 0.117494
0.960311 0.0371557 0.13373
0 0.20264 0.25211
0 0.183154 0.22652
0.111269 0.170718 0.202945
0.300099 0.155535 0.171176
0.491066 0.144671 0.148699
0.670542 0.140444 0.140459
0.820111 0.146624 0.146624
0.934081 0.164553 0.164553
1 0.187274 0.187274
0 0.327581 0.165225
0 0.316793 0.158999
0.140322 0.314702 0.158511
0.314916 0.314961 0.158038
0.524605 0.310018 0.126116
0.725139 0.305409 0.124071
0.881758 0.312062 0.134112
0.997345 0.328939 0.153079
1 0.35053 0.176211
0 0.456535 0.114519
0.0387274 0.473472 0.135271
0.153887 0.492088 0.153887
0.315175 0.497292 0.159091
0.496925 0.496925 0.156893
0.699382 0.495811 0.111498
0.872847 0.499962 0.102861
0.999756 0.515267 0.116686
1 0.534096 0.135714
0 0.632151 0.114839
0.0404822 0.654368 0.137026
0.155612 0.672969 0.155612
0.317693 0.67895 0.161593
0.499779 0.67892 0.161563
0.678706 0.678706 0.158572
0.833234 0.68571 0.134463
0.957443 0.697932 0.119234
1 0.710338 0.116716
0 0.802609 0.146807
0.072282 0.824628 0.168826
0.185473 0.841276 0.185473
0.343801 0.843519 0.187716
0.520378 0.837964 0.182162
0.692027 0.830488 0.174685
0.82945 0.82945 0.170108
0.932311 0.835966 0.160449
1 0.843107 0.145876
0.0298314 0.95259 0.203265
0.122591 0.968475 0.219135
0.228305 0.977646 0.228305
0.378485 0.97174 0.2224
0.546914 0.958038 0.208698
0.710842 0.942824 0.193484
0.840757 0.934295 0.184955
0.934066 0.934066 0.180682
1 0.936355 0.171145
0.0733196 1 0.246754
0.158068 1 0.254612
0.256199 1 0.256199
0.399405 1 0.243305
0.5617 1 0.223484
0.720531 1 0.203174
0.84651 1 0.190692
0.936553 1 0.187152
1 1 0.182849
0 0 0.55021
0.0113832 0 0.527916
0.147066 0 0.507332
0.33022 0 0.456336
0.51281 0 0.389227
0.667659 0 0.324605
0.774777 0 0.280156
0.84799 0 0.259205
0.91635 0 0.251896
0 0.0871443 0.539635
0 0.0649119 0.509529
0.113954 0.0489815 0.471504
0.296742 0.0264897 0.406363
0.474739 0.0106355 0.336858
0.632914 0.00447089 0.285847
0.759686 0.00886549 0.26627
0.860288 0.0219577 0.272343
0.954421 0.0397498 0.29012
0 0.189822 0.486397
0 0.173022 0.443214
0.113985 0.163668 0.395468
0.299718 0.153292 0.340261
0.482658 0.147265 0.307286
0.657908 0.145174 0.29987
0.803296 0.153338 0.308034
0.915053 0.17232 0.327031
1 0.195193 0.349981
0 0.313542 0.35552
0 0.308797 0.328054
0.14963 0.313329 0.317143
0.31667 0.31667 0.31667
0.502602 0.315984 0.315984
0.686931 0.315938 0.315938
0.836423 0.324376 0.324376
0.951125 0.341894 0.341894
1 0.36405 0.36405
0 0.454124 0.27248
0.0408789 0.475486 0.293431
0.155825 0.49398 0.311879
0.316762 0.498894 0.316762
0.498772 0.498772 0.315663
0.705913 0.495354 0.281285
0.872892 0.500008 0.286183
0.9944 0.516167 0.304311
1 0.53576 0.325811
0 0.63386 0.272663
0.0425269 0.656321 0.295109
0.157702 0.675013 0.313771
0.319631 0.680903 0.319631
0.501442 0.680583 0.31931
0.679835 0.679835 0.316625
0.837873 0.685405 0.287602
0.963104 0.695521 0.278828
1 0.706615 0.283665
0 0.804456 0.304784
0.0738384 0.826139 0.326452
0.186465 0.842252 0.34255
0.344076 0.843793 0.344076
0.519783 0.837385 0.337652
0.690578 0.829053 0.32932
0.827146 0.827146 0.324727
0.930205 0.832807 0.312413
1 0.838666 0.294545
0.0298466 0.952529 0.359335
0.121721 0.967544 0.374334
0.226581 0.975891 0.382666
0.375967 0.969223 0.375967
0.543648 0.954772 0.361517
0.706859 0.938857 0.345602
0.836225 0.929747 0.336507
0.929015 0.929015 0.33257
1 0.930938 0.321645
0.0705577 1 0.400061
0.154574 1 0.407187
0.252018 1 0.408103
0.39469 1 0.39469
0.556573 1 0.374456
0.715099 1 0.353826
0.840848 1 0.341131
0.930785 1 0.33753
1 1 0.333913
0 0 0.844923
0 0 0.821897
0.129061 0 0.794705
0.312261 0 0.725048
0.49279 0 0.632807
0.645945 0 0.540352
0.755062 0 0.473884
0.833036 0 0.440116
0.906752 0 0.42681
0 0.0724804 0.828977
0 0.0513771 0.784726
0.101839 0.0370184 0.725826
0.284764 0.0183719 0.632319
0.462455 0.00697337 0.533227
0.623301 0.00277714 0.465644
0.754437 0.00729381 0.441505
0.858518 0.0201114 0.451026
0.953613 0.03888 0.469795
0 0.174472 0.738903
0 0.161715 0.670253
0.117647 0.156115 0.593057
0.299748 0.150134 0.520256
0.481636 0.146197 0.483452
0.65742 0.144594 0.47985
0.803342 0.153338 0.488548
0.915297 0.17261 0.50782
1 0.195544 0.530739
0 0.299123 0.549203
0.0141299 0.301366 0.506981
0.154589 0.31162 0.494682
0.316762 0.316762 0.497978
0.498161 0.317556 0.498161
0.676905 0.318837 0.499352
0.823041 0.327764 0.508263
0.934524 0.346563 0.527062
1 0.369451 0.54995
0 0.45272 0.45272
0.0412909 0.475578 0.475578
0.155947 0.493812 0.493812
0.316747 0.49868 0.49868
0.498802 0.498802 0.498802
0.682521 0.49897 0.49897
0.83331 0.507881 0.507881
0.947921 0.525719 0.525719
1 0.546151 0.546151
0 0.633753 0.454719
0.0428473 0.656413 0.477378
0.158007 0.675135 0.496071
0.319692 0.680873 0.501778
0.501091 0.680232 0.501091
0.678889 0.678889 0.498787
0.842847 0.681422 0.472572
0.963546 0.690135 0.479011
1 0.700877 0.490501
0 0.804288 0.486809
0.0734569 0.825574 0.508064
0.185458 0.841108 0.523583
0.342229 0.841901 0.52433
0.517021 0.834607 0.517021
0.686992 0.825452 0.507851
0.82269 0.82269 0.50338
0.927687 0.827237 0.486137
1 0.831022 0.469688
0.0277714 0.950271 0.539269
0.118761 0.964446 0.553414
0.222766 0.971984 0.560922
0.371328 0.964538 0.553445
0.538247 0.949371 0.538247
0.700801 0.932784 0.52166
0.829648 0.923171 0.512047
0.921965 0.921965 0.508614
1 0.923461 0.495308
0.0657511 1 0.577279
0.149035 1 0.583703
0.245823 1 0.583993
0.387976 1 0.570092
0.549462 1 0.549462
0.707698 1 0.528557
0.833265 1 0.515663
0.92311 1 0.511986
1 1 0.5093
0 0 1
0 0 1
0.111986 0 1
0.29514 0 0.971756
0.47396 0 0.850553
0.626276 0 0.729747
0.73872 0 0.648249
0.821469 0 0.60827
0.90016 0 0.595789
0 0.0580148 1
0 0.0392004 1
0.0925154 0.026978 0.953506
0.275242 0.012665 0.828885
0.452979 0.00480659 0.707546
0.616464 0.00163272 0.633371
0.751446 0.00550851 0.614176
0.857389 0.0188296 0.627405
0.953353 0.0384833 0.647028
0 0.160418 0.962097
0 0.152804 0.865278
0.122957 0.150881 0.765423
0.300603 0.148409 0.687083
0.481056 0.145373 0.658839
0.657465 0.144396 0.657465
0.803815 0.153628 0.666545
0.915908 0.173068 0.685924
1 0.19588 0.70869
0 0.288441 0.718029
0.02916 0.29691 0.673396
0.155886 0.311421 0.671382
0.317143 0.317143 0.676616
0.498802 0.317952 0.676677
0.677287 0.319005 0.677287
0.823285 0.327886 0.68603
0.935012 0.34696 0.705058
1 0.36994 0.728008
0 0.45304 0.631861
0.0419013 0.475853 0.654658
0.156191 0.493721 0.672496
0.317174 0.498817 0.67747
0.499214 0.499214 0.67747
0.678355 0.50071 0.678355
0.825269 0.51046 0.688029
0.936309 0.528847 0.706386
1 0.549325 0.726864
0 0.633936 0.633936
0.0435035 0.656733 0.656733
0.158602 0.675395 0.675395
0.320043 0.680919 0.680919
0.500938 0.679881 0.679881
0.677928 0.677928 0.677928
0.823651 0.681773 0.681773
0.930587 0.692882 0.692882
1 0.705089 0.705089
0 0.804211 0.665843
0.0731975 0.825025 0.686656
0.184527 0.839902 0.701534
0.340414 0.839872 0.701488
0.514244 0.831754 0.693324
0.68333 0.82179 0.68333
0.818189 0.818189 0.678981
0.928527 0.820294 0.66006
1 0.822339 0.659159
0.0256962 0.947921 0.716075
0.115816 0.961242 0.729381
0.219013 0.967987 0.736095
0.366766 0.959808 0.727901
0.532891 0.943954 0.712001
0.694759 0.926757 0.694759
0.823133 0.916655 0.684672
0.914992 0.914992 0.681758
0.999405 0.91577 0.663859
0.0609751 1 0.751415
0.143542 1 0.757168
0.239765 1 0.756909
0.38143 1 0.74258
0.542489 1 0.721599
0.700435 1 0.700435
0.825864 0.996414 0.687404
0.915648 0.992676 0.68365
0.992584 0.992584 0.681895
0 0 1
0 0 1
0.100694 0 1
0.283375 0 1
0.4607 0 0.999741
0.613245 0 0.860548
0.728969 0 0.773648
0.815885 0 0.734936
0.898833 0 0.729747
0 0.0483101 1
0 0.0321355 1
0.0893873 0.0223392 1
0.271321 0.0120089 0.959426
0.448905 0.00627146 0.83093
0.614649 0.00321965 0.76109
0.752499 0.00637827 0.752499
0.85951 0.0207675 0.766766
0.956237 0.0412146 0.787137
0 0.151934 1
0 0.148531 0.990921
0.131106 0.150423 0.885161
0.304219 0.150286 0.813993
0.483452 0.147631 0.79881
0.660578 0.147311 0.797955
0.807294 0.156909 0.807294
0.919417 0.176425 0.826688
1 0.198993 0.84918
0 0.284428 0.836637
0.0411383 0.297642 0.801785
0.15903 0.314519 0.812284
0.3205 0.3205 0.817761
0.502174 0.321233 0.817731
0.6804 0.321935 0.817807
0.826596 0.331014 0.826596
0.938506 0.350301 0.845777
1 0.373297 0.868711
0 0.456352 0.773251
0.0452583 0.478996 0.795865
0.159243 0.496574 0.813352
0.3205 0.502022 0.81857
0.502586 0.502586 0.818616
0.681834 0.504005 0.819303
0.828534 0.513558 0.828534
0.939147 0.531548 0.846418
1 0.551461 0.8663
0 0.637156 0.775418
0.0470588 0.660029 0.798276
0.162036 0.678569 0.816815
0.323201 0.683818 0.822034
0.503609 0.682322 0.820447
0.679789 0.679789 0.817578
0.821134 0.683818 0.821134
0.924697 0.694743 0.831983
1 0.706676 0.843915
0 0.806943 0.806943
0.0756542 0.827207 0.827207
0.186267 0.841382 0.841382
0.341299 0.840482 0.840482
0.51426 0.831525 0.831525
0.68246 0.820783 0.820783
0.816388 0.816388 0.816388
0.9149 0.81886 0.81886
0.998108 0.82295 0.82295
0.0262455 0.948226 0.85478
0.115541 0.960708 0.867262
0.217929 0.966659 0.873213
0.364935 0.957748 0.864286
0.530327 0.941207 0.84773
0.691554 0.923461 0.829969
0.819409 0.912932 0.819409
0.910872 0.910872 0.816846
0.999832 0.909789 0.800458
0.0588998 1 0.887541
0.140795 1 0.892622
0.236484 1 0.891859
0.377722 1 0.877165
0.538445 1 0.855909
0.696101 1 0.834531
0.821363 0.991913 0.821363
0.911116 0.988144 0.817594
0.988083 0.988083 0.816602
0 0 1
0 0 1
0.095491 0 1
0.277256 0 1
0.453208 0 1
0.606546 0 0.939178
0.725231 0 0.854002
0.815702 0 0.821454
0.90193 0 0.825544
0 0.0439002 1
0 0.0300908 1
0.0919814 0.0229038 1
0.272465 0.015671 1
0.449775 0.0110933 0.908766
0.617395 0.00767529 0.850172
0.757137 0.0108644 0.849897
0.86511 0.0262455 0.86511
0.962509 0.0473487 0.886122
0 0.149126 1
0 0.14902 1
0.141604 0.15433 0.959381
0.310536 0.155627 0.903349
0.489281 0.153368 0.897612
0.667018 0.153613 0.897231
0.813993 0.16347 0.906767
0.926085 0.182956 0.926085
1 0.205173 0.948211
0 0.286275 0.912413
0.0510567 0.303029 0.894499
0.165499 0.320958 0.911818
0.327108 0.327108 0.917433
0.508659 0.327672 0.917235
0.686641 0.328054 0.91693
0.833173 0.337453 0.925948
0.94522 0.356893 0.94522
1 0.379858 0.968093
0 0.462898 0.873014
0.051667 0.485283 0.895338
0.165591 0.502831 0.912764
0.327062 0.508537 0.918196
0.509194 0.509194 0.918288
0.688411 0.510491 0.918837
0.834852 0.519753 0.927657
0.945006 0.537285 0.945006
1 0.556573 0.964202
0 0.643671 0.875273
0.0537575 0.66656 0.898131
0.168582 0.684932 0.916487
0.329366 0.68983 0.921309
0.509224 0.687831 0.919127
0.684627 0.684627 0.915465
0.825208 0.687755 0.918044
0.927916 0.697841 0.927916
1 0.708995 0.938979
0 0.812772 0.906172
0.0810712 0.832456 0.925856
0.190921 0.845853 0.939254
0.345068 0.844083 0.937469
0.517189 0.834272 0.927642
0.684596 0.822751 0.91606
0.817685 0.817685 0.91075
0.912917 0.820172 0.912917
0.993347 0.824292 0.916991
0.0297093 0.951507 0.951507
0.118181 0.963165 0.963165
0.219806 0.968353 0.968353
0.366079 0.958709 0.958709
0.5308 0.941482 0.941482
0.691493 0.923232 0.923232
0.818891 0.912322 0.912322
0.909926 0.909926 0.909926
0.9888 0.90988 0.90988
0.0597848 1 0.98172
0.141054 1 0.986191
0.236271 1 0.984955
0.377142 1 0.969894
0.53756 1 0.948379
0.695003 1 0.926863
0.820127 0.990631 0.913619
0.90985 0.986877 0.90985
0.986893 0.986893 0.909453
0 0 1
0 0 1
0.0929274 0 1
0.273564 0 1
0.448295 0 1
0.602808 0 0.998901
0.724361 0 0.919249
0.818143 0 0.895842
0.906569 0 0.906569
0 0.0416724 1
0 0.0301671 1
0.0973983 0.025803 1
0.275883 0.0210422 1
0.452918 0.0171206 0.971923
0.622232 0.0129854 0.928908
0.763287 0.016907 0.932479
0.872145 0.0331579 0.948547
0.970108 0.0548409 0.970108
0 0.148791 1
0.00854505 0.151812 1
0.152499 0.160021 1
0.317372 0.162173 0.98381
0.496498 0.16054 0.981414
0.674739 0.161227 0.981445
0.821881 0.171252 0.991089
0.933822 0.190585 1
1 0.212467 1
0 0.290852 0.976654
0.0586709 0.310353 0.978134
0.173236 0.328679 0.996185
0.334874 0.334874 1
0.516197 0.33518 1
0.694163 0.335485 1
0.84097 0.345144 1
0.953109 0.36466 1
1 0.387533 1
0 0.470573 0.957443
0.0590677 0.492607 0.979385
0.173205 0.510369 0.997009
0.334844 0.516289 1
0.51696 0.51696 1
0.696056 0.51809 1
0.842206 0.527001 1
0.951843 0.544015 1
1 0.5626 1
0 0.651423 0.959854
0.0615854 0.67425 0.982651
0.176165 0.692409 1
0.336538 0.696895 1
0.51577 0.694316 1
0.690349 0.690349 0.997848
0.830121 0.692592 0.999512
0.932036 0.701854 1
1 0.712215 1
0 0.819623 0.989929
0.0874189 0.838651 1
0.196429 0.851209 1
0.349706 0.848569 1
0.521019 0.837964 1
0.687617 0.825681 0.995743
0.819913 0.819913 0.989624
0.914565 0.821698 0.991028
0.994461 0.82533 0.994461
0.0340429 0.955688 1
0.121721 0.966552 1
0.222583 0.970977 1
0.368154 0.960632 1
0.53225 0.942779 1
0.69247 0.924056 1
0.819471 0.912764 0.989609
0.91014 0.91014 0.986786
0.986862 0.910475 0.986862
0.0616159 1 1
0.142321 1 1
0.237095 1 1
0.377615 1 1
0.537789 1 1
0.695079 1 1
0.820142 0.990509 0.990509
0.909865 0.986816 0.986816
0.986954 0.986954 0.986954
