luts/Kodak Portra 400-BMD 4K-VICHET VFX.cube
# Dehancer Core Generator v.1
TITLE "DVR WG/Intermediate, Kodak Portra 400: x33"
#
# This 3D LUT is generated by Dehancer OFX plugin. This Lut is the
# property of Dehancer Ltd and may be used by plugin License owner only.
# Copying and sharing with third parties or over broadband
# communications is strictly prohibited and will be prosecuted by law.
# 
# Plugin License owner: vichetvfx@gmail.com
# License ID: 2og2acfB852LPQ1n8vRa7ZgVBvrxQ1558ndScjTdtQadxUEp6W
# License Type: pro
# License activation name: Dehancer Film OFX
# License activated: 2023-09-12
# Lut generated: 2023-09-25
# Bundle ID: com.dehancer.film_pro.v7
# Input: DVR WG/Intermediate
# Film Profile: Kodak Portra 400
# Print Media Profile: Kodak 2383 Print Film
# Rec.709 input transform: enabled
#
# (c) Dehancer Ltd.
# www.dehancer.com
# mail@dehancer.com
#
# LUT SIZE 33x33x33, 17424, 574992
LUT_3D_SIZE 9
# Data domain
DOMAIN_MIN 0 0 0
DOMAIN_MAX 1 1 1
# LUT data points begin
0.065685 0.053074 0.036949
0.139326 0.079416 0.050417
0.253982 0.113890 0.070907
0.260025 0.191049 0.101908
0.383546 0.237660 0.149161
0.387777 0.195784 0.138288
0.384687 0.174704 0.128506
0.384505 0.172500 0.127842
0.373763 0.277301 0.158558
0.100339 0.092520 0.053144
0.099377 0.086439 0.051419
0.213179 0.107972 0.064703
0.283858 0.190673 0.105638
0.372901 0.249018 0.149384
0.389706 0.212769 0.144621
0.386384 0.190066 0.135963
0.386387 0.187539 0.134724
0.420108 0.252733 0.171820
0.200497 0.201236 0.098313
0.118356 0.170760 0.080551
0.195271 0.187720 0.093310
0.339918 0.265325 0.140008
0.461890 0.329904 0.211811
0.453820 0.275049 0.190795
0.423148 0.227045 0.163050
0.409199 0.212634 0.152314
0.430876 0.268642 0.182086
0.409171 0.383814 0.221594
0.319409 0.356726 0.186299
0.330320 0.347879 0.182134
0.447894 0.386119 0.230793
0.553084 0.401415 0.264731
0.542682 0.346396 0.250984
0.531707 0.316802 0.238579
0.526453 0.310451 0.234937
0.500995 0.331522 0.231888
0.562568 0.520305 0.322261
0.494123 0.517432 0.309912
0.478900 0.480453 0.289466
0.584595 0.516854 0.323596
0.592034 0.457694 0.307878
0.572428 0.418309 0.291186
0.562568 0.396392 0.280415
0.560347 0.391203 0.278196
0.602814 0.476212 0.315330
0.596994 0.567453 0.344497
0.523545 0.545367 0.326463
0.554746 0.560343 0.336696
0.660227 0.595809 0.362039
0.646361 0.551408 0.349085
0.651577 0.559779 0.352490
0.630587 0.525914 0.338550
0.624736 0.516208 0.334334
0.727720 0.678221 0.389793
0.596586 0.566832 0.344259
0.523545 0.545367 0.326463
0.560103 0.561652 0.337892
0.676291 0.598788 0.364633
0.635602 0.534074 0.341635
0.640087 0.541374 0.345228
0.643161 0.546334 0.347263
0.640252 0.541628 0.345330
0.727720 0.678221 0.389793
0.595796 0.565593 0.343786
0.523545 0.545367 0.326463
0.569148 0.563556 0.339754
0.680575 0.605167 0.368234
0.629037 0.523158 0.337613
0.631435 0.527233 0.339283
0.643225 0.546421 0.347298
0.637783 0.537701 0.343512
0.727850 0.678349 0.390106
0.661152 0.575076 0.357146
0.523545 0.545367 0.326463
0.575814 0.563730 0.340646
0.681798 0.607095 0.368914
0.632285 0.528833 0.339977
0.632595 0.529333 0.340179
0.646394 0.551637 0.349381
0.641406 0.543552 0.346740
0.727720 0.678221 0.389793
0.068286 0.075302 0.088739
0.141953 0.094222 0.086460
0.158737 0.102822 0.060729
0.198423 0.182743 0.091894
0.363156 0.271742 0.151939
0.391187 0.239544 0.153201
0.389652 0.210804 0.144084
0.388773 0.206478 0.142222
0.341517 0.279486 0.145653
0.089856 0.085618 0.057431
0.088361 0.079352 0.056567
0.190045 0.103481 0.061630
0.196172 0.179483 0.090773
0.353338 0.264875 0.145519
0.390634 0.241333 0.153939
0.396801 0.203731 0.143546
0.389577 0.209677 0.143117
0.408358 0.252510 0.166585
0.175659 0.178162 0.088899
0.104844 0.150343 0.072406
0.187906 0.170110 0.086699
0.274052 0.242228 0.116944
0.441803 0.330950 0.203166
0.441588 0.279496 0.187090
0.444821 0.229904 0.175711
0.398018 0.199726 0.143467
0.409758 0.254615 0.167470
0.397375 0.373759 0.212837
0.303970 0.344924 0.175280
0.296603 0.336350 0.167917
0.422151 0.372513 0.216813
0.542788 0.403591 0.262433
0.542320 0.347159 0.248315
0.509175 0.280251 0.219072
0.506760 0.277774 0.217636
0.493005 0.324324 0.226778
0.558275 0.515342 0.319483
0.488445 0.512029 0.306532
0.478048 0.496352 0.297214
0.590241 0.510413 0.320217
0.605226 0.482742 0.315919
0.575452 0.424754 0.294896
0.572808 0.418677 0.291222
0.568940 0.410340 0.287452
0.600268 0.471175 0.313280
0.600863 0.573418 0.346699
0.523545 0.545367 0.326463
0.530221 0.548324 0.328569
0.669290 0.600287 0.364077
0.676909 0.599345 0.366829
0.672146 0.592030 0.364406
0.686240 0.613595 0.369211
0.679322 0.602645 0.365526
0.727720 0.678221 0.389793
0.602245 0.575569 0.347462
0.523545 0.545367 0.326463
0.532251 0.548700 0.328979
0.656559 0.595104 0.361044
0.675976 0.597919 0.365921
0.672678 0.592804 0.364628
0.699402 0.634263 0.376764
0.697535 0.631359 0.375795
0.727732 0.678236 0.389844
0.600782 0.573320 0.346658
0.523545 0.545367 0.326463
0.537588 0.549605 0.329992
0.660728 0.596625 0.362265
0.659408 0.572027 0.356591
0.655284 0.565577 0.354725
0.694871 0.627189 0.374260
0.680135 0.604208 0.366867
0.728216 0.678749 0.391181
0.669144 0.587525 0.361726
0.523545 0.545367 0.326463
0.523545 0.545367 0.326463
0.674349 0.598843 0.364221
0.652886 0.561880 0.353664
0.648697 0.555282 0.350929
0.692756 0.623940 0.373131
0.664067 0.579287 0.359735
0.727720 0.678221 0.389793
0.104544 0.109766 0.218922
0.090749 0.099218 0.130491
0.185330 0.151733 0.155115
0.245272 0.204851 0.105025
0.389185 0.277608 0.165300
0.402422 0.237252 0.157371
0.435651 0.221449 0.168230
0.394966 0.202717 0.143480
0.368469 0.286485 0.159911
0.102617 0.089318 0.119582
0.077006 0.076710 0.077744
0.118909 0.111864 0.093370
0.219309 0.188537 0.096257
0.378262 0.269650 0.157731
0.400568 0.236342 0.156841
0.434876 0.204525 0.161017
0.393209 0.202483 0.142647
0.422885 0.255737 0.174400
0.187477 0.185202 0.144795
0.105802 0.147989 0.102128
0.115179 0.139206 0.088533
0.253120 0.221727 0.110878
0.427506 0.310777 0.191017
0.418631 0.251764 0.169039
0.432952 0.197454 0.156932
0.390227 0.201741 0.140882
0.416871 0.253735 0.170971
0.359946 0.339777 0.184384
0.251979 0.311947 0.165480
0.303859 0.323463 0.178078
0.399565 0.350905 0.204342
0.523892 0.385122 0.249915
0.532004 0.334660 0.239687
0.494980 0.253860 0.206215
0.511711 0.298579 0.224220
0.490576 0.317458 0.229986
0.546106 0.498433 0.310154
0.463818 0.487006 0.300646
0.479092 0.481239 0.305004
0.564794 0.494884 0.317016
0.595241 0.464075 0.305989
0.567942 0.408484 0.286255
0.572014 0.417391 0.290734
0.557232 0.383670 0.275054
0.592921 0.456757 0.312044
0.592262 0.560046 0.341722
0.528890 0.548117 0.328343
0.547187 0.554086 0.333136
0.662962 0.590489 0.360610
0.668326 0.585982 0.361932
0.655984 0.566735 0.355192
0.707698 0.647087 0.381171
0.629258 0.523788 0.337483
0.719792 0.664964 0.390008
0.595329 0.564861 0.343530
0.527911 0.547702 0.328028
0.541493 0.551943 0.331500
0.650753 0.587230 0.357575
0.669578 0.587947 0.362180
0.667223 0.584289 0.361599
0.727720 0.678221 0.389793
0.683652 0.609801 0.369522
0.730290 0.681011 0.396387
0.594294 0.563202 0.342889
0.527761 0.547913 0.328137
0.542049 0.551947 0.331568
0.659104 0.590257 0.363235
0.658390 0.570216 0.355792
0.655304 0.565448 0.354533
0.727720 0.678221 0.389793
0.665807 0.581944 0.360489
0.731032 0.681828 0.398264
0.655733 0.566267 0.354500
0.534028 0.556334 0.343038
0.570754 0.560155 0.339635
0.666335 0.591850 0.361919
0.657098 0.568295 0.355182
0.650153 0.557434 0.351540
0.709763 0.650263 0.382187
0.657569 0.569171 0.355894
0.727720 0.678221 0.389793
0.165390 0.178353 0.347052
0.123353 0.142138 0.215578
0.162318 0.183040 0.200751
0.297079 0.275747 0.221532
0.425726 0.313972 0.230941
0.424551 0.245737 0.170102
0.475418 0.260048 0.242028
0.415329 0.203854 0.151246
0.426328 0.356082 0.304096
0.145168 0.130748 0.196328
0.095115 0.111930 0.134430
0.114929 0.145479 0.154386
0.275896 0.257422 0.201146
0.415770 0.307391 0.222662
0.422883 0.245186 0.169235
0.469199 0.253932 0.231216
0.414109 0.205374 0.151690
0.471974 0.320731 0.297557
0.181501 0.151165 0.198927
0.114591 0.145973 0.167384
0.104195 0.135745 0.132161
0.248973 0.239096 0.175068
0.408390 0.306348 0.214864
0.421567 0.250057 0.170165
0.462042 0.245476 0.213654
0.411988 0.209341 0.152679
0.459963 0.306372 0.270165
0.367269 0.373009 0.333288
0.274917 0.363923 0.341661
0.283825 0.349621 0.308402
0.363797 0.353237 0.279336
0.496877 0.389251 0.288911
0.501732 0.318488 0.221201
0.485253 0.253845 0.200223
0.482523 0.274157 0.202064
0.491313 0.328818 0.276847
0.516470 0.478406 0.331825
0.445083 0.502129 0.402438
0.462891 0.503687 0.419477
0.526783 0.509133 0.400777
0.604954 0.482804 0.356274
0.560304 0.390908 0.278150
0.554857 0.377365 0.272378
0.548551 0.361669 0.265686
0.598574 0.457904 0.352503
0.597643 0.565504 0.365867
0.532751 0.579420 0.386746
0.571315 0.619653 0.450841
0.637797 0.605651 0.415135
0.686162 0.609217 0.399911
0.652540 0.559281 0.369632
0.671800 0.590280 0.360945
0.614021 0.497788 0.327751
0.733457 0.677108 0.433556
0.598609 0.567470 0.362832
0.535697 0.585665 0.403356
0.559494 0.597385 0.419880
0.610099 0.587472 0.385608
0.683962 0.606804 0.392795
0.669695 0.586804 0.373051
0.713767 0.656185 0.386127
0.665632 0.580672 0.369705
0.750894 0.703462 0.443572
0.598681 0.567595 0.362813
0.535891 0.584906 0.400874
0.563530 0.598014 0.418507
0.632589 0.601496 0.402210
0.677687 0.596884 0.391770
0.662919 0.575988 0.371545
0.718588 0.663942 0.386230
0.667606 0.583030 0.376069
0.756819 0.709821 0.454713
0.668213 0.580012 0.405229
0.546227 0.620692 0.461573
0.576838 0.616060 0.442650
0.641564 0.603605 0.407351
0.676166 0.594454 0.392419
0.659790 0.570571 0.374354
0.727720 0.678221 0.389793
0.667272 0.581908 0.380572
0.727720 0.678221 0.389793
0.256485 0.302802 0.462867
0.196850 0.223689 0.379384
0.169010 0.208298 0.301928
0.257453 0.328708 0.386466
0.499051 0.440318 0.458689
0.512613 0.375886 0.390115
0.645580 0.517383 0.642352
0.537600 0.370197 0.418527
0.473494 0.443847 0.479811
0.229426 0.234499 0.324261
0.170916 0.199186 0.322793
0.154222 0.186770 0.284080
0.245061 0.314761 0.375064
0.490463 0.434761 0.453549
0.510669 0.374337 0.388924
0.653236 0.528709 0.654066
0.516474 0.343659 0.377367
0.556863 0.476557 0.568147
0.237017 0.240598 0.331397
0.175821 0.206100 0.329735
0.136991 0.166150 0.253246
0.227243 0.293929 0.352422
0.475317 0.425724 0.440127
0.506334 0.371376 0.381759
0.637889 0.505940 0.640087
0.509390 0.336050 0.368208
0.549279 0.467687 0.552894
0.349647 0.353574 0.435433
0.254692 0.313524 0.427770
0.242798 0.309044 0.385671
0.266294 0.345716 0.390531
0.505778 0.462485 0.462000
0.537015 0.400061 0.396731
0.601901 0.452828 0.542464
0.520868 0.344408 0.359800
0.545957 0.457802 0.515459
0.511200 0.548171 0.553922
0.379030 0.495949 0.551771
0.353075 0.453518 0.529704
0.400444 0.506697 0.535698
0.615462 0.563773 0.540824
0.602167 0.463563 0.445010
0.564929 0.393576 0.369126
0.565661 0.394392 0.376212
0.588504 0.480888 0.480595
0.658780 0.675415 0.566507
0.476545 0.605305 0.554425
0.426299 0.573728 0.631823
0.450394 0.604318 0.636245
0.920986 0.890138 0.742407
0.753629 0.676014 0.600565
0.667789 0.584918 0.364446
0.668000 0.570728 0.470273
0.798700 0.739620 0.566324
0.679832 0.690637 0.539796
0.488161 0.620520 0.541388
0.452887 0.635497 0.652739
0.495167 0.683568 0.671343
0.893691 0.858556 0.701373
0.849646 0.810464 0.629262
0.727720 0.678221 0.389793
0.790723 0.746618 0.516746
0.835349 0.796648 0.583406
0.666371 0.698329 0.556467
0.480413 0.636972 0.573811
0.455311 0.642315 0.654845
0.520160 0.703404 0.674567
0.860745 0.834192 0.670087
0.830478 0.786059 0.609984
0.727720 0.678221 0.389793
0.779086 0.734074 0.492708
0.835349 0.796648 0.583406
0.844068 0.787119 0.684595
0.454986 0.641216 0.654538
0.454497 0.639894 0.654123
0.510709 0.694432 0.674966
0.874626 0.842381 0.684989
0.829492 0.784513 0.609472
0.727720 0.678221 0.389793
0.783937 0.739213 0.501386
0.727720 0.678221 0.389793
0.256485 0.302802 0.462867
0.256485 0.302802 0.462867
0.167155 0.185298 0.339315
0.216791 0.257961 0.393011
0.380038 0.402359 0.490083
0.547151 0.461508 0.528808
0.663437 0.543502 0.661084
0.578984 0.442406 0.529030
0.324891 0.386800 0.492468
0.203587 0.237085 0.358955
0.198285 0.226588 0.379461
0.155925 0.169119 0.325758
0.208003 0.244772 0.384489
0.375325 0.397648 0.486669
0.546607 0.460444 0.529571
0.663437 0.543502 0.661084
0.600540 0.467145 0.560779
0.487896 0.460070 0.579065
0.203006 0.236119 0.361599
0.198020 0.224778 0.382494
0.141204 0.148757 0.305179
0.194992 0.225811 0.370317
0.367683 0.388933 0.479263
0.547309 0.458537 0.530710
0.663437 0.543502 0.661084
0.599469 0.466354 0.561251
0.487281 0.460194 0.577779
0.278292 0.309094 0.428404
0.236730 0.278944 0.431267
0.209809 0.245098 0.391031
0.203657 0.242340 0.372381
0.353943 0.394607 0.476780
0.553039 0.469757 0.531999
0.663437 0.543502 0.661084
0.592456 0.459398 0.549404
0.491130 0.463687 0.575946
0.404412 0.463543 0.561533
0.344676 0.435334 0.546920
0.325292 0.406206 0.527531
0.315339 0.391400 0.517835
0.375046 0.456089 0.552962
0.687386 0.581106 0.665783
0.677647 0.563487 0.670444
0.645101 0.518445 0.618897
0.527551 0.507632 0.617661
0.527426 0.624893 0.662083
0.422407 0.573281 0.626279
0.382636 0.494205 0.589120
0.376439 0.483966 0.583312
0.600007 0.655265 0.684081
0.810813 0.732801 0.738848
0.764103 0.684275 0.640864
0.751856 0.662963 0.682827
0.754445 0.686072 0.659466
0.634110 0.722564 0.701024
0.457720 0.656659 0.658067
0.430164 0.581835 0.634678
0.433162 0.588294 0.636932
0.798768 0.858255 0.750607
0.942978 0.915075 0.777019
0.841511 0.802408 0.614593
0.881540 0.846709 0.678750
0.869819 0.834025 0.659079
0.624049 0.722301 0.700438
0.458356 0.657349 0.658441
0.430466 0.582487 0.634900
0.433563 0.589185 0.637256
0.752251 0.838762 0.741824
0.942978 0.915075 0.777019
0.858448 0.821807 0.637027
0.888166 0.854120 0.687519
0.860397 0.823899 0.641031
0.803350 0.724224 0.727899
0.435964 0.594566 0.639100
0.432844 0.587586 0.636708
0.432973 0.587879 0.636807
0.715653 0.831159 0.739243
0.942978 0.915075 0.777019
0.856171 0.819351 0.632294
0.860333 0.823842 0.640963
0.777354 0.732230 0.504120
0.256485 0.302802 0.462867
0.256485 0.302802 0.462867
0.165966 0.183347 0.338232
0.217532 0.257913 0.396168
0.299055 0.365880 0.473315
0.496901 0.444786 0.532376
0.613621 0.500260 0.607236
0.601490 0.477305 0.585510
0.290379 0.357831 0.483191
0.190834 0.221915 0.356737
0.199131 0.227612 0.381084
0.154715 0.167300 0.324338
0.207435 0.242418 0.386959
0.300604 0.362364 0.470903
0.497662 0.444407 0.533426
0.656168 0.532870 0.653702
0.616253 0.496106 0.602895
0.473894 0.445079 0.572636
0.190494 0.219418 0.359788
0.198773 0.225769 0.383646
0.143154 0.151133 0.308735
0.191535 0.217530 0.372749
0.292787 0.355686 0.466408
0.504009 0.443888 0.538875
0.661284 0.540480 0.658551
0.616272 0.496142 0.604075
0.472516 0.442793 0.572053
0.227214 0.272588 0.406441
0.220253 0.254959 0.413043
0.178826 0.199238 0.358100
0.177452 0.201811 0.347369
0.276116 0.342641 0.450277
0.495741 0.443936 0.531405
0.660809 0.539807 0.657897
0.613634 0.495879 0.600293
0.474798 0.447082 0.571721
0.350184 0.426909 0.536586
0.330715 0.414352 0.532676
0.317604 0.394772 0.520008
0.305311 0.376505 0.508145
0.316811 0.394341 0.516642
0.574957 0.527322 0.633976
0.670247 0.553159 0.665594
0.663703 0.543988 0.659402
0.502744 0.485392 0.603428
0.476126 0.579965 0.641438
0.401651 0.529555 0.607995
0.373403 0.479432 0.578376
0.361318 0.460476 0.565108
0.481966 0.574431 0.641999
0.778952 0.693187 0.725909
0.801518 0.721031 0.735702
0.763735 0.674287 0.718373
0.721073 0.680153 0.711282
0.584104 0.691175 0.687910
0.435498 0.600342 0.639821
0.421011 0.562855 0.627968
0.425285 0.571446 0.631042
0.795473 0.854058 0.748461
0.942978 0.915075 0.777019
0.942284 0.914071 0.776889
0.934762 0.902396 0.775322
0.942978 0.915075 0.777019
0.587718 0.677481 0.684637
0.433608 0.596783 0.638524
0.421379 0.563689 0.628271
0.429200 0.575552 0.632929
0.771553 0.850339 0.747495
0.942978 0.915075 0.777019
0.942978 0.915075 0.777019
0.942978 0.915075 0.777019
0.942978 0.915075 0.777019
0.732867 0.685896 0.713032
0.424519 0.570588 0.630680
0.423937 0.569178 0.630199
0.429309 0.575994 0.633070
0.773510 0.843061 0.744062
0.942978 0.915075 0.777019
0.942978 0.915075 0.777019
0.942978 0.915075 0.777019
0.942978 0.915075 0.777019
0.256485 0.302802 0.462867
0.256485 0.302802 0.462867
0.161871 0.175460 0.337190
0.215588 0.253786 0.396728
0.281199 0.347763 0.465173
0.479467 0.436795 0.532001
0.601905 0.498033 0.605030
0.561292 0.456459 0.551838
0.276347 0.335997 0.473587
0.187338 0.214226 0.356151
0.218569 0.251765 0.411978
0.166164 0.180157 0.345505
0.206244 0.239043 0.388820
0.279607 0.344193 0.462663
0.480285 0.436877 0.534042
0.603378 0.498534 0.606687
0.596489 0.483003 0.590889
0.467299 0.434749 0.567757
0.190109 0.217177 0.362492
0.226654 0.262647 0.422879
0.171303 0.187718 0.350369
0.190684 0.213443 0.377665
0.278261 0.341380 0.463632
0.493785 0.438146 0.544321
0.609025 0.499830 0.613617
0.606671 0.490704 0.603197
0.468414 0.436124 0.569553
0.212688 0.248838 0.394881
0.223740 0.257845 0.421743
0.172359 0.187709 0.356020
0.166829 0.183428 0.341537
0.261265 0.320811 0.441349
0.485715 0.437320 0.537614
0.607609 0.499108 0.611689
0.604286 0.489651 0.600111
0.468512 0.436772 0.568382
0.330569 0.410826 0.528369
0.323457 0.403472 0.525771
0.311780 0.386087 0.514478
0.296229 0.363135 0.499081
0.302980 0.373698 0.503731
0.553828 0.518973 0.629682
0.662658 0.544956 0.657642
0.666001 0.547144 0.662017
0.498812 0.480608 0.600348
0.471842 0.568409 0.637351
0.404308 0.535331 0.608878
0.368122 0.471107 0.572461
0.354082 0.449382 0.557257
0.462615 0.554453 0.633039
0.760275 0.670133 0.717196
0.759044 0.668495 0.716228
0.738148 0.642471 0.705745
0.698187 0.653426 0.700444
0.599065 0.690717 0.689001
0.448214 0.634241 0.650364
0.416175 0.553239 0.624558
0.417450 0.554955 0.625258
0.785473 0.845884 0.748249
0.929612 0.894901 0.774065
0.882718 0.827878 0.762144
0.865061 0.804818 0.756556
0.942978 0.915075 0.777019
0.610267 0.693693 0.692902
0.446125 0.630121 0.648903
0.414200 0.549390 0.623180
0.433816 0.567994 0.631822
0.843011 0.867469 0.756761
0.936250 0.904680 0.775627
0.939514 0.909789 0.776312
0.937146 0.906096 0.775818
0.942978 0.915075 0.777019
0.758276 0.681783 0.715413
0.413766 0.548617 0.622889
0.414331 0.549644 0.623277
0.436268 0.568618 0.632561
0.789205 0.815606 0.747153
0.942978 0.915075 0.777019
0.942978 0.915075 0.777019
0.942978 0.915075 0.777019
0.942978 0.915075 0.777019
0.133278 0.149285 0.268771
0.133102 0.148882 0.268812
0.155988 0.180542 0.302950
0.216137 0.266001 0.374274
0.342367 0.395663 0.471032
0.498690 0.451433 0.518885
0.539702 0.460430 0.529556
0.549678 0.458957 0.530294
0.337565 0.397425 0.489367
0.134850 0.157229 0.253978
0.132735 0.150707 0.264111
0.144143 0.166210 0.282078
0.209836 0.259766 0.361763
0.348482 0.397265 0.465110
0.496386 0.453250 0.513671
0.537888 0.462283 0.523735
0.545846 0.460137 0.523457
0.510752 0.473536 0.577406
0.137198 0.158548 0.251421
0.130152 0.148083 0.258286
0.130325 0.148855 0.257627
0.196980 0.243764 0.343372
0.366883 0.398124 0.461764
0.504962 0.456139 0.514533
0.539818 0.462737 0.522735
0.545764 0.460602 0.521934
0.521875 0.477898 0.579476
0.195052 0.229275 0.311710
0.167831 0.204974 0.304501
0.157811 0.191985 0.289362
0.169431 0.210834 0.299285
0.351481 0.385178 0.438546
0.501168 0.458414 0.506149
0.535478 0.464649 0.513556
0.540849 0.462622 0.513086
0.531271 0.484745 0.578060
0.384353 0.431314 0.505086
0.304131 0.383542 0.477898
0.308083 0.389641 0.479942
0.327854 0.420137 0.489088
0.436555 0.475995 0.523138
0.586139 0.541212 0.593257
0.623917 0.541541 0.591247
0.627191 0.535987 0.586300
0.561393 0.517426 0.611019
0.453938 0.524104 0.614978
0.368586 0.471441 0.574784
0.365467 0.466585 0.571220
0.375531 0.482521 0.582269
0.492797 0.578368 0.645041
0.752350 0.687578 0.716742
0.792816 0.710320 0.731967
0.778895 0.693126 0.725885
0.698694 0.661301 0.703185
0.607434 0.685741 0.689372
0.452876 0.632209 0.651833
0.440268 0.596576 0.640634
0.498783 0.610969 0.655813
0.888654 0.890046 0.765169
0.942978 0.915075 0.777019
0.942978 0.915075 0.777019
0.942978 0.915075 0.777019
0.942978 0.915075 0.777019
0.638707 0.713927 0.704481
0.472780 0.695735 0.670273
0.474569 0.701790 0.671916
0.516736 0.673317 0.673706
0.712798 0.819655 0.728097
0.730220 0.828806 0.733964
0.942978 0.915075 0.777019
0.942978 0.915075 0.777019
0.942978 0.915075 0.777019
0.476206 0.707261 0.673334
0.476206 0.707261 0.673334
0.476206 0.707261 0.673334
0.476206 0.707261 0.673334
0.482618 0.724235 0.679175
0.506478 0.736944 0.687429
0.936666 0.906906 0.770173
0.942978 0.915075 0.777019
0.942978 0.915075 0.777019
