luts/Kodak_Vision3_500T_5219_S-Log3_Rec709.cube
TITLE "Exported for the Shot "C0084" by Colourlab Ai on 2023-10-23"
LUT_3D_SIZE 5
0.0008700178 0.0005725908 0.0003259860
0.0675489604 0.0037895835 0.0031147259
0.6580845118 0.0000000000 0.0000000000
0.9886301160 0.0000000000 0.0000000000
1.0000000000 0.0000000000 0.0000000000
0.0000000000 0.0551333390 0.0000882722
0.0532224588 0.0486275330 0.0000000000
0.6589148045 0.0000000000 0.0000000000
0.9886395931 0.0000000000 0.0000000000
1.0000000000 0.0000000000 0.0000000000
0.0000000000 0.5100296736 0.0000000000
0.0000000000 0.5033898950 0.0000000000
0.5026966929 0.4301638007 0.0000000000
0.9851976037 0.2000768483 0.0000000000
1.0000000000 0.0000000000 0.0000000000
0.0000000000 0.9789307714 0.1216354519
0.0000000000 0.9818339944 0.1601455212
0.7194581032 0.9760446548 0.1538037509
0.9296631217 0.8767470717 0.0000000000
0.9959980249 0.7542033792 0.0000000000
0.7974051237 0.9958026409 0.9211502075
0.8145403862 0.9958972931 0.9230414629
0.8929235339 0.9963551164 0.9312892556
0.9848036766 0.9956254959 0.9133558273
0.9933593869 0.9890989661 0.1427727640
0.0033294866 0.0000000000 0.0464282855
0.0642053112 0.0000000000 0.0437204577
0.6599799991 0.0000000000 0.0233332925
0.9886332154 0.0000000000 0.0000000000
1.0000000000 0.0000000000 0.0000000000
0.0000000000 0.0509313643 0.0476761088
0.0811378807 0.0748538524 0.0743181407
0.6621640325 0.0000000000 0.0271765105
0.9886395931 0.0000000000 0.0000000000
1.0000000000 0.0000000000 0.0000000000
0.0000000000 0.5066387057 0.0169135015
0.0000000000 0.6592208147 0.0157248322
0.6539801359 0.5462483168 0.0000000000
0.9851359725 0.2023740709 0.0000000000
1.0000000000 0.0000000000 0.0000000000
0.0000000000 0.9758278131 0.2142993510
0.0000000000 0.9807084799 0.2527655661
0.7153486609 0.9778628945 0.2759874165
0.9743207693 0.9369373322 0.0000000000
0.9959970713 0.7543613315 0.0000000000
0.7966490388 0.9957742095 0.9236245155
0.8137845993 0.9958683252 0.9255030751
0.8935245872 0.9963721633 0.9337691665
0.9849368334 0.9956709743 0.9177526236
0.9935129881 0.9906043410 0.3052386343
0.0000000000 0.0000000000 0.4938991368
0.0547928326 0.0000000000 0.4910211265
0.5849374533 0.0000000000 0.3989209235
0.9830294251 0.0000000000 0.4233961999
1.0000000000 0.0000000000 0.0000000000
0.0000000000 0.0074055111 0.5011808872
0.0308976807 0.0041210256 0.6411890984
0.6215759516 0.0000000000 0.4289039075
0.9830145836 0.0000000000 0.4247793555
1.0000000000 0.0000000000 0.0000000000
0.0000000000 0.3668544292 0.4361798763
0.0000000000 0.4856243134 0.5845737457
0.6609899402 0.6003014445 0.5771343708
0.9936561584 0.1512363404 0.5727306604
1.0000000000 0.0000000000 0.0000000000
0.0000000000 0.9617465138 0.6631200910
0.0000000000 0.9668968320 0.6839056015
0.6113875508 0.9763131142 0.6902288795
0.9800029993 0.9616360664 0.5727528930
0.9959896803 0.7555735111 0.0000000000
0.7918195128 0.9955968261 0.9379847050
0.8090774417 0.9956782460 0.9391307235
0.8935824037 0.9963015318 0.9481003284
0.9859372973 0.9960060716 0.9419234991
0.9948694706 0.9935070872 0.7204986811
0.0000000000 0.0000000000 0.9398389459
0.0092422459 0.0000000000 0.9783217311
0.5598356128 0.0000000000 0.9530937672
0.9708492160 0.0000000000 0.8746473789
0.9973573685 0.0000000000 0.8966649175
0.0000000000 0.0000000000 0.9384449124
0.0000000000 0.0000000000 0.9779859185
0.5907809138 0.0000000000 0.9712950587
0.9708614349 0.0000000000 0.8747220635
0.9973567128 0.0000000000 0.8967245817
0.0000000000 0.2047188878 0.9393671155
0.0000000000 0.3613553345 0.9732307792
0.6832668781 0.6585240364 0.9701648951
0.9910445809 0.1019326448 0.9593693614
0.9973517060 0.0000000000 0.8971925378
0.0000000000 0.9376407266 0.9375901222
0.0000000000 0.9482290149 0.9454511404
0.5244706869 0.9656949639 0.9561298490
0.9863170385 0.9792840481 0.9754057527
0.9991555214 0.9003130794 0.9687891006
0.7787465453 0.9947280884 0.9799538255
0.7961718440 0.9948085546 0.9803547263
0.8831099868 0.9953382015 0.9831176400
0.9905227423 0.9977962375 0.9907299280
0.9974465370 0.9970451593 0.9856300354
0.0000000000 0.5616168380 0.9938063622
0.1345224977 0.6592422724 0.9942181110
0.8015345335 0.8126516938 0.9948623776
0.9907119870 0.5612508059 0.9927576780
0.9964587688 0.0000000000 0.9800276160
0.0000000000 0.5894536376 0.9936327338
0.1288308948 0.6829720140 0.9940301180
0.7942432761 0.8287052512 0.9948218465
0.9908687472 0.6110131741 0.9928913713
0.9964587688 0.0000000000 0.9800276160
0.0000000000 0.7449586987 0.9925580025
0.1046013460 0.8071157336 0.9930527210
0.7718840837 0.8910858035 0.9944159389
0.9910398722 0.8240926266 0.9941190481
0.9964587688 0.0000000000 0.9800276160
0.0114946114 0.9680715203 0.9903337955
0.1379787475 0.9704799652 0.9908981323
0.7041342258 0.9780036211 0.9929729104
0.9918268919 0.9891844392 0.9969369769
0.9984919429 0.9294205308 0.9949745536
0.7924610376 0.9937692285 0.9927920103
0.8094176650 0.9938650131 0.9928997159
0.8896721601 0.9945391417 0.9936800599
0.9904929399 0.9970337749 0.9966593385
1.0000000000 1.0000000000 1.0000000000
