luts/Kodak_Vision3_500T_5219_S-Log3_Rec709.cube
TITLE "Exported for the Shot "C0084" by Colourlab Ai on 2023-10-23"
LUT_3D_SIZE 33
0.0008700178 0.0005725908 0.0003259860
0.0008700178 0.0005725908 0.0003259860
0.0008700178 0.0005725908 0.0003259860
0.0008700178 0.0005725908 0.0003259860
0.0021394321 0.0009769350 0.0007370069
0.0078051756 0.0012903964 0.0011461119
0.0186293367 0.0021824960 0.0014158334
0.0379800089 0.0033488136 0.0025107639
0.0675489604 0.0037895835 0.0031147259
0.1110566184 0.0029753232 0.0032469379
0.1694836915 0.0041752825 0.0026039227
0.2396634370 0.0055104280 0.0014677173
0.3192528188 0.0034286713 0.0002446669
0.4041295052 0.0009509719 0.0004933337
0.4908593595 0.0021611475 0.0006833578
0.5752863288 0.0007876260 0.0004620029
0.6580845118 0.0000000000 0.0000000000
0.7399625778 0.0000000000 0.0000000000
0.8151091337 0.0000000000 0.0000000000
0.8744376898 0.0000000000 0.0000000000
0.9159480333 0.0000000000 0.0000000000
0.9454960823 0.0000000000 0.0000000000
0.9660559297 0.0000000000 0.0000000000
0.9799854159 0.0000000000 0.0000000000
0.9886301160 0.0000000000 0.0000000000
0.9932929873 0.0000000000 0.0001882037
0.9959948659 0.0000000000 0.0003323988
0.9987488389 0.0000000000 0.0000000000
1.0000000000 0.0000000000 0.0000000000
1.0000000000 0.0000000000 0.0000000000
1.0000000000 0.0000000000 0.0000000000
1.0000000000 0.0000000000 0.0000000000
1.0000000000 0.0000000000 0.0000000000
0.0008700178 0.0005725908 0.0003259860
0.0008700178 0.0005725908 0.0003259860
0.0008700178 0.0005725908 0.0003259860
0.0008700178 0.0005725908 0.0003259860
0.0022084732 0.0009861763 0.0007474250
0.0079511926 0.0012982005 0.0011562230
0.0188441258 0.0022039050 0.0014398147
0.0382694267 0.0033647837 0.0025200204
0.0678709447 0.0037890382 0.0031206966
0.1113846749 0.0029746674 0.0032478566
0.1698103696 0.0041813054 0.0026026799
0.2399780303 0.0055019436 0.0014620933
0.3195053935 0.0034138479 0.0002439354
0.4043458104 0.0009575444 0.0004936598
0.4909857213 0.0021631657 0.0006839401
0.5753685832 0.0007878636 0.0004621872
0.6581688523 0.0000000000 0.0000000000
0.7400407791 0.0000000000 0.0000000000
0.8151409626 0.0000000000 0.0000000000
0.8744603992 0.0000000000 0.0000000000
0.9159641862 0.0000000000 0.0000000000
0.9455078244 0.0000000000 0.0000000000
0.9660638571 0.0000000000 0.0000000000
0.9799854159 0.0000000000 0.0000000000
0.9886332154 0.0000000000 0.0000000000
0.9932929873 0.0000000000 0.0001882037
0.9959959388 0.0000000000 0.0003324623
0.9987488389 0.0000000000 0.0000000000
1.0000000000 0.0000000000 0.0000000000
1.0000000000 0.0000000000 0.0000000000
1.0000000000 0.0000000000 0.0000000000
1.0000000000 0.0000000000 0.0000000000
1.0000000000 0.0000000000 0.0000000000
0.0008700178 0.0005725908 0.0003259860
0.0008700178 0.0005725908 0.0003259860
0.0008700178 0.0005725908 0.0003259860
0.0008700178 0.0005725908 0.0003259860
0.0023329637 0.0009934673 0.0007574360
0.0080972044 0.0013060040 0.0011663340
0.0190719515 0.0022252472 0.0014621280
0.0385467149 0.0033800853 0.0025288884
0.0681762919 0.0037885210 0.0031263591
0.1117142513 0.0029740054 0.0032487798
0.1701079607 0.0041867918 0.0026015476
0.2402514666 0.0054945713 0.0014572041
0.3197552860 0.0033991835 0.0002432111
0.4045193493 0.0009628245 0.0004939205
0.4911570251 0.0021659015 0.0006847300
0.5754947662 0.0007882271 0.0004624701
0.6582505703 0.0000000000 0.0000000000
0.7400823236 0.0000000000 0.0000000000
0.8151747584 0.0000000000 0.0000000000
0.8744831681 0.0000000000 0.0000000000
0.9159803987 0.0000000000 0.0000000000
0.9455078244 0.0000000000 0.0000000000
0.9660638571 0.0000000000 0.0000000000
0.9799854159 0.0000000000 0.0000000000
0.9886332154 0.0000000000 0.0000000000
0.9932929873 0.0000000000 0.0001882037
0.9959959388 0.0000000000 0.0003324623
0.9987488389 0.0000000000 0.0000000000
1.0000000000 0.0000000000 0.0000000000
1.0000000000 0.0000000000 0.0000000000
1.0000000000 0.0000000000 0.0000000000
1.0000000000 0.0000000000 0.0000000000
1.0000000000 0.0000000000 0.0000000000
0.0008533872 0.0007788647 0.0003858591
0.0008606457 0.0006888356 0.0003597272
0.0008679041 0.0005988068 0.0003335954
0.0008700178 0.0005725908 0.0003259860
0.0024541938 0.0010005675 0.0007671849
0.0082471482 0.0013140177 0.0011767172
0.0193008631 0.0022448422 0.0014803265
0.0388361327 0.0033960564 0.0025381439
0.0684805214 0.0037880058 0.0031320006
0.1120192558 0.0029733921 0.0032496348
0.1704036146 0.0041922424 0.0026004226
0.2405688018 0.0054860110 0.0014515310
0.3199639916 0.0033869355 0.0002426068
0.4047356546 0.0009693971 0.0004942490
0.4912861884 0.0021679655 0.0006853254
0.5755797625 0.0007884714 0.0004626607
0.6583349109 0.0000000000 0.0000000000
0.7401604652 0.0000000000 0.0000000000
0.8152064681 0.0000000000 0.0000000000
0.8745074272 0.0000000000 0.0000000000
0.9159803987 0.0000000000 0.0000000000
0.9455078244 0.0000000000 0.0000000000
0.9660638571 0.0000000000 0.0000000000
0.9799854159 0.0000000000 0.0000000000
0.9886332154 0.0000000000 0.0000000000
0.9932929873 0.0000000000 0.0001882037
0.9959959388 0.0000000000 0.0003324623
0.9987502098 0.0000000000 0.0000000000
1.0000000000 0.0000000000 0.0000000000
1.0000000000 0.0000000000 0.0000000000
1.0000000000 0.0000000000 0.0000000000
1.0000000000 0.0000000000 0.0000000000
1.0000000000 0.0000000000 0.0000000000
0.0011041582 0.0019308671 0.0007174019
0.0010643001 0.0018105856 0.0006740296
0.0010400496 0.0017156885 0.0006473603
0.0010234725 0.0016223231 0.0006226463
0.0022390513 0.0016763704 0.0007828410
0.0077531822 0.0026818209 0.0009529392
0.0189780463 0.0039463406 0.0011394578
0.0387843810 0.0046651633 0.0022838952
0.0685845762 0.0045849280 0.0029888907
0.1122170389 0.0033626342 0.0031788212
0.1707303375 0.0041982648 0.0025991797
0.2408835143 0.0054775262 0.0014459036
0.3202166259 0.0033721083 0.0002418751
0.4049091935 0.0009746738 0.0004945106
0.4914153218 0.0021700296 0.0006859207
0.5757058859 0.0007888349 0.0004629436
0.6584165692 0.0000000000 0.0000000000
0.7401994467 0.0000000000 0.0000000000
0.8152384162 0.0000000000 0.0000000000
0.8745074272 0.0000000000 0.0000000000
0.9159965515 0.0000000000 0.0000000000
0.9455202222 0.0000000000 0.0000000000
0.9660722613 0.0000000000 0.0000000000
0.9799907207 0.0000000000 0.0000000000
0.9886332154 0.0000000000 0.0000000000
0.9932946563 0.0000000000 0.0001889038
0.9959959388 0.0000000000 0.0003324623
0.9987502098 0.0000000000 0.0000000000
1.0000000000 0.0000000000 0.0000000000
1.0000000000 0.0000000000 0.0000000000
1.0000000000 0.0000000000 0.0000000000
1.0000000000 0.0000000000 0.0000000000
1.0000000000 0.0000000000 0.0000000000
0.0003354546 0.0073914290 0.0002847613
0.0004045050 0.0069286944 0.0003220443
0.0004742077 0.0064593214 0.0003632801
0.0005627938 0.0059928321 0.0004021436
0.0025813049 0.0054704896 0.0003555373
0.0065208306 0.0057224291 0.0002834024
0.0180618595 0.0068796608 0.0005351218
0.0379985310 0.0081331413 0.0015987915
0.0676010847 0.0092206895 0.0021337173
0.1107798368 0.0086065084 0.0022137552
0.1698995382 0.0076166862 0.0017838824
0.2409480214 0.0063781003 0.0011465808
0.3204692304 0.0033572861 0.0002411431
0.4051283896 0.0009813366 0.0004948410
0.4915865958 0.0021727679 0.0006867105
0.5757880807 0.0007890715 0.0004631279
0.6585010290 0.0000000000 0.0000000000
0.7402800918 0.0000000000 0.0000000000
0.8152700067 0.0000000000 0.0000000000
0.8745301366 0.0000000000 0.0000000000
0.9159965515 0.0000000000 0.0000000000
0.9455202222 0.0000000000 0.0000000000
0.9660722613 0.0000000000 0.0000000000
0.9799907207 0.0000000000 0.0000000000
0.9886364937 0.0000000000 0.0000000000
0.9932946563 0.0000000000 0.0001889038
0.9959959388 0.0000000000 0.0003324623
0.9987502098 0.0000000000 0.0000000000
1.0000000000 0.0000000000 0.0000000000
1.0000000000 0.0000000000 0.0000000000
1.0000000000 0.0000000000 0.0000000000
1.0000000000 0.0000000000 0.0000000000
1.0000000000 0.0000000000 0.0000000000
0.0004379827 0.0168848112 0.0007527294
0.0004137945 0.0162539911 0.0006744101
0.0003893920 0.0156175829 0.0005953970
0.0004008641 0.0149596399 0.0005125843
0.0018259945 0.0141979037 0.0003601364
0.0050903675 0.0132458517 0.0000040972
0.0153714214 0.0136349164 0.0002735845
0.0356285907 0.0157408845 0.0012614983
0.0655293390 0.0170247890 0.0018162149
0.1081213206 0.0176254492 0.0015357442
0.1673846990 0.0161067918 0.0010750488
0.2392740101 0.0137219345 0.0006186261
0.3204427361 0.0081722708 0.0000000000
0.4052829146 0.0017839475 0.0004581903
0.4917578995 0.0021755036 0.0006875004
0.5759142637 0.0007894352 0.0004634111
0.6585826278 0.0000000000 0.0000000000
0.7403192520 0.0000000000 0.0000000000
0.8153357506 0.0000000000 0.0000000000
0.8745527864 0.0000000000 0.0000000000
0.9160138369 0.0000000000 0.0000000000
0.9455318451 0.0000000000 0.0000000000
0.9660722613 0.0000000000 0.0000000000
0.9799907207 0.0000000000 0.0000000000
0.9886364937 0.0000000000 0.0000000000
0.9932946563 0.0000000000 0.0001889038
0.9959959388 0.0000000000 0.0003324623
0.9987502098 0.0000000000 0.0000000000
1.0000000000 0.0000000000 0.0000000000
1.0000000000 0.0000000000 0.0000000000
1.0000000000 0.0000000000 0.0000000000
1.0000000000 0.0000000000 0.0000000000
1.0000000000 0.0000000000 0.0000000000
0.0000042321 0.0324856415 0.0003258792
0.0000497439 0.0317270495 0.0003169245
0.0000957952 0.0309594721 0.0003078639
0.0002021731 0.0301794633 0.0002981872
0.0008091666 0.0293525122 0.0002848514
0.0041267648 0.0282865390 0.0000040478
0.0130424639 0.0271147676 0.0000000000
0.0309725739 0.0276482962 0.0000000000
0.0606582239 0.0307993162 0.0000000000
0.1021594629 0.0325636677 0.0000000000
0.1605911851 0.0320433229 0.0000000000
0.2341278940 0.0303333458 0.0000000000
0.3161295950 0.0254441034 0.0000000000
0.4041664600 0.0147723854 0.0002802215
0.4915456772 0.0053527826 0.0006404253
0.5761226416 0.0007900354 0.0004638782
0.6587488055 0.0000000000 0.0000000000
0.7404391170 0.0000000000 0.0000000000
0.8153991699 0.0000000000 0.0000000000
0.8745999336 0.0000000000 0.0000000000
0.9160301089 0.0000000000 0.0000000000
0.9455435276 0.0000000000 0.0000000000
0.9660801291 0.0000000000 0.0000000000
0.9799963832 0.0000000000 0.0000000000
0.9886364937 0.0000000000 0.0000000000
0.9932946563 0.0000000000 0.0001889038
0.9959959388 0.0000000000 0.0003324623
0.9987502098 0.0000000000 0.0000000000
1.0000000000 0.0000000000 0.0000000000
1.0000000000 0.0000000000 0.0000000000
1.0000000000 0.0000000000 0.0000000000
1.0000000000 0.0000000000 0.0000000000
1.0000000000 0.0000000000 0.0000000000
0.0000000000 0.0551333390 0.0000882722
0.0000000000 0.0543241538 0.0001055183
0.0000000000 0.0535158031 0.0001227465
0.0000000000 0.0527031757 0.0001389051
0.0000000000 0.0517772362 0.0001496891
0.0021560125 0.0506113619 0.0000000000
0.0102031482 0.0496370159 0.0000000000
0.0267677326 0.0485059991 0.0000000000
0.0532224588 0.0486275330 0.0000000000
0.0926913470 0.0529941209 0.0000000000
0.1496057361 0.0541762039 0.0000000000
0.2260097265 0.0518521629 0.0000000000
0.3071777225 0.0491197072 0.0000000000
0.3955999017 0.0420356914 0.0000000000
0.4855811894 0.0286650900 0.0000000000
0.5741491318 0.0073499046 0.0002923682
0.6589148045 0.0000000000 0.0000000000
0.7405586839 0.0000000000 0.0000000000
0.8154647946 0.0000000000 0.0000000000
0.8746452332 0.0000000000 0.0000000000
0.9160623550 0.0000000000 0.0000000000
0.9455552101 0.0000000000 0.0000000000
0.9660880566 0.0000000000 0.0000000000
0.9799963832 0.0000000000 0.0000000000
0.9886395931 0.0000000000 0.0000000000
0.9932963252 0.0000000000 0.0001896072
0.9959971309 0.0000000000 0.0003325300
0.9987502098 0.0000000000 0.0000000000
1.0000000000 0.0000000000 0.0000000000
1.0000000000 0.0000000000 0.0000000000
1.0000000000 0.0000000000 0.0000000000
1.0000000000 0.0000000000 0.0000000000
1.0000000000 0.0000000000 0.0000000000
0.0000000000 0.0857137293 0.0000000000
0.0000000000 0.0849215016 0.0000000000
0.0000000000 0.0841292292 0.0000000000
0.0000000000 0.0832773447 0.0000000000
0.0000000000 0.0822747797 0.0000000000
0.0000000000 0.0811596140 0.0000000000
0.0038176286 0.0800606981 0.0000000000
0.0207239389 0.0791989937 0.0000000000
0.0465739369 0.0773807839 0.0000000000
0.0819278732 0.0766072422 0.0000000000
0.1367010474 0.0804517865 0.0000000000
0.2126115561 0.0795012787 0.0000000000
0.2958727479 0.0772610903 0.0000000000
0.3817381561 0.0737817064 0.0000000000
0.4721339643 0.0638101101 0.0000000000
0.5625855327 0.0464739986 0.0000000000
0.6517232656 0.0201920345 0.0000000000
0.7402157187 0.0000000000 0.0000000000
0.8155621290 0.0000000000 0.0000000000
0.8746922016 0.0000000000 0.0000000000
0.9160958529 0.0000000000 0.0000000000
0.9455676675 0.0000000000 0.0000000000
0.9660959244 0.0000000000 0.0000000000
0.9800016284 0.0000000000 0.0000000000
0.9886395931 0.0000000000 0.0000000000
0.9932963252 0.0000000000 0.0001896072
0.9959971309 0.0000000000 0.0003325300
0.9987515807 0.0000000000 0.0000000000
1.0000000000 0.0000000000 0.0000000000
1.0000000000 0.0000000000 0.0000000000
1.0000000000 0.0000000000 0.0000000000
1.0000000000 0.0000000000 0.0000000000
1.0000000000 0.0000000000 0.0000000000
0.0000000000 0.1253262162 0.0000000000
0.0000000000 0.1245253980 0.0000000000
0.0000000000 0.1237464845 0.0000000000
0.0000000000 0.1228509471 0.0000000000
0.0000000000 0.1218973771 0.0000000000
0.0000000000 0.1209073216 0.0000000000
0.0019615458 0.1201706901 0.0000000000
0.0126297912 0.1194777861 0.0000000000
0.0387671031 0.1181802303 0.0000000000
0.0741788447 0.1152844205 0.0000000000
0.1218566075 0.1110396236 0.0000000000
0.1954873651 0.1130930036 0.0000000000
0.2786165774 0.1133867428 0.0000000000
0.3654645085 0.1115561947 0.0000000000
0.4540574849 0.1060631722 0.0000000000
0.5451887250 0.0932926759 0.0000000000
0.6360324621 0.0705409274 0.0000000000
0.7266365290 0.0372409597 0.0000000000
0.8141606450 0.0000000000 0.0000000000
0.8747846484 0.0000000000 0.0000000000
0.9161293507 0.0000000000 0.0000000000
0.9455909729 0.0000000000 0.0000000000
0.9661043882 0.0000000000 0.0000000000
0.9800069332 0.0000000000 0.0000000000
0.9886426926 0.0000000000 0.0000000000
0.9932979345 0.0000000000 0.0001903040
0.9959982038 0.0000000000 0.0003325949
0.9987515807 0.0000000000 0.0000000000
1.0000000000 0.0000000000 0.0000000000
1.0000000000 0.0000000000 0.0000000000
1.0000000000 0.0000000000 0.0000000000
1.0000000000 0.0000000000 0.0000000000
1.0000000000 0.0000000000 0.0000000000
0.0000000000 0.1760538667 0.0000000000
0.0000000000 0.1753028631 0.0000000000
0.0000000000 0.1745520085 0.0000000000
0.0000000000 0.1736739874 0.0000000000
0.0000000000 0.1725414544 0.0000000000
0.0000000000 0.1715637296 0.0000000000
0.0000000000 0.1709233373 0.0000000000
0.0035320870 0.1704296321 0.0000000000
0.0278435331 0.1696644276 0.0000000000
0.0669701695 0.1676996201 0.0000000000
0.1153413877 0.1618557721 0.0000000000
0.1755739450 0.1518139988 0.0000000000
0.2579765320 0.1561041325 0.0000000000
0.3451777697 0.1579779387 0.0000000000
0.4337519705 0.1564819664 0.0000000000
0.5238433480 0.1485449374 0.0000000000
0.6140616536 0.1333749741 0.0000000000
0.7034845948 0.1066201702 0.0000000000
0.7950491309 0.0645151883 0.0000000000
0.8712840080 0.0000000000 0.0000000000
0.9161950946 0.0000000000 0.0000000000
0.9456267953 0.0000000000 0.0000000000
0.9661201835 0.0000000000 0.0000000000
0.9800179005 0.0000000000 0.0000000000
0.9886460304 0.0000000000 0.0000000000
0.9932996631 0.0000000000 0.0001910538
0.9959982038 0.0000000000 0.0003325949
0.9987515807 0.0000000000 0.0000000000
1.0000000000 0.0000000000 0.0000000000
1.0000000000 0.0000000000 0.0000000000
1.0000000000 0.0000000000 0.0000000000
1.0000000000 0.0000000000 0.0000000000
1.0000000000 0.0000000000 0.0000000000
0.0000000000 0.2355197519 0.0000000000
0.0000000000 0.2348958552 0.0000000000
0.0000000000 0.2342433929 0.0000000000
0.0000000000 0.2334285229 0.0000000000
0.0000000000 0.2323992252 0.0000000000
0.0000000000 0.2314135879 0.0000000000
0.0000000000 0.2306475341 0.0000000000
0.0000394057 0.2302704602 0.0000000000
0.0129761919 0.2296500206 0.0000000000
0.0553100966 0.2280973196 0.0000000000
0.1071551442 0.2249687016 0.0000000000
0.1695886701 0.2130830288 0.0000000000
0.2378028333 0.2003617585 0.0000000000
0.3244402409 0.2060335279 0.0000000000
0.4121893644 0.2100144774 0.0000000000
0.5015090108 0.2087812275 0.0000000000
0.5912267566 0.2002714723 0.0000000000
0.6797806621 0.1853179485 0.0000000000
0.7687365413 0.1541721821 0.0000000000
0.8518036008 0.1022446677 0.0000000000
0.9113659859 0.0175398290 0.0000000000
0.9456624985 0.0000000000 0.0000000000
0.9661443830 0.0000000000 0.0000000000
0.9800284505 0.0000000000 0.0000000000
0.9886521697 0.0000000000 0.0000000000
0.9933012724 0.0000000000 0.0001917539
0.9959992766 0.0000000000 0.0003326584
0.9987529516 0.0000000000 0.0000000000
1.0000000000 0.0000000000 0.0000000000
1.0000000000 0.0000000000 0.0000000000
1.0000000000 0.0000000000 0.0000000000
1.0000000000 0.0000000000 0.0000000000
1.0000000000 0.0000000000 0.0000000000
0.0000000000 0.2993679047 0.0000000000
0.0000000000 0.2988751829 0.0000000000
0.0000000000 0.2983824313 0.0000000000
0.0000000000 0.2976276577 0.0000000000
0.0000000000 0.2969197631 0.0000000000
0.0000000000 0.2962769270 0.0000000000
0.0000000000 0.2954728603 0.0000000000
0.0000000000 0.2949088216 0.0000000000
0.0058289496 0.2944226861 0.0000000000
0.0399822555 0.2932453156 0.0000000000
0.0949479118 0.2907631695 0.0000000000
0.1643691808 0.2856093943 0.0000000000
0.2329781801 0.2673309743 0.0000000000
0.3039551973 0.2538983822 0.0000000000
0.3916050196 0.2613652050 0.0000000000
0.4804664254 0.2654753625 0.0000000000
0.5692961216 0.2642250657 0.0000000000
0.6558999419 0.2585986257 0.0000000000
0.7435765862 0.2433914542 0.0000000000
0.8287808299 0.2109685838 0.0000000000
0.8947744966 0.1529963464 0.0000000000
0.9403735399 0.0431299508 0.0000000000
0.9661685824 0.0000000000 0.0000000000
0.9800394177 0.0000000000 0.0000000000
0.9886585474 0.0000000000 0.0000000000
0.9933028817 0.0000000000 0.0001924539
0.9960003495 0.0000000000 0.0003327225
0.9987544417 0.0000000000 0.0000000000
1.0000000000 0.0000000000 0.0000000000
1.0000000000 0.0000000000 0.0000000000
1.0000000000 0.0000000000 0.0000000000
1.0000000000 0.0000000000 0.0000000000
1.0000000000 0.0000000000 0.0000000000
0.0000000000 0.3665333390 0.0000000000
0.0000000000 0.3661558032 0.0000000000
0.0000000000 0.3657088876 0.0000000000
0.0000000000 0.3650735915 0.0000000000
0.0000000000 0.3645643294 0.0000000000
0.0000000000 0.3642958403 0.0000000000
0.0000000000 0.3635682166 0.0000000000
0.0000000000 0.3628077805 0.0000000000
0.0010189028 0.3622117043 0.0000000000
0.0214529596 0.3614372313 0.0000000000
0.0787411630 0.3595178723 0.0000000000
0.1516135931 0.3562848866 0.0000000000
0.2320623398 0.3464367986 0.0000000000
0.2993015945 0.3234592676 0.0000000000
0.3702772260 0.3110511303 0.0000000000
0.4594344497 0.3190303147 0.0000000000
0.5477131009 0.3229492307 0.0000000000
0.6348834634 0.3221381605 0.0000000000
0.7184890509 0.3202437460 0.0000000000
0.8027389646 0.3058369458 0.0000000000
0.8744230866 0.2753238082 0.0000000000
0.9265428782 0.2137864232 0.0000000000
0.9620938897 0.0789092332 0.0000000000
0.9800609350 0.0000000000 0.0000000000
0.9886647463 0.0000000000 0.0000000000
0.9933062196 0.0000000000 0.0001939038
0.9960025549 0.0000000000 0.0003328537
0.9987558126 0.0000000000 0.0000000000
1.0000000000 0.0000000000 0.0000000000
1.0000000000 0.0000000000 0.0000000000
1.0000000000 0.0000000000 0.0000000000
1.0000000000 0.0000000000 0.0000000000
1.0000000000 0.0000000000 0.0000000000
0.0000000000 0.4350822866 0.0000000000
0.0000000000 0.4348062277 0.0000000000
0.0000000000 0.4345389903 0.0000000000
0.0000000000 0.4341873229 0.0000000000
0.0000000000 0.4339670241 0.0000000000
0.0000000000 0.4337031245 0.0000000000
0.0000000000 0.4331223071 0.0000000000
0.0000000000 0.4323363304 0.0000000000
0.0001039557 0.4316918552 0.0000000000
0.0133508556 0.4309930205 0.0000000000
0.0607444607 0.4294213057 0.0000000000
0.1341952235 0.4267669916 0.0000000000
0.2227754295 0.4222393334 0.0000000000
0.3025963008 0.4055907726 0.0000000000
0.3677314818 0.3809111416 0.0000000000
0.4374407530 0.3698091209 0.0000000000
0.5253836513 0.3784348071 0.0000000000
0.6122149229 0.3827106357 0.0000000000
0.6963340044 0.3852636218 0.0000000000
0.7765608430 0.3864709139 0.0000000000
0.8510108590 0.3757153451 0.0000000000
0.9081691504 0.3461070061 0.0000000000
0.9491823316 0.2840287387 0.0000000000
0.9765468240 0.1305512190 0.0000000000
0.9886773229 0.0000000000 0.0000000000
0.9933111072 0.0000000000 0.0001960041
0.9960047603 0.0000000000 0.0003329814
0.9987585545 0.0000000000 0.0000000000
1.0000000000 0.0000000000 0.0000000000
1.0000000000 0.0000000000 0.0000000000
1.0000000000 0.0000000000 0.0000000000
1.0000000000 0.0000000000 0.0000000000
1.0000000000 0.0000000000 0.0000000000
0.0000000000 0.5100296736 0.0000000000
0.0000000000 0.5103847980 0.0000000000
0.0000000000 0.5121004581 0.0000000000
0.0000000000 0.5112320781 0.0000000000
0.0000000000 0.5103573799 0.0000000000
0.0000000000 0.5094557405 0.0000000000
0.0000000000 0.5079764724 0.0000000000
0.0000000000 0.5058834553 0.0000000000
0.0000000000 0.5033898950 0.0000000000
0.0013908211 0.5002665520 0.0000000000
0.0432105884 0.4988944530 0.0000000000
0.1153312996 0.4964692295 0.0000000000
0.2071376294 0.4928227365 0.0000000000
0.3008110523 0.4848050177 0.0000000000
0.3744756281 0.4613192677 0.0000000000
0.4362335503 0.4392111301 0.0000000000
0.5026966929 0.4301638007 0.0000000000
0.5878551006 0.4402495921 0.0000000000
0.6712025404 0.4483628571 0.0000000000
0.7514505386 0.4554936588 0.0000000000
0.8277258873 0.4552986622 0.0000000000
0.8889151216 0.4475672543 0.0000000000
0.9334393144 0.4217900038 0.0000000000
0.9654813409 0.3618725538 0.0000000000
0.9851976037 0.2000768483 0.0000000000
0.9933161736 0.0000000000 0.0001981541
0.9960070252 0.0000000000 0.0003331133
0.9987613559 0.0000000000 0.0000000000
1.0000000000 0.0000000000 0.0000000000
1.0000000000 0.0000000000 0.0000000000
1.0000000000 0.0000000000 0.0000000000
1.0000000000 0.0000000000 0.0000000000
1.0000000000 0.0000000000 0.0000000000
0.0000000000 0.5845814347 0.0000000000
0.0000000000 0.5991900563 0.0000000000
0.0000000000 0.6050061584 0.0000000000
0.0000000000 0.6041038036 0.0000000000
0.0000000000 0.6032077670 0.0000000000
0.0000000000 0.6023384929 0.0000000000
0.0000000000 0.6012001634 0.0000000000
0.0000000000 0.5994494557 0.0000000000
0.0000000000 0.5972370505 0.0000000000
0.0032646868 0.5941970944 0.0000000000
0.0230650939 0.5896633863 0.0000000000
0.1022856608 0.5830691457 0.0000000000
0.2010898143 0.5735537410 0.0000000000
0.2987530231 0.5604040027 0.0000000000
0.3802566528 0.5382763147 0.0000000000
0.4464472234 0.5161904693 0.0000000000
0.5027720928 0.4971881211 0.0000000000
0.5647899508 0.4910439849 0.0000000000
0.6475047469 0.5029303432 0.0000000000
0.7279073596 0.5141498446 0.0000000000
0.8051984310 0.5213454366 0.0000000000
0.8701410294 0.5230016708 0.0000000000
0.9179016948 0.5178569555 0.0000000000
0.9525765777 0.4965450466 0.0000000000
0.9765893817 0.4452651739 0.0000000000
0.9903097749 0.2845962346 0.0000000000
0.9960114360 0.0000000000 0.0003333728
0.9987640977 0.0000000000 0.0000000000
1.0000000000 0.0000000000 0.0000000000
1.0000000000 0.0000000000 0.0000000000
1.0000000000 0.0000000000 0.0000000000
1.0000000000 0.0000000000 0.0000000000
1.0000000000 0.0000000000 0.0000000000
0.0000000000 0.6661299467 0.0000000000
0.0000000000 0.6891806126 0.0000000000
0.0000000000 0.7026132345 0.0000000000
0.0000000000 0.7045314908 0.0000000000
0.0000000000 0.7036256194 0.0000000000
0.0000000000 0.7027939558 0.0000000000
0.0000000000 0.7018753886 0.0000000000
0.0000000000 0.7005708814 0.0000000000
0.0000000000 0.6988607049 0.0000000000
0.0000000000 0.6961687207 0.0000000000
0.0122027993 0.6919797063 0.0000000000
0.0938284397 0.6854564548 0.0000000000
0.2060599774 0.6758183241 0.0000000000
0.3179904222 0.6627596617 0.0000000000
0.4097565711 0.6404384971 0.0000000000
0.4697688818 0.6040850878 0.0000000000
0.5155423880 0.5713638663 0.0000000000
0.5663387775 0.5555030107 0.0000000000
0.6253262162 0.5512638688 0.0000000000
