luts/Kodak Portra 400-BMD 4K-VICHET VFX.cube
# Dehancer Core Generator v.1
TITLE "DVR WG/Intermediate, Kodak Portra 400: x33"
#
# This 3D LUT is generated by Dehancer OFX plugin. This Lut is the
# property of Dehancer Ltd and may be used by plugin License owner only.
# Copying and sharing with third parties or over broadband
# communications is strictly prohibited and will be prosecuted by law.
# 
# Plugin License owner: vichetvfx@gmail.com
# License ID: 2og2acfB852LPQ1n8vRa7ZgVBvrxQ1558ndScjTdtQadxUEp6W
# License Type: pro
# License activation name: Dehancer Film OFX
# License activated: 2023-09-12
# Lut generated: 2023-09-25
# Bundle ID: com.dehancer.film_pro.v7
# Input: DVR WG/Intermediate
# Film Profile: Kodak Portra 400
# Print Media Profile: Kodak 2383 Print Film
# Rec.709 input transform: enabled
#
# (c) Dehancer Ltd.
# www.dehancer.com
# mail@dehancer.com
#
# LUT SIZE 33x33x33, 17424, 574992
LUT_3D_SIZE 33
# Data domain
DOMAIN_MIN 0 0 0
DOMAIN_MAX 1 1 1
# LUT data points begin
0.065685 0.053074 0.036949
0.084332 0.059853 0.040986
0.104855 0.066658 0.044403
0.118820 0.071857 0.046640
0.139326 0.079416 0.050417
0.167663 0.086599 0.053884
0.196785 0.095347 0.058727
0.224586 0.104700 0.064471
0.253982 0.113890 0.070907
0.286195 0.124376 0.080281
0.316641 0.134241 0.090409
0.281179 0.128111 0.080865
0.260025 0.191049 0.101908
0.297082 0.211103 0.113097
0.331325 0.224251 0.125563
0.360129 0.233852 0.140005
0.383546 0.237660 0.149161
0.391865 0.229941 0.150933
0.389592 0.216007 0.145537
0.388620 0.205614 0.141387
0.387777 0.195784 0.138288
0.385653 0.187950 0.135074
0.384966 0.181404 0.132571
0.385035 0.177362 0.129632
0.384687 0.174704 0.128506
0.384558 0.173527 0.128152
0.384545 0.173063 0.128004
0.384492 0.172692 0.127893
0.384505 0.172500 0.127842
0.384489 0.172295 0.127779
0.390781 0.221934 0.148268
0.383110 0.269596 0.159588
0.373763 0.277301 0.158558
0.092260 0.062481 0.042503
0.070482 0.057290 0.039569
0.068766 0.058040 0.039488
0.101943 0.065366 0.043851
0.119929 0.072305 0.046868
0.146429 0.081063 0.050935
0.180443 0.090443 0.055647
0.213063 0.101117 0.061879
0.244868 0.111450 0.069639
0.278333 0.121041 0.077201
0.309774 0.131336 0.087266
0.311651 0.132125 0.088125
0.279661 0.174629 0.099069
0.284665 0.209695 0.110125
0.321227 0.228206 0.124838
0.353340 0.239976 0.139268
0.380516 0.246370 0.151720
0.391413 0.240721 0.153843
0.392077 0.227526 0.150357
0.389680 0.214773 0.144615
0.388720 0.205954 0.141483
0.387819 0.197089 0.138721
0.386874 0.191576 0.136653
0.385477 0.186776 0.134663
0.385220 0.183653 0.133525
0.385036 0.181988 0.132850
0.385017 0.181386 0.132535
0.385042 0.181109 0.132370
0.385035 0.180900 0.132186
0.385050 0.180695 0.132026
0.389419 0.212522 0.143974
0.384805 0.267318 0.159833
0.364237 0.281285 0.156225
0.086409 0.068835 0.044294
0.074373 0.065256 0.042475
0.073501 0.063993 0.041884
0.084838 0.066949 0.043623
0.113917 0.071555 0.046482
0.132877 0.077317 0.049306
0.167303 0.086501 0.053843
0.203119 0.097232 0.060011
0.230233 0.106747 0.065999
0.254769 0.113931 0.071506
0.286775 0.123788 0.080276
0.281415 0.130193 0.082278
0.267866 0.169850 0.095202
0.288964 0.206757 0.110435
0.317825 0.227687 0.123243
0.350334 0.240308 0.137470
0.377264 0.246571 0.150223
0.390899 0.242510 0.153865
0.391260 0.229592 0.150727
0.390864 0.217977 0.146216
0.388734 0.207108 0.142040
0.388056 0.199814 0.139394
0.386615 0.192871 0.136954
0.386396 0.188535 0.135380
0.386314 0.185992 0.133965
0.385947 0.184422 0.133117
0.385815 0.183743 0.132778
0.385741 0.183350 0.132582
0.385679 0.183080 0.132490
0.385608 0.182835 0.132390
0.389542 0.210355 0.143790
0.385235 0.240021 0.150572
0.422523 0.251561 0.172447
0.117140 0.085115 0.051249
0.084777 0.076597 0.046835
0.072696 0.072034 0.044775
0.083961 0.073982 0.046249
0.110776 0.079623 0.049432
0.128218 0.083127 0.051121
0.155942 0.085809 0.053016
0.193049 0.094257 0.058136
0.227005 0.105335 0.064799
0.263416 0.116561 0.073492
0.302056 0.128632 0.084672
0.296835 0.127017 0.083526
0.280225 0.183300 0.102190
0.277581 0.209892 0.108967
0.313856 0.227662 0.121174
0.347468 0.241564 0.136664
0.375496 0.248682 0.150500
0.391478 0.246459 0.155116
0.391669 0.232256 0.151526
0.390733 0.220434 0.147902
0.389671 0.210677 0.142590
0.388021 0.201821 0.140195
0.387747 0.195853 0.138305
0.386891 0.191683 0.136679
0.385850 0.188631 0.135362
0.385444 0.186963 0.134696
0.385350 0.186272 0.134437
0.385336 0.185908 0.134321
0.385316 0.185603 0.134208
0.385285 0.185358 0.134121
0.390421 0.217316 0.145912
0.383596 0.269413 0.159810
0.360870 0.282554 0.154947
0.100339 0.092520 0.053144
0.087402 0.088120 0.051040
0.071208 0.082238 0.048183
0.072783 0.080558 0.047358
0.099377 0.086439 0.051419
0.125824 0.093222 0.054645
0.152580 0.098896 0.057961
0.188292 0.101614 0.060665
0.213179 0.107972 0.064703
0.245501 0.120562 0.072631
0.274344 0.127308 0.079480
0.284919 0.146156 0.088973
0.283858 0.190673 0.105638
0.302857 0.224394 0.117107
0.321535 0.237072 0.126247
0.346491 0.243592 0.137661
0.372901 0.249018 0.149384
0.389988 0.247761 0.155822
0.391914 0.235293 0.152424
0.390729 0.222305 0.147506
0.389706 0.212769 0.144621
0.388751 0.204231 0.140806
0.387501 0.198177 0.138744
0.386587 0.193091 0.136995
0.386384 0.190066 0.135963
0.386359 0.188685 0.135396
0.386389 0.188149 0.135102
0.386397 0.187814 0.134896
0.386387 0.187539 0.134724
0.386398 0.187310 0.134574
0.389690 0.214417 0.145062
0.384696 0.242901 0.151317
0.420108 0.252733 0.171820
0.153800 0.119005 0.065662
0.107070 0.103719 0.057513
0.071532 0.093677 0.052141
0.070818 0.090958 0.050939
0.078798 0.091359 0.051035
0.118803 0.101246 0.057193
0.147398 0.111374 0.062571
0.186567 0.118896 0.067167
0.216670 0.125981 0.071917
0.246840 0.127741 0.076066
0.277116 0.122175 0.077504
0.298690 0.150918 0.093113
0.301820 0.213434 0.115072
0.306973 0.240963 0.119294
0.342712 0.259116 0.140929
0.368298 0.264460 0.151044
0.383751 0.261297 0.157531
0.392399 0.252619 0.157536
0.391268 0.237758 0.153043
0.392056 0.226227 0.149987
0.389606 0.214912 0.144709
0.388891 0.207146 0.141748
0.387820 0.199976 0.139583
0.387742 0.195904 0.138307
0.387444 0.193351 0.137405
0.386919 0.191814 0.136744
0.386677 0.191113 0.136424
0.386525 0.190716 0.136246
0.386436 0.190416 0.136127
0.386329 0.190136 0.135987
0.390809 0.221691 0.148079
0.382150 0.271292 0.159575
0.356981 0.282928 0.152836
0.133784 0.131080 0.068804
0.113782 0.122839 0.064435
0.081046 0.112047 0.058702
0.080056 0.110330 0.058159
0.076573 0.104483 0.055479
0.092289 0.108039 0.057652
0.140842 0.121314 0.065790
0.176251 0.134050 0.072935
0.210732 0.144338 0.079284
0.245613 0.154594 0.086667
0.277311 0.164749 0.094895
0.300618 0.188002 0.107215
0.307568 0.222732 0.118625
0.332677 0.256664 0.134690
0.361913 0.275950 0.153130
0.393229 0.286511 0.169719
0.414006 0.287908 0.178229
0.422593 0.280378 0.179597
0.408057 0.253928 0.165270
0.395846 0.231652 0.152915
0.390601 0.217784 0.146151
0.388839 0.208474 0.143034
0.388761 0.202775 0.140255
0.387515 0.198280 0.138742
0.386843 0.195079 0.137652
0.386624 0.193226 0.137050
0.386549 0.192427 0.136774
0.386490 0.191930 0.136578
0.386461 0.191623 0.136477
0.386454 0.191326 0.136363
0.389985 0.218904 0.146377
0.384000 0.245740 0.152872
0.416590 0.253495 0.170651
0.229584 0.182117 0.095286
0.153651 0.158698 0.079244
0.097256 0.138449 0.068158
0.097712 0.139197 0.068443
0.094834 0.134630 0.066647
0.090020 0.127003 0.063562
0.119198 0.134686 0.068345
0.166406 0.150980 0.078393
0.207683 0.166089 0.087406
0.252884 0.180201 0.097399
0.292179 0.187710 0.106279
0.318139 0.207194 0.117743
0.325533 0.247386 0.129565
0.338993 0.273222 0.140428
0.381519 0.295789 0.168346
0.415951 0.306504 0.185534
0.440049 0.309786 0.195044
0.452583 0.306315 0.200531
0.443421 0.286551 0.190342
0.431376 0.264893 0.179171
0.418876 0.244357 0.166302
0.406177 0.225666 0.155804
0.397763 0.212511 0.147828
0.391811 0.203151 0.142473
0.387996 0.197418 0.138904
0.387779 0.195922 0.138352
0.387745 0.195323 0.138133
0.387734 0.194997 0.138031
0.387696 0.194715 0.137928
0.387677 0.194509 0.137849
0.391596 0.226077 0.149786
0.380664 0.273027 0.159563
0.351611 0.282172 0.149698
0.200497 0.201236 0.098313
0.171897 0.191578 0.092680
0.119577 0.172201 0.080786
0.119516 0.172486 0.081142
0.118356 0.170760 0.080551
0.114407 0.164865 0.078319
0.109089 0.156815 0.074786
0.148266 0.169040 0.081897
0.195271 0.187720 0.093310
0.248721 0.207603 0.106413
0.292068 0.225863 0.114992
0.322535 0.243401 0.127518
0.339918 0.265325 0.140008
0.368968 0.293219 0.161618
0.401510 0.313296 0.182186
0.436847 0.325106 0.198682
0.461890 0.329904 0.211811
0.474113 0.324621 0.214011
0.469290 0.308262 0.207241
0.462471 0.291407 0.199258
0.453820 0.275049 0.190795
0.444978 0.260161 0.182247
0.436160 0.244744 0.173339
0.429069 0.234695 0.167665
0.423148 0.227045 0.163050
0.418504 0.221826 0.159539
0.414872 0.218197 0.156725
0.411724 0.215056 0.154249
0.409199 0.212634 0.152314
0.407114 0.210697 0.150746
0.410243 0.239927 0.161998
0.404566 0.265387 0.167591
0.430876 0.268642 0.182086
0.330034 0.270348 0.136297
0.241149 0.239222 0.112267
0.143192 0.204511 0.092509
0.142927 0.205091 0.093125
0.143254 0.205520 0.093267
0.141544 0.203340 0.092485
0.136623 0.196636 0.090153
0.138130 0.193030 0.088368
0.192369 0.210426 0.099464
0.251186 0.231564 0.113278
0.305485 0.254118 0.123277
0.343560 0.272576 0.143177
0.361337 0.292658 0.157641
0.382238 0.314807 0.175269
0.425093 0.334593 0.198401
0.459724 0.346076 0.216176
0.482772 0.348284 0.225023
0.491896 0.339839 0.225039
0.488548 0.323962 0.218345
0.483462 0.309521 0.212891
0.477202 0.295577 0.205578
0.471419 0.282773 0.199880
0.466382 0.273231 0.194579
0.462765 0.265298 0.189992
0.458728 0.258357 0.186140
0.455708 0.253747 0.183594
0.453403 0.250900 0.181806
0.451409 0.248723 0.180319
0.449771 0.246969 0.179099
0.448447 0.245567 0.178099
0.455476 0.284575 0.194321
0.453129 0.332586 0.208892
0.424980 0.345530 0.203713
0.286691 0.287925 0.139253
0.257693 0.277258 0.125261
0.187993 0.251314 0.102110
0.180216 0.249457 0.102517
0.180211 0.249209 0.102615
0.178378 0.247158 0.102834
0.175644 0.244230 0.103075
0.167527 0.233514 0.101549
0.208049 0.243282 0.104918
0.259118 0.258949 0.116352
0.310309 0.280217 0.134956
0.355231 0.302215 0.159232
0.385982 0.319939 0.179279
0.415114 0.337755 0.196774
0.448182 0.354802 0.215130
0.481135 0.364290 0.230068
0.504791 0.365542 0.236740
0.512799 0.355101 0.235246
0.509524 0.338874 0.230245
0.503032 0.323176 0.223372
0.498354 0.311082 0.217948
0.492370 0.298986 0.211820
0.487837 0.289083 0.207412
0.484674 0.282291 0.204121
0.482025 0.277917 0.201964
0.480107 0.275126 0.200277
0.478616 0.273380 0.198996
0.477512 0.272177 0.198191
0.476509 0.271115 0.197487
0.475740 0.270264 0.196896
0.481016 0.299918 0.208646
0.479617 0.328610 0.217480
0.471472 0.305150 0.211756
0.436502 0.362610 0.215369
0.350097 0.335273 0.177530
0.251414 0.297830 0.131774
0.232706 0.293204 0.125042
0.245608 0.302961 0.134564
0.242504 0.300608 0.132277
0.236883 0.296382 0.128152
0.219446 0.283059 0.115471
0.259629 0.292231 0.129619
0.292842 0.301105 0.142118
0.333314 0.317384 0.162038
0.376327 0.335352 0.184134
0.411964 0.350980 0.202871
0.439926 0.366060 0.217938
0.476589 0.380825 0.235613
0.505462 0.386158 0.245156
0.527380 0.384070 0.250182
0.539914 0.374820 0.252025
0.535802 0.357449 0.245135
0.528896 0.340843 0.237270
0.522152 0.327890 0.232294
0.518010 0.317948 0.227500
0.513454 0.310580 0.226297
0.510885 0.305101 0.225599
0.508331 0.301029 0.224108
0.506018 0.298051 0.222520
0.504310 0.296065 0.221136
0.503043 0.294634 0.220062
0.501946 0.293389 0.219052
0.501149 0.292402 0.218302
0.506176 0.322421 0.223881
0.507324 0.375865 0.241505
0.485226 0.397147 0.245530
0.409171 0.383814 0.221594
0.379235 0.376552 0.210834
0.323866 0.354788 0.185740
0.312141 0.351769 0.181508
0.319409 0.356726 0.186299
0.317550 0.355071 0.184819
0.309461 0.348378 0.178693
0.300926 0.338545 0.170234
0.330320 0.347879 0.182134
0.347379 0.352874 0.188806
0.372024 0.361493 0.199426
0.407001 0.373327 0.214206
0.447894 0.386119 0.230793
0.479087 0.396687 0.243859
0.505294 0.403480 0.253263
0.531042 0.404931 0.259850
0.553084 0.401415 0.264731
0.560423 0.392305 0.266572
0.553260 0.374606 0.262131
0.547344 0.359168 0.256257
0.542682 0.346396 0.250984
0.539253 0.336374 0.248420
0.536115 0.327132 0.243686
0.533723 0.320885 0.240524
0.531707 0.316802 0.238579
0.529840 0.314055 0.237181
0.528418 0.312474 0.236227
0.527292 0.311301 0.235482
0.526453 0.310451 0.234937
0.525725 0.309680 0.234447
0.533773 0.337228 0.241565
0.531963 0.365820 0.246994
0.500995 0.331522 0.231888
0.529188 0.436925 0.275039
0.436468 0.414110 0.245060
0.364295 0.385971 0.214057
0.348952 0.380660 0.207811
0.374444 0.403200 0.226984
0.373112 0.401955 0.225950
0.363918 0.394120 0.219285
0.354224 0.380193 0.208456
0.377015 0.388080 0.217767
0.391549 0.395726 0.225384
0.409112 0.402096 0.232681
0.433888 0.409181 0.241706
0.478734 0.421754 0.257553
0.518466 0.430556 0.269751
0.542094 0.432080 0.274888
0.564200 0.428218 0.277128
0.573142 0.421113 0.280365
0.566842 0.407103 0.275756
0.558850 0.387995 0.273176
0.552204 0.371470 0.267248
0.547615 0.359342 0.264188
0.543327 0.347740 0.258351
0.540656 0.340196 0.255096
0.539120 0.335768 0.253096
0.537941 0.332324 0.251459
0.537097 0.329811 0.250193
0.536509 0.328082 0.249248
0.536106 0.326839 0.248563
0.535789 0.325888 0.248040
0.535549 0.325197 0.247658
0.548174 0.361067 0.262203
0.569481 0.417749 0.275293
0.546229 0.444064 0.281666
0.499207 0.456708 0.279881
0.465497 0.450625 0.271289
0.413824 0.433460 0.252295
0.405021 0.431315 0.249438
0.418061 0.443267 0.258890
0.417045 0.442338 0.258184
0.406519 0.432494 0.250605
0.396225 0.415684 0.238632
0.415867 0.421496 0.245701
0.424694 0.424594 0.249157
0.442304 0.433901 0.257784
0.472195 0.443179 0.268313
0.516650 0.451057 0.280132
0.550894 0.454862 0.288036
0.575974 0.453858 0.292090
0.584841 0.446391 0.292259
0.579173 0.432823 0.289625
0.569322 0.411574 0.282400
0.562693 0.396444 0.279234
0.556175 0.380924 0.273938
0.552456 0.371697 0.270230
0.549460 0.364039 0.266752
0.547335 0.358498 0.263898
0.545851 0.354483 0.262216
0.544718 0.351454 0.260694
0.543960 0.349407 0.259511
0.543516 0.348185 0.258819
0.543188 0.347298 0.258301
0.542955 0.346623 0.257921
0.542753 0.346087 0.257679
0.548770 0.362263 0.265278
0.563763 0.396706 0.276370
0.559785 0.405320 0.277319
0.609796 0.491627 0.314935
0.501999 0.470572 0.288016
0.435431 0.449959 0.265714
0.426272 0.448023 0.263029
0.458784 0.481925 0.286929
0.457880 0.481022 0.286314
0.445789 0.469458 0.278203
0.428133 0.446562 0.262530
0.448328 0.451249 0.268672
0.456231 0.453299 0.271185
0.468061 0.458406 0.276025
0.492891 0.470856 0.286840
0.545542 0.482500 0.301070
0.605258 0.487936 0.311939
0.605510 0.483742 0.313867
0.595598 0.465728 0.304233
0.583488 0.441887 0.296870
0.572247 0.417983 0.291329
0.568675 0.410285 0.286685
0.563757 0.399192 0.281621
0.560262 0.391050 0.278113
0.557753 0.385021 0.275562
0.555593 0.379728 0.273402
0.553661 0.374901 0.271493
0.552381 0.371652 0.270209
0.551617 0.369700 0.269434
0.551140 0.368478 0.268955
0.550810 0.367624 0.268623
0.550559 0.366963 0.268360
0.550333 0.366408 0.268139
0.556914 0.382984 0.274722
0.585675 0.446612 0.295168
0.610134 0.492030 0.316782
0.562568 0.520305 0.322261
0.540403 0.515573 0.315703
0.482921 0.500527 0.299821
0.478976 0.502088 0.299993
0.494123 0.517432 0.309912
0.493399 0.516768 0.309495
0.481027 0.504718 0.301899
0.463051 0.479807 0.286537
0.478900 0.480453 0.289466
0.486883 0.482383 0.291745
0.496301 0.484273 0.294213
0.531938 0.500109 0.307359
0.584595 0.516854 0.323596
0.617766 0.516719 0.328217
0.617427 0.504199 0.324511
0.604321 0.480601 0.316315
0.592034 0.457694 0.307878
0.583665 0.441553 0.302308
0.581263 0.436730 0.300243
0.578139 0.430357 0.297443
0.572428 0.418309 0.291186
0.568861 0.410565 0.287291
0.565874 0.403958 0.283775
0.563944 0.399568 0.281794
0.562568 0.396392 0.280415
0.561649 0.394258 0.279500
0.561081 0.392904 0.278931
0.560681 0.391976 0.278523
0.560347 0.391203 0.278196
0.560099 0.390620 0.277947
0.566125 0.404465 0.284158
0.578799 0.430221 0.295508
0.602814 0.476212 0.315330
0.647467 0.553626 0.347913
0.572104 0.535199 0.328281
0.499981 0.517572 0.310863
0.496305 0.519034 0.310983
0.523545 0.545367 0.326463
0.523545 0.545367 0.326463
0.519251 0.541570 0.324255
0.495108 0.515800 0.309308
0.510175 0.514412 0.310950
0.516331 0.514290 0.311814
0.527567 0.516433 0.314454
0.542050 0.519829 0.318066
0.635377 0.558795 0.345465
0.655343 0.566031 0.353186
0.638474 0.539229 0.341658
0.617806 0.504615 0.329107
0.605750 0.483461 0.320211
0.599936 0.472896 0.315799
0.596611 0.466727 0.313224
0.595309 0.464286 0.312180
0.588264 0.450820 0.306332
0.583402 0.441165 0.302138
0.580134 0.434526 0.299242
0.577617 0.429309 0.297034
0.575849 0.425620 0.295426
0.574693 0.423163 0.294282
0.573830 0.421351 0.293260
0.573264 0.420142 0.292585
0.572805 0.419187 0.292036
0.572448 0.418404 0.291604
0.582269 0.438891 0.301140
0.606069 0.484047 0.320464
0.643458 0.547251 0.345112
0.595109 0.564530 0.343375
0.599711 0.571701 0.345831
0.527775 0.547552 0.327948
0.523545 0.545367 0.326463
0.523545 0.545367 0.326463
0.523545 0.545367 0.326463
0.523545 0.545367 0.326463
0.526694 0.546990 0.327571
0.542613 0.550117 0.331030
0.550947 0.550222 0.332185
0.561892 0.551332 0.334057
0.599292 0.562451 0.342623
0.639832 0.580856 0.355053
0.676107 0.598168 0.365677
0.666438 0.583011 0.360692
0.647761 0.553657 0.350226
0.632863 0.529659 0.340161
0.622345 0.512135 0.332616
0.615434 0.500402 0.327291
0.611975 0.494386 0.324801
0.609074 0.489302 0.322704
0.601265 0.475252 0.316784
0.596951 0.467275 0.313387
0.593453 0.460684 0.310580
0.591311 0.456610 0.308845
0.589901 0.453871 0.307666
0.588934 0.451991 0.306851
0.588176 0.450548 0.306222
0.587609 0.449415 0.305720
0.587158 0.448542 0.305340
0.597586 0.468439 0.313877
0.613762 0.496374 0.325976
0.658326 0.570446 0.355774
0.674640 0.596039 0.364945
0.618944 0.581198 0.351440
0.529351 0.548357 0.328503
0.523545 0.545367 0.326463
0.523545 0.545367 0.326463
0.523545 0.545367 0.326463
0.523545 0.545367 0.326463
0.525317 0.546284 0.327089
0.553593 0.560163 0.336477
0.564347 0.563451 0.339117
0.578726 0.568643 0.342850
0.600079 0.575354 0.347751
0.680077 0.605740 0.367035
0.678283 0.601642 0.366998
0.662433 0.576955 0.358753
0.653277 0.562496 0.354001
0.650113 0.557519 0.351977
0.648171 0.554434 0.350600
0.639353 0.540283 0.345179
0.633527 0.530880 0.340817
0.630895 0.526561 0.338901
0.623699 0.514621 0.333239
0.616304 0.502034 0.328048
0.612255 0.494984 0.325108
0.609321 0.489821 0.322910
0.607397 0.486408 0.321460
0.606242 0.484354 0.320587
0.605450 0.482948 0.319997
0.604845 0.481863 0.319539
0.604387 0.481021 0.319189
0.620315 0.508900 0.330833
0.659220 0.571895 0.357226
0.701877 0.637826 0.379131
0.596994 0.567453 0.344497
0.602786 0.576408 0.347713
0.527716 0.547525 0.327931
0.523545 0.545367 0.326463
0.523545 0.545367 0.326463
0.523545 0.545367 0.326463
0.523545 0.545367 0.326463
0.527641 0.547485 0.327906
0.554746 0.560343 0.336696
0.565574 0.563477 0.339279
0.582010 0.569603 0.343601
0.628063 0.584779 0.353779
0.660227 0.595809 0.362039
0.672815 0.593078 0.363783
0.661717 0.575626 0.357705
0.651329 0.559255 0.352273
0.646361 0.551408 0.349085
0.645238 0.549624 0.348506
0.647061 0.552539 0.349710
0.651273 0.559235 0.352482
0.651577 0.559779 0.352490
0.649396 0.556278 0.351528
0.639337 0.540222 0.344675
0.634393 0.532192 0.341291
0.630587 0.525914 0.338550
0.627869 0.521449 0.336503
0.626402 0.518998 0.335450
0.625462 0.517417 0.334818
0.624736 0.516208 0.334334
0.624171 0.515248 0.333937
0.640550 0.542179 0.345492
0.667400 0.584019 0.360557
0.727720 0.678221 0.389793
0.674386 0.595645 0.364808
0.618166 0.580835 0.351213
0.529204 0.548291 0.328459
0.523545 0.545367 0.326463
0.523545 0.545367 0.326463
0.523545 0.545367 0.326463
0.523545 0.545367 0.326463
0.526660 0.546965 0.327556
0.555189 0.560607 0.336852
0.567307 0.563854 0.339639
0.583309 0.569788 0.343823
0.606948 0.577455 0.349247
0.681253 0.606384 0.367601
0.676451 0.598823 0.365971
0.658561 0.570970 0.356263
0.646538 0.551873 0.349484
0.642350 0.545127 0.347074
0.641331 0.543451 0.346726
0.642225 0.544917 0.347032
0.644987 0.549413 0.348352
0.650363 0.557922 0.352151
0.654980 0.565197 0.355054
0.651594 0.559845 0.352935
0.645505 0.550255 0.348730
0.643397 0.546846 0.347479
0.642401 0.545218 0.347096
0.641948 0.544467 0.346933
0.641702 0.544073 0.346855
0.641521 0.543761 0.346784
0.641377 0.543498 0.346733
0.664591 0.580309 0.360132
0.719519 0.665267 0.386537
0.727720 0.678221 0.389793
0.596841 0.567231 0.344410
0.602693 0.576270 0.347657
0.527692 0.547512 0.327920
0.523545 0.545367 0.326463
0.523545 0.545367 0.326463
0.523545 0.545367 0.326463
0.523545 0.545367 0.326463
0.528723 0.548037 0.328285
0.556297 0.560724 0.337045
0.569575 0.564360 0.340112
0.586492 0.570014 0.344276
0.634919 0.586671 0.355176
0.669480 0.598009 0.363574
0.671970 0.591789 0.363299
0.658608 0.570735 0.356142
0.645999 0.550804 0.348790
0.640112 0.541349 0.345100
0.638014 0.538007 0.343547
0.638905 0.539463 0.344288
0.641934 0.544341 0.346461
0.646609 0.551822 0.349525
0.651854 0.560164 0.352777
0.653161 0.562252 0.353407
0.646529 0.551684 0.349499
0.643525 0.546890 0.347485
0.642117 0.544654 0.346587
0.641501 0.543656 0.346179
0.641148 0.543094 0.345949
0.640906 0.542693 0.345781
0.640682 0.542327 0.345620
0.660059 0.573133 0.357699
0.690121 0.619763 0.372163
0.727720 0.678221 0.389793
0.673916 0.594923 0.364542
0.617303 0.580380 0.350955
0.529098 0.548238 0.328417
0.523545 0.545367 0.326463
0.523545 0.545367 0.326463
0.523545 0.545367 0.326463
0.523545 0.545367 0.326463
0.528225 0.547780 0.328106
0.557594 0.560973 0.337308
0.571486 0.564903 0.340558
0.587270 0.569769 0.344280
0.614254 0.579446 0.350725
0.681056 0.606055 0.367677
0.675858 0.597915 0.365637
0.656310 0.567449 0.354666
0.642761 0.545799 0.347236
0.637522 0.537339 0.343872
0.635103 0.533445 0.341874
0.635603 0.534243 0.342247
0.638749 0.539311 0.344909
0.642679 0.545670 0.347206
0.647116 0.552781 0.349892
0.650429 0.558020 0.352188
0.646688 0.552100 0.349581
0.642825 0.545917 0.347262
0.641824 0.544240 0.346892
0.641341 0.543451 0.346720
0.641065 0.543006 0.346601
0.640836 0.542630 0.346457
0.640626 0.542325 0.346339
0.663675 0.578880 0.359637
0.718815 0.664125 0.386253
0.727720 0.678221 0.389793
0.596586 0.566832 0.344259
0.602599 0.576111 0.347601
0.527658 0.547489 0.327907
0.523545 0.545367 0.326463
0.523545 0.545367 0.326463
0.523545 0.545367 0.326463
0.523545 0.545367 0.326463
0.530551 0.548993 0.328927
0.560103 0.561652 0.337892
0.574380 0.566054 0.341347
0.593404 0.571912 0.345748
0.643314 0.589641 0.357024
0.676291 0.598788 0.364633
0.670197 0.589034 0.362292
0.656666 0.567635 0.355007
0.642649 0.545388 0.346791
0.635602 0.534074 0.341635
0.632709 0.529344 0.339790
0.633097 0.530012 0.340075
0.635694 0.534307 0.341778
0.640087 0.541374 0.345228
0.644676 0.548730 0.348218
0.649298 0.556132 0.351296
0.648485 0.554811 0.350790
0.643161 0.546334 0.347263
0.641502 0.543639 0.346173
0.640843 0.542601 0.345741
0.640500 0.542038 0.345502
0.640252 0.541628 0.345330
0.640012 0.541268 0.345174
0.659446 0.572180 0.357325
0.689730 0.619150 0.371988
0.727720 0.678221 0.389793
0.672427 0.592620 0.363700
0.619805 0.581084 0.351569
0.529620 0.548515 0.328601
0.523557 0.545369 0.326466
0.523545 0.545367 0.326463
0.523545 0.545367 0.326463
0.523545 0.545367 0.326463
0.530081 0.548740 0.328760
0.561755 0.561988 0.338227
0.576560 0.566904 0.341937
0.595488 0.572491 0.346219
0.622503 0.582690 0.352701
0.681698 0.607023 0.368260
0.673957 0.594972 0.364557
0.653299 0.562655 0.353141
0.640113 0.541498 0.345967
0.633580 0.530960 0.340837
0.631013 0.526734 0.339099
0.631038 0.526779 0.339127
0.633316 0.530515 0.340659
0.637522 0.537339 0.343872
0.641924 0.544423 0.346932
0.645797 0.550697 0.348942
0.647440 0.553295 0.350130
0.643002 0.546202 0.347324
0.641178 0.543211 0.346669
0.640584 0.542251 0.346314
0.640280 0.541741 0.346107
