luts/Kodak Portra 400-BMD 4K-VICHET VFX.cube
# Dehancer Core Generator v.1
TITLE "DVR WG/Intermediate, Kodak Portra 400: x33"
#
# This 3D LUT is generated by Dehancer OFX plugin. This Lut is the
# property of Dehancer Ltd and may be used by plugin License owner only.
# Copying and sharing with third parties or over broadband
# communications is strictly prohibited and will be prosecuted by law.
# 
# Plugin License owner: vichetvfx@gmail.com
# License ID: 2og2acfB852LPQ1n8vRa7ZgVBvrxQ1558ndScjTdtQadxUEp6W
# License Type: pro
# License activation name: Dehancer Film OFX
# License activated: 2023-09-12
# Lut generated: 2023-09-25
# Bundle ID: com.dehancer.film_pro.v7
# Input: DVR WG/Intermediate
# Film Profile: Kodak Portra 400
# Print Media Profile: Kodak 2383 Print Film
# Rec.709 input transform: enabled
#
# (c) Dehancer Ltd.
# www.dehancer.com
# mail@dehancer.com
#
# LUT SIZE 33x33x33, 17424, 574992
LUT_3D_SIZE 5
# Data domain
DOMAIN_MIN 0 0 0
DOMAIN_MAX 1 1 1
# LUT data points begin
0.065685 0.053074 0.036949
0.253982 0.113890 0.070907
0.383546 0.237660 0.149161
0.384687 0.174704 0.128506
0.373763 0.277301 0.158558
0.200497 0.201236 0.098313
0.195271 0.187720 0.093310
0.461890 0.329904 0.211811
0.423148 0.227045 0.163050
0.430876 0.268642 0.182086
0.562568 0.520305 0.322261
0.478900 0.480453 0.289466
0.592034 0.457694 0.307878
0.562568 0.396392 0.280415
0.602814 0.476212 0.315330
0.596586 0.566832 0.344259
0.560103 0.561652 0.337892
0.635602 0.534074 0.341635
0.643161 0.546334 0.347263
0.727720 0.678221 0.389793
0.661152 0.575076 0.357146
0.575814 0.563730 0.340646
0.632285 0.528833 0.339977
0.646394 0.551637 0.349381
0.727720 0.678221 0.389793
0.104544 0.109766 0.218922
0.185330 0.151733 0.155115
0.389185 0.277608 0.165300
0.435651 0.221449 0.168230
0.368469 0.286485 0.159911
0.187477 0.185202 0.144795
0.115179 0.139206 0.088533
0.427506 0.310777 0.191017
0.432952 0.197454 0.156932
0.416871 0.253735 0.170971
0.546106 0.498433 0.310154
0.479092 0.481239 0.305004
0.595241 0.464075 0.305989
0.572014 0.417391 0.290734
0.592921 0.456757 0.312044
0.595329 0.564861 0.343530
0.541493 0.551943 0.331500
0.669578 0.587947 0.362180
0.727720 0.678221 0.389793
0.730290 0.681011 0.396387
0.655733 0.566267 0.354500
0.570754 0.560155 0.339635
0.657098 0.568295 0.355182
0.709763 0.650263 0.382187
0.727720 0.678221 0.389793
0.256485 0.302802 0.462867
0.169010 0.208298 0.301928
0.499051 0.440318 0.458689
0.645580 0.517383 0.642352
0.473494 0.443847 0.479811
0.237017 0.240598 0.331397
0.136991 0.166150 0.253246
0.475317 0.425724 0.440127
0.637889 0.505940 0.640087
0.549279 0.467687 0.552894
0.511200 0.548171 0.553922
0.353075 0.453518 0.529704
0.615462 0.563773 0.540824
0.564929 0.393576 0.369126
0.588504 0.480888 0.480595
0.679832 0.690637 0.539796
0.452887 0.635497 0.652739
0.893691 0.858556 0.701373
0.727720 0.678221 0.389793
0.835349 0.796648 0.583406
0.844068 0.787119 0.684595
0.454497 0.639894 0.654123
0.874626 0.842381 0.684989
0.727720 0.678221 0.389793
0.727720 0.678221 0.389793
0.256485 0.302802 0.462867
0.165966 0.183347 0.338232
0.299055 0.365880 0.473315
0.613621 0.500260 0.607236
0.290379 0.357831 0.483191
0.190494 0.219418 0.359788
0.143154 0.151133 0.308735
0.292787 0.355686 0.466408
0.661284 0.540480 0.658551
0.472516 0.442793 0.572053
0.350184 0.426909 0.536586
0.317604 0.394772 0.520008
0.316811 0.394341 0.516642
0.670247 0.553159 0.665594
0.502744 0.485392 0.603428
0.584104 0.691175 0.687910
0.421011 0.562855 0.627968
0.795473 0.854058 0.748461
0.942284 0.914071 0.776889
0.942978 0.915075 0.777019
0.732867 0.685896 0.713032
0.423937 0.569178 0.630199
0.773510 0.843061 0.744062
0.942978 0.915075 0.777019
0.942978 0.915075 0.777019
0.133278 0.149285 0.268771
0.155988 0.180542 0.302950
0.342367 0.395663 0.471032
0.539702 0.460430 0.529556
0.337565 0.397425 0.489367
0.137198 0.158548 0.251421
0.130325 0.148855 0.257627
0.366883 0.398124 0.461764
0.539818 0.462737 0.522735
0.521875 0.477898 0.579476
0.384353 0.431314 0.505086
0.308083 0.389641 0.479942
0.436555 0.475995 0.523138
0.623917 0.541541 0.591247
0.561393 0.517426 0.611019
0.607434 0.685741 0.689372
0.440268 0.596576 0.640634
0.888654 0.890046 0.765169
0.942978 0.915075 0.777019
0.942978 0.915075 0.777019
0.476206 0.707261 0.673334
0.476206 0.707261 0.673334
0.482618 0.724235 0.679175
0.936666 0.906906 0.770173
0.942978 0.915075 0.777019
