luts/LEVIRICKO AQUARIC LOOK.cube
TITLE "Generated by Resolve"
LUT_3D_SIZE 33
0 0 0
0 0 0
0 0 0
0.0145876 0 0
0.0797284 0 0
0.165789 0 0
0.279103 0 0
0.41735 0 0
0.569039 0 0
0.712047 0 0
0.838376 0 0
0.909789 0 0
0.914641 0 0
0.914641 0 0
0.914641 0 0
0.914641 0 0
0.914641 0 0
0.914641 0 0
0.914641 0 0
0.914641 0 0
0.914641 0 0
0.914641 0 0
0.914641 0 0
0.914641 0 0
0.914641 0 0
0.914641 0 0
0.914641 0 0
0.914641 0 0
0.914641 0 0
0.914641 0 0
0.914641 0 0
0.914641 0 0
0.914641 0 0
0 0 0
0 0 0
0 0 0
0.00972 0 0
0.0680095 0 0
0.144686 0 0
0.249287 0 0
0.38529 0 0
0.539849 0 0
0.686503 0 0
0.819684 0 0
0.905623 0 0
0.914641 0 0
0.914641 0 0
0.914641 0 0
0.914641 0 0
0.914641 0 0
0.914641 0 0
0.914641 0 0
0.914641 0 0
0.914641 0 0
0.914641 0 0
0.914641 0 0
0.914641 0 0
0.914641 0 0
0.914641 0 0
0.914641 0 0
0.914641 0 0
0.914641 0 0
0.914641 0 0
0.914641 0 0
0.914641 0 0
0.914641 0 0
0 0 0
0 0 0
0 0 0
0 0 0
0.0910353 0 0
0.183917 0 0
0.28426 0 0
0.408057 0 0
0.54844 0 0
0.689204 0 0
0.814145 0 0
0.903181 0 0
0.914626 0 0
0.914641 0 0
0.914641 0 0
0.914641 0 0
0.914641 0 0
0.914641 0 0
0.914641 0 0
0.914641 0 0
0.914641 0 0
0.914641 0 0
0.914641 0 0
0.914641 0 0
0.914641 0 0
0.914641 0 0
0.914641 0 0
0.914641 0 0
0.914641 0 0
0.914641 0 0
0.914641 0 0
0.914641 0 0
0.914641 0 0
0 0 0
0 0 0
0 0 0
0 0 0
0.00512703 0 0
0.0664225 0 0
0.183917 0 0
0.37673 0 0
0.535836 0 0
0.685969 0 0
0.822477 0 0
0.90959 0 0
0.914641 0 0
0.914641 0 0
0.914641 0 0
0.914641 0 0
0.914641 0 0
0.914641 0 0
0.914641 0 0
0.914641 0 0
0.914641 0 0
0.914641 0 0
0.914641 0 0
0.914641 0 0
0.914641 0 0
0.914641 0 0
0.914641 0 0
0.914641 0 0
0.914641 0 0
0.914641 0 0
0.914641 0 0
0.914641 0 0
0.914641 0 0
0 0 0
0 0 0
0 0 0
0 0 0
0 0 0
0.0132296 0 0
0.116426 0 0
0.202152 0 0
0.31931 0 0
0.594522 0 0
0.772107 0 0
0.896162 0 0
0.914611 0 0
0.914641 0 0
0.914641 0 0
0.914641 0 0
0.914641 0 0
0.914641 0 0
0.914641 0 0
0.914641 0 0
0.914641 0 0
0.914641 0 0
0.914641 0 0
0.914641 0 0
0.914641 0 0
0.914641 0 0
0.914641 0 0
0.914641 0 0
0.914641 0 0
0.914641 0 0
0.914641 0 0
0.914641 0 0
0.914641 0 0
0 0 0
0 0 0
0 0 0
0 0 0
0 0 0
0.00762951 0 0
0.0355535 0 0
0.110323 0 0
0.299962 0 0
0.38201 0 0
0.533867 0 0
0.789853 0 0
0.913375 0 0
0.914641 0 0
0.914641 0 0
0.914641 0 0
0.914641 0 0
0.914641 0 0
0.914641 0 0
0.914641 0 0
0.914641 0 0
0.914641 0 0
0.914641 0 0
0.914641 0 0
0.914641 0 0
0.914641 0 0
0.914641 0 0
0.914641 0 0
0.914641 0 0
0.914641 0 0
0.914641 0 0
0.914641 0 0
0.914641 0 0
0 0.0121157 0
0 0.0115206 0
0 0.00630198 0
0 0 0
0 0 0
0.00114443 0 0
0.0636301 0 0
0.0937362 0 0
0.21976 0 0
0.43711 0 0
0.539498 0 0
0.612619 0 0
0.79176 0 0
0.91397 0 0
0.914641 0 0
0.914641 0 0
0.914641 0 0
0.914641 0 0
0.914641 0 0
0.914641 0 0
0.914641 0 0
0.914641 0 0
0.914641 0 0
0.914641 0 0
0.914641 0 0
0.914641 0 0
0.914641 0 0
0.914641 0 0
0.914641 0 0
0.914641 0 0
0.914641 0 0
0.914641 0 0
0.914641 0 0
0 0.0466163 0
0 0.0443732 0
0 0.0412299 0
0 0.0124514 0
0 0.0141604 0
0 0.00726329 0
0.00491341 0.00421149 0
0.111696 0.000289921 0
0.162448 0 0
0.256397 0 0
0.499367 0 0
0.675807 0 0
0.717739 0 0
0.777493 0 0
0.89276 0 0
0.914641 0 0
0.914641 0 0
0.914641 0 0
0.914641 0 0
0.914641 0 0
0.914641 0 0
0.914641 0 0
0.914641 0 0
0.914641 0 0
0.914641 0 0
0.914641 0 0
0.914641 0 0
0.914641 0 0
0.914641 0 0
0.914641 0 0
0.914641 0 0
0.914641 0 0
0.914641 0 0
0 0.0897231 0
0 0.0867933 0
0 0.0855879 0
0 0.0666056 0
0 0.0442054 0
0 0.0649882 0
0 0.0446021 0
0.0261997 0.0290379 0
0.165957 0.0123751 0
0.248142 0 0
0.32752 0 0
0.52459 0 0
0.740032 0 0
0.867872 0 0
0.867506 0 0
0.888182 0 0
0.913283 0 0
0.914641 0 0
0.914641 0 0
0.914641 0 0
0.914641 0 0
0.914641 0 0
0.914641 0 0
0.914641 0 0
0.914641 0 0
0.914641 0 0
0.914641 0 0
0.914641 0 0
0.914641 0 0
0.914641 0 0
0.914641 0 0
0.914641 0 0
0.914641 0 0
0 0.142596 0
0 0.139269 0
0 0.137896 0
0 0.128908 0
0 0.0924697 0
0 0.0945296 0
0 0.118029 0
0.00502022 0.0938888 0
0.0644236 0.0725872 0
0.239307 0.0482795 0
0.352178 0.0173037 0
0.42092 0.00766003 0
0.571542 0.00030518 0
0.783932 0 0
0.902708 0 0
0.914336 0 0
0.914611 0 0
0.914626 0 0
0.914641 0 0
0.914641 0 0
0.914641 0 0
0.914641 0 0
0.914641 0 0
0.914641 0 0
0.914641 0 0
0.914641 0 0
0.914641 0 0
0.914641 0 0
0.914641 0 0
0.914641 0 0
0.914641 0 0
0.914641 0 0
0.914641 0 0
0 0.209354 0
0 0.205142 0
0 0.203967 0
0 0.199054 0
0 0.173632 0
0 0.153292 0
0 0.158556 0
0 0.184375 0
0.0153201 0.158038 7.62951e-05
0.110658 0.128374 0
0.317449 0.103532 0.00221256
0.46981 0.0615091 0.00401312
0.519524 0.040589 0.00259403
0.627665 0.0133669 0.000839246
0.791684 0 0
0.920043 0 0
0.921004 0 0
0.915663 0 0
0.914687 0 0
0.914656 0 0
0.914641 0 0
0.914641 0 0
0.914641 0 0
0.914641 0 0
0.914641 0 0
0.914641 0 0
0.914641 0 0
0.914641 0 0
0.914641 0 0
0.914641 0 0
0.914641 0 0
0.914641 0 0
0.914641 0 0
0 0.286046 0
0 0.280995 0
0 0.278218 0
0 0.276967 0
0 0.264836 0
0 0.224475 0
0 0.229496 0
0 0.238254 0
0 0.26421 1.5259e-05
0.0502937 0.233433 0.00416571
0.170489 0.19765 0.00686656
0.406775 0.172091 0.0106661
0.588556 0.126711 0.0159304
0.632853 0.102831 0.0136568
0.699245 0.0813306 0.00939956
0.782635 0.0556191 0.00270085
0.905989 0.0272526 0
0.939223 0.00251774 0
0.931014 0 0
0.921538 0 0
0.917861 0 0
0.915267 0 0
0.914656 0 0
0.914641 0 0
0.914641 0 0
0.914641 0 0
0.914641 0 0
0.914641 0 0
0.914641 0 0
0.914641 0 0
0.914641 0 0
0.914641 0 0
0.914641 0 0
0 0.375341 0.00250248
0 0.369345 0.0021973
0 0.364965 0.00196841
0 0.366339 0.00204471
0 0.356512 0.00154116
0 0.321416 0
0 0.304921 0
0 0.31078 0
0 0.342321 0.000579843
0.00796521 0.345388 0.00720226
0.12575 0.30193 0.0147402
0.265156 0.269017 0.0174563
0.520928 0.246067 0.0215915
0.701106 0.202487 0.0270542
0.75259 0.175463 0.0279698
0.787701 0.158511 0.0258793
0.829831 0.140505 0.0230411
0.890883 0.11722 0.018616
0.9402 0.0826123 0.0102235
0.942977 0.0404974 0.00115969
0.940261 0.0158846 0
0.935851 0 0
0.92668 0 0
0.919951 0 0
0.916609 0 0
0.914656 0 0
0.914641 0 0
0.914641 0 0
0.914641 0 0
0.914641 0 0
0.914641 0 0
0.914641 0 0
0.914641 0 0
0 0.475959 0.0103609
0 0.469123 0.00978103
0 0.461936 0.00917067
0 0.466835 0.00958267
0 0.461936 0.00917067
0 0.446693 0.00787366
0 0.397803 0.00369268
0 0.400244 0.00390631
0 0.402609 0.00444038
0 0.448676 0.00972
0.0386358 0.444633 0.0200351
0.20119 0.38674 0.0260777
0.353552 0.354635 0.028687
0.607828 0.333547 0.032929
0.796597 0.293904 0.0360113
0.869932 0.263844 0.0400244
0.885817 0.244678 0.0402228
0.911498 0.227131 0.0387884
0.936339 0.208469 0.0365148
0.949752 0.18587 0.0328679
0.947127 0.152407 0.0260929
0.942199 0.109163 0.0165103
0.94226 0.062211 0.00714122
0.942382 0.0192569 0
0.937743 0.00662242 0
0.934249 0 0
0.927001 0 0
0.916808 0 0
0.915236 0 0
0.91487 0 0
0.915724 0 0
0.916457 0 0
0.916823 0 0
0 0.58114 0.0191653
0 0.574426 0.0186313
0 0.567102 0.0180667
0 0.571069 0.0183719
0 0.568017 0.0181277
0 0.557046 0.0172732
0 0.521904 0.0143282
0 0.490806 0.0116579
0 0.49601 0.0121004
0 0.498344 0.0147402
0.00285344 0.556237 0.0209506
0.101244 0.53785 0.0333715
0.291035 0.472541 0.0384375
0.442344 0.442466 0.0411688
0.672557 0.429145 0.0462654
0.867048 0.397787 0.0466316
0.966522 0.364324 0.0499275
0.975387 0.339055 0.0503243
0.977386 0.320043 0.0502327
0.979675 0.302968 0.0492103
0.975265 0.283452 0.0472877
0.968277 0.259663 0.0447852
0.960815 0.228489 0.0402686
0.951782 0.185412 0.0331273
0.945586 0.137652 0.0228885
0.941497 0.0913863 0.0121767
0.942275 0.0459297 0.00492866
0.94229 0.0446174 0.0047303
0.942519 0.0318914 0.0027924
0.942702 0.0221866 0.00129702
0.942428 0.0373388 0.00361639
0.942077 0.056733 0.0065919
0.941848 0.0691539 0.00849927
0 0.679408 0.0274357
0 0.673915 0.0269474
0 0.66659 0.0262913
0 0.669947 0.0265965
0 0.669337 0.0265354
0 0.660487 0.0257572
0 0.644617 0.0243381
0 0.590036 0.019852
0 0.583062 0.0193637
0 0.586831 0.0204776
0.00514229 0.596124 0.025742
0.0336309 0.653971 0.035462
0.200687 0.61799 0.0480812
0.391302 0.552483 0.0513924
0.5393 0.526085 0.054078
0.753475 0.516716 0.0594186
0.923339 0.490837 0.0601511
0.993286 0.460029 0.0586252
1 0.432166 0.0565652
1 0.408576 0.0546426
1 0.391272 0.053193
0.996857 0.374228 0.0526131
0.992828 0.353735 0.0519722
0.987854 0.328954 0.051194
0.979721 0.298192 0.0487068
0.967391 0.256046 0.0442512
0.957443 0.212329 0.0375677
0.950774 0.179736 0.0320745
0.950164 0.176791 0.0315709
0.958236 0.216205 0.0382239
0.960525 0.22739 0.0401007
0.962325 0.23621 0.0415961
0.963714 0.242969 0.0427405
0 0.763821 0.0352331
0 0.759228 0.0347906
0 0.752194 0.0341344
0 0.755566 0.0344549
0 0.758312 0.0347143
0 0.753109 0.034226
0 0.743313 0.0333104
0 0.706294 0.0298314
0 0.670954 0.0266728
0 0.673747 0.0269627
0.00254826 0.677455 0.0307164
0.0232548 0.723888 0.0392462
0.113054 0.744366 0.0531777
0.318761 0.685512 0.0621805
0.486915 0.628489 0.0639658
0.626261 0.607355 0.066743
0.794934 0.600855 0.0713054
0.950515 0.585885 0.07364
1 0.559258 0.0719615
1 0.530602 0.0681315
1 0.499596 0.0638437
1 0.478676 0.0609598
1 0.460655 0.0589151
1 0.441123 0.0572824
1 0.418387 0.0554208
1 0.39382 0.0534371
0.995193 0.366552 0.0523842
0.988418 0.332815 0.0513008
0.981979 0.305928 0.0495308
0.983337 0.310582 0.0500343
0.987564 0.328511 0.0511788
0.988479 0.333104 0.0513161
0.989715 0.339422 0.0515145
0 0.838727 0.0424048
0 0.834058 0.0419471
0 0.828122 0.0413825
0 0.832486 0.0417945
0 0.839048 0.0424353
0 0.83624 0.0421607
0 0.828748 0.0414435
0 0.810636 0.0396887
0 0.757137 0.0346075
0 0.750957 0.0340276
0.00144961 0.757855 0.0361334
0.0423285 0.769207 0.0458839
0.0688792 0.84303 0.0562142
0.229801 0.821103 0.0704662
0.431952 0.752865 0.075349
0.578408 0.708537 0.0769818
0.700008 0.689998 0.0793469
0.82269 0.682689 0.0825513
0.959594 0.672984 0.0855726
1 0.649378 0.0844892
1 0.618967 0.0804456
1 0.586694 0.0759442
1 0.56289 0.0726177
1 0.543709 0.0699474
1 0.525643 0.0674601
1 0.504677 0.0645914
1 0.481743 0.0614633
1 0.461769 0.0588235
1 0.435508 0.0567178
1 0.41799 0.0552987
1 0.422797 0.0556954
1 0.426184 0.0559701
1 0.433249 0.0565347
0 0.901366 0.0485237
0 0.897581 0.0481575
0 0.892515 0.0476539
0 0.895994 0.0479896
0 0.903578 0.0487373
0 0.903899 0.0487678
0 0.898528 0.048249
0 0.88809 0.0472114
0 0.846357 0.0431373
0 0.818586 0.0404669
0 0.823758 0.0410315
0.0350805 0.836927 0.0503243
0.080293 0.882918 0.0615702
0.170626 0.91722 0.0750744
0.364034 0.873854 0.0847181
0.53875 0.811337 0.0870832
0.668101 0.778851 0.0888991
0.762493 0.763806 0.0906539
0.853559 0.757122 0.0930037
0.97203 0.75378 0.0964981
1 0.736538 0.0965896
1 0.707805 0.0927749
1 0.674235 0.0881361
1 0.645243 0.084123
1 0.622812 0.0809949
1 0.60618 0.0786755
1 0.590814 0.0765087
1 0.575387 0.0743572
1 0.559762 0.0721599
1 0.53727 0.0690318
1 0.526101 0.0675059
1 0.52845 0.0678264
1 0.53257 0.0683757
0 0.952941 0.0540627
0 0.949966 0.0536507
0 0.945617 0.0530404
0 0.946761 0.0532082
0 0.953857 0.0541848
0 0.955901 0.0544747
0 0.953628 0.0541543
0 0.947677 0.0533303
0 0.927291 0.0510719
0 0.880766 0.0464942
0 0.879759 0.0463874
0.025803 0.891966 0.0535897
0.0995499 0.908186 0.0668345
0.132845 0.986465 0.0780957
0.300664 0.960525 0.0898451
0.487114 0.906523 0.0952316
0.638148 0.8542 0.0965438
0.739101 0.832746 0.0982223
0.813519 0.822141 0.0997482
0.893568 0.81767 0.102037
0.991882 0.816403 0.105638
1 0.802335 0.105684
1 0.77586 0.102113
1 0.744457 0.0978103
1 0.717403 0.0941024
1 0.695644 0.0910964
1 0.680003 0.0889296
1 0.666621 0.087068
1 0.652903 0.0851759
1 0.641123 0.0835431
1 0.625925 0.0814374
1 0.624308 0.0812085
1 0.626902 0.0815747
0 0.992004 0.0594949
0 0.989258 0.0591135
0 0.985153 0.0585489
0 0.985382 0.0585794
0 0.993606 0.0597238
0 0.997253 0.0602274
0 0.996796 0.0601663
0 0.992233 0.0595254
0 0.984466 0.0584421
0 0.950439 0.0536812
0 0.937377 0.052079
0.0155947 0.947387 0.0569009
0.0891585 0.96202 0.0701762
0.126482 0.994492 0.0805829
0.24416 0.998886 0.093019
0.424567 0.994812 0.101503
0.597223 0.935851 0.104158
0.71696 0.900816 0.10547
0.793088 0.885664 0.106767
0.860975 0.876661 0.108263
0.938323 0.872435 0.110536
0.996231 0.872923 0.114137
1 0.862943 0.113939
1 0.843 0.111269
1 0.814908 0.107454
1 0.789502 0.10399
1 0.766094 0.100771
1 0.747753 0.0982681
1 0.734478 0.096437
1 0.724941 0.0951247
1 0.716121 0.0939193
1 0.713603 0.0935683
1 0.715496 0.0938277
0 1 0.0631418
0 1 0.0629587
0 1 0.0626383
0 1 0.0626383
0 1 0.0634775
0 1 0.0638743
0 1 0.0638895
0 1 0.0635843
0 1 0.0630961
0 1 0.0609903
0 0.979812 0.0580758
0.0155489 0.982025 0.0615244
0.0862898 0.990494 0.0742504
0.157488 0.997833 0.0859693
0.21384 1 0.0952468
0.387701 0.999481 0.106142
0.573938 0.988006 0.111147
0.713283 0.960281 0.112337
0.795041 0.93875 0.113283
0.861708 0.92813 0.114656
0.927901 0.921569 0.11635
0.983505 0.919707 0.118883
1 0.919997 0.121202
1 0.910369 0.120394
1 0.892103 0.117922
1 0.867308 0.11458
1 0.842481 0.111192
1 0.821759 0.10837
1 0.80795 0.106493
1 0.806714 0.106325
1 0.810925 0.106905
1 0.814588 0.107393
1 0.814893 0.107439
0 1 0.0654612
0 1 0.0654612
0 1 0.0654612
0 1 0.0654612
0 1 0.0654612
0 1 0.0654612
0 1 0.0654612
0 1 0.0654612
0 1 0.0654612
0 1 0.0654612
0 1 0.0632639
0.00769055 1 0.0642863
0.0730907 1 0.0754101
0.161318 1 0.0892958
0.17821 1 0.0938735
0.322499 1 0.107057
0.501305 1 0.116289
0.672908 0.995941 0.1196
0.772213 0.983093 0.12015
0.843778 0.974548 0.12108
0.90782 0.968872 0.122347
0.96875 0.965698 0.124041
1 0.964614 0.126116
1 0.96405 0.127642
1 0.95819 0.126894
1 0.942733 0.124743
1 0.918639 0.121492
1 0.897383 0.118624
1 0.880659 0.116365
1 0.876371 0.115785
1 0.88333 0.116732
1 0.90193 0.119249
1 0.903105 0.119402
0 1 0.0654612
0 1 0.0654612
0 1 0.0654612
0 1 0.0654612
0 1 0.0654612
0 1 0.0654612
0 1 0.0654612
0 1 0.0654612
0 1 0.0654612
0 1 0.0654612
0 1 0.0654612
0 1 0.0654612
0.0554513 1 0.0738994
0.139071 1 0.088777
0.201389 1 0.0964828
0.25745 1 0.102037
0.423957 1 0.115831
0.61059 1 0.125261
0.740887 1 0.126833
0.824643 1 0.127626
0.891142 1 0.128801
0.953597 0.995453 0.130083
0.989578 0.991485 0.131441
1 0.989685 0.133089
1 0.989349 0.133654
1 0.987396 0.133288
1 0.978378 0.131167
1 0.963531 0.128313
1 0.950072 0.126024
1 0.939223 0.124315
1 0.944167 0.125093
1 0.966796 0.128603
1 0.976883 0.130175
0 1 0.0654612
0 1 0.0654612
0 1 0.0654612
0 1 0.0654612
0 1 0.0654612
0 1 0.0654612
0 1 0.0654612
0 1 0.0654612
0 1 0.0654612
0 1 0.0654612
0 1 0.0654612
0 1 0.0654612
0.0336919 1 0.0708324
0.114031 1 0.0855573
0.219623 1 0.0983291
0.215808 1 0.0979324
0.35053 1 0.110185
0.530922 1 0.123201
0.687175 1 0.130648
0.794339 1 0.133394
0.870588 1 0.134066
0.935561 1 0.135271
0.980346 1 0.136584
1 1 0.138033
1 1 0.139284
1 1 0.139391
1 1 0.138888
1 1 0.137591
1 1 0.135851
1 0.999756 0.133883
1 0.993118 0.132692
1 1 0.134798
1 1 0.137987
0 1 0.0654612
0 1 0.0654612
0 1 0.0654612
0 1 0.0654612
0 1 0.0654612
0 1 0.0654612
0 1 0.0654612
0 1 0.0654612
0 1 0.0654612
0 1 0.0654612
0 1 0.0654612
0 1 0.0654612
0.0108644 1 0.0674601
0.0872816 1 0.081117
0.186099 1 0.0948196
0.243458 1 0.100694
0.284855 1 0.104524
0.450629 1 0.117769
0.611704 1 0.128435
0.745937 1 0.135912
0.84268 1 0.138964
0.916228 1 0.140215
0.97081 1 0.141329
1 1 0.142763
1 1 0.144198
1 1 0.144427
1 1 0.144289
1 1 0.143969
1 1 0.14284
1 1 0.141009
1 1 0.139254
1 1 0.139696
1 1 0.14374
0 1 0.0654612
0 1 0.0654612
0 1 0.0654612
0 1 0.0654612
0 1 0.0654612
0 1 0.0654612
0 1 0.0654612
0 1 0.0654612
0 1 0.0654612
0 1 0.0654612
0 1 0.0654612
0 1 0.0654612
0 1 0.0654612
0.0635996 1 0.0759289
0.152255 1 0.0908522
0.26334 1 0.102632
0.251667 1 0.101534
0.374258 1 0.112016
0.529519 1 0.123201
0.675258 1 0.131914
0.795972 1 0.138674
0.888228 1 0.143053
0.957809 1 0.145693
0.996963 1 0.147524
1 1 0.148669
1 1 0.149233
1 1 0.149126
1 1 0.14902
1 1 0.148669
1 1 0.147356
1 1 0.145205
1 1 0.144701
1 1 0.148348
0 1 0.0654612
0 1 0.0654612
0 1 0.0654612
0 1 0.0654612
0 1 0.0654612
0 1 0.0654612
0 1 0.0654612
0 1 0.0654612
0 1 0.0654612
