luts/LEVIRICKO AQUARIC LOOK.cube
TITLE "Generated by Resolve"
LUT_3D_SIZE 5
0 0 0
0.569039 0 0
0.914641 0 0
0.914641 0 0
0.914641 0 0
0 0.0897231 0
0.165957 0.0123751 0
0.913283 0 0
0.914641 0 0
0.914641 0 0
0 0.763821 0.0352331
0 0.670954 0.0266728
0.794934 0.600855 0.0713054
1 0.418387 0.0554208
0.989715 0.339422 0.0515145
0 1 0.0654612
0 1 0.0654612
0.35053 1 0.110185
1 1 0.139284
1 1 0.137987
0 1 0.0654612
0 1 0.0654612
0.147601 1 0.0903792
0.87068 1 0.142687
1 1 0.154726
0 0 0.925734
0.420706 0 0.391165
0.917952 0 0.00827039
0.914687 0 0
0.914748 0 0
0 0.0235599 0.0597391
0.0591135 0.00329595 0.0608988
0.914641 0 0
0.914641 0 0
0.914641 0 0
0 0.669032 0.0265049
0 0.735058 0.0325322
0.802274 0.584894 0.0694896
0.998886 0.385412 0.0529793
0.987228 0.328084 0.0511482
0 1 0.0654612
0 1 0.0654612
0.308644 1 0.106615
1 1 0.137514
1 1 0.133623
0 1 0.0654612
0 1 0.0654612
0.119356 1 0.0863813
0.863508 1 0.142306
1 1 0.154726
0 0 0.95256
0 0 0.954925
0.930587 0 0.944686
0.930373 0 0.681559
0.930449 0 0.709041
0 0 0.952499
0 0 0.95256
0.929519 0 0.811688
0.929824 0 0.5458
0.930282 0 0.649119
0 0.535744 0.391562
0 0.548547 0.46215
0.714687 0.514397 0.398215
0.988876 0.254124 0.197116
0.97908 0.0664836 0.342809
0 1 0.0652781
0 1 0.0654612
0.311864 1 0.106523
1 0.999359 0.136156
1 0.949722 0.125795
0 1 0.0654612
0 1 0.0654612
0 1 0.0654612
0.833814 1 0.140734
1 1 0.154726
0 0 0.95256
0 0 0.952529
0.858701 0 0.946242
0.930587 0 0.944686
0.930587 0 0.944686
0 0 0.95256
0 0 0.95256
0.729015 0 0.948989
0.930587 0 0.944686
0.930587 0 0.944686
0 0.423819 1
0 0.421134 1
0.29189 0.340948 1
0.991958 0.101732 1
0.93492 0 0.949706
0.0174716 1 0.960281
0.0211185 1 0.990631
0.0502174 1 0.994278
1 0.963348 0.781689
1 0.79559 0.705348
0 1 0.0768139
0 1 0.0783856
0 1 0.0654612
0.714824 1 0.134173
1 1 0.154726
0 0 0.95256
0 0 0.952544
0.367666 0 0.95581
0.930587 0 0.944686
0.930587 0 0.944686
0 0 0.95256
0 0 0.95256
0.0414282 0 0.959442
0.930587 0 0.944686
0.930587 0 0.944686
0 0.117205 0.987686
0 0.0250248 0.974945
0 0 0.954421
0.930587 0 0.944686
0.930587 0 0.944686
0.0184482 1 1
0.0187686 1 1
0.0140993 0.979736 1
0.843153 0.828428 1
1 0.674907 1
0.0278935 1 1
0.0278935 1 1
0.0278935 1 1
0.372534 1 1
1 1 1
