luts/LEVIRICKO AQUARIC LOOK.cube
TITLE "Generated by Resolve"
LUT_3D_SIZE 9
0 0 0
0.0797284 0 0
0.569039 0 0
0.914641 0 0
0.914641 0 0
0.914641 0 0
0.914641 0 0
0.914641 0 0
0.914641 0 0
0 0 0
0 0 0
0.31931 0 0
0.914611 0 0
0.914641 0 0
0.914641 0 0
0.914641 0 0
0.914641 0 0
0.914641 0 0
0 0.0897231 0
0 0.0442054 0
0.165957 0.0123751 0
0.740032 0 0
0.913283 0 0
0.914641 0 0
0.914641 0 0
0.914641 0 0
0.914641 0 0
0 0.375341 0.00250248
0 0.356512 0.00154116
0 0.342321 0.000579843
0.520928 0.246067 0.0215915
0.829831 0.140505 0.0230411
0.940261 0.0158846 0
0.916609 0 0
0.914641 0 0
0.914641 0 0
0 0.763821 0.0352331
0 0.758312 0.0347143
0 0.670954 0.0266728
0.113054 0.744366 0.0531777
0.794934 0.600855 0.0713054
1 0.499596 0.0638437
1 0.418387 0.0554208
0.981979 0.305928 0.0495308
0.989715 0.339422 0.0515145
0 0.992004 0.0594949
0 0.993606 0.0597238
0 0.984466 0.0584421
0.0891585 0.96202 0.0701762
0.597223 0.935851 0.104158
0.938323 0.872435 0.110536
1 0.814908 0.107454
1 0.734478 0.096437
1 0.715496 0.0938277
0 1 0.0654612
0 1 0.0654612
0 1 0.0654612
0.0336919 1 0.0708324
0.35053 1 0.110185
0.870588 1 0.134066
1 1 0.139284
1 1 0.135851
1 1 0.137987
0 1 0.0654612
0 1 0.0654612
0 1 0.0654612
0 1 0.0654612
0.322469 1 0.107866
0.708339 1 0.133974
1 1 0.151278
1 1 0.154726
1 1 0.154726
0 1 0.0654612
0 1 0.0654612
0 1 0.0654612
0 1 0.0654612
0.147601 1 0.0903792
0.454139 1 0.118029
0.87068 1 0.142687
1 1 0.15462
1 1 0.154726
0 0 0.394614
0.0792706 0 0.144305
0.338476 0 0.000991836
0.78056 0 0
0.914565 0 0
0.914641 0 0
0.914641 0 0
0.914641 0 0
0.914641 0 0
0 0 0.0114748
0 0 0.00598154
0.245487 0 0
0.827771 0 0
0.914641 0 0
0.914641 0 0
0.914641 0 0
0.914641 0 0
0.914641 0 0
0 0.0469062 0
0 0.0585031 0
0.12137 0.0140841 0
0.675654 0 0
0.912612 0 0
0.914641 0 0
0.914641 0 0
0.914641 0 0
0.914641 0 0
0 0.337667 0.000579843
0 0.350774 0.00125124
0 0.304417 0.000366217
0.497627 0.239902 0.0202945
0.817914 0.134874 0.0218509
0.93962 0.0122072 0
0.915587 0 0
0.914641 0 0
0.914641 0 0
0 0.741176 0.0331121
0 0.746685 0.0336156
0 0.661311 0.0258183
0.0902571 0.733837 0.0499428
0.760449 0.591485 0.0691081
1 0.487282 0.0621347
1 0.400259 0.0539864
0.970199 0.265415 0.045182
0.980789 0.301854 0.0490883
0 0.98172 0.0580606
0 0.986755 0.0587625
0 0.971206 0.056611
0.0768444 0.945327 0.066453
0.579248 0.925612 0.102129
0.922118 0.860441 0.108431
1 0.791257 0.104234
1 0.704036 0.092256
1 0.678965 0.0887922
0 1 0.0654612
0 1 0.0654612
0 1 0.0654612
0.0249027 1 0.0695354
0.340307 1 0.109346
0.861067 1 0.13228
1 1 0.137484
1 0.98349 0.131426
1 1 0.134737
0 1 0.0654612
0 1 0.0654612
0 1 0.0654612
0 1 0.0654612
0.295293 1 0.105486
0.707729 1 0.133959
1 1 0.151705
1 1 0.153948
1 1 0.153994
0 1 0.0654612
0 1 0.0654612
0 1 0.0654612
0 1 0.0654612
0.138247 1 0.0891737
0.416312 1 0.115282
0.871962 1 0.142748
1 1 0.154665
1 1 0.154726
0 0 0.925734
0 0 0.466758
0.420706 0 0.391165
0.729259 0 0.0691386
0.917952 0 0.00827039
0.916793 0 0
0.914687 0 0
0.914641 0 0
0.914748 0 0
0 0 0.566003
0 0 0.591394
0.252567 0 0.278035
0.644541 0 0.0254978
0.905852 0 0
0.914763 0 0
0.914641 0 0
0.914641 0 0
0.914641 0 0
0 0.0235599 0.0597391
0 0.0179446 0.0628519
0.0591135 0.00329595 0.0608988
0.694759 0 0
0.914641 0 0
0.914641 0 0
0.914641 0 0
0.914641 0 0
0.914641 0 0
0 0.257435 0
0 0.29102 0
0 0.282902 0
0.480339 0.223438 0.0178378
0.88513 0.110475 0.0170291
0.939269 0.0101472 0
0.914641 0 0
0.914641 0 0
0.914641 0 0
0 0.669032 0.0265049
0 0.702617 0.0294957
0 0.735058 0.0325322
0.0785534 0.707439 0.0459907
0.802274 0.584894 0.0694896
1 0.484672 0.061738
0.998886 0.385412 0.0529793
0.973816 0.277775 0.046479
0.987228 0.328084 0.0511482
0 0.944259 0.0528573
0 0.963211 0.0554971
0 1 0.0607004
0.0629129 0.94583 0.063798
0.550851 0.942351 0.102663
0.941039 0.862135 0.109316
1 0.776654 0.10222
1 0.688533 0.0901198
1 0.650828 0.0848859
0 1 0.0654612
0 1 0.0654612
0 1 0.0654612
0 1 0.0654612
0.308644 1 0.106615
0.862135 1 0.13257
1 1 0.137514
1 0.973281 0.129763
1 1 0.133623
0 1 0.0654612
0 1 0.0654612
0 1 0.0654612
0 1 0.0654612
0.307118 1 0.106554
0.692302 1 0.13315
1 1 0.151827
1 1 0.153552
1 1 0.153536
0 1 0.0654612
0 1 0.0654612
0 1 0.0654612
0 1 0.0654612
0.119356 1 0.0863813
0.476402 1 0.119585
0.863508 1 0.142306
1 1 0.154665
1 1 0.154726
0 0 0.95256
0 0 0.95256
0.114427 0 0.793408
0.860502 0 0.770703
0.92639 0 0.468482
0.928283 0 0.352117
0.926558 0 0.228779
0.926116 0 0.202823
0.927489 0 0.287877
0 0 0.95256
0 0 0.95256
0.0216678 0 0.783688
0.721309 0 0.641627
0.878416 0 0.318334
0.926711 0 0.238376
0.925139 0 0.155749
0.924224 0 0.119524
0.925505 0 0.174823
0 0 0.747631
0 0 0.79295
0 0 0.808606
0.522347 0 0.32726
0.886671 0 0.152178
0.92282 0 0.0750286
0.920562 0 0.0226139
0.92134 0 0.0381933
0.923247 0 0.0877394
0 0.219532 0.146548
0 0.219425 0.161105
0 0.235462 0.18819
0.358068 0.208621 0.167117
0.959823 0.0355077 0.0455177
0.922545 0 4.57771e-05
0.914748 0 0
0.914641 0 0
0.915938 0 0
0 0.575189 0.018677
0 0.580911 0.0191348
0 0.643244 0.0242313
0.0803082 0.635294 0.0399023
0.81677 0.555413 0.0661021
1 0.461769 0.0590677
0.990845 0.344778 0.0517433
0.966583 0.251209 0.0432136
0.966995 0.252247 0.043595
0 0.881636 0.0465858
0 0.910704 0.0494392
0 0.984924 0.0585184
0.00885023 0.937179 0.0543526
0.48777 0.951858 0.100374
0.956573 0.85034 0.108354
1 0.756222 0.0994278
1 0.666362 0.0870375
1 0.620554 0.0806897
0 1 0.0654612
0 1 0.0654612
0 1 0.0654612
0 1 0.0654612
0.353323 1 0.110445
0.853834 1 0.131792
1 1 0.137255
1 0.965896 0.128603
1 0.985 0.130877
0 1 0.0654612
0 1 0.0654612
0 1 0.0654612
0 1 0.0654612
0.265827 1 0.1028
0.662364 1 0.131548
1 1 0.151751
1 1 0.153231
1 1 0.153246
0 1 0.0654612
0 1 0.0654612
0 1 0.0654612
0 1 0.0654612
0.0530404 1 0.0736553
0.540581 1 0.123949
0.852201 1 0.141711
1 1 0.154665
1 1 0.154726
0 0 0.95256
0 0 0.95256
0 0 0.954925
0.644877 0 0.950698
0.930587 0 0.944686
0.930617 0 0.907897
0.930373 0 0.681559
0.930312 0 0.658061
0.930449 0 0.709041
0 0 0.95256
0 0 0.95256
0 0 0.95256
0.440421 0 0.946349
0.930587 0 0.940566
0.930602 0 0.825559
0.930312 0 0.657115
0.93019 0 0.624002
0.930343 0 0.6701
0 0 0.952499
0 0 0.952544
0 0 0.95256
0.325216 0 0.880308
0.929519 0 0.811688
0.930159 0 0.616526
0.929824 0 0.5458
0.930007 0 0.581323
0.930282 0 0.649119
0 0.158297 0.903105
0 0.154345 0.940124
0 0.15201 0.982651
0.181964 0.112749 1
0.880232 0.0139773 0.6168
0.930343 0 0.474998
0.928649 0 0.389471
0.929046 0 0.429847
0.929824 0 0.544091
0 0.535744 0.391562
0 0.533349 0.436042
0 0.548547 0.46215
0.0125734 0.578134 0.505028
0.714687 0.514397 0.398215
1 0.418097 0.302556
0.988876 0.254124 0.197116
0.978042 0.0806897 0.169924
0.97908 0.0664836 0.342809
0 0.821927 0.104616
0 0.823529 0.132799
0 0.863508 0.156161
0 0.90251 0.160449
0.446906 0.904311 0.170535
0.990921 0.823423 0.106233
1 0.732311 0.0964523
1 0.620417 0.0806592
1 0.633402 0.0874189
0 1 0.0652781
0 1 0.0651102
0 1 0.0654612
0 1 0.0654612
0.311864 1 0.106523
0.831357 1 0.130068
1 0.999359 0.136156
1 0.953124 0.126513
1 0.949722 0.125795
0 1 0.0654612
0 1 0.0654612
0 1 0.0654612
0 1 0.0654612
0.186282 1 0.0948348
0.604654 1 0.128008
1 1 0.151034
1 1 0.152575
1 1 0.152361
0 1 0.0654612
0 1 0.0654612
0 1 0.0654612
0 1 0.0654612
0 1 0.0654612
0.485161 1 0.120195
0.833814 1 0.140734
1 1 0.15465
1 1 0.154726
0 0 0.95256
0 0 0.95256
0 0 0.952544
0.33257 0 0.956359
0.930587 0 0.944686
0.930587 0 0.944686
0.930617 0 0.903029
0.930617 0 0.860822
0.930617 0 0.901671
0 0 0.95256
0 0 0.95256
0 0 0.95256
0.189914 0 0.958221
0.929229 0 0.944717
0.930587 0 0.944686
0.930617 0 0.914046
0.930617 0 0.828763
0.930632 0 0.873442
0 0 0.95256
0 0 0.95256
0 0 0.95256
0.11751 0 0.958907
0.928573 0 0.944732
0.930587 0 0.944686
0.930617 0 0.833692
0.930632 0 0.870939
0.930617 0 0.910872
0 0.0765393 0.982528
0 0.0653697 0.981094
0 0.0487221 0.978912
0 0.0104982 0.97464
0.890776 0 0.945678
0.930617 0 0.894286
0.930587 0 0.791623
0.930617 0 0.849744
0.930602 0 0.930404
0 0.490654 0.876616
0 0.485603 0.921523
0 0.503365 0.975677
0 0.489998 0.998856
0.566552 0.441016 0.999329
1 0.350698 0.855634
1 0.220829 0.806088
0.976822 0.0384375 0.779004
0.962661 0 0.922988
0 0.799664 0.707103
0 0.795758 0.741421
0 0.830213 0.774914
0 0.831525 0.776364
0.303288 0.865522 0.796643
0.933898 0.774578 0.619028
1 0.696117 0.5355
1 0.543221 0.424018
1 0.476951 0.517311
0.00779736 1 0.431113
0.00790417 1 0.478889
0.0118868 1 0.486107
0.0120546 1 0.467185
0.132815 1 0.397864
0.736812 1 0.192905
1 0.980392 0.132509
1 0.942916 0.164263
1 0.890806 0.132433
0 1 0.0654612
0 1 0.0656901
0 1 0.0654612
0 1 0.0654612
0.0115206 1 0.0678569
0.522942 1 0.122759
1 1 0.150088
1 1 0.151858
1 1 0.150332
0 1 0.0654612
0 1 0.0654612
0 1 0.0654612
0 1 0.0654612
0 1 0.0654612
0.402319 1 0.114199
0.798505 1 0.138842
1 1 0.15465
1 1 0.154726
0 0 0.95256
0 0 0.95256
0 0 0.952529
0.040238 0 0.959426
0.858701 0 0.946242
0.930587 0 0.944686
0.930587 0 0.944686
0.930587 0 0.944686
0.930587 0 0.944686
0 0 0.95256
0 0 0.95256
0 0 0.95256
0 0 0.955642
0.751949 0 0.948501
0.930587 0 0.944686
0.930587 0 0.944686
0.930587 0 0.944686
0.930587 0 0.944686
0 0 0.95256
0 0 0.95256
0 0 0.95256
0 0 0.952743
0.729015 0 0.948989
0.930587 0 0.944686
0.930587 0 0.944686
0.930587 0 0.944686
0.930587 0 0.944686
0 0 0.965805
0 0 0.9626
0 0 0.955962
0 0 0.952575
0.573617 0 0.952102
0.930587 0 0.944686
0.930587 0 0.944686
0.930587 0 0.944686
0.930587 0 0.944686
0 0.423819 1
0 0.411566 1
0 0.421134 1
0 0.394705 1
0.29189 0.340948 1
1 0.192386 1
0.991958 0.101732 1
0.938338 0 0.953674
0.93492 0 0.949706
0 0.780972 0.99089
0 0.772198 1
6.10361e-05 0.800443 1
6.10361e-05 0.796139 1
0.0627756 0.802808 1
0.827649 0.720592 1
1 0.629175 0.989715
1 0.527138 0.993622
1 0.483421 1
0.0174716 1 0.960281
0.0158999 0.994583 0.981033
0.0211185 1 0.990631
0.0216373 1 0.990204
0.0502174 1 0.994278
0.633219 0.994415 0.959808
1 0.963348 0.781689
1 0.906996 0.730617
1 0.79559 0.705348
0.0183871 1 0.656001
0.0210575 1 0.764874
0.0207218 1 0.750271
0.0191653 1 0.686992
0.0182193 1 0.649363
0.32668 1 0.412329
0.995499 1 0.370306
1 1 0.171923
1 1 0.245716
0 1 0.0768139
0 1 0.102342
0 1 0.0783856
0 1 0.0654612
0 1 0.0654612
0.254307 1 0.102815
0.714824 1 0.134173
1 1 0.154543
1 1 0.154726
0 0 0.95256
0 0 0.95256
0 0 0.952544
0.00077821 0 0.957732
0.550591 0 0.952544
0.926116 0 0.944778
0.930587 0 0.944686
0.930587 0 0.944686
0.930587 0 0.944686
0 0 0.95256
0 0 0.95256
0 0 0.95256
0 0 0.953445
0.454841 0 0.95433
0.926726 0 0.944762
0.930587 0 0.944686
0.930587 0 0.944686
0.930587 0 0.944686
0 0 0.95256
0 0 0.95256
0 0 0.95256
0 0 0.952544
0.454673 0 0.95433
0.930587 0 0.944686
0.930587 0 0.944686
0.930587 0 0.944686
0.930587 0 0.944686
0 0 0.95256
0 0 0.95256
0 0 0.95256
0 0 0.95256
0.272526 0 0.957229
0.930587 0 0.944686
0.930587 0 0.944686
0.930587 0 0.944686
0.930587 0 0.944686
0 0.298253 1
0 0.268849 0.999924
0 0.266926 0.999893
0 0.223758 0.999619
0 0.152804 0.992126
0.926818 0.0833753 1
0.930617 0 0.944717
0.930587 0 0.944686
0.931594 0 0.945861
0 0.737179 1
0 0.717632 1
0 0.737072 1
0 0.72163 1
0 0.682811 1
0.623957 0.609445 1
1 0.493584 1
1 0.433448 1
1 0.351812 1
0.0179141 0.999771 1
0.01561 0.984817 1
0.0204013 1 1
0.020798 1 1
0.0189364 1 1
0.347997 0.993347 1
1 0.919814 1
1 0.85272 1
1 0.778607 1
0.0278172 1 1
0.0278935 1 1
0.0278935 1 1
0.0278935 1 1
0.027863 1 1
0.296208 1 1
0.877226 1 1
1 1 0.955795
1 0.999771 0.941054
0.0259556 1 0.984649
0.0263828 1 0.994141
0.0263981 1 0.993545
0.0256352 1 0.980957
0.0240024 1 0.900877
0.110292 1 0.870695
0.530678 1 0.574044
1 1 0.453391
1 1 0.38265
0 0 0.95256
0 0 0.95256
0 0 0.952544
0.000366217 0 0.95758
0.367666 0 0.95581
0.844907 0 0.946532
0.930587 0 0.944686
0.930587 0 0.944686
0.930587 0 0.944686
0 0 0.95256
0 0 0.95256
0 0 0.95256
0 0 0.953277
0.272633 0 0.957244
0.834241 0 0.946761
0.930587 0 0.944686
0.930587 0 0.944686
0.930587 0 0.944686
0 0 0.95256
0 0 0.95256
0 0 0.95256
0 0 0.952544
0.0414282 0 0.959442
0.86392 0 0.946136
0.930587 0 0.944686
0.930587 0 0.944686
0.930587 0 0.944686
0 0 0.95256
0 0 0.95256
0 0 0.95256
0 0 0.95256
0 0 0.954192
0.78732 0 0.947768
0.930587 0 0.944686
0.930587 0 0.944686
0.930587 0 0.944686
0 0.117205 0.987686
0 0.0753948 0.982376
0 0.0250248 0.974945
0 0 0.962692
0 0 0.954421
0.622507 0 0.951141
0.930587 0 0.944686
0.930587 0 0.944686
0.930587 0 0.944686
0 0.663966 1
0 0.63035 1
0 0.620645 1
0 0.585092 1
0 0.526986 1
0.0909133 0.473991 1
1 0.400275 1
0.997833 0.154482 1
0.988296 0.0842908 1
0.0184482 1 1
0.016022 0.99266 1
0.0187686 1 1
0.0180972 1 1
0.0140993 0.979736 1
0.00950637 0.943893 1
0.843153 0.828428 1
1 0.717113 1
1 0.674907 1
0.0278935 1 1
0.0278935 1 1
0.0278935 1 1
0.0278935 1 1
0.0278935 1 1
0.0278935 1 1
0.651102 1 1
1 1 1
1 0.996368 1
0.0278935 1 1
0.0278935 1 1
0.0278935 1 1
0.0278935 1 1
0.0278935 1 1
0.0278935 1 1
0.372534 1 1
0.987945 1 1
1 1 1
