luts/Low contrast blue.cube
TITLE "Generated by Resolve"
LUT_3D_SIZE 33
0.0783246 0.102617 0.151232
0.0917678 0.106538 0.155154
0.105608 0.110369 0.158984
0.119783 0.114092 0.162707
0.134249 0.117739 0.166369
0.148989 0.121324 0.16994
0.163973 0.124834 0.173449
0.179171 0.128283 0.176898
0.194583 0.13167 0.180285
0.210178 0.135012 0.183627
0.225956 0.138308 0.186923
0.241901 0.141558 0.190173
0.258 0.144747 0.193378
0.274266 0.147906 0.196536
0.290669 0.151034 0.199649
0.30721 0.154116 0.202731
0.323888 0.157153 0.205783
0.340688 0.160174 0.208789
0.35761 0.163149 0.211765
0.374655 0.166094 0.21471
0.391806 0.168994 0.217624
0.409079 0.171878 0.220508
0.426459 0.174731 0.223362
0.443946 0.177554 0.226184
0.461524 0.180362 0.228977
0.479194 0.183124 0.231739
0.496971 0.18587 0.234485
0.514839 0.188586 0.237201
0.532799 0.191287 0.239902
0.550851 0.193942 0.242573
0.568978 0.196597 0.245212
0.587198 0.199222 0.247837
0.605493 0.201816 0.250431
0.0876936 0.12668 0.160586
0.101122 0.130602 0.164523
0.114961 0.134432 0.168338
0.129137 0.138155 0.172076
0.143618 0.141802 0.175723
0.158343 0.145388 0.179294
0.173327 0.148898 0.182803
0.188525 0.152346 0.186252
0.203937 0.155734 0.189654
0.219532 0.159075 0.192996
0.235309 0.162371 0.196277
0.251255 0.165621 0.199527
0.267353 0.168811 0.202731
0.283619 0.171969 0.20589
0.300023 0.175097 0.209003
0.316564 0.17818 0.212085
0.333242 0.181216 0.215137
0.350042 0.184237 0.218143
0.366964 0.187213 0.221118
0.384009 0.190158 0.224063
0.401175 0.193057 0.226978
0.418433 0.195941 0.229862
0.435813 0.198795 0.232715
0.4533 0.201617 0.235538
0.470878 0.204425 0.238331
0.488563 0.207187 0.241108
0.506325 0.209934 0.243839
0.524193 0.21265 0.246571
0.542153 0.215351 0.249256
0.560204 0.218006 0.251926
0.578332 0.220661 0.254566
0.596551 0.223285 0.257191
0.614862 0.225879 0.259785
0.0969863 0.150774 0.169894
0.11043 0.154696 0.173816
0.124269 0.158526 0.177646
0.138445 0.162249 0.181369
0.152911 0.165896 0.185031
0.167651 0.169482 0.188602
0.182635 0.172992 0.192111
0.197833 0.17644 0.19556
0.213245 0.179828 0.198947
0.22884 0.183169 0.202289
0.244617 0.186465 0.205585
0.260563 0.189715 0.208835
0.276661 0.192905 0.212039
0.292927 0.196063 0.215198
0.309331 0.199191 0.218311
0.325872 0.202274 0.221393
0.34255 0.20531 0.224445
0.35935 0.208331 0.227451
0.376272 0.211307 0.230426
0.393317 0.214252 0.233371
0.410468 0.217166 0.236286
0.427741 0.220035 0.23917
0.445121 0.222889 0.242023
0.462608 0.225711 0.244846
0.480186 0.228519 0.247639
0.497856 0.231281 0.250401
0.515633 0.234028 0.253147
0.533501 0.236744 0.255863
0.551461 0.239445 0.258564
0.569512 0.242115 0.261234
0.58764 0.244755 0.263874
0.605859 0.247379 0.266499
0.624155 0.249973 0.269093
0.106249 0.174884 0.179141
0.119692 0.178805 0.183078
0.133532 0.182635 0.186908
0.147707 0.186358 0.190631
0.162173 0.190021 0.194278
0.176913 0.193591 0.197864
0.191897 0.197101 0.201373
0.207095 0.200549 0.204822
0.222492 0.203952 0.208209
0.238087 0.207294 0.211551
0.253864 0.210575 0.214847
0.26981 0.213825 0.218082
0.285924 0.217029 0.221286
0.302174 0.220188 0.224445
0.318578 0.223301 0.227573
0.335119 0.226383 0.230655
0.351797 0.229435 0.233692
0.368597 0.232441 0.236713
0.385534 0.235416 0.239689
0.402579 0.238361 0.242634
0.41973 0.241276 0.245533
0.437003 0.24416 0.248417
0.454383 0.247013 0.25127
0.471855 0.249836 0.254093
0.489433 0.252628 0.256901
0.507118 0.25539 0.259663
0.524895 0.258137 0.262409
0.542763 0.260853 0.265126
0.560723 0.263554 0.267826
0.578775 0.266224 0.270481
0.596902 0.268864 0.273136
0.615122 0.271489 0.275761
0.633417 0.274083 0.278355
0.115465 0.199008 0.188373
0.128908 0.202945 0.192294
0.142748 0.20676 0.196124
0.156924 0.210498 0.199847
0.171389 0.214145 0.203494
0.18613 0.217716 0.20708
0.201114 0.221225 0.21059
0.216312 0.224674 0.214038
0.231708 0.228077 0.217426
0.247318 0.231418 0.220768
0.263081 0.234699 0.224063
0.279026 0.237949 0.227314
0.29514 0.241154 0.230503
0.311391 0.244312 0.233661
0.327794 0.247425 0.236789
0.34435 0.250507 0.239872
0.361013 0.253559 0.242908
0.377813 0.256565 0.24593
0.394751 0.259541 0.248905
0.411795 0.262486 0.25185
0.428946 0.2654 0.254765
0.44622 0.268284 0.257633
0.4636 0.271138 0.260487
0.481071 0.27396 0.26331
0.49865 0.276753 0.266117
0.516335 0.27953 0.268879
0.534112 0.282261 0.271626
0.55198 0.284993 0.274342
0.56994 0.287678 0.277043
0.587991 0.290349 0.279698
0.606119 0.292988 0.282353
0.624338 0.295613 0.284977
0.642634 0.298207 0.287572
0.124651 0.223148 0.197543
0.138094 0.227085 0.20148
0.151934 0.2309 0.205295
0.16611 0.234638 0.209033
0.180575 0.238285 0.21268
0.195315 0.241856 0.216251
0.210285 0.245365 0.219776
0.225498 0.248814 0.223224
0.240894 0.252216 0.226612
0.256489 0.255558 0.229953
0.272267 0.258839 0.233249
0.288212 0.262089 0.236484
0.304326 0.265293 0.239689
0.320577 0.268452 0.242847
0.33698 0.271565 0.245975
0.353521 0.274647 0.249058
0.370199 0.277699 0.252094
0.386999 0.280705 0.2551
0.403922 0.28368 0.258076
0.420966 0.286625 0.261021
0.438132 0.28954 0.263935
0.455406 0.292424 0.266819
0.47277 0.295277 0.269673
0.490257 0.2981 0.272496
0.507836 0.300893 0.275288
0.525521 0.30367 0.278065
0.543297 0.306416 0.280812
0.561166 0.309133 0.283528
0.579126 0.311818 0.286213
0.597162 0.314488 0.288884
0.615305 0.317128 0.291539
0.633524 0.319753 0.294148
0.65182 0.322362 0.296757
0.133806 0.247303 0.206699
0.147234 0.251225 0.210636
0.161074 0.255055 0.21445
0.17525 0.258793 0.218189
0.189731 0.26244 0.221836
0.204471 0.266011 0.225406
0.21944 0.26952 0.228916
0.234638 0.272969 0.232364
0.25005 0.276371 0.235767
0.265644 0.279713 0.239109
0.281422 0.282994 0.24239
0.297368 0.286244 0.24564
0.313481 0.289448 0.248844
0.329732 0.292607 0.252003
0.346136 0.29572 0.255116
0.362676 0.298802 0.258198
0.379355 0.301854 0.26125
0.396155 0.30486 0.264256
0.413077 0.307836 0.267231
0.430121 0.31078 0.270176
0.447288 0.313695 0.273091
0.464546 0.316579 0.275975
0.481926 0.319432 0.278828
0.499413 0.322255 0.281651
0.516991 0.325048 0.284443
0.534676 0.327825 0.287221
0.552453 0.330556 0.289967
0.570321 0.333272 0.292683
0.588266 0.335973 0.295369
0.606317 0.338643 0.298039
0.624445 0.341283 0.300679
0.642664 0.343908 0.303304
0.660975 0.346502 0.305913
0.142931 0.271458 0.215824
0.156359 0.275395 0.21976
0.170199 0.279225 0.223575
0.184375 0.282948 0.227314
0.198856 0.286595 0.230961
0.213596 0.290181 0.234531
0.228565 0.29369 0.238041
0.243763 0.297139 0.241489
0.259174 0.300526 0.244892
0.274769 0.303868 0.248234
0.290547 0.307164 0.251514
0.306493 0.310399 0.254765
0.322591 0.313603 0.257969
0.338857 0.316762 0.261128
0.355261 0.31989 0.26424
0.371801 0.322972 0.267323
0.388479 0.326009 0.270375
0.40528 0.329015 0.273381
0.422202 0.332006 0.276356
0.439246 0.334936 0.279301
0.456413 0.33785 0.282216
0.473671 0.340734 0.2851
0.491051 0.343587 0.287953
0.508537 0.34641 0.290776
0.526116 0.349218 0.293568
0.543801 0.35198 0.296345
0.561563 0.354726 0.299077
0.579431 0.357443 0.301808
0.597391 0.360128 0.304494
0.615442 0.362799 0.307164
0.63357 0.365454 0.309804
0.651789 0.368063 0.312428
0.6701 0.370672 0.315038
0.152026 0.295644 0.224918
0.165469 0.299565 0.228855
0.179309 0.303395 0.23267
0.193484 0.307118 0.236408
0.20795 0.310765 0.240055
0.22269 0.314351 0.243641
0.237659 0.317861 0.24715
0.252872 0.321309 0.250599
0.268269 0.324697 0.253986
0.283864 0.328038 0.257328
0.299641 0.331334 0.260624
0.315587 0.334569 0.263859
0.331701 0.337774 0.267063
0.347951 0.340932 0.270222
0.364355 0.34406 0.27335
0.380896 0.347143 0.276432
0.397574 0.350179 0.279469
0.414374 0.353201 0.282475
0.431312 0.356176 0.285466
0.448356 0.359121 0.288396
0.465507 0.36202 0.29131
0.48278 0.364904 0.294194
0.50016 0.367758 0.297047
0.517632 0.370581 0.29987
0.53521 0.373388 0.302678
0.552895 0.37615 0.30544
0.570672 0.378897 0.308186
0.58854 0.381613 0.310903
0.6065 0.384298 0.313588
0.624537 0.386969 0.316258
0.64268 0.389624 0.318914
0.660899 0.392248 0.321523
0.679194 0.394842 0.324132
0.161105 0.319814 0.233997
0.174533 0.323751 0.237934
0.188373 0.327565 0.241749
0.202548 0.331304 0.245487
0.217029 0.334951 0.249134
0.231769 0.338521 0.252705
0.246738 0.342031 0.256214
0.261936 0.34548 0.259663
0.277348 0.348882 0.263066
0.292943 0.352224 0.266407
0.308721 0.355505 0.269703
0.324666 0.358755 0.272938
0.34078 0.361959 0.276143
0.357031 0.365118 0.279301
0.373434 0.368231 0.282414
0.389975 0.371313 0.285496
0.406653 0.374365 0.288548
0.423453 0.377371 0.291554
0.440375 0.380346 0.29453
0.45742 0.383291 0.297475
0.474586 0.386206 0.300389
0.491859 0.38909 0.303273
0.509224 0.391943 0.306127
0.526711 0.394766 0.308949
0.544289 0.397559 0.311742
0.561975 0.400336 0.314519
0.579751 0.403067 0.317266
0.59762 0.405798 0.319982
0.615579 0.408484 0.322667
0.633616 0.411154 0.325338
0.651759 0.413794 0.327977
0.669963 0.416419 0.330602
0.688273 0.419013 0.333211
0.170153 0.343999 0.243061
0.183597 0.347936 0.246983
0.197436 0.351751 0.250813
0.211612 0.355489 0.254536
0.226078 0.359136 0.258183
0.240818 0.362707 0.261769
0.255802 0.366217 0.265278
0.271 0.36968 0.268727
0.286397 0.373068 0.272114
0.302007 0.37641 0.275456
0.317784 0.379705 0.278752
0.33373 0.38294 0.282002
0.349828 0.386145 0.285191
0.366094 0.389303 0.28835
0.382483 0.392432 0.291478
0.399039 0.395499 0.29456
0.415702 0.39855 0.297597
0.432517 0.401556 0.300618
0.449439 0.404532 0.303593
0.466484 0.407477 0.306538
0.483635 0.410391 0.309453
0.500908 0.413275 0.312322
0.518288 0.416129 0.315175
0.53576 0.418952 0.317998
0.553353 0.421744 0.320806
0.571023 0.424521 0.323568
0.5888 0.427268 0.326314
0.606668 0.429984 0.32903
0.624628 0.43267 0.331731
0.64268 0.43534 0.334401
0.660807 0.43798 0.337041
0.679026 0.440604 0.339666
0.697322 0.443214 0.34226
0.179187 0.3682 0.252094
0.19263 0.372122 0.256016
0.20647 0.375952 0.259846
0.220645 0.379675 0.263569
0.235111 0.383337 0.267216
0.249851 0.386908 0.270802
0.264836 0.390417 0.274311
0.280034 0.393866 0.27776
0.295445 0.397269 0.281147
0.31104 0.400595 0.284489
0.326818 0.403891 0.287785
0.342763 0.407141 0.291035
0.358862 0.410346 0.29424
0.375128 0.413504 0.297398
0.391531 0.416617 0.300511
0.408072 0.419699 0.303593
0.42475 0.422751 0.306645
0.44155 0.425757 0.309651
0.458473 0.428733 0.312627
0.475517 0.431678 0.315572
0.492668 0.434592 0.318486
0.509941 0.437476 0.32137
0.527321 0.44033 0.324224
0.544793 0.443153 0.327047
0.562387 0.445945 0.329839
0.580056 0.448707 0.332601
0.597833 0.451453 0.335348
0.615702 0.45417 0.338064
0.633661 0.45687 0.340764
0.651713 0.459541 0.343435
0.669841 0.462181 0.346075
0.68806 0.464805 0.348699
0.706355 0.467399 0.351293
0.188205 0.392401 0.261112
0.201648 0.396323 0.265034
0.215488 0.400153 0.268864
0.229664 0.403876 0.272587
0.244129 0.407538 0.276234
0.258869 0.411109 0.27982
0.273854 0.414618 0.28333
0.289052 0.418067 0.286778
0.304463 0.421469 0.290166
0.320058 0.424796 0.293507
0.335836 0.428092 0.296803
0.351781 0.431342 0.300053
0.36788 0.434546 0.303243
0.384146 0.437705 0.306416
0.400549 0.440818 0.309529
0.41709 0.4439 0.312612
0.433753 0.446952 0.315663
0.450568 0.449958 0.318669
0.467491 0.452934 0.321645
0.484535 0.455879 0.32459
0.501686 0.458793 0.327504
0.518959 0.461677 0.330388
0.536339 0.46453 0.333227
0.553811 0.467353 0.336065
0.571405 0.470146 0.338857
0.589075 0.472908 0.341619
0.606851 0.475654 0.344366
0.62472 0.47837 0.347082
0.64268 0.481071 0.349783
0.660731 0.483742 0.352453
0.678859 0.486381 0.355093
0.697078 0.489006 0.357717
0.715373 0.4916 0.360311
0.197208 0.416602 0.270115
0.210651 0.420539 0.274037
0.224491 0.424353 0.277867
0.238666 0.428092 0.28159
0.253132 0.431739 0.285237
0.267872 0.435309 0.288823
0.282856 0.438834 0.292332
0.298054 0.442283 0.295781
0.313451 0.44567 0.299168
0.329061 0.449012 0.30251
0.344823 0.452308 0.305806
0.360769 0.455543 0.309056
0.376883 0.458747 0.312245
0.393133 0.461906 0.315404
0.409537 0.465034 0.318532
0.426078 0.468116 0.321614
0.442756 0.471153 0.324651
0.459556 0.474159 0.327672
0.476493 0.477134 0.330648
0.493538 0.480079 0.333593
0.510689 0.482994 0.336492
0.527962 0.485878 0.339376
0.545342 0.488731 0.342229
0.562814 0.491554 0.345052
0.580392 0.494347 0.34786
0.598077 0.497124 0.350622
0.615854 0.49987 0.353368
0.633722 0.502586 0.356085
0.651682 0.505272 0.358785
0.669734 0.507942 0.36144
0.687861 0.510597 0.364096
0.706081 0.513207 0.36672
0.724376 0.515816 0.369314
0.206195 0.440818 0.279088
0.219638 0.444755 0.283024
0.233463 0.448569 0.286839
0.247639 0.452308 0.290578
0.262119 0.455955 0.294224
0.27686 0.459525 0.297795
0.291829 0.463035 0.301305
0.307042 0.466484 0.304768
0.322438 0.469886 0.308156
0.338033 0.473228 0.311498
0.353811 0.476524 0.314794
0.369757 0.479759 0.318029
0.38587 0.482963 0.321233
0.402121 0.486122 0.324392
0.418524 0.489235 0.32752
0.435065 0.492317 0.330602
0.451743 0.495369 0.333639
0.468544 0.498375 0.336645
0.485466 0.50135 0.33962
0.50251 0.504295 0.342565
0.519677 0.50721 0.34548
0.53695 0.510094 0.348363
0.554314 0.512947 0.351217
0.571801 0.51577 0.35404
0.58938 0.518563 0.356832
0.607065 0.52134 0.359609
0.624842 0.524086 0.362356
0.64271 0.526802 0.365072
0.66067 0.529488 0.367758
0.678706 0.532158 0.370428
0.696849 0.534798 0.373083
0.715068 0.537423 0.375692
0.733364 0.540032 0.378302
0.215167 0.465034 0.28806
0.228595 0.468971 0.291997
0.242435 0.472786 0.295811
0.256611 0.476524 0.29955
0.271092 0.480171 0.303197
0.285817 0.483757 0.306767
0.300801 0.487266 0.310277
0.315999 0.490715 0.313726
0.331411 0.494102 0.317128
0.347005 0.497444 0.32047
0.362783 0.50074 0.323751
0.378729 0.503975 0.327001
0.394827 0.507179 0.330205
0.411093 0.510338 0.333364
0.427497 0.513466 0.336477
0.444038 0.516548 0.339559
0.460716 0.519585 0.342611
0.477516 0.522591 0.345617
0.494438 0.525582 0.348592
0.511482 0.528511 0.351537
0.528649 0.531426 0.354452
0.545907 0.53431 0.357336
0.563287 0.537163 0.360189
0.580774 0.539986 0.363012
0.598352 0.542794 0.365805
0.616037 0.545556 0.368582
0.633799 0.548302 0.371313
0.651667 0.551019 0.374044
0.669627 0.553704 0.37673
0.687678 0.556374 0.3794
0.705806 0.55903 0.38204
0.724025 0.561639 0.384665
0.742336 0.564248 0.387259
0.224109 0.489265 0.297017
0.237552 0.493187 0.300938
0.251392 0.497017 0.304768
0.265568 0.500755 0.308492
0.280034 0.504402 0.312154
0.294774 0.507973 0.315724
0.309758 0.511482 0.319234
0.324956 0.514931 0.322683
0.340368 0.518334 0.32607
0.355962 0.521675 0.329412
0.37174 0.524956 0.332708
0.387686 0.528206 0.335958
0.403784 0.531411 0.339162
0.42005 0.534569 0.342321
0.436454 0.537682 0.345434
0.452995 0.540764 0.348516
0.469673 0.543816 0.351568
0.486473 0.546822 0.354574
0.503395 0.549798 0.357549
0.520439 0.552743 0.360494
0.537606 0.555657 0.363409
0.554864 0.558541 0.366293
0.572244 0.561395 0.369146
0.589731 0.564218 0.371969
0.607309 0.56701 0.374762
0.624979 0.569787 0.377523
0.642756 0.572519 0.38027
0.660624 0.575235 0.382986
0.678584 0.577935 0.385687
0.696635 0.580606 0.388357
0.714763 0.583246 0.390997
0.732982 0.58587 0.393622
0.751278 0.588464 0.396216
0.233051 0.513497 0.305959
0.246494 0.517418 0.30988
0.260334 0.521248 0.31371
0.27451 0.524971 0.317433
0.288975 0.528634 0.32108
0.303716 0.532204 0.324666
0.3187 0.535714 0.328176
0.333898 0.539162 0.331624
0.34931 0.542565 0.335012
0.364904 0.545892 0.338354
0.380682 0.549187 0.34165
0.396628 0.552438 0.3449
0.412726 0.555642 0.348104
0.428992 0.558801 0.351263
0.445396 0.561913 0.354376
0.461936 0.564996 0.357458
0.478614 0.568048 0.36051
0.495415 0.571054 0.363516
0.512337 0.574029 0.366491
0.529381 0.576974 0.369436
0.546532 0.579889 0.372351
0.563806 0.582773 0.375235
0.581186 0.585626 0.378088
0.598672 0.588449 0.380911
0.616251 0.591241 0.383703
0.633921 0.594003 0.386465
0.651698 0.59675 0.389212
0.669566 0.599466 0.391928
0.687526 0.602167 0.394629
0.705577 0.604837 0.397299
0.723705 0.607477 0.399939
0.741924 0.610101 0.402564
0.76022 0.612696 0.405158
0.241978 0.537728 0.314885
0.255421 0.541665 0.318807
0.269261 0.54548 0.322637
0.283436 0.549218 0.32636
0.297902 0.552865 0.330022
0.312642 0.556435 0.333593
0.327626 0.559945 0.337102
0.342824 0.563394 0.340551
0.358236 0.566796 0.343938
0.373831 0.570138 0.34728
0.389609 0.573419 0.350576
0.405554 0.576669 0.353826
0.421653 0.579873 0.357031
0.437919 0.583032 0.360189
0.454322 0.586145 0.363302
0.470863 0.589227 0.366384
0.487541 0.592279 0.369436
0.504341 0.595285 0.372442
0.521263 0.59826 0.375418
0.538308 0.601205 0.378363
0.555459 0.60412 0.381277
0.572732 0.607004 0.384161
0.590112 0.609857 0.387015
0.607599 0.61268 0.389838
0.625177 0.615473 0.39263
0.642847 0.61825 0.395392
0.660624 0.620981 0.398138
0.678492 0.623713 0.400854
0.696452 0.626398 0.403555
0.714504 0.629068 0.406226
0.732631 0.631708 0.408865
0.750851 0.634333 0.41149
0.769146 0.636927 0.414084
0.250904 0.561975 0.323796
0.264332 0.565896 0.327733
0.278172 0.569726 0.331548
0.292348 0.573449 0.335286
0.306828 0.577096 0.338933
0.321569 0.580682 0.342504
0.336538 0.584192 0.346014
0.351736 0.58764 0.349462
0.367147 0.591028 0.352865
0.382742 0.594369 0.356207
0.39852 0.597665 0.359487
0.414466 0.600916 0.362737
0.430579 0.604105 0.365942
0.44683 0.607263 0.3691
0.463233 0.610391 0.372213
0.479774 0.613474 0.375296
0.496452 0.61651 0.378347
0.513252 0.619532 0.381353
0.530175 0.622507 0.384329
0.547219 0.625452 0.387274
0.564385 0.628367 0.390188
0.581643 0.631235 0.393072
0.599023 0.634089 0.395926
0.61651 0.636912 0.398749
0.634089 0.639719 0.401541
0.651774 0.642481 0.404318
0.669551 0.645228 0.40705
0.687419 0.647944 0.409781
0.705364 0.650645 0.412467
0.723415 0.6533 0.415137
0.741543 0.655955 0.417777
0.759762 0.658579 0.420401
0.778073 0.661173 0.423011
0.2598 0.586206 0.332708
0.273243 0.590143 0.336629
0.287083 0.593957 0.340459
0.301259 0.597696 0.344182
0.315724 0.601343 0.347829
0.330465 0.604929 0.351415
0.345449 0.608438 0.354925
0.360647 0.611887 0.358373
0.376043 0.615274 0.361761
0.391653 0.618616 0.365103
0.407416 0.621912 0.368399
0.423362 0.625147 0.371649
0.439475 0.628351 0.374838
0.455726 0.63151 0.377997
0.472129 0.634638 0.381125
0.488685 0.63772 0.384207
0.505348 0.640757 0.387243
0.522148 0.643763 0.390265
0.539086 0.646754 0.39324
0.55613 0.649683 0.396185
0.573281 0.652598 0.399084
0.590555 0.655482 0.401968
0.607935 0.658335 0.404822
0.625406 0.661158 0.407645
0.642985 0.663951 0.410452
0.66067 0.666728 0.413214
0.678447 0.669474 0.415961
0.696315 0.67219 0.418677
0.714275 0.674876 0.421378
0.732326 0.677546 0.424033
0.750454 0.680201 0.426688
0.768673 0.682811 0.429313
0.786969 0.68542 0.431907
0.268696 0.610452 0.341588
0.282139 0.614389 0.345525
0.295964 0.618219 0.34934
0.31014 0.621942 0.353079
0.32462 0.625589 0.356725
0.339361 0.629175 0.360296
0.35433 0.632685 0.363806
0.369543 0.636133 0.367269
0.384939 0.639521 0.370657
0.400534 0.642863 0.373999
0.416312 0.646159 0.377295
0.432258 0.649393 0.380529
0.448371 0.652598 0.383734
0.464622 0.655756 0.386892
0.481025 0.658885 0.390021
0.497566 0.661967 0.393103
0.514244 0.665003 0.396139
0.531044 0.668025 0.399145
0.547967 0.671 0.402121
0.565011 0.673945 0.405066
0.582177 0.676844 0.40798
0.599451 0.679728 0.410864
0.616815 0.682582 0.413718
0.634302 0.685405 0.416541
0.651881 0.688212 0.419333
0.669566 0.690974 0.42211
0.687343 0.693721 0.424857
0.705211 0.696437 0.427573
0.723171 0.699123 0.430259
0.741207 0.701793 0.432929
0.75935 0.704448 0.435584
0.777569 0.707073 0.438193
0.795865 0.709667 0.440803
0.277577 0.634714 0.350469
0.29102 0.638636 0.354406
0.304845 0.642466 0.358221
0.31902 0.646189 0.361959
0.333501 0.649851 0.365606
0.348241 0.653422 0.369177
0.36321 0.656931 0.372686
0.378424 0.66038 0.37615
0.39382 0.663767 0.379538
0.409415 0.667109 0.382879
0.425193 0.670405 0.386175
0.441138 0.673655 0.38941
0.457252 0.67686 0.392615
0.473503 0.680018 0.395773
0.489906 0.683131 0.398901
0.506447 0.686213 0.401968
0.523125 0.689265 0.40502
0.539925 0.692271 0.408026
0.556848 0.695247 0.411002
0.573892 0.698192 0.413947
0.591058 0.701106 0.416861
0.608331 0.70399 0.419745
0.625696 0.706844 0.422599
0.643183 0.709667 0.425422
0.660761 0.712459 0.428214
0.678447 0.715221 0.430991
0.696223 0.717968 0.433738
0.714092 0.720684 0.436454
0.732052 0.723384 0.439139
0.750088 0.726055 0.44181
0.768231 0.728695 0.444465
0.78645 0.731319 0.447074
0.804746 0.733913 0.449683
0.286442 0.658961 0.35935
0.299886 0.662898 0.363272
0.313726 0.666712 0.367102
0.327901 0.670451 0.370825
0.342367 0.674098 0.374472
0.357107 0.677684 0.378058
0.372091 0.681193 0.381567
0.387289 0.684642 0.385016
0.402686 0.688029 0.388403
0.418296 0.691371 0.391745
0.434058 0.694667 0.395041
0.450004 0.697902 0.398291
0.466117 0.701106 0.40148
0.482368 0.704265 0.404639
0.498772 0.707393 0.407767
0.515328 0.710475 0.410849
0.531991 0.713512 0.413886
0.548806 0.716518 0.416907
0.565728 0.719509 0.419883
0.582773 0.722438 0.422827
0.599924 0.725353 0.425727
0.617197 0.728237 0.428611
0.634577 0.73109 0.431464
0.652049 0.733913 0.434287
0.669627 0.736706 0.437095
0.687312 0.739483 0.439857
0.705089 0.742229 0.442603
0.722957 0.744945 0.445319
0.740917 0.747631 0.44802
0.758968 0.750301 0.450675
0.777096 0.752956 0.45333
0.795316 0.755566 0.455955
0.813611 0.758175 0.458549
0.295308 0.683223 0.3682
0.308736 0.68716 0.372137
0.322576 0.690974 0.375952
0.336751 0.694713 0.37969
0.351232 0.69836 0.383337
0.365972 0.70193 0.386908
0.380941 0.70544 0.390417
0.396139 0.708904 0.393866
0.411551 0.712291 0.397269
0.427146 0.715633 0.40061
0.442924 0.718929 0.403891
0.458869 0.722164 0.407141
0.474983 0.725368 0.410346
0.491234 0.728527 0.413504
0.507637 0.731655 0.416617
0.524178 0.734722 0.419699
0.540856 0.737774 0.422751
0.557656 0.74078 0.425757
0.574578 0.743755 0.428733
0.591623 0.7467 0.431678
0.608789 0.749615 0.434592
0.626062 0.752499 0.437476
0.643427 0.755352 0.44033
0.660914 0.758175 0.443153
0.678492 0.760967 0.445945
0.696178 0.763745 0.448722
0.713954 0.766491 0.451469
0.731823 0.769207 0.454185
0.749783 0.771893 0.45687
0.767819 0.774563 0.459541
0.785962 0.777203 0.462181
0.804166 0.779828 0.464805
0.822477 0.782437 0.467414
0.304158 0.707485 0.37705
0.317586 0.711421 0.380987
0.331426 0.715236 0.384802
0.345602 0.718975 0.38854
0.360082 0.722622 0.392187
0.374823 0.726192 0.395758
0.389792 0.729717 0.399268
0.40499 0.733166 0.402716
0.420401 0.736553 0.406119
0.435996 0.739895 0.409461
0.451774 0.743191 0.412741
0.46772 0.746426 0.415991
0.483833 0.74963 0.419196
0.500084 0.752789 0.422354
0.516487 0.755917 0.425467
0.533028 0.758999 0.42855
0.549706 0.762036 0.431601
0.566506 0.765042 0.434607
0.583429 0.768017 0.437583
0.600473 0.770962 0.440528
0.617639 0.773877 0.443442
0.634913 0.776761 0.446326
0.652277 0.779614 0.44918
0.669764 0.782437 0.452003
0.687343 0.785229 0.454795
0.705028 0.788006 0.457572
0.722805 0.790753 0.460319
0.740673 0.793469 0.463035
0.758633 0.796155 0.465721
0.776669 0.798825 0.468391
0.794812 0.80148 0.471031
0.813016 0.804089 0.473655
0.831327 0.806699 0.476265
0.312993 0.731762 0.385901
0.326436 0.735683 0.389822
0.340276 0.739513 0.393652
0.354452 0.743236 0.397375
0.368917 0.746883 0.401022
0.383658 0.750469 0.404608
0.398642 0.753979 0.408118
0.41384 0.757427 0.411566
0.429236 0.760815 0.414954
0.444846 0.764157 0.418296
0.460609 0.767452 0.421592
0.476555 0.770703 0.424842
0.492668 0.773892 0.428031
0.508919 0.77705 0.431189
0.525322 0.780179 0.434318
0.541878 0.783261 0.4374
0.558541 0.786297 0.440436
0.575357 0.789319 0.443458
0.592279 0.792294 0.446433
0.609323 0.795239 0.449378
0.626474 0.798154 0.452277
0.643748 0.801022 0.455161
0.661128 0.803876 0.458015
0.678599 0.806699 0.460838
0.696193 0.809506 0.463645
0.713863 0.812268 0.466407
0.73164 0.815015 0.469154
0.749508 0.817731 0.47187
0.767468 0.820432 0.474571
0.785519 0.823087 0.477226
0.803647 0.825742 0.479881
0.821866 0.828367 0.482506
0.840162 0.830961 0.4851
0.321828 0.756024 0.39472
0.335271 0.75996 0.398657
0.349111 0.763775 0.402472
0.363287 0.767514 0.40621
0.377752 0.77116 0.409857
0.392493 0.774731 0.413428
0.407462 0.778241 0.416938
