luts/Low contrast blue.cube
TITLE "Generated by Resolve"
LUT_3D_SIZE 5
0.0783246 0.102617 0.151232
0.194583 0.13167 0.180285
0.323888 0.157153 0.205783
0.461524 0.180362 0.228977
0.605493 0.201816 0.250431
0.152026 0.295644 0.224918
0.268269 0.324697 0.253986
0.397574 0.350179 0.279469
0.53521 0.373388 0.302678
0.679194 0.394842 0.324132
0.224109 0.489265 0.297017
0.340368 0.518334 0.32607
0.469673 0.543816 0.351568
0.607309 0.56701 0.374762
0.751278 0.588464 0.396216
0.295308 0.683223 0.3682
0.411551 0.712291 0.397269
0.540856 0.737774 0.422751
0.678492 0.760967 0.445945
0.822477 0.782437 0.467414
0.36585 0.877424 0.438758
0.482109 0.906493 0.467811
0.611414 0.931975 0.493309
0.74905 0.955169 0.516503
0.893019 0.976623 0.537957
0.0884108 0.112688 0.275807
0.204654 0.141756 0.30486
0.333959 0.167239 0.330343
0.471595 0.190433 0.353552
0.615579 0.211902 0.375006
0.162112 0.305715 0.349493
0.278355 0.334783 0.378561
0.40766 0.360265 0.404044
0.545296 0.383459 0.427237
0.689281 0.404929 0.448707
0.234195 0.499352 0.421592
0.350439 0.528405 0.450645
0.479744 0.553903 0.476143
0.617395 0.577096 0.499336
0.761364 0.59855 0.52079
0.305379 0.693309 0.492775
0.421637 0.722377 0.521843
0.550942 0.74786 0.547326
0.688579 0.771054 0.57052
0.832563 0.792508 0.591974
0.375937 0.88751 0.563333
0.49218 0.916564 0.592386
0.621485 0.942046 0.617868
0.759136 0.965255 0.641077
0.903105 0.986709 0.662531
0.0986038 0.122881 0.398459
0.214847 0.151949 0.427527
0.344152 0.177432 0.45301
0.481788 0.200626 0.476204
0.625772 0.222095 0.497658
0.172305 0.315908 0.472145
0.288548 0.344976 0.501213
0.417853 0.370459 0.526696
0.555489 0.393652 0.549905
0.699474 0.415122 0.571359
0.244388 0.509544 0.544244
0.360632 0.538598 0.573312
0.489937 0.564095 0.598795
0.627573 0.587289 0.621988
0.771557 0.608743 0.643442
0.315572 0.703502 0.615427
0.43183 0.73257 0.644495
0.561135 0.758053 0.669978
0.698772 0.781247 0.693172
0.842741 0.802701 0.714641
0.38613 0.897704 0.685985
0.502373 0.926757 0.715053
0.631678 0.952239 0.740536
0.769314 0.975448 0.763729
0.913298 0.996902 0.785183
0.108858 0.13315 0.519936
0.225116 0.162203 0.548989
0.354421 0.187701 0.574472
0.492058 0.210895 0.597681
0.636027 0.232349 0.619135
0.182559 0.326177 0.593622
0.298802 0.35523 0.62269
0.428107 0.380713 0.648173
0.565744 0.403922 0.671366
0.709728 0.425376 0.692836
0.254643 0.519799 0.665721
0.370901 0.548867 0.694774
0.500206 0.57435 0.720256
0.637842 0.597543 0.743465
0.781826 0.619013 0.76492
0.325841 0.713756 0.736904
0.442084 0.742824 0.765972
0.571389 0.768307 0.791455
0.709026 0.791501 0.814649
0.85301 0.81297 0.836103
0.396384 0.907958 0.807462
0.512642 0.937026 0.836515
0.641947 0.962509 0.861997
0.779583 0.985702 0.885206
0.923552 1 0.906661
0.119173 0.14345 0.640543
0.235416 0.172519 0.669612
0.364721 0.198001 0.695094
0.502358 0.221195 0.718288
0.646342 0.242664 0.739742
0.192874 0.336477 0.714229
0.309117 0.365545 0.743297
0.438422 0.391028 0.76878
0.576059 0.414221 0.791989
0.720043 0.435691 0.813443
0.264958 0.530114 0.786328
0.381201 0.559167 0.815396
0.510506 0.584665 0.840879
0.648142 0.607858 0.864073
0.792126 0.629313 0.885527
0.336141 0.724071 0.857511
0.452399 0.75314 0.88658
0.581704 0.778622 0.912062
0.719341 0.801816 0.935256
0.86331 0.82327 0.956725
0.406699 0.918273 0.928069
0.522942 0.947326 0.957137
0.652247 0.972808 0.98262
0.789883 0.996017 1
0.933867 1 1
