luts/Low contrast blue.cube
TITLE "Generated by Resolve"
LUT_3D_SIZE 9
0.0783246 0.102617 0.151232
0.134249 0.117739 0.166369
0.194583 0.13167 0.180285
0.258 0.144747 0.193378
0.323888 0.157153 0.205783
0.391806 0.168994 0.217624
0.461524 0.180362 0.228977
0.532799 0.191287 0.239902
0.605493 0.201816 0.250431
0.115465 0.199008 0.188373
0.171389 0.214145 0.203494
0.231708 0.228077 0.217426
0.29514 0.241154 0.230503
0.361013 0.253559 0.242908
0.428946 0.2654 0.254765
0.49865 0.276753 0.266117
0.56994 0.287678 0.277043
0.642634 0.298207 0.287572
0.152026 0.295644 0.224918
0.20795 0.310765 0.240055
0.268269 0.324697 0.253986
0.331701 0.337774 0.267063
0.397574 0.350179 0.279469
0.465507 0.36202 0.29131
0.53521 0.373388 0.302678
0.6065 0.384298 0.313588
0.679194 0.394842 0.324132
0.188205 0.392401 0.261112
0.244129 0.407538 0.276234
0.304463 0.421469 0.290166
0.36788 0.434546 0.303243
0.433753 0.446952 0.315663
0.501686 0.458793 0.327504
0.571405 0.470146 0.338857
0.64268 0.481071 0.349783
0.715373 0.4916 0.360311
0.224109 0.489265 0.297017
0.280034 0.504402 0.312154
0.340368 0.518334 0.32607
0.403784 0.531411 0.339162
0.469673 0.543816 0.351568
0.537606 0.555657 0.363409
0.607309 0.56701 0.374762
0.678584 0.577935 0.385687
0.751278 0.588464 0.396216
0.2598 0.586206 0.332708
0.315724 0.601343 0.347829
0.376043 0.615274 0.361761
0.439475 0.628351 0.374838
0.505348 0.640757 0.387243
0.573281 0.652598 0.399084
0.642985 0.663951 0.410452
0.714275 0.674876 0.421378
0.786969 0.68542 0.431907
0.295308 0.683223 0.3682
0.351232 0.69836 0.383337
0.411551 0.712291 0.397269
0.474983 0.725368 0.410346
0.540856 0.737774 0.422751
0.608789 0.749615 0.434592
0.678492 0.760967 0.445945
0.749783 0.771893 0.45687
0.822477 0.782437 0.467414
0.330648 0.780301 0.40354
0.386572 0.795438 0.418677
0.446891 0.809369 0.432609
0.510323 0.822446 0.445686
0.576196 0.834852 0.458091
0.644129 0.846693 0.469932
0.713832 0.858045 0.4813
0.785122 0.868971 0.492226
0.857816 0.879499 0.502754
0.36585 0.877424 0.438758
0.421775 0.892561 0.453895
0.482109 0.906493 0.467811
0.545525 0.91957 0.480903
0.611414 0.931975 0.493309
0.679332 0.943816 0.50515
0.74905 0.955169 0.516503
0.820325 0.966094 0.527428
0.893019 0.976623 0.537957
0.0833448 0.107637 0.21384
0.139284 0.122759 0.228962
0.199603 0.13669 0.242893
0.26302 0.149783 0.25597
0.328908 0.162188 0.268391
0.396841 0.174029 0.280232
0.466545 0.185382 0.291585
0.53782 0.196307 0.30251
0.610529 0.206836 0.313039
0.120485 0.204028 0.250965
0.17641 0.219165 0.266102
0.236744 0.233097 0.280034
0.30016 0.246174 0.293111
0.366033 0.258579 0.305516
0.433967 0.27042 0.317357
0.503685 0.281773 0.328725
0.57496 0.292699 0.339635
0.647654 0.303243 0.350179
0.157046 0.300664 0.287526
0.21297 0.315785 0.302663
0.273289 0.329717 0.316594
0.336721 0.342794 0.329671
0.402594 0.3552 0.342077
0.470527 0.367056 0.353918
0.54023 0.378408 0.36527
0.611521 0.389334 0.376196
0.684215 0.399863 0.38674
0.193225 0.397421 0.32372
0.249149 0.412558 0.338842
0.309483 0.42649 0.352773
0.3729 0.439567 0.36585
0.438788 0.451972 0.378256
0.506706 0.463813 0.390112
0.576425 0.475166 0.401465
0.6477 0.486091 0.41239
0.720394 0.49662 0.422919
0.229145 0.494285 0.359625
0.285069 0.509422 0.374746
0.345388 0.523354 0.388678
0.408804 0.536431 0.40177
0.474693 0.548836 0.414176
0.542626 0.560678 0.426017
0.612329 0.57203 0.437369
0.683604 0.582956 0.448295
0.756313 0.5935 0.458824
0.26482 0.591241 0.3953
0.320745 0.606363 0.410437
0.381079 0.620295 0.424369
0.444495 0.633371 0.437446
0.510369 0.645777 0.449851
0.578302 0.657618 0.461692
0.64802 0.668986 0.47306
0.719295 0.679911 0.48397
0.791989 0.69044 0.494514
0.300328 0.688243 0.430808
0.356252 0.70338 0.445945
0.416571 0.717311 0.459876
0.480003 0.730388 0.472953
0.545876 0.742794 0.485359
0.613809 0.754635 0.4972
0.683513 0.765988 0.508553
0.754803 0.776913 0.519478
0.827497 0.787457 0.530007
0.335668 0.785321 0.466148
0.391592 0.800458 0.481285
0.451926 0.814389 0.495216
0.515343 0.827466 0.508293
0.581216 0.839872 0.520699
0.649149 0.851713 0.53254
0.718868 0.863066 0.543893
0.790143 0.873991 0.554818
0.862837 0.88452 0.565362
0.370871 0.882445 0.501366
0.42681 0.897581 0.516487
0.487129 0.911513 0.530419
0.550546 0.92459 0.543496
0.616434 0.936996 0.555901
0.684367 0.948837 0.567758
0.75407 0.960189 0.57911
0.825345 0.971115 0.590036
0.898054 0.981643 0.600565
0.0884108 0.112688 0.275807
0.144335 0.127825 0.290929
0.204654 0.141756 0.30486
0.268086 0.154833 0.317937
0.333959 0.167239 0.330343
0.401892 0.17908 0.342199
0.471595 0.190433 0.353552
0.542885 0.201358 0.364477
0.615579 0.211902 0.375006
0.125551 0.209094 0.312932
0.181476 0.224231 0.328069
0.241794 0.238163 0.342
0.305226 0.25124 0.355077
0.371099 0.263645 0.367483
0.439033 0.275486 0.379324
0.508736 0.286839 0.390692
0.580026 0.297765 0.401602
0.65272 0.308293 0.412146
0.162112 0.305715 0.349493
0.218036 0.320851 0.36463
0.278355 0.334783 0.378561
0.341787 0.34786 0.391638
0.40766 0.360265 0.404044
0.475593 0.372107 0.415885
0.545296 0.383459 0.427237
0.616571 0.394385 0.438163
0.689281 0.404929 0.448707
0.198291 0.402487 0.385687
0.254215 0.417609 0.400809
0.314534 0.43154 0.41474
0.377966 0.444617 0.427817
0.443839 0.457023 0.440223
0.511772 0.468879 0.452064
0.581476 0.480232 0.463432
0.652766 0.491157 0.474357
0.72546 0.501686 0.484886
0.234195 0.499352 0.421592
0.29012 0.514473 0.436713
0.350439 0.528405 0.450645
0.41387 0.541497 0.463722
0.479744 0.553903 0.476143
0.547677 0.565744 0.487984
0.617395 0.577096 0.499336
0.68867 0.588022 0.510262
0.761364 0.59855 0.52079
0.269886 0.596292 0.457267
0.325811 0.611429 0.472404
0.38613 0.62536 0.486336
0.449561 0.638437 0.499413
0.515435 0.650843 0.511818
0.583368 0.662684 0.523659
0.653071 0.674037 0.535012
0.724361 0.684962 0.545937
0.797055 0.695506 0.556481
0.305379 0.693309 0.492775
0.361318 0.708446 0.507912
0.421637 0.722377 0.521843
0.485054 0.735454 0.53492
0.550942 0.74786 0.547326
0.618875 0.759701 0.559167
0.688579 0.771054 0.57052
0.759854 0.781979 0.581445
0.832563 0.792508 0.591974
0.340734 0.790387 0.528115
0.396658 0.805508 0.543252
0.456977 0.81944 0.557183
0.520409 0.832517 0.57026
0.586282 0.844923 0.582666
0.654215 0.856779 0.594507
0.723918 0.868132 0.605859
0.795209 0.879057 0.616785
0.867903 0.889586 0.627329
0.375937 0.88751 0.563333
0.431861 0.902632 0.578454
0.49218 0.916564 0.592386
0.555611 0.929641 0.605463
0.621485 0.942046 0.617868
0.689418 0.953902 0.629725
0.759136 0.965255 0.641077
0.830411 0.976181 0.652003
0.903105 0.986709 0.662531
0.093492 0.117784 0.337301
0.149416 0.132906 0.352438
0.209751 0.146838 0.366369
0.273167 0.159915 0.379446
0.339055 0.17232 0.391852
0.406973 0.184176 0.403693
0.476692 0.195529 0.415061
0.547967 0.206455 0.425986
0.620661 0.216983 0.436515
0.130632 0.214176 0.374441
0.186557 0.229313 0.389578
0.246876 0.243244 0.40351
0.310307 0.256321 0.416587
0.376181 0.268727 0.428992
0.444114 0.280568 0.440833
0.513832 0.29192 0.452186
0.585107 0.302846 0.463111
0.657801 0.31339 0.473655
0.167193 0.310811 0.411002
0.223117 0.325933 0.426139
0.283436 0.339864 0.44007
0.346868 0.352941 0.453147
0.412741 0.365347 0.465553
0.480674 0.377188 0.477394
0.550378 0.388556 0.488746
0.621668 0.399481 0.499672
0.694362 0.41001 0.510201
0.203372 0.407568 0.447181
0.259297 0.422705 0.462318
0.319631 0.436637 0.476249
0.383047 0.449714 0.489326
0.448936 0.462119 0.501732
0.516854 0.47396 0.513573
0.586572 0.485313 0.524926
0.657847 0.496239 0.535851
0.730541 0.506767 0.546395
0.239277 0.504433 0.483101
0.295216 0.51957 0.498222
0.355535 0.533501 0.512154
0.418952 0.546578 0.525231
0.48484 0.558984 0.537636
0.552773 0.570825 0.549477
0.622477 0.582177 0.560845
0.693751 0.593103 0.571771
0.766445 0.603632 0.5823
0.274968 0.601389 0.518776
0.330892 0.61651 0.533913
0.391211 0.630442 0.547845
0.454643 0.643519 0.560922
0.520516 0.655924 0.573327
0.588449 0.667765 0.585168
0.658167 0.679133 0.596521
0.729442 0.690044 0.607446
0.802136 0.700587 0.61799
0.310475 0.69839 0.554284
0.3664 0.713527 0.569421
0.426719 0.727459 0.583337
0.49015 0.740536 0.596429
0.556023 0.752941 0.608835
0.623957 0.764782 0.620676
0.69366 0.776135 0.632029
0.76495 0.78706 0.642954
0.837644 0.797604 0.653483
0.345815 0.795468 0.589624
0.40174 0.810605 0.604761
0.462058 0.824537 0.618692
0.52549 0.837613 0.631769
0.591363 0.850019 0.644175
0.659297 0.86186 0.656016
0.729015 0.873213 0.667369
0.80029 0.884138 0.678294
0.872984 0.894667 0.688838
0.381018 0.892592 0.624826
0.436957 0.907729 0.639963
0.497276 0.92166 0.653895
0.560693 0.934737 0.666972
0.626581 0.947143 0.679377
0.694514 0.958984 0.691218
0.764218 0.970336 0.702586
0.835492 0.981262 0.713497
0.908186 0.991791 0.724041
0.0986038 0.122881 0.398459
0.154528 0.138018 0.413596
0.214847 0.151949 0.427527
0.278279 0.165026 0.440604
0.344152 0.177432 0.45301
0.412085 0.189273 0.464851
0.481788 0.200626 0.476204
0.553079 0.211551 0.487129
0.625772 0.222095 0.497658
0.135744 0.219287 0.435599
0.191669 0.234424 0.450721
0.251987 0.248356 0.464652
0.315419 0.261433 0.477729
0.381292 0.273838 0.490135
0.449226 0.285679 0.501991
0.518929 0.297032 0.513344
0.590219 0.307958 0.524269
0.662913 0.318486 0.534798
0.172305 0.315908 0.472145
0.228229 0.331044 0.487282
0.288548 0.344976 0.501213
0.351965 0.358053 0.51429
0.417853 0.370459 0.526696
0.485786 0.3823 0.538537
0.555489 0.393652 0.549905
0.626764 0.404578 0.56083
0.699474 0.415122 0.571359
0.208484 0.41268 0.508339
0.264408 0.427802 0.523476
0.324727 0.441733 0.537392
0.388159 0.45481 0.550484
0.454032 0.467216 0.56289
0.521965 0.479072 0.574731
0.591669 0.490425 0.586084
0.662959 0.50135 0.597009
0.735653 0.511879 0.607538
0.244388 0.509544 0.544244
0.300313 0.524666 0.55938
0.360632 0.538598 0.573312
0.424063 0.55169 0.586389
0.489937 0.564095 0.598795
0.55787 0.575936 0.610636
0.627573 0.587289 0.621988
0.698863 0.598215 0.632914
0.771557 0.608743 0.643442
0.280079 0.606485 0.579934
0.336004 0.621622 0.595056
0.396323 0.635554 0.608988
0.459754 0.64863 0.622065
0.525628 0.661036 0.63447
0.593561 0.672877 0.646326
0.663264 0.68423 0.657679
0.734554 0.695155 0.668605
0.807248 0.705699 0.679133
0.315572 0.703502 0.615427
0.371511 0.718639 0.630564
0.43183 0.73257 0.644495
0.495247 0.745647 0.657572
0.561135 0.758053 0.669978
0.629068 0.769894 0.681819
0.698772 0.781247 0.693172
0.770047 0.792172 0.704097
0.842741 0.802701 0.714641
0.350927 0.80058 0.650782
0.406851 0.815702 0.665904
0.46717 0.829633 0.679835
0.530602 0.84271 0.692912
0.596475 0.855116 0.705318
0.664408 0.866972 0.717174
0.734112 0.878325 0.728527
0.805402 0.88925 0.739452
0.878096 0.899779 0.749981
0.38613 0.897704 0.685985
0.442054 0.912825 0.701122
0.502373 0.926757 0.715053
0.565805 0.939834 0.72813
0.631678 0.952239 0.740536
0.699611 0.964096 0.752377
0.769314 0.975448 0.763729
0.840604 0.986374 0.774655
0.913298 0.996902 0.785183
0.103731 0.128008 0.459312
0.159655 0.143145 0.474449
0.219974 0.157076 0.48838
0.283406 0.170153 0.501457
0.349279 0.182559 0.513863
0.417212 0.1944 0.525704
0.486915 0.205753 0.537057
0.558206 0.216678 0.547982
0.6309 0.227207 0.558526
0.140856 0.224414 0.496452
0.196796 0.239536 0.511589
0.257115 0.253468 0.525521
0.320531 0.266545 0.538598
0.386419 0.27895 0.551003
0.454353 0.290806 0.562844
0.524056 0.302159 0.574197
0.595331 0.313085 0.585122
0.66804 0.323613 0.595651
0.177417 0.321035 0.533013
0.233341 0.336172 0.54815
0.293675 0.350103 0.562081
0.357092 0.36318 0.575158
0.42298 0.375586 0.587564
0.490898 0.387427 0.599405
0.560616 0.398779 0.610758
0.631891 0.409705 0.621683
0.704585 0.420233 0.632212
0.213611 0.417792 0.569192
0.269535 0.432929 0.584329
0.329854 0.44686 0.59826
0.393286 0.459937 0.611337
0.459159 0.472343 0.623743
0.527092 0.484184 0.635584
0.596796 0.495537 0.646937
0.66807 0.506462 0.657862
0.74078 0.517006 0.668406
0.249516 0.514656 0.605097
0.30544 0.529793 0.620233
0.365759 0.543725 0.634165
0.429191 0.556802 0.647242
0.495064 0.569207 0.659648
0.562997 0.581048 0.671489
0.6327 0.592416 0.682841
0.70399 0.603326 0.693767
0.776684 0.61387 0.704311
0.285191 0.611612 0.640787
0.341131 0.626749 0.655924
0.40145 0.640681 0.669856
0.464866 0.653758 0.682933
0.530755 0.666163 0.695338
0.598688 0.678004 0.707179
0.668391 0.689357 0.718532
0.739666 0.700282 0.729458
0.812375 0.710811 0.739986
0.320699 0.708629 0.676295
0.376623 0.723751 0.691417
0.436942 0.737682 0.705348
0.500374 0.750774 0.718425
0.566247 0.76318 0.730831
0.63418 0.775021 0.742687
0.703899 0.786374 0.75404
0.775174 0.797299 0.764965
0.847868 0.807828 0.775494
0.356039 0.805692 0.711635
0.411978 0.820829 0.726772
0.472297 0.83476 0.740703
0.535714 0.847837 0.75378
0.601602 0.860243 0.766186
0.669535 0.872084 0.778027
0.739239 0.883436 0.78938
0.810513 0.894362 0.800305
0.883223 0.904906 0.810834
0.391257 0.902815 0.746838
0.447181 0.917952 0.761975
0.5075 0.931884 0.775906
0.570932 0.944961 0.788983
0.636805 0.957366 0.801389
0.704738 0.969207 0.81323
0.774441 0.98056 0.824582
0.845731 0.991485 0.835508
0.918425 1 0.846052
0.108858 0.13315 0.519936
0.164782 0.148272 0.535058
0.225116 0.162203 0.548989
0.288533 0.175296 0.562066
0.354421 0.187701 0.574472
0.422354 0.199542 0.586328
0.492058 0.210895 0.597681
0.563333 0.22182 0.608606
0.636027 0.232349 0.619135
0.145998 0.229541 0.557061
0.201923 0.244678 0.572198
0.262242 0.25861 0.58613
0.325673 0.271687 0.599207
0.391546 0.284092 0.611612
0.45948 0.295933 0.623453
0.529198 0.307286 0.634806
0.600473 0.318212 0.645731
0.673167 0.328756 0.656275
0.182559 0.326177 0.593622
0.238483 0.341299 0.608759
0.298802 0.35523 0.62269
0.362234 0.368307 0.635767
0.428107 0.380713 0.648173
0.49604 0.392569 0.660014
0.565744 0.403922 0.671366
0.637034 0.414847 0.682292
0.709728 0.425376 0.692836
0.218738 0.422934 0.629801
0.274662 0.438071 0.644938
0.334997 0.452003 0.658869
0.398413 0.46508 0.671946
0.464302 0.477485 0.684352
0.532219 0.489326 0.696193
0.601938 0.500679 0.707561
0.673213 0.511604 0.718471
0.745907 0.522133 0.729015
0.254643 0.519799 0.665721
0.310582 0.534936 0.680842
0.370901 0.548867 0.694774
0.434318 0.561944 0.707851
0.500206 0.57435 0.720256
0.568139 0.586191 0.732113
0.637842 0.597543 0.743465
0.709117 0.608469 0.754391
0.781826 0.619013 0.76492
0.290333 0.616754 0.701396
0.346258 0.631876 0.716533
0.406577 0.645808 0.730465
0.470008 0.658885 0.743542
0.535882 0.67129 0.755947
0.603815 0.683131 0.767788
0.673533 0.694499 0.779141
0.744808 0.705425 0.790066
0.817502 0.715953 0.80061
0.325841 0.713756 0.736904
0.381765 0.728893 0.752041
0.442084 0.742824 0.765972
0.505516 0.755901 0.779049
0.571389 0.768307 0.791455
0.639323 0.780148 0.803296
0.709026 0.791501 0.814649
0.780316 0.802426 0.825574
0.85301 0.81297 0.836103
0.361181 0.810834 0.772244
0.417105 0.825971 0.787381
0.477424 0.839902 0.801312
0.540856 0.852979 0.814389
0.606729 0.865385 0.826795
0.674662 0.877226 0.838636
0.744381 0.888579 0.849989
0.815656 0.899504 0.860914
0.88835 0.910033 0.871458
0.396384 0.907958 0.807462
0.452323 0.923095 0.822583
0.512642 0.937026 0.836515
0.576059 0.950103 0.849592
0.641947 0.962509 0.861997
0.70988 0.97435 0.873838
0.779583 0.985702 0.885206
0.850858 0.996628 0.896132
0.923552 1 0.906661
0.114015 0.138293 0.580331
0.16994 0.153429 0.595468
0.230259 0.167361 0.6094
0.29369 0.180438 0.622477
0.359564 0.192844 0.634882
0.427497 0.204685 0.646723
0.4972 0.216037 0.658076
0.56849 0.226963 0.669001
0.641184 0.237507 0.67953
0.151156 0.234699 0.617472
0.20708 0.249821 0.632593
0.267399 0.263752 0.646525
0.330816 0.276844 0.659602
0.396704 0.28925 0.672007
0.464637 0.301091 0.683864
0.53434 0.312444 0.695216
0.605615 0.323369 0.706142
0.678325 0.333898 0.71667
0.187701 0.331319 0.654017
0.243641 0.346456 0.669154
0.30396 0.360388 0.683085
0.367376 0.373465 0.696162
0.433265 0.38587 0.708568
0.501198 0.397711 0.720409
0.570901 0.409064 0.731777
0.642176 0.419989 0.742687
0.71487 0.430518 0.753231
0.223896 0.428092 0.690211
0.27982 0.443214 0.705333
0.340139 0.457145 0.719265
0.403571 0.470222 0.732357
0.469444 0.482628 0.744762
0.537377 0.494469 0.756603
0.60708 0.505837 0.767956
0.67837 0.516747 0.778881
0.751064 0.527291 0.78941
0.2598 0.524956 0.726116
0.315724 0.540078 0.741253
0.376043 0.554009 0.755184
0.439475 0.567086 0.768261
0.505348 0.579492 0.780667
0.573281 0.591333 0.792508
0.642985 0.602701 0.803861
0.714275 0.613626 0.814786
0.786969 0.624155 0.825315
0.295491 0.621897 0.761807
0.351415 0.637034 0.776928
0.411734 0.650965 0.79086
0.475151 0.664042 0.803937
0.541039 0.676448 0.816342
0.608972 0.688289 0.828199
0.678676 0.699641 0.839551
0.74995 0.710567 0.850477
0.82266 0.721096 0.861006
0.330983 0.718914 0.797299
0.386908 0.734051 0.812436
0.447242 0.747967 0.826368
0.510658 0.761059 0.839445
0.576532 0.773465 0.85185
0.644465 0.785306 0.863691
0.714183 0.796658 0.875044
0.785458 0.807584 0.885969
0.858152 0.818112 0.896513
0.366339 0.815991 0.832654
0.422263 0.831113 0.847776
0.482582 0.845045 0.861708
0.545998 0.858122 0.874784
0.611887 0.870527 0.88719
0.67982 0.882368 0.899046
0.749523 0.893736 0.910399
0.820798 0.904646 0.921324
0.893507 0.91519 0.931853
0.401541 0.9131 0.867857
0.457465 0.928237 0.882994
0.517784 0.942168 0.896925
0.581216 0.955245 0.910002
0.647089 0.967651 0.922408
0.715023 0.979492 0.934249
0.784726 0.99086 0.945602
0.856016 1 0.956527
0.92871 1 0.967056
0.119173 0.14345 0.640543
0.175097 0.158587 0.65568
0.235416 0.172519 0.669612
0.298848 0.185595 0.682689
0.364721 0.198001 0.695094
0.432654 0.209842 0.706935
0.502358 0.221195 0.718288
0.573648 0.23212 0.729213
0.646342 0.242664 0.739742
0.156313 0.239857 0.677684
0.212238 0.254994 0.692805
0.272557 0.268925 0.706737
0.335988 0.282002 0.719814
0.401862 0.294408 0.732219
0.469795 0.306249 0.744076
0.539498 0.317601 0.755428
0.610788 0.328527 0.766354
0.683482 0.339055 0.776883
0.192874 0.336477 0.714229
0.248798 0.351614 0.729366
0.309117 0.365545 0.743297
0.372534 0.378622 0.756374
0.438422 0.391028 0.76878
0.506355 0.402869 0.780621
0.576059 0.414221 0.791989
0.647334 0.425147 0.802915
0.720043 0.435691 0.813443
0.229053 0.433249 0.750423
0.284977 0.448371 0.76556
0.345296 0.462303 0.779477
0.408728 0.47538 0.792569
0.474601 0.487785 0.804974
0.542535 0.499641 0.816815
0.612238 0.510994 0.828168
0.683528 0.52192 0.839094
0.756222 0.532448 0.849622
0.264958 0.530114 0.786328
0.320882 0.545235 0.801465
0.381201 0.559167 0.815396
0.444633 0.572259 0.828473
0.510506 0.584665 0.840879
0.578439 0.596506 0.85272
0.648142 0.607858 0.864073
0.719432 0.618784 0.874998
0.792126 0.629313 0.885527
0.300649 0.627054 0.822019
0.356573 0.642191 0.83714
0.416892 0.656123 0.851072
0.480323 0.6692 0.864149
0.546197 0.681605 0.876554
0.61413 0.693446 0.888411
0.683833 0.704799 0.899763
0.755123 0.715724 0.910689
0.827817 0.726268 0.921218
0.336141 0.724071 0.857511
0.392065 0.739208 0.872648
0.452399 0.75314 0.88658
0.515816 0.766217 0.899657
0.581704 0.778622 0.912062
0.649622 0.790463 0.923903
0.719341 0.801816 0.935256
0.790616 0.812741 0.946181
0.86331 0.82327 0.956725
0.371496 0.821149 0.892866
0.42742 0.836271 0.907988
0.487739 0.850202 0.92192
0.551171 0.863279 0.934997
0.617044 0.875685 0.947402
0.684977 0.887541 0.959258
0.754681 0.898894 0.970611
0.825956 0.909819 0.981537
0.898665 0.920348 0.992065
0.406699 0.918273 0.928069
0.462623 0.933394 0.943206
0.522942 0.947326 0.957137
0.586374 0.960403 0.970214
0.652247 0.972808 0.98262
0.72018 0.984665 0.994461
0.789883 0.996017 1
0.861173 1 1
0.933867 1 1
