luts/LS LUT.cube
# VEGAS Pro LUT
TITLE "LUT LS"
LUT_3D_SIZE 5
0.00000000 0.00000000 0.00000000
0.06097722 0.00884311 0.00697348
0.31036162 0.00528879 0.00000000
0.53967392 0.00659658 0.00255781
0.71125871 0.01138062 0.00543967
0.01985994 0.06909862 0.03460345
0.10067648 0.09276106 0.03663689
0.38829556 0.10009852 0.02714709
0.63602293 0.11003412 0.03160893
0.79954559 0.11816541 0.03658566
0.03589085 0.34067050 0.10185248
0.09709436 0.36073175 0.09292084
0.43415207 0.33831230 0.06240917
0.74106055 0.36040527 0.04051648
0.90579933 0.36410591 0.04430756
0.04245813 0.63927388 0.23022008
0.17773587 0.64993751 0.19403328
0.43345356 0.62947911 0.17035419
0.80613947 0.62675339 0.09847976
0.98204052 0.66320187 0.06228818
0.05512306 0.84757841 0.30876714
0.24980877 0.84884119 0.25970885
0.48745775 0.84161073 0.22788410
0.79397649 0.83492368 0.19194879
1.00000000 0.85406762 0.16318414
0.00000000 0.00292686 0.05788947
0.05476715 0.00925167 0.06747423
0.31860960 0.01427356 0.09788420
0.56206548 0.01855089 0.11829203
0.73074603 0.02390903 0.12445934
0.01297012 0.07524629 0.09663749
0.07734833 0.09876905 0.11247918
0.37135169 0.11896903 0.13693514
0.62090200 0.13253678 0.15749763
0.78499633 0.14066683 0.16328934
0.03417312 0.34530902 0.22385916
0.07659240 0.37045413 0.22458571
0.42258224 0.35608208 0.16579057
0.74059623 0.37986133 0.16871634
0.90437734 0.38680151 0.18167546
0.04085942 0.64283150 0.36356434
0.14628345 0.65921706 0.34796154
0.40041181 0.64415634 0.29049858
0.79301023 0.64678824 0.22576825
0.97287965 0.67741036 0.16111469
0.05201355 0.85204566 0.44423088
0.22554727 0.85722649 0.41335106
0.44914120 0.85554373 0.36295328
0.78841853 0.85606313 0.33023754
0.99856275 0.87455940 0.31690457
0.00000000 0.00427904 0.23111665
0.02092776 0.00853531 0.25558680
0.31253377 0.01626493 0.24134064
0.57263523 0.02971444 0.28420269
0.74213105 0.03606549 0.30084762
0.00000799 0.10359322 0.26551157
0.04865301 0.13272819 0.30584347
0.36294591 0.12695405 0.29373568
0.62872118 0.15109056 0.33425468
0.79415143 0.15953337 0.34763789
0.01421780 0.36049300 0.35378891
0.06079831 0.38984364 0.37455547
0.38490245 0.38798425 0.36081833
0.72056395 0.41614455 0.38913763
0.88177228 0.42366865 0.39293945
0.03070741 0.65078098 0.47702372
0.12655161 0.66579103 0.48473161
0.36792719 0.65106541 0.44973102
0.77098012 0.67166185 0.40139323
0.96134639 0.69916534 0.33118430
0.04696633 0.86045873 0.56740987
0.21962279 0.86337280 0.55439174
0.42587280 0.86473036 0.52327621
0.76087725 0.88017964 0.49748114
0.99540770 0.89673114 0.48786387
0.00000000 0.01393073 0.41286021
0.01103911 0.02313380 0.43987387
0.29016444 0.00894878 0.43282095
0.59566277 0.02907058 0.43592742
0.76578003 0.04667804 0.45881584
0.00000000 0.14326257 0.45133778
0.03980605 0.17811418 0.49710751
0.34482986 0.16104957 0.51971173
0.65675390 0.18236652 0.49637413
0.81337970 0.20018275 0.50995654
0.00000000 0.37729204 0.51027870
0.04618020 0.42009011 0.54701126
0.23850626 0.41799125 0.55238259
0.68785596 0.37850469 0.53256857
0.84901923 0.38981232 0.54666579
0.00174024 0.66784745 0.62357163
0.05808096 0.69831568 0.64178884
0.30848178 0.67922568 0.62046343
0.73805356 0.69600302 0.61521214
0.93329537 0.71992761 0.63287985
0.02663315 0.89222491 0.71752059
0.15315215 0.90443230 0.72439730
0.40386361 0.89023465 0.70592391
0.68074787 0.89866912 0.70000535
0.98824763 0.91928494 0.67541260
0.00000000 0.01721708 0.55303460
0.00103444 0.02707965 0.57606852
0.25336063 0.02619396 0.60868549
0.59810603 0.02099578 0.56874216
0.78872585 0.04642041 0.57945216
0.00000000 0.15789454 0.59068644
0.02890041 0.19209896 0.63367844
0.28131115 0.19426361 0.67305523
0.66829813 0.17631927 0.64028907
0.83949560 0.20905612 0.63551295
0.00000000 0.38501292 0.63671774
0.03508348 0.42896816 0.68000281
0.18525791 0.43746170 0.69890946
0.68252867 0.37791622 0.68116015
0.87142122 0.40466091 0.67765445
0.00000000 0.66933692 0.74251366
0.03784710 0.70974851 0.77018321
0.24804148 0.69976747 0.76312721
0.65005356 0.70869154 0.77503598
0.93640804 0.72118497 0.77648389
0.00577011 0.90328068 0.83624709
0.07656504 0.93298680 0.85724437
0.32945058 0.91629583 0.83882713
0.62686074 0.92136937 0.83559263
0.97916043 0.93831390 0.84040612
