luts/LS LUT.cube
# VEGAS Pro LUT
TITLE "LUT LS"
LUT_3D_SIZE 9
0.00000000 0.00000000 0.00000000
0.01487747 0.00169946 0.00118901
0.06097722 0.00884311 0.00697348
0.15688597 0.01006569 0.00491283
0.31036162 0.00528879 0.00000000
0.43565518 0.00459146 0.00009562
0.53967392 0.00659658 0.00255781
0.62627059 0.00860303 0.00360261
0.71125871 0.01138062 0.00543967
0.00671197 0.01717795 0.00975591
0.02445805 0.02100219 0.00960745
0.07262776 0.02739297 0.01169264
0.17273808 0.02939901 0.01081719
0.34048256 0.03202929 0.01081606
0.47443587 0.03592462 0.01280154
0.57993406 0.04021123 0.01800856
0.66590172 0.04301007 0.02063402
0.74874085 0.04662408 0.02360339
0.01985994 0.06909862 0.03460345
0.03220223 0.07534334 0.03378027
0.10067648 0.09276106 0.03663689
0.20892866 0.09428958 0.02668463
0.38829556 0.10009852 0.02714709
0.52986050 0.10504640 0.02768949
0.63602293 0.11003412 0.03160893
0.72003978 0.11339173 0.03393288
0.79954559 0.11816541 0.03658566
0.03161697 0.18955773 0.06445879
0.04281282 0.19740251 0.06277058
0.10293310 0.21002020 0.06731340
0.23069818 0.20302400 0.05396954
0.42727244 0.21499859 0.03500346
0.57366884 0.20484354 0.03056350
0.67733127 0.19892046 0.03341736
0.76287144 0.20072532 0.03593257
0.84057015 0.20513412 0.03906551
0.03589085 0.34067050 0.10185248
0.04774764 0.35101900 0.09695493
0.09709436 0.36073175 0.09292084
0.23793179 0.34839374 0.08914451
0.43415207 0.33831230 0.06240917
0.63549709 0.36346251 0.04076162
0.74106055 0.36040527 0.04051648
0.83019429 0.36065513 0.04173739
0.90579933 0.36410591 0.04430756
0.04235977 0.49392909 0.17121825
0.05818950 0.50719750 0.16535208
0.13128932 0.51173687 0.14913049
0.28071681 0.49452263 0.13333561
0.38923466 0.48303360 0.12278506
0.63677919 0.48180997 0.07531028
0.79521829 0.51185971 0.05699114
0.87926954 0.51481634 0.04804085
0.94893676 0.51800323 0.04698900
0.04245813 0.63927388 0.23022008
0.06719048 0.65408021 0.22009870
0.17773587 0.64993751 0.19403328
0.31832927 0.63577014 0.17329818
0.43345356 0.62947911 0.17035419
0.54232323 0.61782217 0.15507592
0.80613947 0.62675339 0.09847976
0.92197454 0.65561873 0.07602406
0.98204052 0.66320187 0.06228818
0.04173609 0.75880200 0.27255994
0.08468875 0.77198493 0.25986055
0.22024995 0.76339793 0.22716272
0.34905204 0.75636733 0.20529720
0.46428663 0.75240499 0.19974762
0.57271087 0.74795133 0.19590592
0.78550076 0.74170488 0.14645904
0.92551070 0.75475836 0.12682098
0.99845874 0.77030784 0.10118122
0.05512306 0.84757841 0.30876714
0.11396734 0.85656655 0.29338971
0.24980877 0.84884119 0.25970885
0.37183231 0.84471786 0.23699594
0.48745775 0.84161073 0.22788410
0.60203987 0.83965898 0.22766812
0.79397649 0.83492368 0.19194879
0.93281591 0.84181392 0.16329746
1.00000000 0.85406762 0.16318414
0.00000000 0.00037796 0.01479607
0.01413671 0.00196561 0.01660820
0.05940627 0.00929429 0.02438444
0.15568745 0.01228625 0.02785575
0.31527156 0.01012464 0.03271649
0.44380566 0.01135106 0.04125750
0.54783434 0.01358453 0.04675107
0.63392508 0.01595569 0.05038086
0.71770424 0.01876293 0.05450186
0.00435305 0.01744156 0.02284631
0.02164151 0.02157849 0.02596836
0.06781319 0.02857761 0.03109002
0.16764545 0.03315012 0.03595321
0.33827633 0.03915779 0.04870816
0.47349581 0.04526781 0.06067432
0.57877463 0.04994638 0.06738682
0.66422540 0.05284353 0.07013044
0.74693894 0.05640795 0.07415395
0.02011424 0.07128164 0.05323344
0.03040963 0.07657950 0.05363850
0.09489684 0.09524848 0.05508037
0.20765425 0.09894433 0.05208514
0.38505214 0.10807673 0.06535298
0.52303529 0.11637419 0.07812987
0.62807792 0.12200737 0.08441748
0.71181130 0.12548392 0.08726659
0.79149359 0.13005602 0.09068085
0.03152683 0.19117704 0.10277916
0.04164021 0.19956735 0.10228809
0.08265632 0.21398848 0.09704311
0.22986749 0.21031007 0.07822735
0.42757782 0.22321919 0.06957723
0.57435876 0.21584937 0.07974140
0.67461342 0.20997757 0.08604410
0.75852162 0.21209119 0.08995671
0.83519030 0.21666007 0.09461022
0.03543837 0.34277901 0.16299286
0.04594488 0.35351259 0.16096497
0.08216795 0.36760119 0.14981067
0.22302526 0.35796261 0.13888910
0.43025878 0.34624106 0.09994062
0.63300598 0.37342095 0.08861598
0.74133354 0.36976650 0.09208654
0.83097607 0.37067628 0.09596329
0.90615153 0.37426174 0.10071116
0.04196188 0.49576074 0.23678818
0.05614251 0.50891036 0.23481926
0.11251015 0.51822054 0.21808869
0.25966161 0.50342143 0.18923752
0.38571644 0.49307716 0.18200803
0.63171911 0.49115676 0.13040426
0.79013860 0.52030724 0.10451416
0.87628579 0.52284175 0.10134315
0.94756240 0.52564740 0.10098630
0.04175473 0.64082092 0.29731244
0.06381726 0.65575898 0.29192561
0.15605775 0.65658563 0.26808780
0.29670498 0.64351153 0.23646009
0.42060384 0.63684958 0.22530358
0.53878903 0.62874806 0.21674944
0.80029249 0.63661754 0.15840092
0.91738677 0.66086096 0.11178856
0.97872090 0.66778779 0.09501424
0.04100381 0.76034331 0.34003356
0.07977497 0.77406716 0.33300394
0.20214844 0.76910347 0.30267358
0.32884067 0.76315391 0.27288032
0.44758528 0.75940996 0.25768861
0.56540900 0.75630075 0.25556284
0.78091621 0.75161946 0.20919782
0.92077357 0.76385152 0.18825111
0.99670959 0.77892303 0.16095221
0.05228803 0.84979659 0.37675574
0.10488094 0.85995001 0.36687064
0.23388681 0.85362774 0.33509392
0.35321549 0.85095251 0.30723161
0.46986297 0.84825408 0.28946728
0.59100461 0.84642524 0.28585029
0.79201555 0.84488755 0.25707942
0.92902124 0.85071880 0.22644214
0.99959749 0.86216629 0.22543910
0.00000000 0.00292686 0.05788947
0.00537865 0.00392523 0.06093520
0.05476715 0.00925167 0.06747423
0.15764070 0.01546184 0.07982454
0.31860960 0.01427356 0.09788420
0.45755994 0.01608294 0.11275485
0.56206548 0.01855089 0.11829203
0.64758331 0.02065257 0.12079060
0.73074603 0.02390903 0.12445934
0.00050609 0.02039879 0.06627668
0.01160889 0.02225364 0.07195508
0.06025434 0.02876429 0.07876761
0.16839705 0.03761309 0.09244686
0.34055975 0.04409663 0.11481194
0.48441905 0.05079792 0.13122223
0.58941680 0.05584505 0.13756399
0.67407304 0.05889913 0.14006136
0.75569230 0.06274781 0.14353848
0.01297012 0.07524629 0.09663749
0.02586969 0.08103579 0.10283473
0.07734833 0.09876905 0.11247918
0.19997554 0.11003996 0.11981163
0.37135169 0.11896903 0.13693514
0.51481944 0.12679993 0.15137070
0.62090200 0.13253678 0.15749763
0.70497268 0.13592295 0.15990125
0.78499633 0.14066683 0.16328934
0.02873561 0.19421576 0.15668356
0.03995888 0.20195696 0.16246183
0.06711216 0.21689391 0.16496211
0.22790679 0.22529167 0.14416735
0.42551377 0.23390329 0.14010863
0.56620324 0.22562587 0.15698183
0.66393709 0.22153726 0.16442874
0.74749267 0.22399344 0.16847317
0.82426178 0.22852039 0.17287077
0.03417312 0.34530902 0.22385916
0.04521546 0.35545903 0.22703394
0.07659240 0.37045413 0.22458571
0.18992342 0.36878976 0.20066756
0.42258224 0.35608208 0.16579057
0.62980908 0.38252974 0.16005939
0.74059623 0.37986133 0.16871634
0.83026916 0.38215736 0.17543922
0.90437734 0.38680151 0.18167546
0.04117180 0.49780893 0.30268061
0.05551130 0.51017582 0.30509394
0.10486527 0.52051401 0.29691529
0.23305744 0.51147354 0.26398018
0.37600082 0.50147736 0.24436057
0.62456536 0.50124085 0.19797380
0.78367400 0.53038180 0.17337516
0.87322724 0.53178716 0.17359626
0.94617927 0.53401887 0.17553107
0.04085942 0.64283150 0.36356434
0.06265008 0.65697020 0.36355609
0.14628345 0.65921706 0.34796154
0.27555987 0.64947909 0.31604588
0.40041181 0.64415634 0.29049858
0.53133154 0.63884783 0.28386027
0.79301023 0.64678824 0.22576825
0.90965849 0.67101669 0.17738993
0.97287965 0.67741036 0.16111469
0.04041153 0.76290458 0.40675169
0.07837440 0.77606320 0.40475002
0.19337669 0.77244127 0.38173997
0.31117302 0.76894355 0.35355330
0.42638177 0.76707137 0.32854515
0.55195385 0.76388681 0.31931290
0.77555692 0.76230425 0.27993429
0.91531146 0.77377146 0.25876987
0.99458814 0.78845489 0.22770765
0.05201355 0.85204566 0.44423088
0.10107471 0.86271286 0.43967628
0.22554727 0.85722649 0.41335106
0.33769149 0.85599452 0.38729927
0.44914120 0.85554373 0.36295328
0.57395518 0.85363257 0.34993970
0.78841853 0.85606313 0.33023754
0.92436939 0.86056101 0.29864094
0.99856275 0.87455940 0.31690457
0.00000000 0.00396028 0.13980007
0.00268814 0.00507709 0.14326692
0.03055051 0.00743926 0.16052528
0.15383068 0.01436539 0.14786065
0.31552258 0.01869807 0.16852877
0.46466616 0.02163150 0.19143189
0.57099289 0.02427798 0.20304897
0.65798819 0.02651107 0.20884550
0.74171054 0.02939298 0.21518174
0.00000000 0.02842845 0.15377375
0.00848747 0.03039733 0.16133133
0.03895735 0.03755379 0.18090685
0.16902760 0.03923432 0.16419069
0.33901542 0.05093452 0.19045636
0.49213135 0.05787275 0.21472786
0.59911782 0.06295130 0.22612038
0.68486720 0.06567182 0.22971070
0.76626593 0.06963888 0.23223764
0.00391022 0.08449816 0.17055553
0.02232565 0.09510315 0.18405336
0.05236723 0.10976076 0.20364866
0.19199073 0.10993214 0.19424549
0.36309248 0.12483981 0.21684456
0.52170908 0.13334349 0.23601264
0.62895453 0.13985968 0.24184862
0.71266997 0.14339304 0.24272105
0.79197228 0.14851394 0.24560788
0.01744627 0.20440646 0.21976933
0.03292289 0.21557888 0.22893995
0.06251952 0.22996625 0.23915836
0.18979053 0.23717667 0.23768629
0.40306616 0.24323957 0.23717225
0.55726969 0.24768223 0.25221443
0.66075927 0.24798216 0.25782326
0.74318618 0.24684203 0.25884518
0.82002008 0.25063139 0.26159012
0.02765615 0.34776068 0.27619371
0.04018795 0.35769361 0.28364304
0.07292403 0.37123674 0.29288170
0.16669492 0.37338138 0.28363699
0.41648898 0.37360919 0.25336549
0.62658936 0.39338383 0.25238690
0.73951101 0.39756781 0.26323730
0.82664543 0.39882380 0.26818275
0.89863551 0.40224683 0.27269906
0.03732819 0.50062412 0.35787269
0.05261569 0.51193088 0.36560374
0.10180359 0.52088213 0.36651236
0.22077015 0.51339561 0.34457546
0.35539186 0.50756431 0.31255913
0.61528069 0.51132411 0.27216303
0.77732295 0.53996897 0.24961215
0.87102455 0.53983748 0.25190949
0.94463462 0.54183149 0.25630909
0.03817455 0.64541030 0.42059678
0.06012922 0.65885836 0.42566314
0.14283098 0.66052657 0.41627982
0.26664135 0.65151876 0.39294100
0.37900388 0.64981765 0.36511546
0.51558220 0.64591473 0.34798485
0.78459722 0.65756249 0.30050394
0.90180147 0.68109798 0.24458249
0.96740717 0.68663424 0.22984764
0.03858890 0.76621211 0.46756664
0.07662660 0.77885365 0.46924737
0.19134590 0.77455735 0.45146054
0.30424222 0.77162623 0.42998716
0.40784088 0.77291524 0.40571690
0.53301078 0.77121484 0.38380343
0.76990986 0.77445126 0.35814553
0.90841520 0.78690851 0.34841520
0.99088830 0.79775435 0.29503185
0.05083183 0.85514688 0.50748873
0.09985228 0.86539567 0.50577760
0.22335491 0.85952175 0.48460376
0.33135355 0.85889751 0.46417367
0.43295306 0.86104739 0.44147196
0.55406517 0.86107504 0.41811752
0.78242773 0.86793774 0.40868533
0.91880774 0.87573791 0.39713487
0.99701655 0.88602448 0.40462333
0.00000000 0.00427904 0.23111665
0.00000000 0.00512860 0.23319620
0.02092776 0.00853531 0.25558680
0.11409339 0.00858863 0.25215140
0.31253377 0.01626493 0.24134064
0.46913037 0.02538853 0.27135858
0.57263523 0.02971444 0.28420269
0.65895951 0.03285106 0.29215610
0.74213105 0.03606549 0.30084762
0.00000000 0.03711536 0.25003499
0.00502716 0.03969848 0.25921616
0.03411292 0.05179220 0.28158224
0.13685340 0.04527585 0.28540319
0.33921397 0.05073205 0.26617286
0.49772713 0.06631933 0.29681790
0.60116577 0.07398581 0.30996418
0.68595034 0.07716505 0.31674668
0.76743686 0.08118105 0.32439721
0.00000799 0.10359322 0.26551157
0.01885729 0.11547589 0.28299955
0.04865301 0.13272819 0.30584347
0.14855954 0.13038595 0.32458261
0.36294591 0.12695405 0.29373568
0.52306229 0.14311601 0.32101122
0.62872118 0.15109056 0.33425468
0.71388900 0.15470886 0.34061325
0.79415143 0.15953337 0.34763789
0.00717028 0.20669392 0.29213011
0.02722754 0.22478271 0.30900154
0.05533904 0.24079855 0.32345062
0.11883803 0.24947646 0.33628651
0.36791331 0.21492934 0.30820957
0.54076332 0.23096631 0.33780083
0.65069556 0.23904017 0.35094774
0.73875576 0.24317381 0.35467362
0.81671035 0.24828240 0.35683030
0.01421780 0.36049300 0.35378891
0.03016046 0.37492833 0.36455685
0.06079831 0.38984364 0.37455547
0.14292157 0.39405164 0.37504852
0.38490245 0.38798425 0.36081833
0.60353953 0.40584773 0.37841308
0.72056395 0.41614455 0.38913763
0.80928862 0.42043927 0.39155486
0.88177228 0.42366865 0.39293945
0.02704934 0.50830257 0.42045584
0.04197916 0.51955718 0.42934805
0.08369229 0.52974379 0.43651822
0.20215751 0.52058804 0.42645866
0.33865571 0.51343882 0.41205853
0.60301757 0.53080893 0.38461462
0.77016592 0.55071265 0.37599632
0.86760330 0.55256420 0.37754074
0.93974084 0.55557269 0.38079950
0.03070741 0.65078098 0.47702372
0.05064307 0.66355103 0.48554444
0.12655161 0.66579103 0.48473161
0.25947285 0.65293825 0.46727771
0.36792719 0.65106541 0.44973102
0.48526284 0.65471178 0.43063918
0.77098012 0.67166185 0.40139323
0.89156199 0.69457030 0.34063587
0.96134639 0.69916534 0.33118430
0.03302592 0.77271557 0.52751070
0.06891417 0.78508544 0.53538901
0.18350551 0.77984345 0.52377415
0.30139351 0.77477658 0.50638664
0.39934796 0.77636981 0.48884013
0.50828022 0.78070402 0.47246087
0.76153624 0.79054821 0.45718217
0.90113944 0.79904592 0.43765980
0.98689145 0.80770034 0.36781335
0.04696633 0.86045873 0.56740987
0.09389725 0.87042344 0.57170057
0.21962279 0.86337280 0.55439174
0.32964414 0.86153102 0.53879565
0.42587280 0.86473036 0.52327621
0.53319812 0.86948079 0.50607383
0.76087725 0.88017964 0.49748114
0.91363531 0.88885868 0.48750108
0.99540770 0.89673114 0.48786387
0.00000000 0.00958061 0.33013594
0.00000070 0.00992358 0.33223861
0.01550077 0.01681007 0.35610285
0.06652713 0.01965398 0.38238519
0.30417997 0.00613033 0.32514843
0.46728715 0.02078541 0.34221321
0.57459795 0.02992777 0.35685521
0.66080141 0.03610119 0.36644351
0.74328798 0.04116461 0.37578821
0.00000000 0.04796227 0.34897882
0.00009670 0.04945879 0.35642460
0.03217654 0.07043377 0.38487738
0.09012917 0.08206055 0.41755438
0.34251511 0.04816630 0.36159506
0.49948585 0.06469226 0.37137121
0.60530001 0.07949899 0.38526601
0.68845975 0.08629065 0.39242741
0.76781952 0.09196778 0.39997578
0.00000000 0.12524652 0.36388165
0.01466972 0.13720700 0.38245741
0.04438952 0.15729393 0.40709269
0.09727482 0.17169860 0.42972800
0.36873722 0.12520821 0.39583510
0.52458817 0.14337155 0.39703462
0.62997043 0.15960391 0.40879491
0.71260256 0.16594286 0.41519615
0.79075462 0.17174035 0.42241043
0.00000000 0.22044477 0.37547880
0.02189646 0.24006426 0.39564216
0.04934661 0.25820872 0.41501641
0.09732251 0.26899505 0.42956185
0.36742416 0.22586460 0.42038718
0.53738725 0.23335269 0.41322267
0.64625275 0.24720342 0.42550951
0.73223668 0.25313362 0.43261310
0.81036961 0.25839505 0.44021302
0.00360198 0.36302131 0.42824054
0.02296923 0.38488734 0.44585922
0.05198386 0.40211856 0.45881322
0.11034353 0.40962040 0.46482697
0.28707206 0.40314808 0.46108484
0.57166767 0.38319647 0.45100766
0.70002371 0.39258346 0.46958584
0.79077959 0.39835340 0.47846714
0.86294335 0.39844140 0.48050526
0.01292524 0.51582688 0.49613765
0.03096185 0.53153139 0.50773525
0.06409963 0.54424876 0.51529086
0.15462141 0.54179215 0.51012278
0.30964845 0.53034997 0.49676391
0.57672679 0.53950334 0.49077260
0.75261068 0.56105971 0.51196295
0.84679043 0.57002771 0.51878983
0.91812038 0.57492721 0.52126396
0.01626413 0.66495436 0.54946816
0.03369017 0.67881775 0.55868077
0.08391933 0.68711114 0.56314725
0.21778989 0.67312914 0.55107272
0.34842870 0.66448879 0.54152036
0.47050044 0.66458464 0.53762257
0.75876367 0.69032431 0.51463813
0.88009834 0.71069604 0.49251375
0.95581913 0.71379232 0.49099129
0.02201428 0.78859699 0.60120058
0.05013497 0.80218518 0.61199951
0.14563239 0.80086374 0.60850888
0.28155863 0.78969795 0.59573370
0.39006639 0.78719527 0.58882773
0.49777639 0.78897709 0.58002871
0.73841882 0.80307353 0.55421001
0.89142144 0.81101155 0.53705132
0.97964883 0.82695687 0.49807903
0.03741432 0.87469459 0.64275056
0.07410870 0.88623762 0.65200299
0.19472352 0.87920713 0.64216018
0.31806135 0.87294668 0.63185698
0.41977343 0.87344629 0.62437254
0.52401960 0.87771350 0.61473101
0.71116096 0.89065504 0.58898997
0.90813249 0.90288997 0.58449173
0.99312240 0.90771735 0.57476836
0.00000000 0.01393073 0.41286021
0.00000000 0.01426410 0.41529804
0.01103911 0.02313380 0.43987387
0.05453461 0.03285658 0.47053239
0.29016444 0.00894878 0.43282095
0.47266394 0.01236892 0.41740572
0.59566277 0.02907058 0.43592742
0.68482995 0.03949033 0.44896695
0.76578003 0.04667804 0.45881584
0.00000000 0.05816235 0.43220651
0.00068752 0.06125440 0.44136870
0.02909011 0.08551351 0.47192475
0.07529619 0.10395968 0.50136697
0.33764875 0.06772167 0.48348859
0.51767772 0.07129633 0.45930102
0.63435841 0.09777520 0.47253680
0.71799457 0.11026280 0.48174065
0.79463661 0.11843765 0.48917708
0.00000000 0.14326257 0.45133778
0.00849367 0.15144126 0.46588862
0.03980605 0.17811418 0.49710751
0.08237094 0.19686979 0.51772785
0.34482986 0.16104957 0.51971173
0.54131782 0.15252344 0.48821020
0.65675390 0.18236652 0.49637413
0.73855627 0.19373120 0.50364721
0.81337970 0.20018275 0.50995654
0.00000000 0.24246916 0.46396697
0.01586109 0.26184902 0.48433071
0.04343741 0.28388360 0.50862795
0.08367766 0.29712629 0.52542174
0.30662796 0.27954882 0.53714788
0.54591626 0.24817677 0.50754064
0.66870844 0.27052084 0.51124179
0.75245881 0.27878633 0.51765466
0.82655925 0.28387704 0.52417791
0.00000000 0.37729204 0.51027870
0.01794205 0.40129682 0.53075641
0.04618020 0.42009011 0.54701126
0.09413245 0.42861325 0.55649453
0.23850626 0.41799125 0.55238259
0.54619902 0.38341466 0.54258335
0.68785596 0.37850469 0.53256857
0.77812111 0.39034218 0.54214388
0.84901923 0.38981232 0.54666579
0.00190975 0.51714224 0.57156336
0.02338722 0.53865492 0.58811861
0.05306000 0.55334216 0.59811437
0.11983259 0.55632675 0.59867209
0.27019837 0.54322505 0.58688605
0.47794002 0.54969007 0.59280008
0.73985410 0.54833949 0.58855861
0.83512878 0.56141710 0.60155040
0.90667450 0.56500751 0.60717553
0.00174024 0.66784745 0.62357163
0.02221063 0.68626589 0.63529074
0.05808096 0.69831568 0.64178884
0.16488625 0.69114912 0.63357252
0.30848178 0.67922568 0.62046343
0.43627563 0.67920899 0.61632532
0.73805356 0.69600302 0.61521214
0.86133248 0.71533525 0.63049412
0.93329537 0.71992761 0.63287985
0.00941288 0.80228072 0.67534560
0.03522865 0.81851017 0.68792093
0.09968396 0.82426608 0.69025016
0.24010918 0.81114787 0.67496103
0.36100161 0.80468386 0.66612470
0.47915512 0.80137318 0.66100848
0.70101458 0.80937541 0.65898901
0.88526881 0.82697678 0.64797121
0.97203261 0.83987999 0.62721610
0.02663315 0.89222491 0.71752059
0.05614854 0.90609062 0.72878838
0.15315215 0.90443230 0.72439730
0.29216978 0.89336389 0.71131134
0.40386361 0.89023465 0.70592391
0.51780790 0.89013588 0.70307362
0.68074787 0.89866912 0.70000535
0.90056807 0.91749072 0.68719912
0.98824763 0.91928494 0.67541260
0.00000000 0.01574278 0.48402065
0.00000000 0.01602312 0.48637694
0.00577901 0.02519814 0.50893009
0.04611509 0.03889079 0.54173762
0.27545273 0.01680119 0.52351642
0.46715358 0.00966309 0.49375987
0.60421288 0.02663219 0.49956396
0.69629407 0.03810180 0.50924110
0.77913523 0.04955402 0.52123994
0.00000000 0.06422025 0.50411212
0.00015511 0.06706943 0.51255125
0.02453221 0.09198032 0.54267669
0.06516543 0.11286664 0.57110190
0.31584179 0.08112459 0.57051682
0.51643813 0.07111353 0.54068851
0.64538443 0.09490138 0.53847742
0.73134297 0.11006844 0.54388911
0.80852950 0.12297396 0.55234522
0.00000000 0.15107033 0.52211809
0.00241003 0.15774107 0.53489041
0.03432561 0.18578121 0.56675261
0.07107484 0.20657173 0.58804232
0.31271389 0.17853434 0.59960938
0.54060984 0.15685612 0.57413632
0.66897768 0.18175603 0.56507951
0.75333118 0.19810225 0.56826049
0.82821643 0.21069488 0.57628906
0.00000000 0.25110546 0.53341591
0.00857572 0.26418447 0.54876024
0.03764035 0.29306015 0.57952076
0.07321936 0.30790555 0.59760106
0.26861781 0.29924792 0.61272633
0.53631628 0.26328844 0.59913152
0.68117344 0.27646515 0.58518064
0.76958567 0.29212639 0.58826804
0.84376091 0.30366030 0.59678084
0.00000000 0.38209647 0.57490319
0.01247637 0.40444061 0.59472102
0.04053782 0.42617288 0.61593568
0.08119854 0.43721539 0.62961304
0.21233448 0.43092772 0.63075328
0.50574255 0.40123984 0.63141042
0.69605660 0.38554582 0.61057204
0.79063833 0.39829049 0.61350560
0.86351383 0.40884593 0.62226528
0.00000000 0.52465618 0.63804018
0.01752925 0.54692668 0.65567333
0.04566894 0.56429785 0.66885853
0.09770192 0.57150936 0.67533261
0.24053155 0.56046939 0.66900194
0.40872580 0.56361663 0.67621040
0.73411655 0.55583030 0.67609429
0.84299028 0.57399797 0.67795885
0.91244978 0.58317482 0.68551457
0.00000000 0.66764319 0.68885207
0.01464518 0.69019693 0.70394742
0.04553818 0.70454729 0.71285170
0.12706573 0.70408481 0.71140218
0.27647555 0.69033659 0.69958997
0.40243781 0.68920225 0.69746786
0.68142378 0.70138240 0.70660967
0.85456997 0.70832276 0.70675647
0.92727238 0.71854246 0.71552968
0.00023666 0.80228275 0.74026227
0.02253471 0.82153785 0.75530809
0.06436696 0.83294421 0.76282132
0.18160877 0.82527530 0.75266558
0.31527525 0.81512183 0.74020845
0.43485644 0.81257808 0.73448467
0.65431213 0.82079983 0.73640597
0.87158537 0.83190131 0.73812652
0.95834380 0.84329438 0.74521875
0.01540215 0.90002984 0.78492218
0.04139404 0.91627049 0.79786944
0.10535979 0.92272037 0.80057448
0.24740225 0.91067767 0.78560412
0.36831707 0.90554428 0.77736205
0.48758170 0.90461946 0.77311194
0.66590953 0.91002518 0.77481604
0.88158500 0.92345917 0.77496624
0.98489344 0.93287086 0.77069533
0.00000000 0.01721708 0.55303460
0.00000000 0.01751271 0.55545211
0.00103444 0.02707965 0.57606852
0.03976196 0.04449882 0.61094868
0.25336063 0.02619396 0.60868549
0.45823401 0.01020038 0.57256395
0.59810603 0.02099578 0.56874216
0.70250094 0.03276522 0.56874245
0.78872585 0.04642041 0.57945216
0.00000000 0.06970116 0.57375360
0.00000000 0.07268973 0.58198369
0.01961672 0.09695751 0.61033773
0.05735332 0.12047866 0.63956439
0.28764611 0.09533872 0.64994758
0.50782686 0.07336941 0.62155199
0.64318514 0.08827427 0.61135322
0.74040437 0.10419412 0.60574055
0.81977385 0.12002899 0.61188114
0.00000000 0.15789454 0.59068644
0.00094869 0.16356531 0.60208875
0.02890041 0.19209896 0.63367844
0.06272891 0.21493617 0.65637183
0.28131115 0.19426361 0.67305523
0.52829129 0.16399118 0.65543413
0.66829813 0.17631927 0.64028907
0.76301533 0.19282454 0.63115382
0.83949560 0.20905612 0.63551295
0.00000000 0.25842234 0.60127795
0.00246219 0.26932028 0.61464059
0.03203154 0.30030838 0.64731741
0.06456694 0.31664586 0.66629994
0.23496911 0.31459442 0.68431878
0.51367736 0.27664140 0.67709410
0.67756456 0.27480784 0.66051829
0.77759445 0.28796348 0.65033066
0.85398185 0.30286500 0.65472251
0.00000000 0.38501292 0.63671774
0.00586532 0.40009308 0.65127695
0.03508348 0.42896816 0.68000281
0.07102215 0.44099450 0.69546956
0.18525791 0.43746170 0.69890946
0.47900447 0.40741935 0.69937223
0.68252867 0.37791622 0.68116015
0.79552025 0.39170128 0.67332661
0.87142122 0.40466091 0.67765445
0.00000000 0.52906168 0.69753402
0.01152982 0.54906350 0.71369296
0.03887092 0.56885755 0.73010731
0.08092427 0.57834631 0.73948067
0.21019192 0.57006234 0.73756117
0.38275164 0.57058835 0.74348044
0.71004331 0.56183499 0.74832237
0.84474534 0.56619555 0.74004906
0.92030078 0.57995456 0.74076605
0.00000000 0.66933692 0.74251366
0.00930642 0.69378215 0.75954574
0.03784710 0.70974851 0.77018321
0.10004351 0.71386272 0.77309299
0.24804148 0.69976747 0.76312721
0.37731922 0.69768053 0.76246929
0.65005356 0.70869154 0.77503598
0.85124004 0.71016920 0.78057706
0.93640804 0.72118497 0.77648389
0.00000000 0.80494392 0.79364270
0.01646219 0.82623875 0.81037295
0.05186061 0.83939379 0.81998056
0.14825259 0.83633292 0.81513369
0.28878638 0.82336903 0.80161339
0.40936863 0.82040107 0.79723430
0.59391600 0.82732117 0.80169487
0.85118490 0.83731395 0.81158221
0.95965481 0.84066141 0.81071258
0.00577011 0.90328068 0.83624709
0.03211761 0.92203295 0.84988260
0.07656504 0.93298680 0.85724437
0.19963039 0.92476612 0.84864748
0.32945058 0.91629583 0.83882713
0.44929373 0.91530901 0.83501703
0.62686074 0.92136937 0.83559263
0.86906642 0.93233532 0.83774734
0.97916043 0.93831390 0.84040612
