luts/LS LUT.cube
# VEGAS Pro LUT
TITLE "LUT LS"
LUT_3D_SIZE 33
0.00000000 0.00000000 0.00000000
0.00000000 0.00000000 0.00000000
0.00000000 0.00000000 0.00000000
0.00552958 0.00057295 0.00037308
0.01487747 0.00169946 0.00118901
0.02466824 0.00341284 0.00266928
0.03460579 0.00517701 0.00430374
0.04604786 0.00709348 0.00585417
0.06097722 0.00884311 0.00697348
0.07957580 0.00992004 0.00722395
0.10118335 0.01030362 0.00702677
0.12699603 0.01046313 0.00628904
0.15688597 0.01006569 0.00491283
0.19089556 0.00920055 0.00343503
0.22863871 0.00791715 0.00150324
0.26830903 0.00640580 0.00000000
0.31036162 0.00528879 0.00000000
0.35099658 0.00477642 0.00000000
0.38034868 0.00478852 0.00000000
0.40787160 0.00465498 0.00000000
0.43565518 0.00459146 0.00009562
0.46359175 0.00490217 0.00096802
0.49083680 0.00537146 0.00167424
0.51656669 0.00597555 0.00221025
0.53967392 0.00659658 0.00255781
0.56131810 0.00707068 0.00280019
0.58306140 0.00755484 0.00306857
0.60475385 0.00806347 0.00334543
0.62627059 0.00860303 0.00360261
0.64764935 0.00917753 0.00387021
0.66904473 0.00986195 0.00423715
0.69038540 0.01063263 0.00472780
0.71125871 0.01138062 0.00543967
0.00000000 0.00000000 0.00000000
0.00000000 0.00000000 0.00000000
0.00000000 0.00000000 0.00000000
0.00552958 0.00057295 0.00037308
0.01487747 0.00169946 0.00118901
0.02466824 0.00341284 0.00266928
0.03460579 0.00517701 0.00430374
0.04604786 0.00709348 0.00585417
0.06097722 0.00884311 0.00697348
0.07957580 0.00992004 0.00722395
0.10118335 0.01030362 0.00702677
0.12699603 0.01046313 0.00628904
0.15688597 0.01006569 0.00491283
0.19089556 0.00920055 0.00343503
0.22863871 0.00791715 0.00150324
0.26830903 0.00640579 0.00000000
0.31036162 0.00528879 0.00000000
0.35099658 0.00477642 0.00000000
0.38034868 0.00478852 0.00000000
0.40787160 0.00465498 0.00000000
0.43565518 0.00459146 0.00009562
0.46359175 0.00490217 0.00096802
0.49083680 0.00537146 0.00167424
0.51656669 0.00597555 0.00221025
0.53967392 0.00659658 0.00255781
0.56131810 0.00707068 0.00280019
0.58306140 0.00755484 0.00306857
0.60475385 0.00806347 0.00334543
0.62627059 0.00860303 0.00360261
0.64764935 0.00917753 0.00387021
0.66904473 0.00986195 0.00423715
0.69038540 0.01063262 0.00472780
0.71125871 0.01138062 0.00543967
0.00000000 0.00000000 0.00000000
0.00000000 0.00000000 0.00000000
0.00000000 0.00000000 0.00000000
0.00552958 0.00057295 0.00037308
0.01487747 0.00169946 0.00118901
0.02466824 0.00341284 0.00266928
0.03460579 0.00517701 0.00430374
0.04604786 0.00709348 0.00585417
0.06097722 0.00884311 0.00697348
0.07957580 0.00992004 0.00722395
0.10118335 0.01030362 0.00702677
0.12699603 0.01046313 0.00628904
0.15688597 0.01006569 0.00491283
0.19089556 0.00920055 0.00343503
0.22863871 0.00791716 0.00150324
0.26830903 0.00640580 0.00000000
0.31068516 0.00554435 0.00010141
0.35212964 0.00565622 0.00033687
0.38223246 0.00623895 0.00055921
0.41053933 0.00669083 0.00079405
0.43904650 0.00720964 0.00112151
0.46763462 0.00807343 0.00228887
0.49536800 0.00897873 0.00326369
0.52135891 0.00983898 0.00398381
0.54451233 0.01052499 0.00441108
0.56619614 0.01101491 0.00476821
0.58791184 0.01152492 0.00510589
0.60957658 0.01206893 0.00545037
0.63110936 0.01265421 0.00580334
0.65244818 0.01325483 0.00615153
0.67377812 0.01394914 0.00659484
0.69503891 0.01472122 0.00714950
0.71585739 0.01549569 0.00787222
0.00265143 0.00677122 0.00373010
0.00265143 0.00677122 0.00373010
0.00265143 0.00677122 0.00373010
0.00878712 0.00769050 0.00389470
0.01888973 0.00927870 0.00427727
0.02868283 0.01111903 0.00505989
0.03881424 0.01288977 0.00646943
0.05052327 0.01462575 0.00783223
0.06572285 0.01615013 0.00881242
0.08456811 0.01705049 0.00896738
0.10639072 0.01753975 0.00877921
0.13272905 0.01808583 0.00834471
0.16372877 0.01832222 0.00747399
0.19925477 0.01822580 0.00653324
0.23870823 0.01798323 0.00548735
0.28082874 0.01794660 0.00496480
0.32534814 0.01815360 0.00510342
0.36805663 0.01866880 0.00531927
0.39892656 0.01937887 0.00562482
0.42773494 0.02008245 0.00601559
0.45644861 0.02089132 0.00644191
0.48518756 0.02209052 0.00809100
0.51302135 0.02318041 0.00950531
0.53889829 0.02405281 0.01050448
0.56196952 0.02469148 0.01109868
0.58380902 0.02521165 0.01185715
0.60538751 0.02578528 0.01243103
0.62692189 0.02643121 0.01300545
0.64849436 0.02716506 0.01369352
0.66969419 0.02786279 0.01432979
0.69078934 0.02859184 0.01504663
0.71176648 0.02937382 0.01583510
0.73240370 0.03025546 0.01660400
0.00671197 0.01717795 0.00975591
0.00671197 0.01717795 0.00975591
0.00671197 0.01717795 0.00975591
0.01354298 0.01866496 0.00969754
0.02445805 0.02100219 0.00960745
0.03475697 0.02309067 0.00954142
0.04507372 0.02481652 0.01024412
0.05710542 0.02626865 0.01105604
0.07262776 0.02739297 0.01169264
0.09180936 0.02793643 0.01164397
0.11377126 0.02815115 0.01126733
0.14044014 0.02871868 0.01103900
0.17273808 0.02939901 0.01081719
0.20988363 0.02983931 0.01055525
0.25083715 0.03030574 0.01025225
0.29462734 0.03115314 0.01051217
0.34048256 0.03202929 0.01081606
0.38453797 0.03300527 0.01124191
0.41661516 0.03391401 0.01169557
0.44565982 0.03490632 0.01229236
0.47443587 0.03592462 0.01280154
0.50298011 0.03726563 0.01454810
0.53078663 0.03851352 0.01610331
0.55666816 0.03950126 0.01726024
0.57993406 0.04021123 0.01800856
0.60179061 0.04086681 0.01878921
0.62323284 0.04151082 0.01937285
0.64458215 0.04221205 0.01995563
0.66590172 0.04301007 0.02063402
0.68684626 0.04380599 0.02129621
0.70765626 0.04464035 0.02200856
0.72831970 0.04554039 0.02277404
0.74874085 0.04662408 0.02360339
0.01033905 0.02658984 0.01612380
0.01033906 0.02658984 0.01612380
0.01033905 0.02658984 0.01612380
0.01685148 0.02877257 0.01622892
0.02758900 0.03208170 0.01635190
0.04023601 0.03500536 0.01634242
0.05083972 0.03721857 0.01554704
0.06314707 0.03887556 0.01509283
0.07930197 0.03992750 0.01506514
0.09920195 0.04022895 0.01470371
0.12151647 0.03989122 0.01383116
0.14873512 0.04023833 0.01357190
0.18254423 0.04143822 0.01423253
0.22145456 0.04249762 0.01496495
0.26377717 0.04361237 0.01526901
0.30850300 0.04503454 0.01605174
0.35486928 0.04643216 0.01668106
0.40024564 0.04785554 0.01732404
0.43369204 0.04900608 0.01780924
0.46259496 0.05023047 0.01839645
0.49115968 0.05141879 0.01885912
0.51934624 0.05287501 0.02032275
0.54708982 0.05431039 0.02180542
0.57310671 0.05548313 0.02298844
0.59659517 0.05632361 0.02379389
0.61838299 0.05708256 0.02446841
0.63966358 0.05780742 0.02501435
0.66082972 0.05858292 0.02557052
0.68191004 0.05944346 0.02619322
0.70262873 0.06035621 0.02682001
0.72316521 0.06131510 0.02747085
0.74353302 0.06234823 0.02816476
0.76370025 0.06355948 0.02899843
0.01381569 0.03784488 0.02227598
0.01381569 0.03784488 0.02227598
0.01381569 0.03784488 0.02227598
0.01908625 0.03968116 0.02205415
0.02864127 0.04298628 0.02203878
0.04352915 0.04806442 0.02316412
0.05667915 0.05075523 0.02277583
0.07010686 0.05277354 0.02182056
0.08602998 0.05422923 0.02051969
0.10612810 0.05483367 0.01914105
0.12923454 0.05457692 0.01783043
0.15759829 0.05522961 0.01777198
0.19309177 0.05668265 0.01867027
0.23342526 0.05817712 0.01958588
0.27653670 0.05958660 0.02026508
0.32157829 0.06092931 0.02100712
0.36782473 0.06229588 0.02149753
0.41372716 0.06378686 0.02207919
0.44892600 0.06501165 0.02251477
0.47738975 0.06626431 0.02287673
0.50563377 0.06756260 0.02317707
0.53363186 0.06921992 0.02440405
0.56143039 0.07089259 0.02587708
0.58767015 0.07222888 0.02701862
0.61133552 0.07324468 0.02777833
0.63299680 0.07400266 0.02834919
0.65407848 0.07482272 0.02887515
0.67510766 0.07572182 0.02945495
0.69610000 0.07669395 0.03012661
0.71668082 0.07774505 0.03073851
0.73699677 0.07883973 0.03136839
0.75707692 0.07997371 0.03203198
0.77696806 0.08115537 0.03277068
0.01718312 0.05143705 0.02862809
0.01718312 0.05143705 0.02862809
0.01718312 0.05143705 0.02862809
0.02181276 0.05338405 0.02813277
0.03040047 0.05691141 0.02790013
0.04449147 0.06246996 0.02923624
0.06037062 0.06668985 0.02967634
0.07654993 0.06966536 0.02941364
0.09388187 0.07153040 0.02807616
0.11371347 0.07236883 0.02536384
0.13645336 0.07193075 0.02269574
0.16534179 0.07258737 0.02207564
0.20194241 0.07445423 0.02284103
0.24347982 0.07608633 0.02342579
0.28733319 0.07757492 0.02405357
0.33277550 0.07903611 0.02460036
0.37906945 0.08044606 0.02489584
0.42533714 0.08187355 0.02515455
0.46215874 0.08305922 0.02537971
0.49040836 0.08429171 0.02566094
0.51829183 0.08553796 0.02588292
0.54585946 0.08699100 0.02674619
0.57333881 0.08849665 0.02807059
0.59970284 0.08974597 0.02918023
0.62378597 0.09085711 0.02994025
0.64576185 0.09185032 0.03059570
0.66673362 0.09278623 0.03113091
0.68757606 0.09374660 0.03169366
0.70834374 0.09473272 0.03232131
0.72876710 0.09587006 0.03289137
0.74892980 0.09699069 0.03352117
0.76885682 0.09814455 0.03421447
0.78857720 0.09950247 0.03494934
0.01985994 0.06909862 0.03460345
0.01985994 0.06909862 0.03460345
0.01985994 0.06909862 0.03460345
0.02433492 0.07147259 0.03404019
0.03220223 0.07534334 0.03378027
0.04406743 0.08047747 0.03508478
0.06192856 0.08615138 0.03651419
0.08099444 0.09044185 0.03723222
0.10067648 0.09276106 0.03663689
0.12208788 0.09368040 0.03367037
0.14445275 0.09302182 0.02919253
0.17235212 0.09266127 0.02679649
0.20892866 0.09428958 0.02668463
0.25100529 0.09570308 0.02663669
0.29559606 0.09713522 0.02688106
0.34161693 0.09863391 0.02705093
0.38829556 0.10009852 0.02714709
0.43516061 0.10152373 0.02715188
0.47398466 0.10280970 0.02730395
0.50209135 0.10390061 0.02751507
0.52986050 0.10504640 0.02768949
0.55733752 0.10632099 0.02837058
0.58474386 0.10773715 0.02967416
0.61135161 0.10901111 0.03083077
0.63602293 0.11003412 0.03160893
0.65808439 0.11091296 0.03224053
0.67885047 0.11165345 0.03277051
0.69951117 0.11249454 0.03333715
0.72003978 0.11339173 0.03393288
0.74030864 0.11453674 0.03449685
0.76030362 0.11565633 0.03512261
0.78003955 0.11679164 0.03581198
0.79954559 0.11816541 0.03658566
0.02218299 0.09274961 0.04063550
0.02218298 0.09274961 0.04063550
0.02218299 0.09274961 0.04063550
0.02658632 0.09550218 0.04018551
0.03399672 0.09962913 0.04005331
0.04447548 0.10454205 0.04137410
0.06219822 0.11034245 0.04363551
0.08279853 0.11537020 0.04501387
0.10439207 0.11842053 0.04477633
0.12790024 0.11877415 0.04279292
0.15369724 0.11809523 0.03796840
0.18143404 0.11796241 0.03344443
0.21619250 0.11790113 0.03098174
0.25744826 0.11792582 0.02979305
0.30222902 0.11878968 0.02933066
0.34846818 0.11974608 0.02886770
0.39541832 0.12071236 0.02856448
0.44284698 0.12211399 0.02845772
0.48405832 0.12351252 0.02856202
0.51211560 0.12445548 0.02864724
0.53996605 0.12556067 0.02876011
0.56767422 0.12683135 0.02937414
0.59527820 0.12832749 0.03071821
0.62237924 0.12977454 0.03192375
0.64783132 0.13079533 0.03276486
0.67003006 0.13149618 0.03334831
0.69073486 0.13205932 0.03390888
0.71127945 0.13272670 0.03449487
0.73161989 0.13351658 0.03506793
0.75178945 0.13464350 0.03568312
0.77165890 0.13578641 0.03631229
0.79122818 0.13693251 0.03699135
0.81051075 0.13819270 0.03784287
0.02566367 0.12238581 0.04828390
0.02566367 0.12238581 0.04828390
0.02566367 0.12238581 0.04828390
0.03017542 0.12538199 0.04783350
0.03729300 0.12952283 0.04756266
0.04659151 0.13389216 0.04824244
0.06224634 0.13897192 0.05073386
0.08268735 0.14366035 0.05261768
0.10707068 0.14695257 0.05291110
0.12886535 0.14755139 0.05106291
0.15672384 0.14461330 0.04682063
0.19163498 0.14602014 0.04208378
0.22734511 0.14805378 0.03760333
0.26661527 0.14641303 0.03414318
0.31026903 0.14526267 0.03195410
0.35609621 0.14461777 0.03085551
0.40262839 0.14405707 0.03018102
0.44999486 0.14500090 0.02952245
0.49294916 0.14541785 0.02927849
0.52107447 0.14574400 0.02939450
0.54918528 0.14691359 0.02962134
0.57706213 0.14823398 0.03011397
0.60469139 0.14962682 0.03129847
0.63205338 0.15092374 0.03234416
0.65842551 0.15208521 0.03335491
0.68120718 0.15280420 0.03405169
0.70191175 0.15348428 0.03464807
0.72239733 0.15422961 0.03522117
0.74268937 0.15507512 0.03572604
0.76275378 0.15614049 0.03642214
0.78249085 0.15726241 0.03709109
0.80194229 0.15842515 0.03780372
0.82115710 0.15965015 0.03870490
0.02926552 0.15536541 0.05657550
0.02926551 0.15536541 0.05657550
0.02926551 0.15536541 0.05657550
0.03412132 0.15863553 0.05597240
0.04077200 0.16272123 0.05543874
0.04789225 0.16616611 0.05542959
0.06138295 0.17029305 0.05753275
0.08075705 0.17420319 0.05948831
0.10624035 0.17734121 0.06057772
0.13166688 0.17790861 0.05897828
0.15396915 0.17577577 0.05545423
0.18990524 0.17204647 0.05035887
0.23749059 0.17707565 0.04611005
0.27947962 0.18001346 0.04064096
0.32296821 0.18014218 0.03647261
0.36807704 0.17843956 0.03381673
0.41368866 0.17629395 0.03192516
0.45987189 0.17506306 0.03078096
0.50304914 0.17287047 0.03028875
0.53109223 0.17062712 0.03009452
0.55854392 0.17095253 0.03006731
0.58593047 0.17146552 0.03028318
0.61331439 0.17219704 0.03135300
0.64053857 0.17292570 0.03236783
0.66776556 0.17423217 0.03355376
0.69114560 0.17510727 0.03425201
0.71199501 0.17566040 0.03479029
0.73247814 0.17628777 0.03534369
0.75280458 0.17713980 0.03591374
0.77273118 0.17823020 0.03661876
0.79249668 0.17944059 0.03738536
0.81203151 0.18072823 0.03821181
0.83115369 0.18203828 0.03911404
0.03161697 0.18955773 0.06445879
0.03161697 0.18955773 0.06445879
0.03161697 0.18955773 0.06445879
0.03658018 0.19323829 0.06362814
0.04281282 0.19740251 0.06277058
0.04915158 0.20097403 0.06223084
0.06038030 0.20441067 0.06364375
0.07813846 0.20743255 0.06548293
0.10293310 0.21002020 0.06731340
0.13164607 0.21046029 0.06651004
0.15695520 0.20854220 0.06350829
0.18224090 0.20548332 0.05945158
0.23069818 0.20302400 0.05396954
0.28802583 0.21001786 0.04880458
0.33435464 0.21383762 0.04283055
0.37984610 0.21452671 0.03814580
0.42727244 0.21499859 0.03500346
0.47386631 0.21388137 0.03283159
0.51746434 0.21123973 0.03150594
0.54753709 0.20701255 0.03079190
0.57366884 0.20484354 0.03056350
0.59975076 0.20298874 0.03108065
0.62514865 0.20076215 0.03184538
0.65059006 0.19881728 0.03247610
0.67733127 0.19892046 0.03341736
0.70128685 0.19943327 0.03412556
0.72233725 0.19976130 0.03470438
0.74262619 0.20006388 0.03529347
0.76287144 0.20072532 0.03593257
0.78267962 0.20161693 0.03662010
0.80228221 0.20270473 0.03736188
0.82162142 0.20388620 0.03817049
0.84057015 0.20513412 0.03906551
0.03312243 0.22578442 0.07244355
0.03312243 0.22578442 0.07244355
0.03312243 0.22578442 0.07244355
0.03822963 0.22984159 0.07107468
0.04423973 0.23427385 0.06969397
0.05032619 0.23819967 0.06858578
0.05991144 0.24121879 0.06925264
0.07585925 0.24363703 0.07077995
0.09860362 0.24555311 0.07279503
0.12961803 0.24566923 0.07335031
0.15915495 0.24365187 0.07132919
0.18625632 0.24059561 0.06785932
0.21712247 0.23698872 0.06294347
0.27724880 0.23524022 0.05643284
0.34075344 0.24437353 0.05101292
0.39021036 0.24963379 0.04438611
0.43651730 0.25046778 0.03918157
0.48361027 0.25074074 0.03573578
0.53034240 0.25143334 0.03343731
0.56732816 0.25091293 0.03214997
0.59348875 0.24863960 0.03242309
0.61934292 0.24610326 0.03291459
0.64470422 0.24335027 0.03336003
0.66980135 0.24021131 0.03386004
0.69611692 0.23921977 0.03464917
0.72015381 0.23846278 0.03519190
0.74022526 0.23639163 0.03555704
0.75870228 0.23424998 0.03587709
0.77768832 0.23330891 0.03632549
0.79675370 0.23298179 0.03686598
0.81568480 0.23321176 0.03760169
0.83421314 0.23334387 0.03834431
0.85249168 0.23358849 0.03910582
0.03403992 0.26356989 0.08127259
0.03403991 0.26356989 0.08127259
0.03403991 0.26356989 0.08127259
0.03931152 0.26806110 0.07934605
0.04519049 0.27259421 0.07741319
0.05137448 0.27672902 0.07575873
0.06031420 0.27971905 0.07561186
0.07471669 0.28181186 0.07654923
0.09520890 0.28303835 0.07814067
0.12676689 0.28264853 0.07958721
0.16040452 0.28049201 0.07855848
0.19190191 0.27734283 0.07595006
0.21978773 0.27348584 0.07200027
0.25877383 0.26875553 0.06532025
0.32792616 0.26870871 0.05843981
0.39483893 0.28007212 0.05281777
0.44595790 0.28662542 0.04607642
0.49229401 0.28810102 0.04042821
0.53809226 0.28819159 0.03660011
0.57942301 0.28812873 0.03433790
0.60844147 0.28786632 0.03509461
0.63613135 0.28768691 0.03542662
0.66347718 0.28735703 0.03591959
0.69069183 0.28738785 0.03645144
0.71742237 0.28730723 0.03707684
0.74233568 0.28687555 0.03760780
0.76368409 0.28573275 0.03790346
0.78290969 0.28432801 0.03818187
0.80185568 0.28349492 0.03855560
0.82079399 0.28322926 0.03906856
0.83973867 0.28356317 0.03977539
0.85818362 0.28369409 0.04049270
0.87639242 0.28389135 0.04123832
0.03494817 0.30223629 0.09096102
0.03494816 0.30223629 0.09096102
0.03520226 0.30247396 0.09086065
0.04046607 0.30724317 0.08874024
0.04630499 0.31197262 0.08664940
0.05268401 0.31620476 0.08479268
0.06142146 0.31922993 0.08379194
0.07511397 0.32115838 0.08398005
0.09470015 0.32190874 0.08485642
0.12527779 0.32087976 0.08621722
0.16250908 0.31813756 0.08561684
0.19787976 0.31473732 0.08376810
0.22848973 0.31096071 0.08055347
0.25528830 0.30662221 0.07561839
0.30415976 0.30097422 0.06720726
0.38123089 0.30306959 0.06027313
0.44843939 0.31625205 0.05485638
0.50075936 0.32411468 0.04812792
0.54643178 0.32639277 0.04238862
0.58981723 0.32622406 0.03809551
0.62145972 0.32502678 0.03775077
0.64838630 0.32408392 0.03783232
0.67568028 0.32396933 0.03796541
0.70316499 0.32412061 0.03820562
0.73026621 0.32467949 0.03871479
0.75623834 0.32526803 0.03932102
0.77895284 0.32543126 0.03975069
0.79907179 0.32522380 0.04008085
0.81857949 0.32538062 0.04054055
0.83780694 0.32595253 0.04114673
0.85680026 0.32667792 0.04185424
0.87558514 0.32756332 0.04266420
0.89411139 0.32834795 0.04343926
0.03589085 0.34067050 0.10185248
0.03589085 0.34067050 0.10185248
0.03658873 0.34134173 0.10155505
0.04180883 0.34620953 0.09928415
0.04774764 0.35101900 0.09695493
0.05452323 0.35533497 0.09484064
0.06363069 0.35846946 0.09334970
0.07726159 0.36030936 0.09287739
0.09709436 0.36073175 0.09292084
0.12688701 0.35931504 0.09342756
0.16703978 0.35555947 0.09281389
0.20489657 0.35198694 0.09152675
0.23793179 0.34839374 0.08914451
0.26515126 0.34430948 0.08508691
0.29202449 0.33973062 0.07960326
0.35305998 0.33341640 0.06873985
0.43415207 0.33831230 0.06240917
0.50057602 0.35237372 0.05718751
0.55324942 0.36142170 0.05058634
0.59852254 0.36407185 0.04448140
0.63549709 0.36346251 0.04076162
0.66190839 0.36225528 0.04094799
0.68795645 0.36128700 0.04069746
0.71452969 0.36063871 0.04055425
0.74106055 0.36040527 0.04051648
0.76710212 0.36050755 0.04072251
0.79020917 0.36053997 0.04098309
0.81064385 0.36047357 0.04129634
0.83019429 0.36065513 0.04173739
0.84934652 0.36127955 0.04225081
0.86840153 0.36214590 0.04288791
0.88726801 0.36312199 0.04359189
0.90579933 0.36410591 0.04430756
0.03712274 0.37931409 0.11685511
0.03712273 0.37931409 0.11685511
0.03834875 0.38051921 0.11634476
0.04359772 0.38551646 0.11404847
0.04964716 0.39046836 0.11157013
0.05690994 0.39480212 0.10916180
0.06656563 0.39796716 0.10692559
0.08120299 0.39964134 0.10543826
0.10252585 0.39961886 0.10408413
0.13187306 0.39781067 0.10282456
0.17443328 0.39306927 0.10129101
0.21375681 0.38891497 0.09968894
0.24830058 0.38528213 0.09765977
0.27682668 0.38174325 0.09474937
0.30153048 0.37770423 0.09023720
0.33438131 0.37265429 0.08283518
0.41085359 0.36677665 0.06990238
0.48624450 0.37390840 0.06474190
0.55111265 0.38837358 0.05991795
0.60467494 0.39855471 0.05360980
0.64777863 0.40117487 0.04691388
0.67703158 0.40036014 0.04432379
0.70182896 0.39972264 0.04409617
0.72715753 0.39902276 0.04355211
0.75264531 0.39862543 0.04309233
0.77839154 0.39847797 0.04290183
0.80182230 0.39833650 0.04278667
0.82236350 0.39782733 0.04280752
0.84155393 0.39745992 0.04299060
0.86038196 0.39769617 0.04325923
0.87908155 0.39822876 0.04364248
0.89769721 0.39887497 0.04415436
0.91626972 0.39967117 0.04484706
0.03848337 0.41789478 0.13466880
0.03848336 0.41789478 0.13466880
0.04038119 0.41972175 0.13400495
0.04583666 0.42476618 0.13194495
0.05211985 0.42968288 0.12943026
0.06011728 0.43385172 0.12682262
0.07044727 0.43708494 0.12417635
0.08694156 0.43861896 0.12175871
0.11050630 0.43817034 0.11918267
0.14121316 0.43588787 0.11653855
0.18335056 0.43064779 0.11339107
0.22337011 0.42625201 0.11141285
0.25905651 0.42248198 0.10973418
0.28881752 0.41923729 0.10750550
0.31424415 0.41570395 0.10355386
0.33882636 0.41142640 0.09795766
0.38353461 0.40499756 0.08676245
0.46777511 0.40070796 0.07153407
0.53756797 0.40993810 0.06752786
0.60101318 0.42416412 0.06308584
0.65497428 0.43541110 0.05672606
0.69282758 0.43802041 0.05071011
0.71703696 0.43740493 0.04784673
0.74101716 0.43736702 0.04711209
0.76559830 0.43732649 0.04657695
0.79032779 0.43744728 0.04586698
0.81372607 0.43759629 0.04530957
0.83460265 0.43754983 0.04495714
0.85353243 0.43721765 0.04482112
0.87207270 0.43734652 0.04489791
0.89049602 0.43787092 0.04512236
0.90890920 0.43854678 0.04545583
0.92728359 0.43921429 0.04589684
0.04033346 0.45607689 0.15284336
0.04033346 0.45607689 0.15284336
0.04297222 0.45867881 0.15207371
0.04850271 0.46398208 0.15034521
0.05494572 0.46882248 0.14752531
0.06392702 0.47279519 0.14467055
0.07579703 0.47569224 0.14170666
0.09399386 0.47673869 0.13831040
0.12047593 0.47562996 0.13454099
0.15343580 0.47271246 0.13052294
0.19487444 0.46745086 0.12623619
0.23447454 0.46286246 0.12364066
0.27017903 0.45905143 0.12182070
0.30070099 0.45600495 0.12020879
0.32698348 0.45311326 0.11746040
0.35171226 0.44946820 0.11315767
0.37691206 0.44513649 0.10720462
0.43616354 0.43757951 0.09224729
0.52183592 0.43632141 0.07597242
0.58790016 0.44580680 0.07097815
0.65016598 0.45997649 0.06654325
0.70292270 0.47161460 0.06066131
0.73390269 0.47453040 0.05554193
0.75704759 0.47472188 0.05161319
0.78006935 0.47512162 0.04983007
0.80333936 0.47563580 0.04870618
0.82619321 0.47618794 0.04783535
0.84733355 0.47665179 0.04718318
0.86596751 0.47650188 0.04680911
0.88387525 0.47671306 0.04660557
0.90194106 0.47751683 0.04661048
0.91995573 0.47820482 0.04669064
0.93798554 0.47895563 0.04683421
0.04235977 0.49392909 0.17121825
0.04235977 0.49392909 0.17121825
0.04581058 0.49726248 0.17007743
0.05143908 0.50235724 0.16803691
0.05818950 0.50719750 0.16535208
0.06819589 0.51071930 0.16207421
0.08170129 0.51311338 0.15838495
0.10136332 0.51390892 0.15427357
0.13128932 0.51173687 0.14913049
0.16655561 0.50795257 0.14376844
0.20699386 0.50278324 0.13853793
0.24540925 0.49819213 0.13531351
0.28071681 0.49452263 0.13333561
0.31199855 0.49179357 0.13223864
0.33938253 0.48940974 0.13077377
0.36453730 0.48657161 0.12748186
0.38923466 0.48303360 0.12278506
0.41619456 0.47890875 0.11646189
0.49802643 0.47043467 0.09666224
0.57299441 0.47293133 0.08339335
0.63677919 0.48180997 0.07531028
0.69834036 0.49569926 0.07102057
0.74558198 0.50725561 0.06550370
0.77266663 0.51067889 0.06111457
0.79521829 0.51185971 0.05699114
0.81762981 0.51299667 0.05362247
0.83987331 0.51378983 0.05081861
0.86098790 0.51446205 0.04885346
0.87926954 0.51481634 0.04804085
0.89640403 0.51530045 0.04734512
0.91389489 0.51612002 0.04718471
0.93141210 0.51709890 0.04707559
0.94893676 0.51800323 0.04698900
0.04394916 0.53094518 0.18865564
0.04394916 0.53094518 0.18865564
0.04820978 0.53495818 0.18713827
0.05394039 0.53976607 0.18484244
0.06079075 0.54435289 0.18179522
0.07190689 0.54743648 0.17791720
0.08735533 0.54930305 0.17356846
0.10828464 0.54974270 0.16876686
0.14209160 0.54659039 0.16248219
0.17934737 0.54239982 0.15631348
0.21911681 0.53745371 0.15051642
0.25641137 0.53309667 0.14683260
0.29094666 0.52977437 0.14475104
0.32244682 0.52730829 0.14376752
0.35102770 0.52526742 0.14312449
0.37688053 0.52309674 0.14111777
0.40221331 0.52022952 0.13764313
0.42731625 0.51668310 0.13274312
0.46057540 0.51201725 0.12467247
0.55163622 0.50539601 0.10341689
0.62295264 0.50962394 0.09094000
0.68528342 0.51785076 0.07990092
0.74272448 0.53173417 0.07560748
0.78342968 0.54270935 0.07099632
0.80880129 0.54732633 0.06666646
0.83078575 0.54908425 0.06238875
0.85237622 0.55075991 0.05856777
0.87337977 0.55221766 0.05549406
0.89154887 0.55285913 0.05318609
0.90821642 0.55357844 0.05137702
0.92496526 0.55449200 0.04995456
0.94195211 0.55544353 0.04885861
