luts/LUT. Feeling Disappointed.cube
TITLE "Generated by Resolve"
LUT_3D_SIZE 9
0 0 0
0.0879683 0.00999466 0.00999466
0.178027 0.0194247 0.0194247
0.266957 0.02916 0.02916
0.355718 0.0389258 0.0389258
0.444129 0.0488136 0.0488136
0.530785 0.0591592 0.0591592
0.445533 0.115923 0.115923
0.47361 0.142092 0.142092
0.0415351 0.108431 0.0415351
0.128389 0.118791 0.0510567
0.217731 0.128573 0.0591287
0.306706 0.138293 0.068864
0.395575 0.148043 0.0786603
0.484184 0.157855 0.0885634
0.572152 0.167834 0.0987259
0.591852 0.195132 0.138399
0.537026 0.241794 0.205509
0.079408 0.218326 0.079408
0.168414 0.228046 0.0891127
0.257435 0.237751 0.0988327
0.346426 0.247471 0.108583
0.43534 0.257191 0.118379
0.524086 0.266972 0.128313
0.612406 0.276844 0.138476
0.680537 0.291417 0.161532
0.600458 0.341527 0.26894
0.119158 0.327489 0.119158
0.208133 0.337209 0.128847
0.297139 0.346914 0.138567
0.386145 0.356634 0.148318
0.47509 0.366354 0.158145
0.563897 0.376104 0.168078
0.652399 0.385916 0.178271
0.735393 0.396872 0.193423
0.677394 0.438346 0.321416
0.158984 0.436606 0.158984
0.247898 0.446357 0.168643
0.336889 0.456077 0.178347
0.425864 0.465782 0.188113
0.514824 0.475502 0.197955
0.603677 0.485237 0.207935
0.692287 0.495018 0.218173
0.778363 0.505226 0.23154
0.757794 0.535332 0.361975
0.198993 0.545663 0.198993
0.287785 0.555444 0.208591
0.376684 0.565194 0.218265
0.465644 0.574914 0.228016
0.554589 0.584634 0.237873
0.643458 0.594369 0.247898
0.732097 0.60412 0.258228
0.817136 0.614282 0.275242
0.817258 0.636912 0.418753
0.239338 0.654582 0.239338
0.327871 0.664454 0.248783
0.416648 0.67425 0.258381
0.505516 0.684001 0.268116
0.594415 0.693736 0.277989
0.683268 0.703456 0.288075
0.771923 0.713191 0.298619
0.852216 0.722942 0.333532
0.864149 0.73962 0.501198
0.286549 0.760754 0.286549
0.368505 0.773236 0.289647
0.456916 0.783169 0.298985
0.545602 0.792981 0.308629
0.634409 0.802731 0.318517
0.723201 0.812451 0.328756
0.811612 0.821866 0.343191
0.884565 0.828382 0.431907
0.917601 0.840162 0.586069
0.480674 0.808438 0.480674
0.461265 0.860014 0.394903
0.509224 0.88658 0.358511
0.588571 0.900496 0.355062
0.676417 0.910536 0.365042
0.766918 0.918273 0.389944
0.855421 0.922393 0.456535
0.924559 0.92491 0.596048
0.981018 0.939879 0.6495
0.00509651 0.00509651 0.0594949
0.0919051 0.015198 0.0718242
0.182818 0.0242161 0.0827497
0.271778 0.0339513 0.0924544
0.360616 0.0437171 0.10219
0.449149 0.0535592 0.111955
0.536919 0.0636149 0.121843
0.536019 0.0987259 0.144823
0.48043 0.148898 0.179492
0.0471962 0.113176 0.1028
0.131197 0.12401 0.116045
0.222431 0.133394 0.122484
0.311528 0.143084 0.132158
0.400443 0.152834 0.141909
0.489158 0.162615 0.151705
0.577462 0.172519 0.161639
0.653696 0.185657 0.175128
0.543847 0.248615 0.242908
0.0841993 0.223133 0.142733
0.174456 0.232273 0.154314
0.262165 0.242542 0.162387
0.351247 0.252262 0.171878
0.440208 0.261982 0.181628
0.52903 0.271733 0.19144
0.617578 0.281559 0.201389
0.705226 0.291615 0.211734
0.678614 0.330404 0.273915
0.123934 0.332296 0.182452
0.212924 0.342016 0.192157
0.30193 0.35172 0.201862
0.390951 0.361425 0.211582
0.479942 0.371145 0.221347
0.568826 0.38088 0.231174
0.657511 0.390661 0.241154
0.745647 0.40058 0.251438
0.785824 0.421546 0.293431
0.163745 0.441428 0.222232
0.252659 0.451164 0.231907
0.34165 0.460883 0.241596
0.430671 0.470603 0.251331
0.519661 0.480308 0.261097
0.608576 0.490028 0.270939
0.697353 0.499794 0.280934
0.785718 0.509636 0.291264
0.852934 0.523766 0.321324
0.203677 0.550515 0.262135
0.292485 0.560281 0.271748
0.38143 0.570031 0.281407
0.470405 0.579751 0.291127
0.55938 0.589456 0.300908
0.648325 0.599176 0.31078
0.737133 0.608927 0.320806
0.825635 0.618723 0.331197
0.900786 0.630716 0.359091
0.2439 0.65948 0.302266
0.332494 0.669337 0.311757
0.421302 0.679118 0.32137
0.510216 0.688869 0.33106
0.599161 0.698589 0.340841
0.68809 0.708309 0.350729
0.776913 0.718044 0.360815
0.865476 0.72781 0.371344
0.939803 0.739086 0.408728
0.284886 0.76817 0.343053
0.372839 0.778256 0.352148
0.461387 0.788128 0.361593
0.550179 0.797925 0.371221
0.639048 0.80766 0.380987
0.727932 0.817395 0.390906
0.816739 0.827115 0.401099
0.905272 0.836851 0.412009
0.973098 0.846769 0.482155
0.409262 0.844862 0.455146
0.420478 0.884215 0.400275
0.502052 0.89688 0.402564
0.590463 0.906813 0.411902
0.679164 0.916625 0.421592
0.767941 0.926375 0.431556
0.856718 0.93608 0.442054
0.943679 0.944213 0.473457
1 0.950057 0.603052
0.00959792 0.00959792 0.126665
0.0986038 0.0193027 0.136385
0.187625 0.0290074 0.14609
0.2766 0.0387427 0.155779
0.365454 0.0484932 0.165469
0.454078 0.0583352 0.175174
0.542138 0.0683299 0.184894
0.593606 0.0890974 0.195499
0.487236 0.155718 0.216892
0.0492866 0.118746 0.166369
0.137713 0.129213 0.170336
0.225971 0.138628 0.185275
0.316335 0.14789 0.195499
0.40528 0.15761 0.205219
0.494072 0.167391 0.214954
0.582528 0.177264 0.22475
0.669963 0.187411 0.23473
0.621851 0.235508 0.26807
0.0890059 0.227924 0.206073
0.18233 0.236271 0.21651
0.264012 0.247807 0.229801
0.356054 0.257053 0.235203
0.445045 0.266773 0.244923
0.533928 0.276509 0.254688
0.622599 0.28632 0.264515
0.71075 0.296254 0.274495
0.765469 0.315053 0.295186
0.128725 0.337087 0.245777
0.217716 0.346807 0.255482
0.307286 0.356222 0.266453
0.395758 0.366232 0.274907
0.484764 0.375937 0.284627
0.573709 0.385672 0.294392
0.662501 0.395438 0.30425
0.750942 0.40528 0.31426
0.836896 0.415747 0.32549
0.168521 0.446235 0.285527
0.257435 0.45597 0.295216
0.346441 0.46569 0.304906
0.435462 0.475395 0.314626
0.524468 0.485115 0.324346
0.613443 0.494835 0.334127
0.702296 0.50457 0.343984
0.790906 0.514366 0.354025
0.878798 0.52433 0.364523
0.208423 0.555337 0.325353
0.297246 0.565103 0.334997
0.386191 0.574838 0.344656
0.475181 0.584558 0.35436
0.564187 0.594278 0.364096
0.653162 0.603983 0.373892
0.742061 0.613718 0.383764
0.830777 0.623484 0.393835
0.918975 0.633356 0.404334
0.248554 0.664347 0.365347
0.337179 0.674189 0.374899
0.426017 0.68397 0.384512
0.514946 0.693706 0.394186
0.603922 0.703426 0.403922
0.692897 0.713146 0.413718
0.781811 0.722866 0.423621
0.870573 0.732601 0.433738
0.958923 0.742428 0.444327
0.289219 0.773159 0.405737
0.377371 0.783169 0.415045
0.465995 0.793027 0.424552
0.554833 0.802792 0.434165
0.643748 0.812543 0.44387
0.732677 0.822263 0.453681
0.821591 0.831983 0.463615
0.910369 0.841718 0.473793
0.998764 0.851499 0.484627
0.36527 0.86891 0.471382
0.418311 0.891859 0.455863
0.50634 0.90193 0.464973
0.594919 0.911803 0.474434
0.683711 0.921584 0.484077
0.77258 0.931334 0.493874
0.861433 0.941054 0.503868
0.95021 0.950774 0.514183
1 0.960372 0.529778
0.0143893 0.0143893 0.18999
0.103395 0.024094 0.19971
0.192401 0.033814 0.209415
0.281376 0.043534 0.219104
0.37026 0.0532998 0.228763
0.45893 0.0631113 0.238407
0.547143 0.0730755 0.248035
0.621851 0.0871901 0.256321
0.494057 0.162524 0.254292
0.0540932 0.123552 0.229694
0.143099 0.133257 0.239414
0.232105 0.142977 0.249104
0.321141 0.152682 0.258839
0.410101 0.162417 0.268528
0.498924 0.172183 0.278233
0.587488 0.182025 0.287938
0.67538 0.192065 0.297704
0.696284 0.221683 0.310842
0.0937972 0.232715 0.269413
0.183291 0.242329 0.27866
0.269276 0.253498 0.282887
0.360296 0.262028 0.298451
0.449851 0.271565 0.308248
0.538781 0.2813 0.317968
0.627527 0.291081 0.327718
0.715892 0.300984 0.33756
0.80148 0.31165 0.347906
0.133532 0.341878 0.309117
0.222507 0.351598 0.318822
0.316503 0.359564 0.331212
0.398291 0.371374 0.341497
0.48957 0.380728 0.347951
0.578546 0.390448 0.357687
0.667414 0.400214 0.367453
0.756008 0.410025 0.377325
0.843961 0.42002 0.387396
0.173312 0.451026 0.348837
0.262226 0.460777 0.358541
0.351232 0.470481 0.368246
0.440375 0.480125 0.378378
0.529274 0.489906 0.387655
0.61828 0.499626 0.397391
0.707195 0.509346 0.407187
0.795941 0.519127 0.41706
0.88426 0.529 0.427146
0.213214 0.560143 0.388617
0.302007 0.569909 0.398291
0.390967 0.579644 0.407965
0.479957 0.589364 0.41767
0.568978 0.599084 0.427375
0.657984 0.608789 0.437125
0.746944 0.618509 0.446921
0.835767 0.62826 0.456809
0.924285 0.638071 0.466911
0.2533 0.669184 0.428534
0.341909 0.679026 0.438117
0.430747 0.688792 0.447745
0.519707 0.698528 0.45742
0.608698 0.708247 0.467124
0.697704 0.717952 0.476875
0.786664 0.727672 0.486686
0.875532 0.737408 0.49662
0.964172 0.747189 0.506752
0.293812 0.778058 0.468696
0.382025 0.788037 0.478111
0.47068 0.797879 0.487663
0.559533 0.807645 0.497292
0.648478 0.81738 0.506966
0.737453 0.8271 0.516716
0.826413 0.83682 0.526543
0.915297 0.84654 0.536492
1 0.856291 0.546685
0.347799 0.882155 0.51667
0.422629 0.89688 0.518502
0.510872 0.906859 0.527825
0.599527 0.916701 0.537346
0.68835 0.926467 0.546975
0.777264 0.936202 0.556695
0.866194 0.945937 0.566537
0.955077 0.955657 0.576532
1 0.965393 0.586831
0.0191958 0.0191958 0.253239
0.108186 0.0289006 0.263005
0.197192 0.0386206 0.272709
0.286152 0.0483558 0.282399
0.375036 0.0581064 0.292042
0.463737 0.0679179 0.301656
0.55201 0.0778668 0.311192
0.634684 0.0896162 0.319509
0.533425 0.159106 0.297246
0.0588998 0.128344 0.293004
0.14789 0.138064 0.302739
0.236912 0.147768 0.312459
0.325917 0.157488 0.322164
0.414893 0.167208 0.331853
0.503746 0.176974 0.341512
0.592371 0.186801 0.351171
0.680461 0.196796 0.3608
0.738018 0.216098 0.368231
0.0986191 0.237507 0.332723
0.18761 0.247227 0.342458
0.27657 0.257008 0.351598
0.365591 0.266667 0.361837
0.454658 0.276356 0.371588
0.543603 0.286091 0.381292
0.63241 0.295872 0.390997
0.720897 0.30573 0.400717
0.80853 0.315847 0.410529
0.138354 0.34667 0.372427
0.227314 0.356405 0.382162
0.318166 0.365728 0.390326
0.400641 0.377615 0.397696
0.494347 0.385534 0.411292
0.583368 0.395254 0.421012
0.672267 0.40499 0.430732
0.760983 0.414786 0.440513
0.849226 0.424704 0.450385
0.178149 0.455817 0.412146
0.267033 0.465568 0.421866
0.356023 0.475288 0.431586
0.449149 0.483314 0.44593
0.533013 0.494865 0.452506
0.623087 0.504417 0.460716
0.712047 0.514138 0.470451
0.80087 0.523903 0.480247
0.889403 0.53373 0.49015
0.218036 0.564935 0.451896
0.306813 0.574716 0.461601
0.395743 0.584451 0.47129
0.484749 0.594171 0.480995
0.57377 0.603876 0.4907
0.662791 0.613581 0.50042
0.751781 0.623301 0.51017
0.840681 0.633036 0.519966
0.929366 0.642832 0.5299
0.258106 0.673991 0.491753
0.346685 0.683833 0.501381
0.435523 0.693599 0.51104
0.524483 0.703334 0.520714
0.613489 0.713039 0.530419
0.702495 0.722759 0.540139
0.791501 0.732464 0.549889
0.88043 0.742199 0.559716
0.969207 0.751949 0.56965
0.298543 0.78291 0.531792
0.386755 0.792874 0.541283
0.47541 0.802701 0.550866
0.564263 0.812467 0.56051
0.653223 0.822202 0.570184
0.742229 0.831922 0.579904
0.83122 0.841627 0.58967
0.920165 0.851347 0.599496
1 0.861082 0.609476
0.344732 0.88986 0.574426
0.427207 0.901778 0.58146
0.515511 0.911727 0.590875
0.604196 0.921553 0.600427
0.693049 0.931319 0.610071
0.781994 0.941054 0.61976
0.87097 0.950774 0.629526
0.959915 0.960494 0.639384
1 0.970214 0.649393
0.0240024 0.0240024 0.316396
0.112963 0.0337224 0.326207
0.201953 0.0434424 0.335958
0.290898 0.0531777 0.345647
0.379782 0.0629282 0.355276
0.468467 0.072755 0.364843
0.556786 0.0827039 0.374304
0.640711 0.0941024 0.382284
0.559152 0.15938 0.343801
0.0637369 0.13315 0.356222
0.152697 0.142855 0.366018
0.241703 0.152575 0.375769
0.330709 0.16228 0.385473
0.419669 0.172015 0.395148
0.508537 0.181781 0.404791
0.597192 0.191608 0.414405
0.685374 0.201587 0.423941
0.758236 0.216419 0.430488
0.103471 0.242298 0.395987
0.192416 0.252018 0.405768
0.281422 0.261738 0.415503
0.370443 0.271443 0.425208
0.459449 0.281163 0.434913
0.548409 0.290898 0.444602
0.637232 0.300664 0.454276
0.725811 0.310506 0.463935
0.813733 0.320546 0.473594
0.143206 0.351461 0.435706
0.23212 0.361196 0.445487
0.321126 0.370901 0.455207
0.409689 0.380941 0.463035
0.499138 0.390341 0.474617
0.588174 0.400046 0.484337
0.677104 0.409781 0.494041
0.765866 0.419562 0.503761
0.854292 0.42945 0.513512
0.183017 0.460609 0.475425
0.271855 0.470359 0.485191
0.36083 0.480079 0.494911
0.453407 0.488975 0.50219
0.533349 0.501244 0.513344
0.627894 0.509209 0.524041
0.716884 0.518929 0.533761
0.805753 0.528679 0.543511
0.894408 0.538491 0.553292
0.222904 0.569726 0.515175
0.311635 0.579507 0.52491
0.400549 0.589242 0.53463
0.489677 0.598917 0.544366
0.580896 0.607462 0.559243
0.667414 0.618418 0.564019
0.756603 0.628092 0.573465
0.845548 0.637827 0.583215
0.93434 0.647593 0.593042
0.262974 0.678767 0.554971
0.351492 0.688624 0.56466
0.440314 0.698405 0.57435
0.529274 0.708125 0.584039
0.61828 0.717845 0.593744
0.707301 0.72755 0.603464
0.796307 0.73727 0.613184
0.885283 0.74699 0.622934
0.974151 0.756725 0.632776
0.30341 0.787701 0.594919
0.391531 0.797681 0.604501
0.480171 0.807523 0.61413
0.569039 0.817288 0.623789
0.658 0.827008 0.633478
0.747005 0.836728 0.643183
0.836027 0.846433 0.652903
0.925017 0.856153 0.662669
1 0.865873 0.672526
0.348379 0.89514 0.636347
0.431922 0.90663 0.644541
0.520211 0.916564 0.654047
0.608911 0.92639 0.66363
0.697795 0.936156 0.673274
0.786755 0.945876 0.682963
0.875746 0.955596 0.692683
0.964736 0.965301 0.702464
1 0.975036 0.712322
0.0288243 0.0288396 0.379385
0.117739 0.0385443 0.389303
0.206699 0.0482795 0.3991
0.295628 0.0580148 0.408804
0.384482 0.0677806 0.418433
0.473152 0.0776074 0.42797
0.561425 0.0875715 0.437339
0.641581 0.100343 0.442786
0.563775 0.166323 0.386358
0.0685893 0.137957 0.419318
0.157504 0.147677 0.429206
0.246479 0.157382 0.439002
0.33547 0.167102 0.448722
0.424414 0.176837 0.458412
0.513283 0.186603 0.46804
0.601938 0.196429 0.477607
0.690166 0.206409 0.487068
0.767239 0.22005 0.492943
0.108339 0.247089 0.459144
0.197238 0.256825 0.469017
0.286213 0.266545 0.478798
0.375219 0.276249 0.488533
0.464225 0.285969 0.498222
0.553185 0.295705 0.507912
0.642023 0.30547 0.517555
0.730648 0.315312 0.527169
0.818708 0.325322 0.536706
0.148104 0.356252 0.498924
0.236957 0.365988 0.508766
0.325933 0.375708 0.518532
0.414939 0.385412 0.528252
0.50396 0.395132 0.537972
0.592966 0.404837 0.547677
0.68191 0.414572 0.557351
0.770718 0.424353 0.567041
0.85922 0.434226 0.576699
0.187915 0.465385 0.538659
0.276692 0.475151 0.548486
0.365637 0.484871 0.558251
0.454658 0.494591 0.567956
0.54229 0.505028 0.574487
0.632685 0.514015 0.587381
0.721691 0.52372 0.597086
0.810605 0.533471 0.606806
0.899321 0.543267 0.616526
0.227832 0.574487 0.578393
0.316472 0.584298 0.588205
0.405356 0.594049 0.597955
0.494347 0.603754 0.607675
0.588083 0.612268 0.615412
0.667872 0.624445 0.627894
0.76141 0.632898 0.636805
0.850385 0.642618 0.646525
0.939239 0.652369 0.656275
0.267918 0.683543 0.618173
0.356344 0.693416 0.627939
0.445121 0.703197 0.637675
0.534066 0.712932 0.647379
0.623529 0.722484 0.657328
0.712902 0.731701 0.670878
0.801114 0.742061 0.676509
0.89012 0.751781 0.686229
0.979034 0.761517 0.695994
0.3084 0.792462 0.658045
0.396384 0.802487 0.667735
0.484977 0.812314 0.677424
0.573816 0.82208 0.687099
0.662791 0.831815 0.696803
0.751797 0.84152 0.706508
0.840818 0.85124 0.716213
0.929824 0.860945 0.725948
1 0.870665 0.735714
0.357412 0.898695 0.699519
0.436744 0.911437 0.707683
0.524987 0.921386 0.717266
0.613672 0.931212 0.726894
0.702556 0.940963 0.736553
0.791531 0.950683 0.746227
0.880537 0.960403 0.755947
0.969543 0.970108 0.765682
1 0.979828 0.775464
0.0336767 0.0336767 0.442023
0.122499 0.0434119 0.452155
0.211414 0.0531319 0.462058
0.300298 0.0628824 0.471809
0.38912 0.0726482 0.481437
0.477745 0.0825055 0.490944
0.565911 0.0925154 0.500175
0.6327 0.110246 0.495888
0.548302 0.180346 0.418006
0.0734875 0.142763 0.4822
0.16231 0.152499 0.492241
0.251255 0.162203 0.502113
0.340215 0.171939 0.511894
0.429145 0.181674 0.521584
0.517983 0.19144 0.531212
0.606638 0.201282 0.540734
0.694835 0.211276 0.550103
0.768383 0.226291 0.552804
0.113268 0.251896 0.522148
0.202075 0.261631 0.532158
0.29102 0.271351 0.542016
0.380011 0.281056 0.551781
0.468986 0.290776 0.561502
0.557946 0.300511 0.571176
0.646784 0.310292 0.580804
0.735409 0.320134 0.590372
0.823545 0.330129 0.599817
0.153048 0.361028 0.562005
0.24181 0.370779 0.571969
0.330739 0.380499 0.581796
0.41973 0.390219 0.591562
0.508751 0.399924 0.601282
0.597742 0.409644 0.610986
0.686702 0.419379 0.620661
0.775525 0.42916 0.630304
0.864088 0.439017 0.639918
0.192889 0.470146 0.60177
0.281559 0.479927 0.611719
0.370459 0.489662 0.621546
0.459449 0.499382 0.631296
0.54847 0.509102 0.641016
0.637476 0.518807 0.650721
0.726482 0.528527 0.660426
0.815412 0.538262 0.670115
0.904189 0.548043 0.679789
0.232837 0.579248 0.64152
0.32137 0.589075 0.651453
0.410193 0.59884 0.661265
0.499153 0.60856 0.671
0.58854 0.61825 0.679881
0.674571 0.629129 0.686793
0.766201 0.63769 0.700145
0.855207 0.64741 0.70985
0.944091 0.65716 0.71957
0.272999 0.688273 0.681285
0.361242 0.698192 0.691188
0.449958 0.707988 0.700969
0.538872 0.717723 0.710704
0.627939 0.727428 0.720409
0.72108 0.735836 0.730739
0.803296 0.747539 0.740902
0.894926 0.756573 0.749554
0.983886 0.766293 0.759289
0.313619 0.797162 0.721111
0.401297 0.807248 0.730953
0.489815 0.817105 0.740703
0.578622 0.826886 0.750423
0.667582 0.836606 0.760128
0.757259 0.846067 0.770367
0.845701 0.855787 0.781689
0.93463 0.865736 0.789258
1 0.875456 0.798993
0.376974 0.899184 0.762036
0.441672 0.916213 0.77084
0.529824 0.926177 0.780514
0.618463 0.936004 0.790173
0.707332 0.945769 0.799863
0.796307 0.955489 0.809552
0.885328 0.965209 0.819257
0.974334 0.974914 0.828977
1 0.984634 0.838712
0.0386206 0.0386206 0.503639
0.12726 0.0483101 0.514534
0.216083 0.0580453 0.524681
0.304906 0.0677958 0.534539
0.393652 0.0775921 0.544198
0.48217 0.08748 0.553628
0.569879 0.097673 0.562402
0.603708 0.128099 0.52932
0.52813 0.196612 0.441321
0.0784619 0.147601 0.544594
0.167147 0.157336 0.555001
0.256016 0.167056 0.565042
0.34493 0.176791 0.574899
0.433829 0.186526 0.584634
0.522637 0.196307 0.594247
0.611231 0.206165 0.603738
0.699336 0.216205 0.612955
0.75906 0.236378 0.605356
0.118288 0.256687 0.584848
0.206943 0.266438 0.595102
0.295827 0.276173 0.605097
0.384771 0.285878 0.614939
0.473732 0.295613 0.624689
0.562661 0.305348 0.634363
0.651499 0.315129 0.643977
0.740108 0.324971 0.653498
0.828229 0.334981 0.662852
0.158099 0.365789 0.624842
0.246708 0.37557 0.635035
0.335576 0.385306 0.644984
0.424536 0.395026 0.65481
0.513527 0.40473 0.664561
0.602518 0.41445 0.674266
0.691463 0.424201 0.68394
0.780285 0.433967 0.693553
0.868864 0.443824 0.70312
0.197986 0.474891 0.664698
0.286488 0.484718 0.674846
0.375311 0.494469 0.684779
0.464256 0.504189 0.694591
0.553262 0.513893 0.704326
0.642267 0.523613 0.714046
0.731273 0.533318 0.723751
0.820203 0.543069 0.733425
0.90901 0.55285 0.743069
0.23801 0.583963 0.704494
0.326314 0.593851 0.714611
0.415045 0.603616 0.724514
0.503975 0.613352 0.73431
0.592966 0.623072 0.74406
0.681987 0.632776 0.753765
0.771008 0.642481 0.76347
0.859998 0.652201 0.773175
0.948913 0.661952 0.782864
0.278279 0.692973 0.744228
0.366217 0.702953 0.75436
0.454826 0.712764 0.764248
0.543694 0.722515 0.774029
0.63267 0.732235 0.783764
0.722713 0.741924 0.790768
0.807218 0.752987 0.800305
0.899733 0.761364 0.812894
0.988708 0.771084 0.822599
0.320363 0.801465 0.783703
0.406317 0.812009 0.794125
0.494697 0.821897 0.803967
0.583459 0.831678 0.813733
0.672389 0.841413 0.823468
0.762249 0.850874 0.833143
0.852354 0.859846 0.846952
0.938521 0.870756 0.853117
1 0.880247 0.862318
0.418692 0.89366 0.818952
0.446769 0.920943 0.833951
0.534707 0.930968 0.843748
0.623285 0.94081 0.853468
0.712139 0.950561 0.863188
0.801099 0.960296 0.872877
0.8907 0.969757 0.883253
0.979095 0.979675 0.892851
1 0.989425 0.902022
