luts/LUT. Feeling Disappointed.cube
TITLE "Generated by Resolve"
LUT_3D_SIZE 5
0 0 0
0.178027 0.0194247 0.0194247
0.355718 0.0389258 0.0389258
0.530785 0.0591592 0.0591592
0.47361 0.142092 0.142092
0.079408 0.218326 0.079408
0.257435 0.237751 0.0988327
0.43534 0.257191 0.118379
0.612406 0.276844 0.138476
0.600458 0.341527 0.26894
0.158984 0.436606 0.158984
0.336889 0.456077 0.178347
0.514824 0.475502 0.197955
0.692287 0.495018 0.218173
0.757794 0.535332 0.361975
0.239338 0.654582 0.239338
0.416648 0.67425 0.258381
0.594415 0.693736 0.277989
0.771923 0.713191 0.298619
0.864149 0.73962 0.501198
0.480674 0.808438 0.480674
0.509224 0.88658 0.358511
0.676417 0.910536 0.365042
0.855421 0.922393 0.456535
0.981018 0.939879 0.6495
0.00959792 0.00959792 0.126665
0.187625 0.0290074 0.14609
0.365454 0.0484932 0.165469
0.542138 0.0683299 0.184894
0.487236 0.155718 0.216892
0.0890059 0.227924 0.206073
0.264012 0.247807 0.229801
0.445045 0.266773 0.244923
0.622599 0.28632 0.264515
0.765469 0.315053 0.295186
0.168521 0.446235 0.285527
0.346441 0.46569 0.304906
0.524468 0.485115 0.324346
0.702296 0.50457 0.343984
0.878798 0.52433 0.364523
0.248554 0.664347 0.365347
0.426017 0.68397 0.384512
0.603922 0.703426 0.403922
0.781811 0.722866 0.423621
0.958923 0.742428 0.444327
0.36527 0.86891 0.471382
0.50634 0.90193 0.464973
0.683711 0.921584 0.484077
0.861433 0.941054 0.503868
1 0.960372 0.529778
0.0191958 0.0191958 0.253239
0.197192 0.0386206 0.272709
0.375036 0.0581064 0.292042
0.55201 0.0778668 0.311192
0.533425 0.159106 0.297246
0.0986191 0.237507 0.332723
0.27657 0.257008 0.351598
0.454658 0.276356 0.371588
0.63241 0.295872 0.390997
0.80853 0.315847 0.410529
0.178149 0.455817 0.412146
0.356023 0.475288 0.431586
0.533013 0.494865 0.452506
0.712047 0.514138 0.470451
0.889403 0.53373 0.49015
0.258106 0.673991 0.491753
0.435523 0.693599 0.51104
0.613489 0.713039 0.530419
0.791501 0.732464 0.549889
0.969207 0.751949 0.56965
0.344732 0.88986 0.574426
0.515511 0.911727 0.590875
0.693049 0.931319 0.610071
0.87097 0.950774 0.629526
1 0.970214 0.649393
0.0288243 0.0288396 0.379385
0.206699 0.0482795 0.3991
0.384482 0.0677806 0.418433
0.561425 0.0875715 0.437339
0.563775 0.166323 0.386358
0.108339 0.247089 0.459144
0.286213 0.266545 0.478798
0.464225 0.285969 0.498222
0.642023 0.30547 0.517555
0.818708 0.325322 0.536706
0.187915 0.465385 0.538659
0.365637 0.484871 0.558251
0.54229 0.505028 0.574487
0.721691 0.52372 0.597086
0.899321 0.543267 0.616526
0.267918 0.683543 0.618173
0.445121 0.703197 0.637675
0.623529 0.722484 0.657328
0.801114 0.742061 0.676509
0.979034 0.761517 0.695994
0.357412 0.898695 0.699519
0.524987 0.921386 0.717266
0.702556 0.940963 0.736553
0.880537 0.960403 0.755947
1 0.979828 0.775464
0.0386206 0.0386206 0.503639
0.216083 0.0580453 0.524681
0.393652 0.0775921 0.544198
0.569879 0.097673 0.562402
0.52813 0.196612 0.441321
0.118288 0.256687 0.584848
0.295827 0.276173 0.605097
0.473732 0.295613 0.624689
0.651499 0.315129 0.643977
0.828229 0.334981 0.662852
0.197986 0.474891 0.664698
0.375311 0.494469 0.684779
0.553262 0.513893 0.704326
0.731273 0.533318 0.723751
0.90901 0.55285 0.743069
0.278279 0.692973 0.744228
0.454826 0.712764 0.764248
0.63267 0.732235 0.783764
0.807218 0.752987 0.800305
0.988708 0.771084 0.822599
0.418692 0.89366 0.818952
0.534707 0.930968 0.843748
0.712139 0.950561 0.863188
0.8907 0.969757 0.883253
1 0.989425 0.902022
