luts/LUT. Feeling Disappointed.cube
TITLE "Generated by Resolve"
LUT_3D_SIZE 33
0 0 0
0.0181582 0.00352483 0.00352483
0.0396124 0.0061799 0.0061799
0.0635996 0.00813306 0.00813306
0.0879683 0.00999466 0.00999466
0.111254 0.0121462 0.0121462
0.133516 0.0145571 0.0145571
0.155764 0.0169985 0.0169985
0.178027 0.0194247 0.0194247
0.200259 0.0218509 0.0218509
0.222507 0.0242771 0.0242771
0.244739 0.0267185 0.0267185
0.266957 0.02916 0.02916
0.289174 0.0315862 0.0315862
0.311376 0.0340429 0.0340429
0.333562 0.0364843 0.0364843
0.355718 0.0389258 0.0389258
0.377874 0.0413825 0.0413825
0.4 0.0438544 0.0438544
0.42208 0.0463264 0.0463264
0.444129 0.0488136 0.0488136
0.466117 0.0513161 0.0513161
0.488014 0.0538338 0.0538338
0.509758 0.0563973 0.0563973
0.530785 0.0591592 0.0591592
0.537133 0.0658732 0.0658732
0.52433 0.0777752 0.0777752
0.490867 0.0952468 0.0952468
0.445533 0.115923 0.115923
0.429206 0.128771 0.128771
0.444007 0.133211 0.133211
0.458808 0.137652 0.137652
0.47361 0.142092 0.142092
0.0133211 0.0259251 0.0133211
0.0313115 0.0295109 0.0167849
0.0509499 0.0327764 0.0186313
0.0735027 0.0352789 0.0195163
0.0974136 0.0373541 0.0205234
0.120989 0.0394598 0.0221561
0.143435 0.0418402 0.0244907
0.165698 0.0442664 0.0269169
0.187945 0.0467079 0.0293431
0.210193 0.049134 0.0317693
0.232425 0.0515602 0.0342107
0.254673 0.0540017 0.0366369
0.27689 0.0564279 0.0390784
0.299107 0.0588693 0.0415198
0.321324 0.0613107 0.0439612
0.343511 0.0637522 0.0464027
0.365698 0.0661936 0.0488594
0.387854 0.0686503 0.0513161
0.409979 0.071107 0.0537881
0.43209 0.073579 0.05626
0.454154 0.076051 0.0587472
0.476173 0.0785382 0.0612497
0.498131 0.0810559 0.0637675
0.519966 0.0835889 0.066331
0.541527 0.0861982 0.0689708
0.556146 0.0906691 0.0737621
0.552331 0.100023 0.0842603
0.527947 0.11487 0.10103
0.486336 0.13431 0.122957
0.445914 0.15346 0.14435
0.459861 0.158129 0.14905
0.474662 0.16257 0.15349
0.489464 0.16701 0.157931
0.0243992 0.0527657 0.0243992
0.044007 0.0558175 0.0283055
0.0632639 0.0591745 0.0303044
0.0844587 0.0621195 0.0307774
0.107408 0.0645457 0.0311589
0.130755 0.0667887 0.0322881
0.153368 0.0691386 0.0344091
0.175616 0.0715648 0.0368353
0.197879 0.073991 0.0392615
0.220127 0.0764172 0.0417029
0.242359 0.0788586 0.0441291
0.264607 0.0812848 0.0465705
0.286839 0.083711 0.049012
0.309056 0.0861524 0.0514534
0.331273 0.0885939 0.0538949
0.353475 0.0910353 0.0563363
0.375662 0.0934768 0.058793
0.397833 0.0959335 0.0612497
0.419974 0.0983902 0.0637217
0.4421 0.100847 0.0661936
0.464179 0.103319 0.0686809
0.486229 0.105806 0.0711833
0.508217 0.108293 0.0737011
0.530098 0.110826 0.0762646
0.551827 0.11339 0.0788739
0.571527 0.116487 0.0822003
0.575448 0.123705 0.0910811
0.56022 0.135958 0.106538
0.525338 0.153399 0.128588
0.482048 0.173068 0.153201
0.475715 0.183062 0.164904
0.490517 0.187503 0.169345
0.505318 0.191943 0.173785
0.0333562 0.0804456 0.0333562
0.0547646 0.082948 0.0374456
0.0749981 0.0859541 0.0400549
0.0957656 0.0889754 0.0410315
0.117876 0.0916457 0.0414282
0.140703 0.0940566 0.0423743
0.163287 0.096437 0.0443427
0.18555 0.0988632 0.0467689
0.207797 0.101289 0.0491951
0.230045 0.103716 0.0516213
0.252293 0.106142 0.0540627
0.27454 0.108568 0.0564889
0.296773 0.111009 0.0589303
0.319005 0.113436 0.0613718
0.341222 0.115877 0.0638132
0.363424 0.118318 0.0662699
0.385611 0.12076 0.0687266
0.407797 0.123201 0.0711833
0.429953 0.125658 0.0736553
0.452079 0.128115 0.0761273
0.474189 0.130587 0.0786145
0.496254 0.133059 0.081117
0.518273 0.135546 0.08365
0.540215 0.138064 0.0861982
0.56202 0.140597 0.0887922
0.583459 0.143236 0.0915389
0.59472 0.148501 0.0983291
0.587655 0.15848 0.112215
0.560876 0.173587 0.133486
0.519127 0.192599 0.160067
0.491569 0.20798 0.180774
0.506371 0.212421 0.185214
0.521172 0.216861 0.189654
0.0415351 0.108431 0.0415351
0.0639506 0.110674 0.0452888
0.0853895 0.113283 0.0482795
0.1066 0.116091 0.0500343
0.128389 0.118791 0.0510567
0.150805 0.121309 0.0522469
0.17322 0.12372 0.0542611
0.195468 0.126146 0.0566873
0.217731 0.128573 0.0591287
0.239979 0.131014 0.0615549
0.262226 0.13344 0.0639811
0.284474 0.135866 0.0664225
0.306706 0.138293 0.068864
0.328939 0.140734 0.0713054
0.351156 0.14316 0.0737469
0.373373 0.145602 0.0762036
0.395575 0.148043 0.0786603
0.417762 0.150484 0.081117
0.439918 0.152941 0.0835889
0.462074 0.155398 0.0860609
0.484184 0.157855 0.0885634
0.506264 0.160327 0.0910658
0.528313 0.162814 0.0935836
0.550286 0.165316 0.0961318
0.572152 0.167834 0.0987259
0.593805 0.170413 0.101411
0.610697 0.174197 0.106218
0.610849 0.182223 0.118303
0.591852 0.195132 0.138399
0.555138 0.212589 0.16553
0.515602 0.230838 0.193179
0.522225 0.237354 0.201068
0.537026 0.241794 0.205509
0.0500649 0.136278 0.0500649
0.0726787 0.138521 0.0532082
0.0948653 0.140917 0.0561685
0.116701 0.143481 0.0584573
0.138628 0.146075 0.0601968
0.160861 0.148577 0.0619364
0.183139 0.151019 0.0641947
0.205402 0.153445 0.0666209
0.227649 0.155871 0.0690471
0.249912 0.158297 0.0714733
0.27216 0.160723 0.0739147
0.294392 0.163165 0.0763561
0.31664 0.165591 0.0787823
0.338872 0.168017 0.0812238
0.361105 0.170459 0.0836805
0.383322 0.1729 0.0861372
0.405524 0.175326 0.0885939
0.42771 0.177768 0.0910506
0.449882 0.180224 0.0935225
0.472038 0.182666 0.0960098
0.494179 0.185138 0.098497
0.516274 0.187594 0.100999
0.538338 0.190066 0.103517
0.560342 0.192569 0.106065
0.582254 0.195071 0.108659
0.604013 0.19762 0.111315
0.624384 0.200519 0.114672
0.630533 0.206943 0.124941
0.618997 0.217792 0.14342
0.588663 0.233402 0.170199
0.548516 0.25153 0.200778
0.538094 0.262287 0.216922
0.552895 0.266728 0.221363
0.059556 0.163745 0.059556
0.0818647 0.16614 0.0620584
0.104204 0.168521 0.0646983
0.126406 0.170962 0.0671702
0.148577 0.173434 0.0694133
0.170809 0.175875 0.0716869
0.193072 0.178317 0.0741131
0.21532 0.180743 0.0765393
0.237583 0.183169 0.0789807
0.259831 0.185595 0.0814069
0.282078 0.188022 0.0838331
0.304326 0.190448 0.0862745
0.326574 0.192874 0.088716
0.348806 0.195315 0.0911574
0.371038 0.197742 0.0936141
0.393256 0.200183 0.0960555
0.415473 0.202625 0.0985122
0.437659 0.205066 0.100984
0.459846 0.207507 0.103456
0.482002 0.209949 0.105943
0.504143 0.212406 0.108431
0.526268 0.214862 0.110933
0.548333 0.217334 0.113466
0.570367 0.219821 0.116014
0.592325 0.222324 0.118593
0.61416 0.224857 0.121248
0.635645 0.227466 0.124071
0.647517 0.232425 0.132097
0.642451 0.24152 0.148882
0.618997 0.255177 0.174655
0.581064 0.27248 0.206943
0.553948 0.287221 0.232776
0.56875 0.291661 0.237217
0.0694743 0.191043 0.0694743
0.091722 0.193469 0.0719005
0.113985 0.195895 0.0743267
0.136233 0.198322 0.0767529
0.15848 0.200748 0.0791943
0.180743 0.203174 0.0816205
0.202991 0.2056 0.0840467
0.225254 0.208026 0.0864729
0.247501 0.210452 0.0888991
0.269764 0.212879 0.0913405
0.292012 0.21532 0.0937667
0.31426 0.217746 0.0962081
0.336507 0.220172 0.0986496
0.35874 0.222599 0.101091
0.380972 0.22504 0.103532
0.403189 0.227466 0.105989
0.425406 0.229908 0.108446
0.447608 0.232349 0.110918
0.469795 0.234791 0.11339
0.491966 0.237232 0.115877
0.514122 0.239689 0.118364
0.536248 0.242145 0.120882
0.558343 0.244617 0.1234
0.580392 0.247089 0.125948
0.602365 0.249577 0.128527
0.624262 0.252094 0.131167
0.645914 0.254673 0.133944
0.662181 0.258518 0.139925
0.662776 0.266117 0.15491
0.645563 0.278035 0.179507
0.6121 0.293965 0.212253
0.576486 0.310536 0.244968
0.584604 0.316594 0.253071
0.079408 0.218326 0.079408
0.101656 0.220752 0.0818341
0.123903 0.223178 0.0842603
0.146166 0.22562 0.0866865
0.168414 0.228046 0.0891127
0.190661 0.230472 0.0915389
0.212924 0.232898 0.0939651
0.235172 0.235325 0.0964065
0.257435 0.237751 0.0988327
0.279683 0.240177 0.101259
0.30193 0.242603 0.1037
0.324178 0.245029 0.106142
0.346426 0.247471 0.108583
0.368673 0.249897 0.111025
0.390906 0.252323 0.113466
0.413123 0.254765 0.115923
0.43534 0.257191 0.118379
0.457557 0.259632 0.120851
0.479744 0.262074 0.123323
0.50193 0.264515 0.125811
0.524086 0.266972 0.128313
0.546227 0.269429 0.130816
0.568322 0.271885 0.133349
0.590387 0.274357 0.135897
0.612406 0.276844 0.138476
0.634333 0.279347 0.1411
0.656077 0.281895 0.143847
0.675258 0.285039 0.148272
0.680537 0.291417 0.161532
0.669245 0.301717 0.184634
0.640894 0.316152 0.217197
0.605005 0.332509 0.252918
0.600458 0.341527 0.26894
0.0893416 0.245624 0.0893416
0.111574 0.248051 0.0917678
0.133837 0.250477 0.0941939
0.156085 0.252903 0.0966201
0.178347 0.255329 0.0990463
0.200595 0.257755 0.101472
0.222858 0.260182 0.103899
0.245106 0.262623 0.106325
0.267353 0.265049 0.108766
0.289616 0.267475 0.111192
0.311864 0.269902 0.113634
0.334112 0.272328 0.11606
0.356359 0.274754 0.118502
0.378592 0.27718 0.120958
0.400839 0.279622 0.1234
0.423072 0.282048 0.125856
0.445289 0.284489 0.128313
0.467491 0.286915 0.130785
0.489693 0.289357 0.133257
0.511879 0.291798 0.135744
0.534051 0.294255 0.138247
0.556191 0.296696 0.140764
0.578302 0.299153 0.143282
0.600381 0.301625 0.14583
0.622415 0.304112 0.148425
0.644373 0.3066 0.151049
0.666194 0.309133 0.153765
0.687175 0.311849 0.157076
0.696254 0.31725 0.16875
0.69015 0.326177 0.190326
0.667094 0.339101 0.222202
0.632792 0.354772 0.259968
0.616312 0.366461 0.284794
0.0992752 0.272908 0.0992752
0.121508 0.275334 0.101701
0.143771 0.277775 0.104128
0.166018 0.280201 0.106554
0.188266 0.282628 0.10898
0.210529 0.285054 0.111406
0.232776 0.28748 0.113832
0.255039 0.289906 0.116258
0.277287 0.292332 0.118685
0.299535 0.294759 0.121126
0.321798 0.297185 0.123568
0.344045 0.299626 0.125994
0.366293 0.302052 0.128435
0.388525 0.304479 0.130892
0.410773 0.306905 0.133333
0.43299 0.309346 0.13579
0.455222 0.311772 0.138262
0.47744 0.314214 0.140719
0.499641 0.31664 0.143206
0.521828 0.319081 0.145693
0.543999 0.321538 0.148196
0.566155 0.32398 0.150698
0.588281 0.326436 0.153231
0.610376 0.328893 0.155779
0.632425 0.33138 0.158373
0.654398 0.333867 0.160998
0.67628 0.33637 0.163699
0.697795 0.338964 0.166659
0.710475 0.343496 0.176455
0.708675 0.351278 0.196643
0.690547 0.362829 0.22768
0.659205 0.377508 0.266575
0.632166 0.391394 0.300649
0.109209 0.300206 0.109209
0.131441 0.302632 0.111635
0.153689 0.305058 0.114061
0.175952 0.307485 0.116487
0.198199 0.309911 0.118914
0.220447 0.312337 0.12134
0.24271 0.314778 0.123766
0.264958 0.317205 0.126192
0.287221 0.319631 0.128634
0.309468 0.322057 0.13106
0.331716 0.324483 0.133501
0.353964 0.326909 0.135943
0.376211 0.329335 0.138384
0.398459 0.331762 0.140826
0.420691 0.334203 0.143282
0.442924 0.336629 0.145739
0.465156 0.339055 0.148196
0.487373 0.341497 0.150668
0.509575 0.343938 0.15314
0.531777 0.34638 0.155642
0.553948 0.348821 0.158129
0.57612 0.351263 0.160647
0.598245 0.353719 0.16318
0.620356 0.356176 0.165728
0.64242 0.358648 0.168322
0.664424 0.36112 0.170947
0.68632 0.363622 0.173648
0.707988 0.366186 0.176547
0.723384 0.370077 0.18471
0.725246 0.376898 0.203601
0.711559 0.387213 0.233768
0.683833 0.400763 0.273121
0.654154 0.414969 0.311925
0.119158 0.327489 0.119158
0.14139 0.329915 0.121569
0.163638 0.332341 0.123995
0.185885 0.334783 0.126421
0.208133 0.337209 0.128847
0.230381 0.339635 0.131273
0.252644 0.342061 0.1337
0.274891 0.344488 0.136126
0.297139 0.346914 0.138567
0.319402 0.34934 0.140993
0.34165 0.351781 0.143435
0.363897 0.354208 0.145876
0.386145 0.356634 0.148318
0.408392 0.35906 0.150759
0.430625 0.361486 0.153216
0.452857 0.363912 0.155673
0.47509 0.366354 0.158145
0.497307 0.36878 0.160616
0.519524 0.371221 0.163088
0.541711 0.373663 0.165576
0.563897 0.376104 0.168078
0.586069 0.378546 0.170596
0.608209 0.380987 0.173129
0.63032 0.383444 0.175692
0.652399 0.385916 0.178271
0.674418 0.388388 0.180911
0.696361 0.39089 0.183612
0.718105 0.393423 0.186465
0.735393 0.396872 0.193423
0.74023 0.40293 0.211185
0.730526 0.412146 0.240436
0.706508 0.424582 0.279973
0.677394 0.438346 0.321416
0.129107 0.354772 0.129107
0.151324 0.357198 0.131518
0.173571 0.35964 0.133944
0.195819 0.362066 0.136355
0.218067 0.364492 0.138781
0.240314 0.366918 0.141207
0.262577 0.36936 0.143648
0.284825 0.371786 0.146075
0.307073 0.374212 0.148501
0.32932 0.376638 0.150942
0.351583 0.379065 0.153368
0.373831 0.381491 0.15581
0.396078 0.383917 0.158267
0.418311 0.386343 0.160708
0.440558 0.388785 0.163165
0.462791 0.391211 0.165621
0.485023 0.393637 0.168093
0.50724 0.396078 0.170565
0.529458 0.398505 0.173037
0.551659 0.400946 0.17554
0.573846 0.403388 0.178042
0.596017 0.405829 0.18056
0.618173 0.40827 0.183093
0.640299 0.410727 0.185657
0.662379 0.413184 0.188235
0.684413 0.415656 0.190875
0.706371 0.418143 0.193576
0.728176 0.420676 0.196414
0.746761 0.423819 0.202487
0.753948 0.429267 0.219379
0.747631 0.437552 0.247868
0.727214 0.44892 0.287358
0.69955 0.462043 0.330861
0.139055 0.382055 0.139055
0.161273 0.384482 0.141466
0.18352 0.386923 0.143893
0.205768 0.389349 0.146304
0.228 0.391775 0.14873
0.250263 0.394217 0.151156
0.272511 0.396643 0.153582
0.294759 0.399069 0.156024
0.317006 0.401495 0.15845
0.339254 0.403922 0.160876
0.361501 0.406348 0.163317
0.383764 0.408789 0.165759
0.405997 0.411215 0.1682
0.428244 0.413642 0.170657
0.450492 0.416068 0.173114
0.472724 0.418494 0.17557
0.494957 0.420935 0.178042
0.517174 0.423362 0.180514
0.539391 0.425788 0.183001
0.561593 0.428229 0.185489
0.583795 0.430671 0.187991
0.605966 0.433112 0.190509
0.628122 0.435554 0.193057
0.650248 0.43801 0.195621
0.672358 0.440467 0.198215
0.694408 0.442939 0.200839
0.716381 0.445411 0.20354
0.738216 0.447929 0.206394
0.757626 0.450889 0.211887
0.766644 0.455848 0.228168
0.763165 0.463355 0.256092
0.746075 0.473747 0.295521
0.720394 0.486122 0.340566
0.14902 0.409339 0.14902
0.171237 0.411765 0.151431
0.193469 0.414206 0.153841
0.215717 0.416632 0.156268
0.237949 0.419074 0.158694
0.260197 0.4215 0.161105
0.282445 0.423926 0.163531
0.304692 0.426352 0.165972
0.32694 0.428779 0.168399
0.349187 0.43122 0.17084
0.371435 0.433646 0.173266
0.393683 0.436072 0.175708
0.41593 0.438499 0.178164
0.438178 0.440925 0.180606
0.460426 0.443351 0.183062
0.482658 0.445792 0.185519
0.504891 0.448218 0.187991
0.527123 0.450645 0.190463
0.54934 0.453086 0.19295
0.571542 0.455512 0.195453
0.593729 0.457954 0.197955
0.615915 0.460395 0.200488
0.638071 0.462837 0.203021
0.660212 0.465278 0.205585
0.682322 0.467735 0.208179
0.704372 0.470207 0.210819
0.726375 0.472679 0.213535
0.748241 0.475181 0.216373
0.768124 0.478035 0.221576
0.778515 0.482628 0.237522
0.777356 0.489464 0.265156
0.763226 0.49897 0.304601
0.739803 0.510552 0.350866
0.158984 0.436606 0.158984
0.181201 0.439048 0.161395
0.203433 0.441489 0.163806
0.225666 0.443915 0.166232
0.247898 0.446357 0.168643
0.270146 0.448783 0.171069
0.292393 0.451209 0.173495
0.314641 0.453635 0.175921
0.336889 0.456077 0.178347
0.359136 0.458503 0.180789
0.381384 0.460929 0.18323
0.403632 0.463355 0.185672
0.425864 0.465782 0.188113
0.448112 0.468208 0.19057
0.470359 0.470649 0.193027
0.492592 0.473075 0.195483
0.514824 0.475502 0.197955
0.537057 0.477928 0.200427
0.559274 0.480369 0.202914
0.581476 0.482795 0.205417
0.603677 0.485237 0.207935
0.625864 0.487678 0.210452
0.64802 0.49012 0.213001
0.670161 0.492561 0.215564
0.692287 0.495018 0.218173
0.714351 0.497475 0.220813
0.736355 0.499947 0.223529
0.758236 0.502449 0.226383
0.778363 0.505226 0.23154
0.789731 0.509529 0.247486
0.790402 0.515831 0.27512
0.778851 0.524544 0.314733
0.757794 0.535332 0.361975
0.168963 0.463874 0.168963
0.191165 0.466316 0.171374
0.213397 0.468757 0.173785
0.23563 0.471199 0.176196
0.257862 0.473625 0.178622
0.280095 0.476066 0.181033
0.302342 0.478492 0.183459
0.324575 0.480919 0.185885
0.346822 0.48336 0.188312
0.36907 0.485786 0.190753
0.391318 0.488212 0.193194
0.413565 0.490639 0.195636
0.435813 0.49308 0.198077
0.458045 0.495506 0.200534
0.480293 0.497932 0.202991
0.502525 0.500359 0.205447
0.524758 0.502785 0.207919
0.54699 0.505226 0.210407
0.569207 0.507652 0.212894
0.591424 0.510079 0.215396
0.613626 0.51252 0.217899
0.635798 0.514961 0.220432
0.657969 0.517403 0.22298
0.680125 0.519844 0.225559
0.702235 0.522286 0.228168
0.724315 0.524758 0.230823
0.746334 0.527214 0.233539
0.768231 0.529702 0.236423
0.788357 0.532464 0.241825
0.800397 0.536538 0.258091
0.802502 0.542382 0.28603
0.793149 0.550408 0.32604
0.774411 0.560403 0.374151
0.178958 0.491142 0.178958
0.20116 0.493584 0.181353
0.223377 0.496025 0.183764
0.245594 0.498466 0.186175
0.267826 0.500908 0.188586
0.290059 0.503334 0.191012
0.312291 0.505776 0.193439
0.334539 0.508202 0.195865
0.356771 0.510643 0.198291
0.379019 0.513069 0.200717
0.401266 0.515496 0.203159
0.423499 0.517922 0.2056
0.445747 0.520363 0.208042
0.467994 0.522789 0.210498
0.490227 0.525216 0.212955
0.512474 0.527642 0.215427
0.534707 0.530068 0.217899
0.556924 0.532509 0.220386
0.579141 0.534936 0.222873
0.601358 0.537362 0.225376
0.62356 0.539803 0.227893
0.645747 0.542245 0.230426
0.667918 0.544671 0.232975
0.690074 0.547127 0.235554
0.7122 0.549569 0.238178
0.734279 0.552026 0.240833
0.756298 0.554482 0.24358
0.77821 0.55697 0.246479
0.798154 0.559731 0.252461
0.810575 0.563607 0.269383
0.813779 0.569055 0.298009
0.806256 0.576486 0.338674
0.789776 0.585733 0.387564
0.188968 0.51841 0.188968
0.211154 0.520851 0.191363
0.233356 0.523293 0.193759
0.255573 0.525734 0.19617
0.27779 0.528176 0.198581
0.300023 0.530617 0.200992
0.322255 0.533059 0.203418
0.344488 0.535485 0.205844
0.366735 0.537911 0.20827
0.388968 0.540352 0.210697
0.411215 0.542779 0.213138
0.433448 0.545205 0.215579
0.455695 0.547646 0.218021
0.477928 0.550072 0.220478
0.500175 0.552499 0.222934
0.522408 0.554925 0.225406
0.54464 0.557351 0.227878
0.566873 0.559792 0.230365
0.58909 0.562219 0.232853
0.611307 0.564645 0.23537
0.633509 0.567086 0.237888
0.655695 0.569512 0.240421
0.677867 0.571954 0.242985
0.700023 0.574395 0.245563
0.722148 0.576837 0.248188
0.744244 0.579293 0.250858
0.766278 0.58175 0.25362
0.788174 0.584237 0.256565
0.807752 0.586999 0.263554
0.82034 0.590738 0.281529
0.824338 0.595834 0.311177
0.818341 0.602716 0.352773
0.803998 0.611246 0.40238
0.198993 0.545663 0.198993
0.221164 0.548119 0.201373
0.243366 0.550561 0.203769
0.265568 0.553002 0.20618
0.287785 0.555444 0.208591
0.310002 0.557885 0.211002
0.332219 0.560327 0.213413
0.354452 0.562753 0.215839
0.376684 0.565194 0.218265
0.398932 0.56762 0.220691
0.421164 0.570062 0.223133
0.443397 0.572488 0.225574
0.465644 0.574914 0.228016
0.487877 0.577356 0.230472
0.510124 0.579782 0.232929
0.532357 0.582208 0.235401
0.554589 0.584634 0.237873
0.576806 0.58706 0.24036
0.599039 0.589502 0.242863
0.621241 0.591928 0.245365
0.643458 0.594369 0.247898
0.665644 0.596796 0.250431
0.687816 0.599237 0.252995
0.709972 0.601678 0.255589
0.732097 0.60412 0.258228
0.754192 0.606561 0.260914
0.776226 0.609018 0.263691
0.798123 0.611505 0.266728
0.817136 0.614282 0.275242
0.829725 0.617868 0.294652
0.834257 0.622675 0.325704
0.829557 0.629038 0.368475
0.817258 0.636912 0.418753
0.209033 0.572915 0.209033
0.231189 0.575372 0.211414
0.253376 0.577813 0.213809
0.275578 0.58027 0.216205
0.29778 0.582712 0.218601
0.319982 0.585153 0.221012
0.342214 0.587594 0.223423
0.364431 0.590036 0.225849
0.386664 0.592462 0.228275
0.408896 0.594903 0.230701
0.431128 0.59733 0.233127
0.453361 0.599771 0.235569
0.475593 0.602197 0.238025
0.497841 0.604623 0.240467
0.520073 0.60705 0.242939
0.542306 0.609491 0.245411
0.564538 0.611917 0.247883
0.586755 0.614343 0.25037
0.608988 0.61677 0.252872
0.631189 0.619211 0.25539
0.653391 0.621637 0.257908
0.675593 0.624079 0.260456
0.697765 0.626505 0.263035
0.719921 0.628946 0.265644
0.742061 0.631388 0.268284
0.764157 0.633844 0.270985
0.786191 0.636286 0.273808
0.808042 0.638758 0.276982
0.826307 0.641535 0.287755
0.838727 0.644984 0.30898
0.843641 0.6495 0.341817
0.840024 0.655406 0.386007
0.829694 0.662638 0.436774
0.219104 0.600137 0.219104
0.241245 0.602609 0.221469
0.263416 0.605066 0.22385
0.285588 0.607523 0.226246
0.30779 0.609964 0.228641
0.329992 0.612406 0.231037
0.352209 0.614862 0.233448
0.374426 0.617288 0.235874
0.396643 0.61973 0.238285
0.418875 0.622171 0.240711
0.441093 0.624598 0.243153
0.463325 0.627039 0.245594
0.485557 0.629465 0.248035
0.50779 0.631907 0.250492
0.530022 0.634333 0.252949
0.552254 0.636759 0.255421
0.574487 0.639185 0.257908
0.596719 0.641627 0.260395
0.618936 0.644053 0.262898
0.641138 0.646479 0.265415
0.663355 0.64892 0.267948
0.685542 0.651347 0.270497
0.707713 0.653788 0.273091
0.729885 0.656214 0.2757
0.75201 0.658656 0.278355
0.774105 0.661097 0.281086
0.796139 0.663554 0.28397
0.81767 0.666026 0.288014
0.835203 0.668757 0.301381
0.847395 0.672053 0.324834
0.852537 0.676295 0.359792
0.849882 0.681743 0.405524
0.84152 0.688365 0.45655
0.229206 0.627375 0.229206
0.251316 0.629847 0.231556
0.273472 0.632303 0.233936
0.295644 0.63476 0.236316
0.317815 0.637217 0.238697
0.340002 0.639658 0.241093
0.362203 0.642115 0.243503
0.384421 0.644556 0.245914
0.406638 0.646998 0.248325
0.428855 0.649439 0.250751
0.451072 0.651865 0.253178
0.473304 0.654307 0.255619
0.495537 0.656733 0.258061
0.517769 0.659175 0.260517
0.539986 0.661601 0.262989
0.562219 0.664027 0.265461
0.584451 0.666468 0.267933
0.606668 0.668894 0.270436
0.628885 0.671321 0.272938
0.651102 0.673762 0.275456
0.673304 0.676188 0.278004
0.695491 0.678614 0.280568
0.717678 0.681056 0.283162
0.739834 0.683482 0.285786
0.761959 0.685924 0.288472
0.784054 0.688365 0.291234
0.806073 0.690806 0.294194
0.826871 0.693278 0.300587
0.843824 0.695918 0.316533
0.855726 0.699031 0.342519
0.861021 0.702983 0.379889
0.859297 0.708003 0.427207
0.852918 0.714061 0.47805
0.239338 0.654582 0.239338
0.261433 0.657053 0.241688
0.283558 0.659525 0.244038
0.305699 0.661997 0.246403
0.327871 0.664454 0.248783
0.350042 0.666911 0.251179
0.372244 0.669367 0.253574
0.39443 0.671809 0.25597
0.416648 0.67425 0.258381
0.438849 0.676692 0.260807
0.461067 0.679133 0.263233
0.483299 0.681559 0.265675
0.505516 0.684001 0.268116
0.527749 0.686442 0.270573
0.549966 0.688869 0.27303
0.572198 0.691295 0.275502
0.594415 0.693736 0.277989
0.616632 0.696162 0.280491
0.638849 0.698589 0.282994
0.661067 0.70103 0.285527
0.683268 0.703456 0.288075
0.705455 0.705882 0.290654
0.727626 0.708324 0.293263
0.749798 0.71075 0.295903
0.771923 0.713191 0.298619
0.794003 0.715633 0.301442
0.815976 0.718059 0.304616
0.835843 0.720439 0.314626
0.852216 0.722942 0.333532
0.863783 0.725872 0.362493
0.8692 0.729519 0.402472
0.868406 0.734112 0.451194
0.864149 0.73962 0.501198
0.249546 0.681758 0.249546
0.271595 0.68426 0.25185
0.29369 0.686732 0.254185
0.315816 0.689219 0.256535
0.337957 0.691676 0.2589
0.360113 0.694148 0.26128
0.382284 0.696605 0.263676
0.404471 0.699046 0.266072
0.426673 0.701503 0.268467
0.448875 0.703944 0.270893
0.471077 0.706386 0.27332
0.493294 0.708827 0.275746
0.515511 0.711254 0.278187
0.537728 0.713695 0.280644
0.559945 0.716121 0.283116
0.582177 0.718563 0.285588
0.604395 0.720989 0.288075
0.626612 0.72343 0.290578
0.648829 0.725856 0.293095
0.671031 0.728283 0.295628
0.693233 0.730724 0.298177
0.715419 0.73315 0.300771
0.737606 0.735576 0.303395
0.759762 0.738018 0.306065
0.781888 0.740444 0.308812
0.803952 0.74287 0.311742
0.825437 0.745235 0.317113
0.844556 0.747463 0.330755
0.860395 0.749798 0.352941
0.871626 0.752499 0.385199
0.877302 0.755825 0.427543
0.87747 0.760021 0.477485
0.875425 0.765042 0.525765
0.259846 0.708904 0.259846
0.281834 0.711421 0.262104
0.303868 0.713924 0.264408
0.325963 0.716411 0.266728
0.348074 0.718898 0.269078
0.370214 0.72137 0.271427
0.39237 0.723827 0.273808
0.414527 0.726284 0.276188
0.436713 0.72874 0.278599
0.4589 0.731182 0.28101
0.481102 0.733623 0.283421
0.503319 0.736065 0.285863
0.525521 0.738506 0.288289
0.547738 0.740948 0.290745
0.569955 0.743389 0.293217
0.592172 0.745815 0.295689
0.614389 0.748257 0.298177
0.636591 0.750683 0.300679
0.658808 0.753109 0.303212
0.68101 0.75555 0.305745
0.703212 0.757977 0.308324
0.725399 0.760403 0.310918
0.74757 0.762829 0.313573
0.769726 0.765255 0.316289
0.791852 0.767681 0.319112
0.81387 0.770092 0.322377
0.834562 0.772229 0.332296
0.853101 0.774273 0.349523
