luts/MagentaCoffee.cube
TITLE "Generated by Resolve"
LUT_3D_SIZE 33
0 0 0
0 0 0
0 0 0
0 0 0
0.0139315 0 0
0.0396887 0 0
0.066041 0 0
0.0934462 0 0
0.122316 0 0
0.152956 0 0
0.185 0 0
0.219181 0 0
0.254948 0 0
0.291554 0 0
0.328542 0 0
0.365286 0 0
0.400732 0 0
0.435599 0 0
0.4701 0 0
0.503761 0 0
0.537163 0 0
0.569314 0 0
0.600214 0 0
0.629801 0 0
0.657877 0 0
0.684611 0 0
0.70959 0 0
0.733272 0 0
0.75581 0 0
0.777447 0 0
0.798352 0 0
0.818967 0 0
0.839246 0 0
0 0 0
0 0 0
0 0 0
0 0 0
0.0118257 0 0
0.0375525 0 0
0.0637675 0 0
0.0907149 0 0
0.119493 0 0
0.150027 0 0
0.182147 0 0
0.216007 0 0
0.25156 0 0
0.288319 0 0
0.324865 0 0
0.361318 0 0
0.396979 0 0
0.431785 0 0
0.466087 0 0
0.500145 0 0
0.533349 0 0
0.565576 0 0
0.596475 0 0
0.626276 0 0
0.654658 0 0
0.681422 0 0
0.706676 0 0
0.730465 0 0
0.753109 0 0
0.774884 0 0
0.796139 0 0
0.816922 0 0
0.837095 0 0
0 0.0129244 0
0 0.0126955 0
0 0.0121767 0
0 0.0112917 0
0.00883497 0.00985733 0
0.0345922 0.00874342 0
0.0610056 0.00759899 0
0.0881819 0.00604257 0
0.11667 0.00407416 0
0.146624 0.00164797 0
0.178546 0 0
0.21207 0 0
0.247608 0 0
0.283711 0 0
0.320317 0 0
0.356756 0 0
0.392416 0 0
0.427115 0 0
0.461814 0 0
0.49575 0 0
0.528847 0 0
0.561227 0 0
0.592432 0 0
0.622583 0 0
0.651072 0 0
0.678126 0 0
0.703426 0 0
0.727535 0 0
0.750546 0 0
0.772671 0 0
0.793927 0 0
0.81474 0 0
0.835081 0 0
0 0.0344091 0
0 0.0342107 0
0 0.0337377 0
0 0.0328985 0
0.00646983 0.0317845 0
0.032166 0.0307317 0
0.0581979 0.0293126 0
0.0851301 0.0276188 0
0.113359 0.0255741 0
0.143297 0.0230564 0
0.174823 0.0202792 0
0.208164 0.0168307 0
0.243305 0.0128634 0
0.279423 0.00866712 0
0.315724 0.00445563 0
0.352071 0.000198367 0
0.388083 0 0
0.422965 0 0
0.457542 0 0
0.491402 0 0
0.524865 0 0
0.557153 0 0
0.588785 0 0
0.618967 0 0
0.64773 0 0
0.674891 0 0
0.700664 0 0
0.725017 0 0
0.748287 0 0
0.770535 0 0
0.79202 0 0
0.813153 0 0
0.833783 0 0
0 0.0565957 0
0 0.0563058 0
0 0.0556954 0
0 0.0547951 0
0.0034638 0.0535744 0
0.0289311 0.0522469 0
0.0547951 0.050782 0
0.0814832 0.049073 0
0.109407 0.047013 0
0.138811 0.0447395 0
0.170306 0.0417792 0
0.203342 0.0383764 0
0.238056 0.0345312 0
0.274174 0.0303044 0
0.31043 0.0260777 0
0.347326 0.0218662 0
0.383337 0.0177615 0
0.418418 0.0138857 0
0.452949 0.010193 0
0.487129 0.00663767 0
0.520455 0.00337224 0
0.553414 0.000427253 0
0.584939 0 0
0.615427 0 0
0.644556 0 0
0.672175 0 0
0.698299 0 0
0.723003 0 0
0.746563 0 0
0.769116 0 0
0.790906 0 0
0.812238 0 0
0.833234 0 0
0 0.0782635 0
0 0.0778515 0
0 0.0772412 0
0 0.0762951 0
0 0.0749218 0
0.0253452 0.0735332 0
0.0510567 0.0720531 0
0.0775006 0.0704051 0
0.105364 0.0685588 0
0.134722 0.0660868 0
0.165682 0.0632181 0
0.198337 0.0599527 0
0.233051 0.0561379 0
0.269169 0.0520943 0
0.305699 0.0479286 0
0.342443 0.0436408 0
0.378347 0.0396429 0
0.413672 0.0357977 0
0.448417 0.0321965 0
0.483085 0.0287938 0
0.516762 0.0255894 0
0.549844 0.0225528 0
0.581888 0.0198367 0
0.612604 0.0175631 0
0.64213 0.0156558 0
0.670253 0.0144045 0
0.69662 0.013489 0
0.721492 0.0130465 0
0.745449 0.0129244 0
0.768368 0.0131685 0
0.790463 0.0137179 0
0.812253 0.0146792 0
0.833341 0.0156863 0
0 0.099733 0
0 0.0993668 0
0 0.0986038 0
0 0.0975204 0
0 0.0961471 0
0.0216373 0.094789 0
0.0473335 0.09337 0
0.0738689 0.0917983 0
0.101472 0.0898299 0
0.130434 0.0875257 0
0.161257 0.0847639 0
0.193835 0.0815442 0
0.228489 0.0779278 0
0.264393 0.0740215 0
0.301045 0.0698405 0
0.337621 0.0657511 0
0.374044 0.0617227 0
0.409628 0.057969 0
0.444587 0.0546273 0
0.479271 0.0512856 0
0.513298 0.0481575 0
0.546715 0.045243 0
0.578759 0.0427863 0
0.609949 0.0406195 0
0.640085 0.0390478 0
0.668544 0.0377966 0
0.695262 0.0370794 0
0.720424 0.0368811 0
0.744747 0.0369573 0
0.7682 0.0376287 0
0.790677 0.0384527 0
0.812619 0.0394903 0
0.834119 0.0407263 0
0 0.121324 0
0 0.120836 0
0 0.120073 0
0 0.118883 0
0 0.117586 0
0.0175937 0.116228 0
0.0434119 0.1149 0
0.0696727 0.113329 0
0.0971847 0.111452 0
0.12604 0.10927 0
0.15668 0.106645 0
0.189593 0.103655 0
0.224033 0.100114 0
0.259815 0.0962844 0
0.296345 0.0922866 0
0.333211 0.0882887 0
0.370108 0.0844282 0
0.405783 0.0809949 0
0.441077 0.0775921 0
0.476051 0.0743572 0
0.510185 0.071458 0
0.543938 0.0687419 0
0.576822 0.0664988 0
0.608377 0.0646525 0
0.638697 0.0631113 0
0.66743 0.0620737 0
0.694545 0.0615854 0
0.720348 0.0615702 0
0.745098 0.0621195 0
0.768811 0.0628672 0
0.791684 0.0639048 0
0.813993 0.0652476 0
0.835737 0.066865 0
0 0.143023 0
0 0.142519 0
0 0.141772 0
0 0.140627 0
0 0.139483 0
0.0132448 0.13814 0
0.0389258 0.136782 0
0.0653391 0.135271 0
0.092668 0.133577 0
0.12163 0.131518 0
0.152377 0.129183 0
0.184787 0.126268 0
0.219013 0.122972 0
0.255024 0.119265 0
0.291905 0.115373 0
0.329122 0.111589 0
0.366155 0.107973 0
0.402304 0.104555 0
0.437873 0.101381 0
0.473014 0.0984054 0
0.507698 0.0956588 0
0.541772 0.0932937 0
0.575006 0.0912337 0
0.606897 0.0895399 0
0.63769 0.0882429 0
0.666865 0.0874495 0
0.694408 0.0871748 0
0.720974 0.0875868 0
0.745983 0.0882582 0
0.770077 0.0892958 0
0.793271 0.0906691 0
0.81593 0.0923018 0
0.838193 0.0944228 0
0 0.165179 0
0 0.164721 0
0 0.164004 0
0 0.163012 0
0 0.161837 0
0.00822461 0.160571 0
0.0339971 0.159319 0
0.0603494 0.157977 0
0.0878309 0.156405 0
0.116793 0.154681 0
0.14757 0.152361 0
0.179995 0.14966 0
0.214252 0.146578 0
0.250355 0.143069 0
0.287709 0.139574 0
0.324941 0.136004 0
0.362417 0.132433 0
0.398947 0.129183 0
0.43473 0.126268 0
0.470481 0.123522 0
0.505669 0.121187 0
0.540124 0.118944 0
0.573465 0.117082 0
0.605966 0.115557 0
0.637049 0.114565 0
0.66685 0.114153 0
0.695003 0.114305 0
0.721782 0.114778 0
0.747219 0.11574 0
0.771771 0.117113 0
0.795422 0.118868 0
0.818708 0.121004 0
0.841215 0.1234 0
0 0.188006 0
0 0.187778 0
0 0.187182 0
0 0.186099 0
0 0.185016 0
0.00231937 0.183902 0
0.0281987 0.182818 0
0.0548867 0.181811 0
0.0825055 0.180392 0
0.111528 0.178683 0
0.142138 0.176654 0
0.174868 0.174151 0
0.209232 0.171344 0
0.245579 0.168322 0
0.282902 0.164889 0
0.320745 0.16144 0
0.358373 0.15816 0
0.395636 0.155077 0
0.43183 0.152453 0
0.467948 0.150088 0
0.503609 0.147768 0
0.538415 0.14583 0
0.572305 0.144274 0
0.605112 0.143069 0
0.636927 0.142367 0
0.667262 0.14229 0
0.695811 0.142657 0
0.723079 0.143511 0
0.74902 0.144808 0
0.774014 0.146487 0
0.798138 0.148898 0
0.821668 0.151308 0
0.844755 0.153964 0
0 0.211795 0
0 0.211582 0
0 0.211078 0
0 0.210132 0
0 0.20911 0
0 0.20824 0
0.0222171 0.207492 0
0.0489662 0.206516 0
0.0767376 0.205356 0
0.105898 0.203906 0
0.136599 0.202136 0
0.169223 0.199954 0
0.20412 0.197559 0
0.240497 0.194644 0
0.278096 0.191485 0
0.316197 0.188312 0
0.354437 0.185199 0
0.392233 0.182635 0
0.429053 0.180179 0
0.465461 0.177951 0
0.501335 0.175982 0
0.536599 0.174304 0
0.57116 0.173007 0
0.604852 0.172351 0
0.637018 0.171939 0
0.667659 0.172061 0
0.696666 0.172747 0
0.724392 0.173938 0
0.750988 0.175692 0
0.776425 0.178012 0
0.80087 0.180453 0
0.824765 0.183185 0
0.848203 0.186236 0
0 0.2365 0
0 0.236408 0
0 0.236088 0
0 0.235309 0
0 0.234623 0
0 0.233997 0
0.0157015 0.233265 0
0.04271 0.232502 0
0.0706645 0.231586 0
0.0997482 0.230472 0
0.130968 0.229145 0
0.163622 0.227375 0
0.198444 0.225071 0
0.235142 0.2224 0
0.273106 0.219532 0
0.311467 0.216709 0
0.350408 0.214115 0
0.388663 0.211521 0
0.425971 0.209339 0
0.462669 0.207523 0
0.499153 0.205875 0
0.535119 0.204486 0
0.570214 0.203784 0
0.604227 0.203204 0
0.63682 0.203189 0
0.668025 0.203693 0
0.697581 0.2047 0
0.725673 0.206287 0
0.752834 0.20853 0
0.778531 0.211048 0
0.803418 0.213931 0
0.827802 0.216968 0
0.851225 0.220417 0
0 0.262303 0
0 0.262425 0
0 0.262333 0
0 0.261891 0
0 0.261402 0
0 0.260914 0
0.00860609 0.260441 0
0.0358892 0.259953 0
0.0640574 0.259327 0
0.0934462 0.258686 0
0.124712 0.257542 0
0.157687 0.256031 0
0.192752 0.254078 0
0.229694 0.251743 0
0.267597 0.249302 0
0.307012 0.246891 0
0.346181 0.244434 0
0.384985 0.242206 0
0.42269 0.240391 0
0.459937 0.238834 0
0.497368 0.237705 0
0.533715 0.236774 0
0.569162 0.236179 0
0.603555 0.23595 0
0.63679 0.236179 0
0.668299 0.237049 0
0.698558 0.238788 0
0.727001 0.240757 0
0.754345 0.243076 0
0.780438 0.245884 0
0.805722 0.249119 0
0.830167 0.252781 0
0.854414 0.25687 0
0 0.28925 0
0 0.28957 0
0 0.289937 0
0 0.289662 0
0 0.289357 0
0 0.288991 0
0.0016022 0.288899 0
0.0292363 0.288823 0
0.0576944 0.288685 0
0.0872053 0.288228 0
0.118593 0.287388 0
0.151751 0.286213 0
0.18706 0.284642 0
0.224201 0.282963 0
0.262913 0.280903 0
0.302281 0.27866 0
0.342123 0.276463 0
0.381384 0.274601 0
0.419715 0.273152 0
0.457832 0.272145 0
0.495247 0.271214 0
0.532021 0.270573 0
0.568032 0.270314 0
0.602853 0.270527 0
0.636561 0.271122 0
0.668696 0.272602 0
0.699031 0.274388 0
0.728008 0.276707 0
0.755764 0.279484 0
0.782071 0.282719 0
0.807599 0.286244 0
0.832502 0.290547 0
0.856687 0.294835 0
0 0.317403 0
0 0.318242 0
0 0.318669 0
0 0.318654 0
0 0.318685 0
0 0.318639 0
0 0.318959 0
0.0227817 0.319188 0
0.0512245 0.319326 0
0.0811627 0.319219 0
0.112581 0.318883 0
0.145983 0.318135 0
0.181659 0.317082 0
0.219333 0.315648 0
0.258305 0.313924 0
0.298116 0.312108 0
0.338216 0.310307 0
0.378149 0.308675 0
0.417258 0.30782 0
0.455558 0.307012 0
0.493629 0.306386 0
0.530892 0.306065 0
0.567102 0.306157 0
0.602518 0.306935 0
0.636744 0.308049 0
0.669139 0.309636 0
0.699657 0.311788 0
0.72874 0.314458 0
0.756863 0.317571 0
0.783688 0.321614 0
0.809415 0.325643 0
0.834257 0.329885 0
0.858442 0.334401 0
0 0.346838 0
0 0.347829 0
0 0.348608 0
0 0.348913 0
0 0.349187 0
0 0.349813 0
0 0.350439 0
0.0167239 0.350988 0
0.0455787 0.351461 0
0.0757153 0.351751 0
0.107424 0.351904 0
0.141283 0.351812 0
0.177142 0.351049 0
0.214969 0.349874 0
0.25417 0.348501 0
0.294606 0.34699 0
0.335393 0.345739 0
0.375753 0.344717 0
0.414908 0.343923 0
0.453605 0.34342 0
0.492134 0.34316 0
0.529809 0.343297 0
0.566629 0.343984 0
0.602411 0.3449 0
0.636835 0.346212 0
0.669627 0.348196 0
0.700404 0.350851 0
0.729702 0.353918 0
0.758144 0.35758 0
0.784802 0.361578 0
0.810422 0.365896 0
0.835477 0.370382 0
0.859693 0.375113 0
0 0.377371 0
0 0.378622 0
0 0.379767 0
0 0.380499 0
0 0.381445 0
0 0.382193 0
0 0.383169 0
0.0116426 0.384131 0
0.0408484 0.385061 0
0.0710765 0.385901 0
0.103197 0.386557 0
0.137209 0.386618 0
0.17319 0.386343 0
0.211322 0.385641 0
0.251026 0.384604 0
0.291798 0.383566 0
0.332982 0.382696 0
0.373709 0.381918 0
0.41352 0.381506 0
0.452735 0.381308 0
0.491447 0.381353 0
0.529778 0.382132 0
0.566796 0.383062 0
0.602853 0.384329 0
0.637507 0.385946 0
0.67039 0.388144 0
0.701396 0.391211 0
0.730861 0.394736 0
0.759152 0.398383 0
0.785748 0.402502 0
0.811444 0.406973 0
0.83653 0.411826 0
0.861265 0.417243 0
0 0.409064 0
0 0.410712 0
0 0.412222 0
0 0.413611 0
0 0.414725 0
0 0.415915 0
0 0.417243 0
0.0077821 0.418585 0
0.037232 0.420279 0
0.0679179 0.421469 0
0.100206 0.422324 0
0.13434 0.422812 0
0.170687 0.422827 0
0.209003 0.422599 0
0.249485 0.422278 0
0.290532 0.421546 0
0.331884 0.420798 0
0.372915 0.420294 0
0.41323 0.420203 0
0.452873 0.420584 0
0.49221 0.421271 0
0.530465 0.421988 0
0.567605 0.423087 0
0.603662 0.424613 0
0.638544 0.42652 0
0.671504 0.429129 0
0.702663 0.432319 0
0.732052 0.43592 0
0.760281 0.439979 0
0.787243 0.444541 0
0.813107 0.449424 0
0.838575 0.454795 0
0.86305 0.460456 0
0 0.4421 0
0 0.444434 0
0 0.446433 0
0 0.447913 0
0 0.449302 0
0 0.450904 0
0 0.452644 0
0.00503548 0.454856 0
0.0347295 0.456519 0
0.0655833 0.458076 0
0.0979782 0.459449 0
0.132464 0.460395 0
0.169238 0.460807 0
0.208331 0.461067 0
0.248737 0.460807 0
0.290211 0.460472 0
0.332036 0.460182 0
0.373404 0.460014 0
0.413855 0.460258 0
0.453956 0.460945 0
0.493263 0.461631 0
0.531701 0.462608 0
0.568933 0.46389 0
0.605051 0.465568 0
0.640375 0.468086 0
0.673304 0.471 0
0.704479 0.474464 0
0.734142 0.47837 0
0.762234 0.482826 0
0.789319 0.487846 0
0.815412 0.4934 0
0.84065 0.498924 0
0.865354 0.504616 0
0 0.476921 0
0 0.47953 0
0 0.48188 0
0 0.483787 0
0 0.485649 0
0 0.487587 0
0 0.489937 0
0.002533 0.492317 0
0.0325475 0.494499 0
0.0636454 0.496406 0
0.0962539 0.49807 0
0.131289 0.499702 0
0.168414 0.500587 0
0.207813 0.500908 0
0.248478 0.500954 0
0.29015 0.500786 0
0.332189 0.500679 0
0.374136 0.501106 0
0.414588 0.501518 0
0.454459 0.502129 0
0.494087 0.502937 0
0.532738 0.504204 0
0.570504 0.505898 0
0.607095 0.508354 0
0.641886 0.510948 0
0.675029 0.514107 0
0.706447 0.517861 0
0.735988 0.522255 0
0.764355 0.527092 0
0.791287 0.532586 0
0.817288 0.538048 0
0.842512 0.543832 0
0.867185 0.549828 0
0 0.513222 0
0 0.516045 0
0 0.518776 0
0 0.521111 0
0 0.523613 0
0 0.526131 0
0 0.528557 0
0.000610361 0.531197 0
0.030869 0.533776 0
0.0623178 0.536156 0
0.0954757 0.538537 0
0.130541 0.540124 0
0.167941 0.541131 0
0.207477 0.541695 0
0.248524 0.541955 0
0.290425 0.541955 0
0.332952 0.542321 0
0.374716 0.542641 0
0.415473 0.543404 0
0.455726 0.544427 0
0.495659 0.545571 0
0.534493 0.547143 0
0.572503 0.549523 0
0.60914 0.551949 0
0.644038 0.55494 0
0.677348 0.558328 0
0.708339 0.562432 0
0.738262 0.567376 0
0.766354 0.572457 0
0.793362 0.577813 0
0.819074 0.583505 0
0.844312 0.589349 0
0.868864 0.595514 0
0 0.550622 0
0 0.554009 0
0 0.557076 0
0 0.559945 0
0 0.562722 0
0 0.565545 0
0 0.568475 0
0 0.571466 0
0.0300755 0.574258 0
0.0619211 0.577203 0
0.0951095 0.579507 0
0.130419 0.581277 0
0.16817 0.582361 0
0.207752 0.583124 0
0.249531 0.583825 0
0.291997 0.584283 0
0.3346 0.58471 0
0.376608 0.585336 0
0.417624 0.586343 0
0.458228 0.58761 0
0.498527 0.589532 0
0.537575 0.59144 0
0.575326 0.593698 0
0.611933 0.596307 0
0.646937 0.599481 0
0.679881 0.603281 0
0.711421 0.607904 0
0.740734 0.612665 0
0.76878 0.617777 0
0.795331 0.623346 0
0.82121 0.629099 0
0.846265 0.63505 0
0.870832 0.641505 0
0 0.589258 0
0 0.593133 0
0 0.596902 0
0 0.600031 0
0 0.602975 0
0 0.605997 0
0 0.60914 0
0 0.612589 0
0.0302586 0.615793 0
0.0620279 0.618494 0
0.0954757 0.620951 0
0.131197 0.622995 0
0.169528 0.624445 0
0.209888 0.625788 0
0.251743 0.626627 0
0.294438 0.627237 0
0.337484 0.627894 0
0.379782 0.628855 0
0.42092 0.630167 0
0.461875 0.631983 0
0.501976 0.633799 0
0.541268 0.635828 0
0.579095 0.638331 0
0.615641 0.641154 0
0.650416 0.64445 0
0.683528 0.648722 0
0.714427 0.653147 0
0.743755 0.657969 0
0.771389 0.663188 0
0.798047 0.668605 0
0.823789 0.674739 0
0.848646 0.680613 0
0.872892 0.68658 0
0 0.629236 0
0 0.633478 0
0 0.637201 0
0 0.640558 0
0 0.643748 0
0 0.646983 0
0 0.650385 0
0.000503548 0.654139 0
0.0312657 0.657557 0
0.0636759 0.660609 0
0.097612 0.663355 0
0.133989 0.665522 0
0.172747 0.667689 0
0.213443 0.669017 0
0.256062 0.669886 0
0.299062 0.670695 0
0.342107 0.671565 0
0.384573 0.672984 0
0.426139 0.674647 0
0.467002 0.67631 0
0.506935 0.678203 0
0.545968 0.680385 0
0.583856 0.682918 0
0.620554 0.686152 0
0.655131 0.689693 0
0.687739 0.693553 0
0.718441 0.697887 0
0.747356 0.702708 0
0.774929 0.70782 0
0.801404 0.713573 0
0.826642 0.719142 0
0.851286 0.724743 0
0.875288 0.730434 0
0 0.669825 0
0 0.674037 0
0 0.677897 0
0 0.681422 0
0 0.684932 0
0 0.688899 0
0 0.692546 0
0.00332647 0.696376 0
0.0345464 0.699947 0
0.0670329 0.703349 0
0.101808 0.706416 0
0.138796 0.709133 0
0.177707 0.711025 0
0.219196 0.712306 0
0.261784 0.713451 0
0.305104 0.714443 0
0.348516 0.715648 0
0.391196 0.717037 0
0.432425 0.718639 0
0.473182 0.720409 0
0.5131 0.722423 0
0.552224 0.724575 0
0.590112 0.727337 0
0.6262 0.730388 0
0.660395 0.733791 0
0.692897 0.73756 0
0.723171 0.741817 0
0.751827 0.746395 0
0.77908 0.751736 0
0.805005 0.756848 0
0.829923 0.762142 0
0.854459 0.767346 0
0.878157 0.772641 0
0 0.710307 0
0 0.714839 0
0 0.719127 0
0 0.723018 0
0 0.727123 0
0 0.731014 0
0 0.735042 0
0.00819409 0.739101 0
0.0397498 0.742916 0
0.0728771 0.746456 0
0.108095 0.749828 0
0.145357 0.752392 0
0.185092 0.754314 0
0.226719 0.755734 0
0.269551 0.756863 0
0.313573 0.758175 0
0.356863 0.759274 0
0.398932 0.760662 0
0.440055 0.762264 0
0.480659 0.763958 0
0.520867 0.765927 0
0.559823 0.768322 0
0.597055 0.770794 0
0.632853 0.773541 0
0.666773 0.776669 0
0.698634 0.780285 0
0.728664 0.784543 0
0.757015 0.789014 0
0.783551 0.793652 0
0.809247 0.798367 0
0.833677 0.803326 0
0.857954 0.808179 0
0.881834 0.813321 0
0 0.751522 0
0 0.756283 0
0 0.761181 0
0 0.765393 0
0 0.769512 0
0 0.77348 0
0 0.777722 0
0.015259 0.781857 0
0.0474098 0.786282 0
