luts/MagentaCoffee.cube
TITLE "Generated by Resolve"
LUT_3D_SIZE 9
0 0 0
0.0139315 0 0
0.122316 0 0
0.254948 0 0
0.400732 0 0
0.537163 0 0
0.657877 0 0
0.75581 0 0
0.839246 0 0
0 0.0565957 0
0.0034638 0.0535744 0
0.109407 0.047013 0
0.238056 0.0345312 0
0.383337 0.0177615 0
0.520455 0.00337224 0
0.644556 0 0
0.746563 0 0
0.833234 0 0
0 0.143023 0
0 0.139483 0
0.092668 0.133577 0
0.219013 0.122972 0
0.366155 0.107973 0
0.507698 0.0956588 0
0.63769 0.0882429 0
0.745983 0.0882582 0
0.838193 0.0944228 0
0 0.2365 0
0 0.234623 0
0.0706645 0.231586 0
0.198444 0.225071 0
0.350408 0.214115 0
0.499153 0.205875 0
0.63682 0.203189 0
0.752834 0.20853 0
0.851225 0.220417 0
0 0.346838 0
0 0.349187 0
0.0455787 0.351461 0
0.177142 0.351049 0
0.335393 0.345739 0
0.492134 0.34316 0
0.636835 0.346212 0
0.758144 0.35758 0
0.859693 0.375113 0
0 0.476921 0
0 0.485649 0
0.0325475 0.494499 0
0.168414 0.500587 0
0.332189 0.500679 0
0.494087 0.502937 0
0.641886 0.510948 0
0.764355 0.527092 0
0.867185 0.549828 0
0 0.629236 0
0 0.643748 0
0.0312657 0.657557 0
0.172747 0.667689 0
0.342107 0.671565 0
0.506935 0.678203 0
0.655131 0.689693 0
0.774929 0.70782 0
0.875288 0.730434 0
0 0.793179 0
0 0.811902 0
0.0567788 0.828916 0
0.204776 0.839673 0
0.376944 0.843854 0
0.53904 0.849271 0
0.6813 0.858 0
0.793912 0.871992 0
0.889723 0.888518 0
0 0.959426 0
0 0.977646 0
0.105501 0.991638 0
0.256275 0.996735 0
0.423377 0.995773 0
0.577279 0.996002 0
0.709712 0.999832 0
0.814343 1 0
0.906249 1 0
0 0 0.0393835
0.0156252 0 0.032517
0.123674 0 0.0214084
0.256092 0 0.0019379
0.401587 0 0
0.537499 0 0
0.658503 0 0
0.75668 0 0
0.840085 0 0
0 0.0536507 0.0350958
0.00488289 0.05037 0.0275883
0.110338 0.043946 0.0161288
0.238926 0.0314336 0
0.383993 0.0147555 0
0.521141 0.000564584 0
0.645518 0 0
0.747921 0 0
0.834913 0 0
0 0.139788 0.0253147
0 0.136172 0.0180209
0.0943465 0.130632 0.00791943
0.2206 0.120363 0
0.367819 0.105714 0
0.509407 0.0939193 0
0.639872 0.0869459 0
0.74902 0.0874342 0
0.84155 0.0940261 0
0 0.233753 0.00535592
0 0.232136 0.00112917
0.0737774 0.229694 0
0.201968 0.223682 0
0.353811 0.213077 0
0.503182 0.205722 0
0.641382 0.203738 0
0.757763 0.209796 0
0.856794 0.222263 0
0 0.34551 0
0 0.348424 0
0.0506447 0.351324 0
0.182681 0.351537 0
0.341192 0.346792 0
0.498451 0.345098 0
0.643137 0.348943 0
0.764385 0.360662 0
0.866194 0.378576 0
0 0.477607 0
0 0.487007 0
0.0394751 0.496406 0
0.176059 0.50309 0
0.339879 0.50367 0
0.50164 0.506493 0
0.649393 0.515129 0
0.771405 0.531701 0
0.874434 0.554864 0.000244144
0 0.631876 0
0 0.646876 0
0.0394141 0.661265 0
0.181643 0.671504 0
0.351263 0.675975 0
0.515557 0.682933 0
0.663005 0.694392 0
0.782162 0.712581 0.00518807
0.881956 0.734798 0.0209049
0 0.797482 0
0 0.816419 0.0121309
0.0659953 0.833509 0.0250858
0.214725 0.843854 0.0301061
0.386358 0.847745 0.0270085
0.547005 0.852949 0.0247654
0.687907 0.86099 0.0261845
0.799786 0.874784 0.0346838
0.894926 0.890669 0.0466011
0 0.963729 0.0536355
0 0.981567 0.0686351
0.113909 0.994858 0.0787213
0.26479 0.999176 0.0779889
0.430762 0.997772 0.0696269
0.583688 0.997528 0.062623
0.714748 1 0.0600137
0.818814 1 0.0652628
0.910582 1 0.0738231
0 0 0.154162
0.0167391 0 0.147005
0.124392 0 0.134676
0.256855 0 0.114488
0.40209 0 0.0884413
0.537789 0 0.064683
0.659007 0 0.0456703
0.757336 0 0.0351568
0.841138 0 0.0302892
0 0.0499733 0.14786
0.00560006 0.0466316 0.139803
0.111254 0.040238 0.127443
0.239292 0.0280003 0.107591
0.384436 0.0115206 0.0816205
0.521614 0 0.0583047
0.646586 0 0.040238
0.749554 0 0.0313573
0.837034 0 0.0296635
0 0.13611 0.136156
0 0.132738 0.128328
0.0956893 0.127413 0.118059
0.222095 0.117556 0.101549
0.369146 0.10338 0.0788281
0.511452 0.0921645 0.0594644
0.642374 0.0856947 0.0456092
0.751858 0.0865949 0.0412604
0.845243 0.0939803 0.0447852
0 0.230747 0.115053
0 0.229648 0.111116
0.0769665 0.227695 0.106081
0.205325 0.222309 0.0965591
0.357595 0.21239 0.080293
0.507225 0.205783 0.0673533
0.645838 0.204471 0.0600748
0.76257 0.21091 0.0619516
0.862608 0.224292 0.0726482
0 0.343984 0.090486
0 0.347784 0.0918746
0.0561379 0.351293 0.0937209
0.188556 0.352178 0.0914473
0.34728 0.348104 0.0822003
0.504646 0.347173 0.0749523
0.649607 0.351751 0.0734264
0.770764 0.363668 0.0799268
0.872892 0.382239 0.0943313
0 0.478447 0.079118
0 0.488548 0.0864729
0.0464027 0.498589 0.0935378
0.183276 0.505379 0.0959182
0.347707 0.506523 0.0906691
0.509148 0.510231 0.0866865
0.656779 0.519463 0.0883803
0.778683 0.536385 0.0988632
0.881392 0.559655 0.116793
0 0.63476 0.083299
0 0.649973 0.0945296
0.0475319 0.664805 0.105211
0.190326 0.675288 0.110185
0.360281 0.680217 0.107576
0.523995 0.687404 0.106859
0.670451 0.698833 0.110384
0.788815 0.716854 0.122225
0.88809 0.738399 0.13904
0 0.80148 0.113237
0 0.820569 0.129183
0.0749828 0.837522 0.142641
0.224094 0.847623 0.148013
0.394919 0.851179 0.144869
0.554635 0.855833 0.143053
0.69424 0.863325 0.144747
0.805264 0.876463 0.154437
0.899641 0.89163 0.167452
0 0.967376 0.172686
0 0.984665 0.188266
0.121538 0.997009 0.198032
0.272847 1 0.197635
0.437659 0.998642 0.190082
0.589227 0.997833 0.183246
0.719478 1 0.181949
0.823041 1 0.188998
0.914031 1 0.199634
0 0 0.298741
0.0160983 0 0.290822
0.123995 0 0.277653
0.255909 0 0.256077
0.400946 0 0.228382
0.536645 0 0.202762
0.658106 0 0.18201
0.756832 0 0.169986
0.840909 0 0.164034
0 0.0437934 0.288945
0.0049897 0.0403449 0.27982
0.110628 0.0341344 0.265995
0.238346 0.0222171 0.244633
0.383291 0.00598154 0.217151
0.520989 0 0.192279
0.646494 0 0.172595
0.750088 0 0.162585
0.838193 0 0.160403
0 0.130175 0.272847
0 0.127047 0.264286
0.0958572 0.122148 0.252491
0.222416 0.112764 0.235111
0.369558 0.0992294 0.21117
0.512505 0.0886091 0.190631
0.643992 0.0827649 0.175799
0.754177 0.0842145 0.170962
0.848249 0.0922408 0.175036
0 0.225864 0.248478
0 0.225315 0.244221
0.0790112 0.223941 0.2383
0.207828 0.219104 0.227924
0.360571 0.210117 0.211215
0.510506 0.204349 0.197894
0.649561 0.203738 0.190433
0.766979 0.210712 0.192798
0.867338 0.224735 0.20441
0 0.341009 0.221988
0 0.345449 0.22359
0.060502 0.349722 0.225208
0.193362 0.351049 0.222522
0.352621 0.347997 0.21355
0.510048 0.347753 0.206607
0.654932 0.352636 0.205615
0.776135 0.365133 0.213336
0.878508 0.384253 0.229725
0 0.477791 0.210468
0 0.488594 0.218708
0.0525063 0.499275 0.226276
0.190036 0.506264 0.229191
0.354452 0.50779 0.224277
0.515923 0.512062 0.221988
0.663066 0.521431 0.224964
0.784787 0.539101 0.237705
0.887221 0.562356 0.257679
0 0.635904 0.216938
0 0.65153 0.229511
0.0546273 0.666712 0.241566
0.198337 0.677241 0.247776
0.368338 0.682307 0.246693
0.53135 0.689616 0.247745
0.676814 0.70071 0.252918
0.794278 0.718425 0.266987
0.892744 0.739239 0.285695
0 0.803662 0.251713
0 0.822721 0.269581
0.0822919 0.83917 0.284016
0.232212 0.848966 0.290929
0.402518 0.851881 0.289418
0.5608 0.855955 0.289387
0.69929 0.862776 0.292958
0.809125 0.875181 0.304646
0.9028 0.889525 0.319921
0 0.96875 0.315541
0.00248722 0.985306 0.332784
0.128038 0.996719 0.343694
0.279332 0.999542 0.344549
0.443198 0.996704 0.338766
0.593484 0.995224 0.334096
0.722744 0.997818 0.334844
0.825223 1 0.344045
0.916365 1 0.356512
0 0 0.454627
0.0151217 0 0.447135
0.122972 0 0.434653
0.254185 0 0.413993
0.398672 0 0.387427
0.534478 0 0.362905
0.656138 0 0.342473
0.755016 0 0.330434
0.839567 0 0.324773
0 0.0359503 0.445121
0.00373846 0.0325628 0.436454
0.109316 0.0262913 0.423255
0.236515 0.0145724 0.40264
0.381186 0 0.375906
0.519295 0 0.35169
0.645228 0 0.332647
0.749294 0 0.322591
0.838026 0 0.320714
0 0.122377 0.429404
0 0.119539 0.421286
0.0952773 0.114855 0.409903
0.221469 0.105974 0.392935
0.369116 0.0927901 0.36994
0.512261 0.0827039 0.349844
0.644175 0.0774548 0.3355
0.755047 0.0794842 0.330846
0.850034 0.0881361 0.335409
0 0.218967 0.406394
0 0.218997 0.402289
0.0802472 0.217975 0.396536
0.20885 0.213779 0.38613
0.362432 0.205493 0.370291
0.512856 0.200427 0.357671
0.652308 0.200427 0.350545
0.770169 0.208179 0.353475
0.870985 0.222705 0.366018
0 0.33576 0.381323
0 0.340825 0.383337
0.0637064 0.345769 0.384863
0.197116 0.347814 0.38233
0.357092 0.345464 0.373724
0.514443 0.345968 0.368032
0.659205 0.351171 0.367437
0.780438 0.364065 0.376165
0.883101 0.38378 0.393347
0 0.474662 0.371481
0 0.486122 0.379828
0.0573434 0.497276 0.38735
0.195483 0.504768 0.39089
0.36022 0.506722 0.386755
0.521584 0.511543 0.38555
0.668467 0.521324 0.389639
0.790143 0.539254 0.40322
0.892348 0.562692 0.423041
0 0.634424 0.379583
0 0.650645 0.393179
0.060502 0.665934 0.404822
0.205249 0.676997 0.411612
0.37528 0.682124 0.411261
0.537362 0.689204 0.412543
0.682292 0.700465 0.418891
0.798947 0.7178 0.432822
0.896788 0.738125 0.450462
0 0.80354 0.416266
0 0.822705 0.433738
0.0895094 0.838895 0.447608
0.239582 0.848234 0.453758
0.409171 0.850614 0.452567
0.566094 0.853925 0.452262
0.703593 0.860594 0.456199
0.812619 0.872404 0.467124
0.905852 0.88629 0.480995
0 0.968154 0.477195
0.00865187 0.984176 0.492958
0.134173 0.994995 0.502174
0.285344 0.997055 0.502266
0.448249 0.993667 0.496422
0.597833 0.991562 0.492332
0.726116 0.994049 0.493416
0.827939 1 0.501808
0.918883 1 0.512825
0 0 0.595926
0.0149996 0 0.5888
0.122942 0 0.577722
0.253391 0 0.558679
0.397604 0 0.53434
0.533181 0 0.512276
0.654932 0 0.494179
0.754116 0 0.483299
0.838941 0 0.478523
0 0.0292821 0.587472
0.00358587 0.0258335 0.579309
0.108965 0.0195315 0.5673
0.235676 0.00767529 0.548699
0.380255 0 0.52459
0.518425 0 0.503212
0.644709 0 0.486259
0.749157 0 0.477684
0.838529 0 0.476753
0 0.115709 0.573602
0 0.113008 0.566339
0.0955825 0.108537 0.556268
0.221408 0.0999161 0.5411
0.369451 0.0871443 0.520851
0.51284 0.0773785 0.503349
0.645136 0.0722515 0.490776
0.756954 0.0750134 0.487755
0.852659 0.0843214 0.492943
0 0.212879 0.554772
0 0.213367 0.551522
0.0823377 0.212879 0.546395
0.211368 0.209155 0.537606
0.36492 0.201526 0.52369
0.515938 0.196948 0.512825
0.655375 0.197452 0.50724
0.774105 0.206012 0.511284
0.875471 0.221225 0.523445
0 0.331212 0.534524
0 0.336965 0.536843
0.0678111 0.342412 0.538491
0.201831 0.345098 0.536583
0.36202 0.343359 0.529473
0.519753 0.344518 0.524727
0.664363 0.350118 0.525078
0.785626 0.363638 0.533715
0.88864 0.383978 0.549737
0 0.472114 0.527901
0 0.484215 0.536019
0.0630045 0.49575 0.542855
0.201892 0.503655 0.545769
0.366934 0.506294 0.542397
0.528115 0.511528 0.54165
0.674846 0.52195 0.546151
0.796231 0.5402 0.558923
0.898314 0.563729 0.576898
0 0.633494 0.536767
0 0.650339 0.548852
0.0677806 0.666194 0.559487
0.21323 0.677562 0.565362
0.383291 0.682826 0.564843
0.544564 0.68983 0.566186
0.688731 0.701015 0.571786
0.804547 0.718059 0.584222
0.901915 0.737652 0.599603
0 0.80415 0.570245
0 0.823377 0.585672
0.097673 0.839612 0.597803
0.248005 0.848417 0.602426
0.416846 0.850294 0.600748
0.572946 0.853071 0.600168
0.709102 0.859327 0.603708
0.817197 0.87071 0.61326
0.910033 0.883848 0.625208
0 0.968505 0.623774
0.0157168 0.98378 0.636881
0.141329 0.994263 0.645045
0.292683 0.995499 0.643915
0.454154 0.991394 0.638071
0.603113 0.989227 0.634302
0.730571 0.991531 0.635172
0.831968 0.999969 0.642527
0.922988 1 0.652354
0 0 0.716854
0.0166629 0 0.710613
0.124163 0 0.700465
0.25391 0 0.683131
0.397864 0 0.661357
0.533288 0 0.641489
0.655116 0 0.625742
0.754635 0 0.616709
0.83975 0 0.613214
0 0.0241703 0.710796
0.00485237 0.0205844 0.703456
0.109911 0.014313 0.692912
0.235828 0.00263981 0.676051
0.380682 0 0.654612
0.51902 0 0.635798
0.64538 0 0.621347
0.750668 0 0.614755
0.840604 0 0.614649
0 0.110475 0.700206
0 0.107973 0.693828
0.0971695 0.10367 0.685069
0.223224 0.0954299 0.672053
0.371252 0.0830701 0.654154
0.514961 0.0736858 0.639078
0.64773 0.068986 0.628534
0.760067 0.072282 0.626978
0.856413 0.0822003 0.632532
0 0.208392 0.68571
0 0.209369 0.683146
0.0855421 0.20911 0.678981
0.215259 0.206195 0.671839
0.369314 0.1991 0.659953
0.520226 0.195178 0.650996
0.660273 0.196155 0.646708
0.779461 0.205341 0.651347
0.881575 0.221271 0.663172
0 0.328161 0.670481
0 0.33463 0.672984
0.0733043 0.340566 0.675029
0.208133 0.344045 0.673869
0.36849 0.342885 0.667735
0.525902 0.344244 0.663584
0.670817 0.350545 0.664607
0.792294 0.364858 0.673106
0.895628 0.385855 0.68809
0 0.471199 0.666835
0 0.484031 0.674464
0.0702678 0.495949 0.680766
0.209552 0.504189 0.683314
0.375067 0.507378 0.680217
0.535973 0.513039 0.679591
0.682582 0.524193 0.684062
0.803662 0.542779 0.695567
0.905653 0.566232 0.711559
0 0.634318 0.675654
0 0.651759 0.686564
0.0764019 0.667994 0.696056
0.222477 0.679576 0.700862
0.392493 0.684977 0.699748
0.553079 0.692073 0.70045
0.696315 0.703059 0.705028
0.811231 0.719783 0.715419
0.908019 0.738888 0.728023
0 0.806302 0.705989
0 0.825467 0.719448
0.106981 0.841642 0.729656
0.257465 0.849943 0.732555
0.425284 0.851209 0.729427
0.580621 0.853773 0.727779
0.715785 0.859586 0.729747
0.822797 0.870619 0.737209
0.915175 0.883665 0.746639
0 0.96997 0.752804
0.0239567 0.984909 0.763836
0.149371 0.994858 0.769665
0.30074 0.995377 0.766781
0.461357 0.990906 0.759701
0.609522 0.988586 0.754681
0.736156 0.99089 0.754376
0.837049 0.999191 0.759625
0.927749 1 0.7673
0 0 0.813977
0.019501 0 0.808225
0.126574 0 0.798871
0.255634 0 0.782818
0.399435 0 0.762585
0.534752 0 0.744579
0.656596 0 0.730251
0.756634 0 0.722957
0.841932 0 0.720424
0 0.0212406 0.809888
0.00712596 0.0175631 0.803296
0.112154 0.0112306 0.793896
0.237781 0 0.778744
0.382589 0 0.759396
0.52108 0 0.742611
0.647791 0 0.730037
0.75378 0 0.724987
0.844297 0 0.725978
0 0.10753 0.802594
0 0.10515 0.797421
0.10016 0.101106 0.790066
0.226307 0.0932631 0.778775
0.374701 0.081239 0.762844
0.518639 0.0722362 0.749615
0.651865 0.0681621 0.741253
0.765042 0.0719921 0.740627
0.862043 0.0824598 0.74696
0 0.20618 0.79266
0 0.207553 0.791119
0.0906081 0.207736 0.788296
0.220569 0.205463 0.782757
0.375006 0.199008 0.772519
0.525963 0.195514 0.76466
0.666712 0.19733 0.761715
0.786435 0.20705 0.766644
0.888655 0.223407 0.777981
0 0.32752 0.781872
0 0.334401 0.784939
0.0805982 0.3411 0.787762
0.215793 0.345296 0.787533
0.376562 0.344808 0.782055
0.533745 0.346624 0.778332
0.678584 0.353368 0.779355
0.800229 0.368399 0.787366
0.903777 0.389609 0.80116
0 0.472572 0.781018
0 0.485786 0.788052
0.0787213 0.498466 0.794308
0.218723 0.507149 0.796551
0.38471 0.510811 0.7935
0.545052 0.517143 0.792477
0.691615 0.528679 0.796353
0.812299 0.547631 0.806485
0.91371 0.570932 0.820356
0 0.637568 0.789288
0 0.65536 0.7991
0.0863661 0.672145 0.808011
0.233127 0.683787 0.811719
0.402564 0.68893 0.809247
0.562554 0.696468 0.809018
0.70486 0.707286 0.812009
0.818769 0.723735 0.82034
0.914977 0.742397 0.830808
0 0.810742 0.816739
0 0.829923 0.828351
0.117113 0.845762 0.836912
0.267826 0.853468 0.83798
0.434607 0.854276 0.833204
0.589059 0.856565 0.830274
0.723079 0.862013 0.830457
0.829145 0.872709 0.835996
0.921508 0.885527 0.843488
0 0.973449 0.858
0.0328374 0.988037 0.866819
0.158114 0.997345 0.870863
0.309438 0.997177 0.865995
0.469459 0.992462 0.857466
0.616785 0.990036 0.851102
0.742596 0.992401 0.849577
0.842847 1 0.853666
0.933761 1 0.859953
0 0 0.897017
0.0229038 0 0.891432
0.129366 0 0.8822
0.258213 0 0.866636
0.401785 0 0.846906
0.537026 0 0.829694
0.658946 0 0.81622
0.759579 0 0.809369
0.845258 0 0.807706
0 0.0196536 0.893645
0.0102998 0.0159457 0.887312
0.115099 0.00959792 0.878294
0.240635 0 0.864073
0.385489 0 0.845563
0.524193 0 0.82977
0.651347 0 0.818311
0.757809 0 0.814206
0.84892 0 0.815991
0 0.106157 0.887968
0 0.104082 0.883223
0.104341 0.100252 0.87686
0.230655 0.092958 0.866484
0.379019 0.0814527 0.85182
0.523079 0.0728466 0.839582
0.657252 0.0694438 0.832441
0.770977 0.0739452 0.832746
0.868605 0.0849928 0.839612
0 0.20589 0.880522
0 0.207691 0.879835
0.0966964 0.208438 0.878019
0.227115 0.206775 0.873487
0.381796 0.200977 0.864286
0.533227 0.198077 0.857435
0.674311 0.200671 0.855406
0.794415 0.211093 0.860655
0.896757 0.227787 0.871687
0 0.329015 0.872938
0 0.336446 0.876402
0.0887617 0.343755 0.880003
0.224506 0.348562 0.880247
0.385473 0.348623 0.875257
0.542748 0.351049 0.872023
0.687388 0.35848 0.87277
0.809262 0.374044 0.88101
0.912764 0.395789 0.894133
0 0.476188 0.873823
0 0.489921 0.880888
0.0882124 0.502815 0.887175
0.228885 0.512169 0.889281
0.394781 0.516045 0.886
0.555184 0.523217 0.885283
0.701198 0.535134 0.888609
0.82118 0.553979 0.897856
0.92253 0.577417 0.911055
0 0.642496 0.882109
0 0.661143 0.891569
0.0971084 0.678248 0.900008
0.244419 0.689937 0.902907
0.413474 0.695048 0.899977
0.572595 0.702419 0.899275
0.713771 0.712917 0.901488
0.82649 0.728634 0.908522
0.922347 0.747112 0.918181
0 0.816495 0.908324
0.000762951 0.83592 0.919448
0.127718 0.851331 0.927138
0.278691 0.858305 0.927016
0.444358 0.858701 0.921431
0.597742 0.860563 0.917464
0.730755 0.865507 0.917281
0.835798 0.875731 0.922026
0.927962 0.888365 0.929046
0 0.978119 0.947509
0.0422217 0.992264 0.955291
0.167102 1 0.958267
0.31809 0.999832 0.952316
0.477592 0.995071 0.943297
0.624186 0.992477 0.936446
0.749111 0.994827 0.934646
0.848905 1 0.938689
0.939941 1 0.94493
