luts/Magenta Day 01.cube
TITLE "Generated by Resolve"
LUT_3D_SIZE 5
0 0 0
0 0 0
0.00831617 0.000213626 0.00140383
0.109209 0.0161288 0.0245212
0.293034 0.0145113 0.031693
0.0436255 0.0529946 0.0390784
0.116335 0.0850385 0.0598459
0.249928 0.104356 0.0687572
0.4336 0.113237 0.0696422
0.642023 0.11812 0.069688
0.0830396 0.240803 0.0673381
0.196445 0.272908 0.0910658
0.353216 0.295064 0.113237
0.531106 0.313909 0.131807
0.725063 0.330632 0.147951
0.134112 0.459648 0.116243
0.260014 0.495567 0.153674
0.422721 0.523598 0.182269
0.606119 0.547951 0.206714
0.80528 0.569879 0.228382
0.197925 0.70071 0.178607
0.328908 0.741711 0.221469
0.496437 0.774548 0.255192
0.684413 0.803494 0.284535
0.887953 0.829786 0.310872
0 0 0
0 0 0
0.032929 0.00848402 0.0207065
0.151003 0.0195621 0.0612039
0.347845 0.0137026 0.0884108
0.0533303 0.0655833 0.0859236
0.131594 0.0952926 0.128634
0.270665 0.112428 0.156039
0.454856 0.120943 0.170718
0.656718 0.127947 0.1794
0.0902419 0.25272 0.172
0.207492 0.284016 0.202441
0.364965 0.306813 0.225452
0.54345 0.326268 0.244663
0.738003 0.343572 0.261418
0.14667 0.472221 0.229328
0.273136 0.508705 0.267353
0.436377 0.537255 0.296513
0.620264 0.562112 0.321477
0.819898 0.584497 0.343664
0.212253 0.715038 0.293568
0.343709 0.756512 0.336934
0.511681 0.789792 0.37113
0.700084 0.81915 0.400916
0.904021 0.845869 0.427695
0 0 0
0 0 0.000579843
0.0607767 0.0151522 0.0620584
0.193668 0.0205386 0.133959
0.399512 0.0104829 0.19144
0.0608682 0.0761273 0.17319
0.143893 0.102831 0.246189
0.287114 0.117739 0.295842
0.470283 0.126329 0.323919
0.66511 0.135988 0.337194
0.0957198 0.261189 0.327749
0.215854 0.292378 0.360555
0.373968 0.315816 0.384253
0.553063 0.335866 0.404105
0.748165 0.353735 0.421454
0.156481 0.482033 0.388983
0.283497 0.519066 0.427604
0.447257 0.548119 0.457298
0.631632 0.573465 0.482795
0.831724 0.596323 0.50547
0.223789 0.726574 0.45507
0.355703 0.768505 0.498924
0.524102 0.802213 0.533578
0.712932 0.831998 0.563821
0.917281 0.859113 0.591028
0 0 0
0.0126802 0.00451667 0.0302892
0.0897841 0.019379 0.135622
0.234653 0.019028 0.246357
0.446067 0.00553903 0.335988
0.0660105 0.0842451 0.30132
0.153414 0.107988 0.404425
0.299855 0.121294 0.472511
0.480919 0.130877 0.507607
0.671839 0.142718 0.520546
0.101152 0.267674 0.511238
0.222827 0.299351 0.544152
0.381567 0.323415 0.568521
0.561242 0.344045 0.588998
0.756893 0.362463 0.606943
0.164874 0.490425 0.574105
0.292424 0.527993 0.613291
0.456687 0.557565 0.643534
0.641535 0.583383 0.669535
0.8421 0.606699 0.692714
0.23386 0.73666 0.641993
0.366232 0.779034 0.68632
0.535073 0.813184 0.721447
0.7243 0.843381 0.752117
0.929046 0.870893 0.779751
0 0 0.0039826
0.0304723 0.0118868 0.0952316
0.118105 0.0207523 0.249119
0.272343 0.0151369 0.400671
0.486381 0 0.51931
0.0687114 0.0897841 0.470542
0.160296 0.11104 0.598886
0.309239 0.123659 0.677897
0.487297 0.135424 0.710796
0.677592 0.14847 0.723018
0.106477 0.272999 0.713252
0.228809 0.305333 0.746883
0.388174 0.330007 0.771893
0.568414 0.351217 0.792996
0.764599 0.370169 0.81149
0.172244 0.497795 0.778302
0.300328 0.535882 0.818051
0.46508 0.565957 0.848814
0.650416 0.592248 0.875334
0.851423 0.616022 0.898985
0.242893 0.745693 0.847974
0.375708 0.78851 0.89276
0.544976 0.823087 0.928344
0.734615 0.853697 0.959457
0.939742 0.88159 0.987503
