luts/Magenta Day 01.cube
TITLE "Generated by Resolve"
LUT_3D_SIZE 33
0 0 0
0 0 0
0 0 0
0 0 0
0 0 0
0 0 0
0 0 0
0 0 0
0 0 0
0 0 0
0 0 0
0 0 0
0 0 0
0 0 0
0 0 0
0.00265507 0 0
0.00831617 0.000213626 0.00140383
0.016846 0.00300603 0.00489815
0.0264439 0.00560006 0.00827039
0.0371557 0.00798047 0.0114748
0.049073 0.0101167 0.0145113
0.0622263 0.0120089 0.0173495
0.0765698 0.0136568 0.0199741
0.092195 0.0150454 0.022385
0.109209 0.0161288 0.0245212
0.127565 0.0169223 0.0263981
0.147265 0.0174258 0.0280003
0.168307 0.0176394 0.0293278
0.190677 0.0175784 0.0303655
0.214374 0.0172122 0.0311284
0.239353 0.0165866 0.0316014
0.265583 0.015671 0.0317845
0.293034 0.0145113 0.031693
0 0 0
0 0 0
0 0 0
0 0 0
0 0 0
0 0 0
0 0 0
0 0 0
0 0 0
0 0 0
0 0 0
0 0 0
0.0031281 0 0
0.00958267 0.00180056 0.00306706
0.0175174 0.00479133 0.00671397
0.0264134 0.00761425 0.0102541
0.0363317 0.0102541 0.0136416
0.0473487 0.0126802 0.0168917
0.0594949 0.0148928 0.0199435
0.0726635 0.0168917 0.0228275
0.0871595 0.0186313 0.0254673
0.102876 0.0200961 0.0278935
0.11986 0.0213016 0.0300603
0.138109 0.0222477 0.0319677
0.157626 0.0229191 0.0336309
0.178408 0.0233158 0.0350042
0.200427 0.0234531 0.0361181
0.223697 0.0233158 0.0369573
0.248157 0.0229191 0.0375372
0.273793 0.0222782 0.0378424
0.300542 0.0214084 0.0378882
0.328405 0.0202945 0.0376898
0.35729 0.018967 0.037232
0 0 0
0 0 0
0 0 0
0 0 0
0 0 0
0 0 0
0 0 0
0 0 0
0 0 0
0.00383001 0.000183108 0.000869764
0.0103151 0.00350958 0.00468452
0.0175784 0.00674449 0.00843824
0.0256962 0.00982681 0.0120851
0.0347448 0.0127565 0.0156252
0.04477 0.0155032 0.0190127
0.0558328 0.0180362 0.0222477
0.0678264 0.0204166 0.0252995
0.0810559 0.0225376 0.0281529
0.0954147 0.0244297 0.0307774
0.110964 0.0260777 0.0331731
0.127687 0.0274815 0.0353246
0.145617 0.0286259 0.037232
0.164736 0.0295109 0.0388952
0.185061 0.0301671 0.0402838
0.206546 0.0305486 0.0414282
0.229191 0.0307012 0.042298
0.252964 0.0306096 0.0429236
0.277852 0.0302892 0.0433051
0.303777 0.0297398 0.0434424
0.330724 0.0289769 0.0433356
0.358633 0.0280156 0.0429999
0.387472 0.0268711 0.0424506
0.417166 0.0255589 0.0417029
0 0 0
0 0 0
0 0 0
0 0 0
0 0 0
0 0 0
0.00468452 0.00180056 0.00236515
0.0105745 0.00535592 0.00624094
0.0171206 0.00883497 0.010071
0.0244297 0.012192 0.0138094
0.0325322 0.0154269 0.0174563
0.0415351 0.0184939 0.0209659
0.0513771 0.0214237 0.0243229
0.0622568 0.024155 0.027512
0.0741741 0.026688 0.030518
0.0871443 0.0290074 0.0333257
0.101198 0.0311131 0.0359045
0.116381 0.03299 0.0382696
0.132677 0.0346227 0.0403906
0.150134 0.0360266 0.0422675
0.168704 0.0372015 0.0439002
0.188403 0.038117 0.045304
0.209232 0.038819 0.0464485
0.231144 0.0392767 0.0473487
0.254108 0.0395209 0.0480049
0.278111 0.0395361 0.0484321
0.30312 0.039353 0.0486305
0.329091 0.0389715 0.0486
0.355962 0.0383917 0.0483864
0.383703 0.0376593 0.0479591
0.412253 0.0367437 0.0473487
0.441535 0.0356909 0.0465705
0.471534 0.0345159 0.0456397
0 0 0
0 0 0
0.000488289 0 0
0.00520333 0.00350958 0.00376898
0.0104677 0.00729381 0.00769055
0.0162814 0.011017 0.0115663
0.0227207 0.0146792 0.0153658
0.0298772 0.0182193 0.019089
0.0378119 0.0216526 0.0226749
0.0465095 0.0249485 0.026154
0.0561379 0.0280766 0.0294499
0.0666972 0.0310369 0.032578
0.0782483 0.0337987 0.035523
0.0908064 0.0363622 0.0382696
0.104402 0.0387274 0.0407874
0.119081 0.0408637 0.0430915
0.134813 0.0427863 0.045182
0.151629 0.04448 0.0470283
0.169543 0.0459449 0.0486305
0.188525 0.0471962 0.0500038
0.20856 0.0482185 0.0511482
0.229633 0.049012 0.0520638
0.251713 0.0496071 0.0527504
0.2748 0.0500038 0.0532235
0.298817 0.0501869 0.0534829
0.323751 0.0501869 0.0535286
0.349538 0.0500191 0.0534066
0.376135 0.0496834 0.0530861
0.40351 0.0492103 0.0526131
0.431586 0.0485847 0.0519875
0.460319 0.047837 0.0512245
0.489647 0.0469825 0.0503395
0.519493 0.0460365 0.0493477
0.00563058 0.00521859 0.0049897
0.0102083 0.00926223 0.00894179
0.015259 0.0132753 0.0128481
0.0208133 0.0172274 0.0166934
0.026978 0.0211032 0.0204623
0.0337987 0.0248875 0.0241093
0.0413367 0.0285801 0.0276646
0.0496834 0.0321202 0.0310521
0.0588693 0.0354925 0.034287
0.0689708 0.0387121 0.0373388
0.0800031 0.0417639 0.0402075
0.0920119 0.0446021 0.0428779
0.105013 0.0472572 0.0453346
0.119036 0.0496986 0.0475929
0.134096 0.0519265 0.0496071
0.150195 0.0539559 0.0514076
0.16733 0.0557565 0.0529946
0.185504 0.0573434 0.0543526
0.204685 0.0587167 0.0554971
0.224842 0.0598764 0.0564126
0.245991 0.0608377 0.0571298
0.268086 0.0616007 0.0576333
0.291066 0.0621805 0.0579538
0.314931 0.0625925 0.0580911
0.33962 0.0628214 0.0580606
0.365087 0.0628977 0.0578622
0.391272 0.0628214 0.0575265
0.418143 0.0626383 0.0570535
0.445624 0.0623178 0.0564584
0.473686 0.0619059 0.0557565
0.502235 0.0614023 0.0549783
0.531228 0.0608377 0.0541238
0.560601 0.0602121 0.0532082
0.0192874 0.0196689 0.0175784
0.0242771 0.0239414 0.0214237
0.0299077 0.0281224 0.0251469
0.0362097 0.0322118 0.028748
0.0432136 0.0361639 0.0322118
0.0510109 0.0400092 0.0355383
0.059617 0.0437018 0.0386816
0.0690929 0.0472267 0.0416571
0.079469 0.0505684 0.0444495
0.0908064 0.0537423 0.0470436
0.10309 0.0567178 0.0494392
0.116381 0.0594949 0.0516213
0.130648 0.0620584 0.0536049
0.145937 0.0644236 0.0553597
0.162219 0.0665751 0.0569162
0.179492 0.0685283 0.0582589
0.197757 0.0702678 0.0594034
0.216968 0.071809 0.0603342
0.237125 0.0731518 0.0610819
0.258198 0.0742962 0.0616464
0.28014 0.0752728 0.0620279
0.302922 0.0760662 0.0622568
0.326497 0.0767071 0.0623178
0.350835 0.0771801 0.0622416
0.37586 0.0775311 0.0620432
0.401526 0.07776 0.0617227
0.427802 0.0778668 0.0613107
0.454627 0.0778668 0.0608072
0.48191 0.0778058 0.0602274
0.509636 0.0776684 0.059617
0.537697 0.0774701 0.0589609
0.566064 0.0772564 0.0582895
0.594644 0.0770275 0.0576181
0.0321508 0.0355688 0.0291142
0.0374609 0.0400549 0.0327306
0.0436713 0.0443885 0.0361486
0.0506752 0.0485847 0.0394141
0.0585184 0.0526284 0.0424964
0.067216 0.0565042 0.0453956
0.0768139 0.0602121 0.048127
0.0873274 0.0637217 0.0506447
0.0988022 0.0670634 0.0529793
0.111238 0.0701915 0.0551156
0.124636 0.0731212 0.0570535
0.139025 0.0758526 0.0587778
0.154391 0.0783703 0.0603189
0.170733 0.0806897 0.0616617
0.188022 0.0828107 0.0628061
0.206256 0.0847181 0.0637675
0.225406 0.0864576 0.0645609
0.245441 0.0879988 0.0651865
0.266316 0.0893568 0.0656443
0.288014 0.090547 0.0659648
0.310491 0.0915847 0.0661479
0.3337 0.0924697 0.0661936
0.35758 0.0932174 0.0661479
0.382101 0.093843 0.0659953
0.407202 0.0943618 0.0657664
0.432822 0.0947738 0.0654765
0.458915 0.0951247 0.0651255
0.485405 0.0953994 0.064744
0.51223 0.095613 0.0643473
0.539345 0.0958114 0.0639506
0.566674 0.0959945 0.0635843
0.594156 0.0961624 0.0632486
0.621698 0.096376 0.0629587
0.0436255 0.0529946 0.0390784
0.0492561 0.0577096 0.0424201
0.0560006 0.0621805 0.0454871
0.0637064 0.0664683 0.0483711
0.0723278 0.070573 0.0510414
0.0818952 0.0744793 0.0535286
0.0924086 0.0782025 0.0558328
0.103899 0.0817273 0.0579385
0.116335 0.0850385 0.0598459
0.129763 0.0881514 0.0615702
0.144152 0.0910506 0.0631113
0.159503 0.0937514 0.0644541
0.175784 0.0962539 0.0656443
0.192996 0.098558 0.0666514
0.211109 0.100679 0.0675059
0.230106 0.102602 0.0682078
0.249928 0.104356 0.0687572
0.270558 0.105928 0.0691844
0.291936 0.107362 0.0694896
0.314046 0.108629 0.0697032
0.336828 0.109773 0.06981
0.36022 0.110796 0.0698558
0.384192 0.111696 0.0698253
0.408667 0.112505 0.069749
0.4336 0.113237 0.0696422
0.45893 0.113909 0.0695048
0.484596 0.114519 0.069398
0.510536 0.115114 0.0692912
0.53669 0.115679 0.0692149
0.562966 0.116243 0.0692149
0.589334 0.116823 0.069276
0.615717 0.117449 0.0694285
0.642023 0.11812 0.069688
0.0534066 0.0720073 0.0472114
0.0593271 0.0769207 0.0502785
0.0666209 0.0815137 0.0530098
0.0749828 0.085893 0.0555276
0.0843671 0.0900435 0.0578317
0.0947585 0.0939803 0.0599374
0.106142 0.0977035 0.0618753
0.118502 0.101228 0.0636149
0.131838 0.104524 0.0651865
0.146136 0.107622 0.0665751
0.161379 0.110521 0.0678111
0.177554 0.113207 0.0688945
0.194614 0.115709 0.0698405
0.212543 0.118029 0.070634
0.231312 0.120165 0.0713207
0.250889 0.122118 0.07187
0.271199 0.123919 0.072343
0.292241 0.125582 0.0727092
0.313939 0.127092 0.0730144
0.336248 0.128496 0.0732433
0.359136 0.129778 0.0734417
0.382528 0.130953 0.0736095
0.406363 0.132067 0.0737621
0.43061 0.133089 0.0739147
0.455177 0.134081 0.0740826
0.480018 0.135027 0.0742809
0.505058 0.135958 0.0745403
0.530251 0.136889 0.074876
0.55552 0.137819 0.075288
0.580789 0.138796 0.0758221
0.606027 0.139818 0.076463
0.631098 0.140917 0.0772717
0.65597 0.142107 0.078233
0.0613413 0.0925917 0.0534829
0.0675822 0.0976577 0.0563058
0.0754101 0.102358 0.0587472
0.0844434 0.106798 0.0609598
0.0945754 0.110979 0.062974
0.10573 0.114931 0.0647898
0.117922 0.118654 0.0664378
0.131106 0.122164 0.0679332
0.145235 0.125475 0.0692607
0.160327 0.128557 0.0704509
0.176318 0.131441 0.0715038
0.193179 0.134142 0.0724346
0.210895 0.13666 0.0732586
0.229404 0.138994 0.073991
0.248676 0.141176 0.0746319
0.268666 0.143191 0.0751965
0.289326 0.145068 0.0757153
0.310597 0.146822 0.0761883
0.332448 0.14847 0.0766155
0.354803 0.149996 0.0770428
0.377615 0.151461 0.0774701
0.400824 0.152834 0.0779278
0.424369 0.154162 0.0784009
0.448188 0.155444 0.0789349
0.472221 0.15671 0.0795453
0.496391 0.157961 0.0802319
0.520653 0.159243 0.0810407
0.54493 0.16054 0.0819562
0.569131 0.161883 0.0830243
0.593225 0.163302 0.0842451
0.617243 0.164767 0.0855879
0.641474 0.166201 0.0869154
0.665934 0.167636 0.0882124
0.0675059 0.114641 0.0580148
0.0740826 0.119844 0.0606699
0.0824903 0.12462 0.0629129
0.0921798 0.129076 0.0649271
0.103029 0.133288 0.0667277
0.114931 0.13724 0.0683757
0.127886 0.140963 0.0698558
0.141802 0.144457 0.0712139
0.15668 0.147753 0.0724346
0.172457 0.150835 0.0735485
0.18909 0.153719 0.0745556
0.206546 0.156435 0.0754864
0.224781 0.158968 0.0763409
0.243748 0.161349 0.0771344
0.263401 0.163577 0.0778973
0.28368 0.165682 0.0786297
0.304524 0.167651 0.0793317
0.325902 0.169528 0.0800641
0.347753 0.171298 0.0807965
0.369985 0.173007 0.0815595
0.392584 0.174655 0.0823835
0.415457 0.176242 0.0832685
0.438544 0.177813 0.0842451
0.461799 0.17937 0.0853132
0.48513 0.180941 0.0865187
0.508476 0.182544 0.0878614
0.531792 0.184176 0.0893568
0.555215 0.185809 0.0908827
0.578882 0.187427 0.0924086
0.602762 0.189029 0.0938888
0.626886 0.1906 0.0953536
0.651225 0.192142 0.096788
0.675776 0.193683 0.0981918
0.0721294 0.138018 0.0610819
0.0791028 0.143313 0.0636759
0.0880751 0.148119 0.0658274
0.098436 0.152605 0.0677501
0.109972 0.156802 0.0694896
0.122606 0.160754 0.0710613
0.136263 0.164446 0.0725261
0.150881 0.167941 0.0738689
0.1664 0.171206 0.0751202
0.182788 0.174289 0.0763104
0.199985 0.177188 0.0774243
0.217929 0.179919 0.0784924
0.236591 0.182483 0.07953
0.255894 0.184909 0.0805524
0.275807 0.187213 0.0815747
0.296239 0.189395 0.0826123
0.317174 0.191485 0.0836957
0.338506 0.193484 0.0848096
0.36022 0.195422 0.0859998
0.382208 0.197314 0.0872816
0.40444 0.199161 0.0886397
0.426841 0.200992 0.090135
0.449332 0.202838 0.0917525
0.471901 0.204685 0.0935073
0.494697 0.206516 0.0952621
0.517739 0.208301 0.0969711
0.541024 0.210086 0.0986496
0.564553 0.211826 0.100313
0.588312 0.21355 0.10193
0.612314 0.215244 0.103532
0.63653 0.216907 0.105089
0.66096 0.21857 0.10663
0.685618 0.220188 0.108156
0.0755322 0.162539 0.0630655
0.082948 0.167895 0.0657206
0.0925307 0.172717 0.0679026
0.103548 0.177188 0.0698711
0.11577 0.181369 0.0716564
0.129091 0.185275 0.0733196
0.14342 0.188952 0.0748913
0.158663 0.192416 0.0763867
0.174792 0.195682 0.077821
0.191714 0.198749 0.0792096
0.209369 0.201648 0.0805829
0.227726 0.204395 0.0819409
0.246708 0.207004 0.0833295
0.266255 0.209491 0.0847334
0.286305 0.211872 0.086183
0.306798 0.214145 0.0876936
0.327672 0.216358 0.0892805
0.348867 0.218509 0.090959
0.370306 0.220615 0.0927596
0.391928 0.222705 0.0946975
0.413748 0.224765 0.0966964
0.435843 0.226795 0.0986801
0.458213 0.228794 0.100603
0.480842 0.230747 0.102495
0.503731 0.232685 0.104356
0.526879 0.234577 0.106188
0.550271 0.236454 0.107973
0.573907 0.2383 0.109728
0.597772 0.240116 0.111467
0.621866 0.241917 0.113161
0.646174 0.243687 0.114839
0.67071 0.245441 0.116472
0.69546 0.247166 0.118105
0.078172 0.187991 0.0644388
0.0860761 0.193378 0.0672618
0.0962844 0.198184 0.0696117
0.107958 0.202609 0.0717479
0.120851 0.206744 0.0737469
0.134829 0.21062 0.075639
0.149783 0.214267 0.0774701
0.165606 0.217685 0.0792554
0.182254 0.220935 0.0810101
0.199649 0.223987 0.0827802
0.2177 0.226902 0.0845502
0.236378 0.229679 0.0863661
0.255589 0.232319 0.0882429
0.275273 0.234867 0.0901656
0.295369 0.237324 0.0922103
0.315816 0.239719 0.0943465
0.336538 0.242069 0.0966049
0.357549 0.244358 0.0988785
0.378866 0.246616 0.101091
0.400504 0.248829 0.103258
0.422415 0.250996 0.105394
0.444617 0.253132 0.107469
0.467094 0.255222 0.109514
0.48983 0.257282 0.111513
0.512825 0.259312 0.113481
0.536065 0.261311 0.115404
0.559548 0.263294 0.117311
0.583276 0.265232 0.119173
0.607233 0.267155 0.121004
0.631434 0.269047 0.122805
0.655833 0.270909 0.124575
0.680461 0.272755 0.126329
0.705318 0.274571 0.128038
0.0804913 0.21416 0.0656748
0.0889448 0.219532 0.0688029
0.099794 0.224292 0.0714733
0.112139 0.228672 0.07393
0.125689 0.232746 0.0762798
0.140291 0.236561 0.0785382
0.155825 0.240146 0.0807813
0.172183 0.243534 0.0830091
0.189303 0.246754 0.0852522
0.207095 0.249805 0.0875257
0.225467 0.25272 0.0898604
0.244373 0.255512 0.0922866
0.263737 0.258213 0.0948043
0.283482 0.260838 0.0974136
0.303593 0.263386 0.0999619
0.324041 0.265888 0.102464
0.344839 0.26833 0.104891
0.365957 0.270741 0.107271
0.387396 0.273091 0.109606
0.409125 0.27541 0.111879
0.431144 0.277668 0.114107
0.453437 0.279911 0.116304
0.476005 0.282109 0.118456
0.498848 0.28426 0.120562
0.521935 0.286397 0.122621
0.545281 0.288487 0.124666
0.568856 0.290562 0.126665
0.592691 0.292607 0.128618
0.616739 0.294606 0.130556
0.641016 0.29659 0.132464
0.665522 0.298558 0.134325
0.690242 0.300496 0.136172
0.715175 0.302403 0.137987
0.0830396 0.240803 0.0673381
0.0920882 0.246128 0.0709087
0.103593 0.250813 0.0740215
0.116594 0.2551 0.076936
0.1308 0.259113 0.0797742
0.145998 0.262852 0.0825666
0.162066 0.266392 0.085359
0.178912 0.269734 0.0881819
0.196445 0.272908 0.0910658
0.214572 0.275959 0.0940108
0.233188 0.278889 0.0969863
0.252232 0.281743 0.0998856
0.271702 0.284535 0.102693
0.291554 0.287251 0.105425
0.311757 0.289906 0.108095
0.332326 0.292515 0.110704
0.353216 0.295064 0.113237
0.374441 0.297566 0.115724
0.395972 0.300023 0.118166
0.417807 0.302434 0.120546
0.439918 0.304799 0.122881
0.462318 0.307134 0.125185
0.484977 0.309422 0.127428
0.507912 0.311681 0.129641
0.531106 0.313909 0.131807
0.554528 0.316091 0.133944
0.57821 0.318257 0.136034
0.602121 0.320394 0.138109
0.626276 0.322484 0.140139
0.650645 0.324559 0.142138
0.675242 0.326619 0.144106
0.700053 0.328634 0.146044
0.725063 0.330632 0.147951
0.0863508 0.267674 0.0699779
0.0960555 0.272908 0.0741283
0.108232 0.277501 0.077821
0.121889 0.281697 0.0813458
0.136706 0.285603 0.0848096
0.152483 0.289281 0.0882734
0.169055 0.292744 0.0917678
0.186282 0.296071 0.0951858
0.204044 0.29929 0.0984817
0.222309 0.302419 0.101671
0.241032 0.305455 0.104753
0.260182 0.308415 0.107759
0.279744 0.311299 0.110674
0.299702 0.314122 0.113512
0.320012 0.316884 0.116289
0.340673 0.319585 0.119005
0.361669 0.322225 0.121645
0.382986 0.324834 0.124239
0.404623 0.327382 0.126787
0.426535 0.329885 0.129274
0.448753 0.332357 0.131701
0.471244 0.334783 0.134096
0.494011 0.337163 0.136446
0.517021 0.339513 0.138766
0.540307 0.341833 0.141024
0.563836 0.344106 0.143252
0.587594 0.346365 0.145449
0.611597 0.348577 0.147601
0.635843 0.350774 0.149737
0.660304 0.352941 0.151827
0.684977 0.355077 0.153887
0.70988 0.357183 0.155917
0.734981 0.359274 0.157916
0.0909895 0.294545 0.0741741
0.101381 0.299657 0.0790265
0.11426 0.304112 0.0834211
0.128557 0.308202 0.0876631
0.143816 0.312078 0.0916915
0.159854 0.315785 0.0955215
0.176577 0.319341 0.0991836
0.193896 0.322759 0.102708
0.211765 0.326085 0.106111
0.230137 0.32932 0.109407
0.248951 0.332448 0.112596
0.268208 0.335515 0.115709
0.287877 0.338506 0.11873
0.307927 0.341421 0.121675
0.328328 0.344274 0.124559
0.349096 0.347082 0.127367
0.370184 0.349828 0.130129
0.391608 0.352514 0.132815
0.413321 0.355169 0.135454
0.43534 0.357763 0.138048
0.457649 0.360327 0.140581
0.480232 0.362829 0.143069
0.503075 0.365316 0.14551
0.526192 0.367758 0.147921
0.549554 0.370153 0.150286
0.573175 0.372534 0.152605
0.597025 0.374868 0.154894
0.621118 0.377172 0.157137
0.645441 0.379446 0.159365
0.669978 0.381704 0.161547
0.694743 0.383917 0.163699
0.719738 0.386114 0.16582
0.744915 0.388281 0.16791
0.0974441 0.321172 0.0803998
0.108293 0.326238 0.0857557
0.121447 0.330739 0.0904707
0.135866 0.334936 0.0948501
0.151232 0.338918 0.09897
0.167376 0.342718 0.102907
0.184192 0.346365 0.106676
0.201617 0.349905 0.110307
0.219593 0.353323 0.113817
0.238041 0.356649 0.11722
0.256977 0.359884 0.120531
0.276326 0.363043 0.123735
0.296086 0.366125 0.126864
0.316228 0.369146 0.129915
0.336736 0.372091 0.132891
0.357595 0.37499 0.135805
0.378775 0.377829 0.138659
0.400275 0.380606 0.141451
0.422095 0.383352 0.144183
0.444205 0.386038 0.146868
0.46659 0.388693 0.149493
0.489265 0.391287 0.152087
0.5122 0.393851 0.15462
0.535409 0.396384 0.157122
0.558862 0.398871 0.159579
0.582559 0.401328 0.16199
0.6065 0.403754 0.16437
0.630671 0.406149 0.16672
0.655085 0.408515 0.169024
0.679713 0.410834 0.171298
0.704555 0.413138 0.173526
0.729625 0.415427 0.175738
0.754894 0.41767 0.17792
0.104555 0.348028 0.0873579
0.115511 0.353201 0.0928206
0.128771 0.357809 0.0976425
0.143282 0.362097 0.102113
0.15874 0.366171 0.106355
0.17499 0.370077 0.110399
0.191913 0.373831 0.114275
0.20943 0.377462 0.118013
0.227497 0.380987 0.12163
0.246052 0.384405 0.125124
0.26508 0.387732 0.128527
0.28452 0.390982 0.131838
0.304372 0.394156 0.135073
0.324605 0.397269 0.138216
0.345205 0.40032 0.141299
0.366155 0.403296 0.144305
0.387427 0.406226 0.14725
0.409018 0.409094 0.150134
0.43093 0.411933 0.152972
0.453117 0.41471 0.155749
0.475593 0.417441 0.158465
0.49836 0.420127 0.161151
0.521385 0.422782 0.163775
0.544671 0.425391 0.166369
0.5682 0.42797 0.168917
0.591989 0.430518 0.17142
0.616022 0.433021 0.173892
0.640269 0.435492 0.176318
0.664759 0.437934 0.178714
0.689464 0.440345 0.181079
0.714397 0.442741 0.183398
0.739544 0.44509 0.185687
0.764889 0.447425 0.187961
0.111772 0.375311 0.0944076
0.122835 0.380591 0.0999924
0.136187 0.38529 0.104906
0.150805 0.389685 0.109499
0.166369 0.393866 0.113848
0.182712 0.397864 0.117983
0.199725 0.401709 0.121965
0.217334 0.405432 0.125795
0.235492 0.409049 0.129519
0.254154 0.412558 0.13312
0.273259 0.415991 0.136614
0.292805 0.419333 0.140032
0.312749 0.422599 0.143359
0.333059 0.425788 0.146593
0.35375 0.428931 0.149767
0.374792 0.431998 0.15288
0.396155 0.435019 0.155917
0.417838 0.43798 0.158892
0.439811 0.440894 0.161807
0.462104 0.443748 0.164675
0.484672 0.446571 0.167498
0.507515 0.449348 0.17026
0.530617 0.452079 0.172992
0.553979 0.45478 0.175662
0.5776 0.457435 0.178302
0.601465 0.46006 0.180896
0.625574 0.462654 0.183444
0.649912 0.465202 0.185962
0.674479 0.46772 0.188434
0.699275 0.470222 0.190875
0.724285 0.472679 0.193286
0.749508 0.47512 0.195666
0.774929 0.477531 0.198016
0.119112 0.403021 0.101579
0.130266 0.408408 0.107256
0.143709 0.413199 0.112291
0.158419 0.417685 0.116976
0.174075 0.421958 0.121416
0.190524 0.426047 0.125658
0.20763 0.429984 0.129747
0.22533 0.433799 0.133684
0.24358 0.437507 0.137484
0.262318 0.441108 0.141192
0.281529 0.444633 0.144778
0.301152 0.448066 0.148287
0.321187 0.451408 0.151705
0.341604 0.454704 0.155047
0.362371 0.457923 0.158312
0.38349 0.461082 0.161501
0.404944 0.464179 0.16463
0.426703 0.467231 0.167697
0.448783 0.470222 0.170718
0.471138 0.473167 0.173678
0.493797 0.476066 0.176577
0.516716 0.478935 0.179431
0.53991 0.481743 0.182239
0.563348 0.48452 0.185
0.58706 0.487266 0.187716
0.611002 0.489967 0.190402
0.635187 0.492638 0.193042
0.659602 0.495262 0.195636
0.684245 0.497871 0.198199
0.709117 0.500435 0.200732
0.734203 0.502983 0.20322
0.759503 0.505486 0.205676
0.785016 0.507973 0.208103
0.126558 0.431144 0.108858
0.137804 0.436606 0.114641
0.151339 0.441505 0.119768
0.16614 0.446082 0.124544
0.181888 0.450446 0.129091
0.198428 0.454627 0.133425
0.215625 0.458656 0.137606
0.233417 0.462562 0.141634
0.251759 0.466361 0.145541
0.270588 0.470054 0.14934
0.289876 0.473655 0.153017
0.30959 0.477165 0.156619
0.329702 0.480613 0.160128
0.35021 0.48397 0.163561
0.371069 0.487282 0.166918
0.392264 0.490517 0.170199
0.413794 0.493706 0.173419
0.435645 0.496834 0.176577
0.457801 0.499916 0.179675
0.480247 0.502937 0.182712
0.502968 0.505928 0.185702
0.525979 0.508873 0.188647
0.549249 0.511757 0.191546
0.572778 0.514626 0.194385
0.596551 0.517433 0.197192
0.620584 0.520211 0.199954
0.644846 0.522957 0.20267
0.669337 0.525673 0.205356
0.694057 0.528359 0.207996
0.719005 0.530999 0.210605
0.744167 0.533608 0.213184
0.769543 0.536202 0.215717
0.795117 0.538766 0.218235
0.134112 0.459648 0.116243
0.145449 0.465217 0.122103
0.159075 0.470192 0.127337
0.173968 0.474861 0.132219
0.189807 0.479316 0.136858
0.206424 0.483574 0.141283
0.223713 0.487709 0.145556
0.241596 0.491691 0.149676
0.260014 0.495567 0.153674
0.278935 0.499352 0.157565
0.298299 0.503044 0.161334
0.318105 0.506645 0.165026
0.338308 0.51017 0.168627
0.358877 0.513619 0.172137
0.379828 0.517006 0.175586
0.401114 0.520333 0.178958
0.422721 0.523598 0.182269
0.444648 0.526802 0.185504
0.46688 0.529961 0.188693
0.489403 0.533074 0.191821
0.512215 0.536126 0.194888
0.535302 0.539147 0.197925
0.558648 0.542123 0.2009
0.582254 0.545052 0.20383
0.606119 0.547951 0.206714
0.630213 0.550805 0.209552
0.654551 0.553628 0.21236
0.679118 0.55642 0.215122
0.703914 0.559167 0.217838
0.728939 0.561898 0.220523
0.754177 0.564584 0.223178
0.779614 0.567239 0.225803
0.80528 0.569879 0.228382
0.141756 0.488548 0.12372
0.153185 0.494194 0.129686
0.166903 0.49926 0.134997
0.181872 0.504021 0.139971
0.197803 0.508553 0.144701
0.214511 0.512901 0.149233
0.231876 0.517113 0.153582
0.249851 0.521187 0.157809
0.268345 0.525154 0.161883
0.287358 0.529015 0.165866
0.306813 0.532784 0.169726
0.326696 0.536477 0.17351
0.346975 0.540078 0.177188
0.367636 0.543618 0.180789
0.388647 0.547082 0.184314
0.410025 0.550484 0.187778
0.431708 0.553826 0.191165
0.453727 0.557122 0.194491
0.476036 0.560357 0.197757
0.498634 0.563546 0.200977
0.521523 0.566674 0.204135
0.544686 0.569772 0.207233
0.568109 0.572824 0.2103
0.591791 0.57583 0.213306
0.615717 0.578805 0.216266
0.639887 0.581735 0.219196
0.664302 0.584634 0.22208
0.688945 0.587488 0.224918
0.713817 0.590311 0.227726
0.738918 0.593103 0.230488
0.764218 0.595865 0.233219
0.789731 0.598611 0.235904
0.815457 0.601312 0.238575
0.149493 0.517815 0.131289
0.161013 0.523537 0.137346
0.174823 0.528695 0.142763
0.189883 0.533532 0.147829
0.20589 0.538155 0.152636
0.222675 0.542596 0.157259
0.240131 0.546883 0.1617
0.258183 0.551049 0.166003
0.276768 0.555093 0.170184
0.295857 0.559045 0.174243
0.315389 0.56289 0.178195
0.335348 0.566659 0.182055
0.355718 0.570336 0.185824
0.376455 0.573953 0.189517
0.397559 0.577493 0.193118
0.418997 0.580972 0.196658
0.440772 0.584405 0.200137
0.462852 0.587762 0.20354
0.485237 0.591073 0.206897
0.507912 0.594339 0.210193
0.530877 0.597559 0.213428
0.554116 0.600732 0.216617
0.577615 0.603845 0.219745
0.601373 0.606928 0.222843
0.625376 0.609979 0.225879
0.649622 0.612985 0.228885
0.674113 0.615946 0.231846
0.698833 0.618875 0.23476
0.723766 0.621775 0.237644
0.748928 0.624643 0.240482
0.774304 0.627482 0.24329
0.799893 0.630289 0.246052
0.825696 0.633051 0.248798
0.157336 0.547433 0.138949
0.168948 0.553262 0.145098
0.182834 0.558495 0.150607
0.197971 0.563424 0.155764
0.214069 0.568124 0.160662
0.23093 0.572641 0.165362
0.248478 0.577005 0.169894
0.266606 0.581247 0.174289
0.285267 0.585382 0.178546
