luts/MagentaCoffee.cube
TITLE "Generated by Resolve"
LUT_3D_SIZE 5
0 0 0
0.122316 0 0
0.400732 0 0
0.657877 0 0
0.839246 0 0
0 0.143023 0
0.092668 0.133577 0
0.366155 0.107973 0
0.63769 0.0882429 0
0.838193 0.0944228 0
0 0.346838 0
0.0455787 0.351461 0
0.335393 0.345739 0
0.636835 0.346212 0
0.859693 0.375113 0
0 0.629236 0
0.0312657 0.657557 0
0.342107 0.671565 0
0.655131 0.689693 0
0.875288 0.730434 0
0 0.959426 0
0.105501 0.991638 0
0.423377 0.995773 0
0.709712 0.999832 0
0.906249 1 0
0 0 0.154162
0.124392 0 0.134676
0.40209 0 0.0884413
0.659007 0 0.0456703
0.841138 0 0.0302892
0 0.13611 0.136156
0.0956893 0.127413 0.118059
0.369146 0.10338 0.0788281
0.642374 0.0856947 0.0456092
0.845243 0.0939803 0.0447852
0 0.343984 0.090486
0.0561379 0.351293 0.0937209
0.34728 0.348104 0.0822003
0.649607 0.351751 0.0734264
0.872892 0.382239 0.0943313
0 0.63476 0.083299
0.0475319 0.664805 0.105211
0.360281 0.680217 0.107576
0.670451 0.698833 0.110384
0.88809 0.738399 0.13904
0 0.967376 0.172686
0.121538 0.997009 0.198032
0.437659 0.998642 0.190082
0.719478 1 0.181949
0.914031 1 0.199634
0 0 0.454627
0.122972 0 0.434653
0.398672 0 0.387427
0.656138 0 0.342473
0.839567 0 0.324773
0 0.122377 0.429404
0.0952773 0.114855 0.409903
0.369116 0.0927901 0.36994
0.644175 0.0774548 0.3355
0.850034 0.0881361 0.335409
0 0.33576 0.381323
0.0637064 0.345769 0.384863
0.357092 0.345464 0.373724
0.659205 0.351171 0.367437
0.883101 0.38378 0.393347
0 0.634424 0.379583
0.060502 0.665934 0.404822
0.37528 0.682124 0.411261
0.682292 0.700465 0.418891
0.896788 0.738125 0.450462
0 0.968154 0.477195
0.134173 0.994995 0.502174
0.448249 0.993667 0.496422
0.726116 0.994049 0.493416
0.918883 1 0.512825
0 0 0.716854
0.124163 0 0.700465
0.397864 0 0.661357
0.655116 0 0.625742
0.83975 0 0.613214
0 0.110475 0.700206
0.0971695 0.10367 0.685069
0.371252 0.0830701 0.654154
0.64773 0.068986 0.628534
0.856413 0.0822003 0.632532
0 0.328161 0.670481
0.0733043 0.340566 0.675029
0.36849 0.342885 0.667735
0.670817 0.350545 0.664607
0.895628 0.385855 0.68809
0 0.634318 0.675654
0.0764019 0.667994 0.696056
0.392493 0.684977 0.699748
0.696315 0.703059 0.705028
0.908019 0.738888 0.728023
0 0.96997 0.752804
0.149371 0.994858 0.769665
0.461357 0.990906 0.759701
0.736156 0.99089 0.754376
0.927749 1 0.7673
0 0 0.897017
0.129366 0 0.8822
0.401785 0 0.846906
0.658946 0 0.81622
0.845258 0 0.807706
0 0.106157 0.887968
0.104341 0.100252 0.87686
0.379019 0.0814527 0.85182
0.657252 0.0694438 0.832441
0.868605 0.0849928 0.839612
0 0.329015 0.872938
0.0887617 0.343755 0.880003
0.385473 0.348623 0.875257
0.687388 0.35848 0.87277
0.912764 0.395789 0.894133
0 0.642496 0.882109
0.0971084 0.678248 0.900008
0.413474 0.695048 0.899977
0.713771 0.712917 0.901488
0.922347 0.747112 0.918181
0 0.978119 0.947509
0.167102 1 0.958267
0.477592 0.995071 0.943297
0.749111 0.994827 0.934646
0.939941 1 0.94493
