luts/Magenta Day 01.cube
TITLE "Generated by Resolve"
LUT_3D_SIZE 9
0 0 0
0 0 0
0 0 0
0 0 0
0.00831617 0.000213626 0.00140383
0.049073 0.0101167 0.0145113
0.109209 0.0161288 0.0245212
0.190677 0.0175784 0.0303655
0.293034 0.0145113 0.031693
0 0 0
0.0104677 0.00729381 0.00769055
0.0378119 0.0216526 0.0226749
0.0782483 0.0337987 0.035523
0.134813 0.0427863 0.045182
0.20856 0.0482185 0.0511482
0.298817 0.0501869 0.0534829
0.40351 0.0492103 0.0526131
0.519493 0.0460365 0.0493477
0.0436255 0.0529946 0.0390784
0.0723278 0.070573 0.0510414
0.116335 0.0850385 0.0598459
0.175784 0.0962539 0.0656443
0.249928 0.104356 0.0687572
0.336828 0.109773 0.06981
0.4336 0.113237 0.0696422
0.53669 0.115679 0.0692149
0.642023 0.11812 0.069688
0.0721294 0.138018 0.0610819
0.109972 0.156802 0.0694896
0.1664 0.171206 0.0751202
0.236591 0.182483 0.07953
0.317174 0.191485 0.0836957
0.40444 0.199161 0.0886397
0.494697 0.206516 0.0952621
0.588312 0.21355 0.10193
0.685618 0.220188 0.108156
0.0830396 0.240803 0.0673381
0.1308 0.259113 0.0797742
0.196445 0.272908 0.0910658
0.271702 0.284535 0.102693
0.353216 0.295064 0.113237
0.439918 0.304799 0.122881
0.531106 0.313909 0.131807
0.626276 0.322484 0.140139
0.725063 0.330632 0.147951
0.104555 0.348028 0.0873579
0.15874 0.366171 0.106355
0.227497 0.380987 0.12163
0.304372 0.394156 0.135073
0.387427 0.406226 0.14725
0.475593 0.417441 0.158465
0.5682 0.42797 0.168917
0.664759 0.437934 0.178714
0.764889 0.447425 0.187961
0.134112 0.459648 0.116243
0.189807 0.479316 0.136858
0.260014 0.495567 0.153674
0.338308 0.51017 0.168627
0.422721 0.523598 0.182269
0.512215 0.536126 0.194888
0.606119 0.547951 0.206714
0.703914 0.559167 0.217838
0.80528 0.569879 0.228382
0.165286 0.577417 0.146715
0.222324 0.598428 0.168765
0.293843 0.616007 0.186984
0.373419 0.631861 0.203296
0.459068 0.64654 0.21825
0.549783 0.660273 0.232166
0.644846 0.673274 0.245243
0.743801 0.685649 0.257603
0.846281 0.697475 0.269337
0.197925 0.70071 0.178607
0.256199 0.722942 0.201984
0.328908 0.741711 0.221469
0.409644 0.75874 0.239017
0.496437 0.774548 0.255192
0.588251 0.78941 0.270298
0.684413 0.803494 0.284535
0.784436 0.816922 0.298024
0.887953 0.829786 0.310872
0 0 0
0 0 0
0 0 0
0 0 0
0.0200198 0.00447089 0.00894179
0.0652171 0.0133059 0.0249638
0.129763 0.018143 0.0383612
0.215244 0.0184634 0.0479744
0.320623 0.0144961 0.0532845
0 0 0
0.0178073 0.0128786 0.016907
0.0472114 0.0268101 0.0354162
0.0903029 0.0382391 0.0521706
0.149569 0.0464179 0.065919
0.225666 0.0511177 0.0760052
0.317617 0.0525521 0.0823377
0.423087 0.0512856 0.0852674
0.538827 0.0481575 0.0854658
0.0487373 0.0595102 0.0570993
0.0786297 0.0766918 0.0736095
0.124376 0.0905776 0.0867475
0.185489 0.101228 0.0966201
0.260914 0.108888 0.103456
0.34847 0.114092 0.10782
0.44509 0.117586 0.110521
0.547143 0.120363 0.112505
0.650492 0.123461 0.1149
0.0754559 0.1449 0.09308
0.114549 0.163241 0.105409
0.172274 0.177218 0.114351
0.243366 0.18822 0.121508
0.324239 0.197177 0.127871
0.411048 0.205081 0.134493
0.500908 0.212726 0.141802
0.59469 0.219928 0.148653
0.692149 0.226734 0.155047
0.0870832 0.247395 0.109926
0.136019 0.265385 0.124559
0.202518 0.279042 0.137377
0.277974 0.290806 0.14931
0.359655 0.301503 0.160021
0.44651 0.311391 0.169848
0.53785 0.320653 0.178927
0.633158 0.329381 0.187396
0.732097 0.337667 0.195377
0.110887 0.35436 0.134035
0.16524 0.372671 0.153201
0.23415 0.387625 0.168643
0.311177 0.400961 0.182239
0.394369 0.413169 0.194583
0.482689 0.424521 0.205951
0.575418 0.435187 0.216541
0.672114 0.445289 0.226474
0.772381 0.454902 0.235859
0.140963 0.466499 0.16347
0.196796 0.486305 0.184237
0.26714 0.502708 0.201205
0.345571 0.517433 0.216297
0.430121 0.530999 0.230076
0.519738 0.543664 0.242847
0.613764 0.555596 0.25478
0.711681 0.566934 0.266041
0.813153 0.577752 0.276722
0.172595 0.584726 0.19443
0.22977 0.605875 0.216632
0.301427 0.623575 0.234989
0.381109 0.639551 0.251423
0.46688 0.654337 0.266499
0.557702 0.668208 0.280552
0.652888 0.681315 0.293736
0.751949 0.693797 0.306218
0.854536 0.70573 0.318074
0.205661 0.708446 0.22678
0.264042 0.7308 0.250278
0.336889 0.749676 0.269902
0.417716 0.766827 0.287572
0.504631 0.782742 0.303853
0.596551 0.797711 0.319081
0.692821 0.811902 0.333425
0.792935 0.825437 0.347021
0.896559 0.838407 0.359976
0 0 0
0 0 0
0 0 0
0.00177005 0 0.000198367
0.032929 0.00848402 0.0207065
0.0821851 0.0161135 0.0419471
0.151003 0.0195621 0.0612039
0.239994 0.0186313 0.0769513
0.347845 0.0137026 0.0884108
0.00434882 0.00354009 0.00747692
0.0253758 0.0184176 0.0312657
0.0567788 0.0316472 0.0556954
0.102296 0.0421759 0.0787671
0.163989 0.0494087 0.0988937
0.2421 0.053254 0.115175
0.335332 0.0540627 0.12726
0.441215 0.0524758 0.135393
0.556313 0.0493782 0.140139
0.0533303 0.0655833 0.0859236
0.0842908 0.0821546 0.109209
0.131594 0.0952926 0.128634
0.194186 0.105272 0.144198
0.270665 0.112428 0.156039
0.358618 0.117388 0.16463
0.454856 0.120943 0.170718
0.555611 0.124102 0.17528
0.656718 0.127947 0.1794
0.0778821 0.150774 0.142184
0.118105 0.168566 0.159564
0.177005 0.182086 0.172595
0.248875 0.192813 0.182895
0.32987 0.20177 0.191485
0.416083 0.209979 0.19942
0.505989 0.217807 0.206989
0.599939 0.225177 0.214008
0.697566 0.232136 0.220569
0.0902419 0.25272 0.172
0.140322 0.270405 0.188708
0.207492 0.284016 0.202441
0.283116 0.295949 0.214557
0.364965 0.306813 0.225452
0.451972 0.316854 0.235431
0.54345 0.326268 0.244663
0.638926 0.335134 0.2533
0.738003 0.343572 0.261418
0.116091 0.359564 0.199344
0.170596 0.378042 0.218692
0.239658 0.393149 0.234287
0.316838 0.406622 0.248051
0.400183 0.418982 0.260533
0.488624 0.430472 0.272053
0.581506 0.441276 0.28278
0.678325 0.451499 0.292851
0.778714 0.461234 0.302373
0.14667 0.472221 0.229328
0.202655 0.492164 0.250248
0.273136 0.508705 0.267353
0.351705 0.523568 0.282597
0.436377 0.537255 0.296513
0.526131 0.550042 0.309407
0.620264 0.562112 0.321477
0.718318 0.573571 0.332876
0.819898 0.584497 0.343664
0.178775 0.590906 0.260777
0.236072 0.612177 0.283101
0.307851 0.629999 0.301595
0.387655 0.646113 0.318166
0.473548 0.661021 0.333379
0.564492 0.674998 0.347539
0.659785 0.688212 0.360845
0.758953 0.700801 0.373449
0.861646 0.71284 0.385412
0.212253 0.715038 0.293568
0.270756 0.737499 0.317189
0.343709 0.756512 0.336934
0.424659 0.77377 0.354726
0.511681 0.789792 0.37113
0.603708 0.804868 0.386465
0.700084 0.81915 0.400916
0.800305 0.832792 0.414633
0.904021 0.845869 0.427695
0 0 0
0 0 0
0 0 0
0.0104982 0.0021973 0.0105287
0.0466468 0.0120546 0.037995
0.0998398 0.0183261 0.0662242
0.172412 0.0203708 0.0928664
0.264439 0.018204 0.11603
0.374228 0.0123293 0.1346
0.0107729 0.009308 0.0210574
0.0328985 0.0236973 0.0518654
0.0662089 0.0360723 0.0839094
0.114 0.0455787 0.114733
0.177859 0.0518044 0.142382
0.257694 0.0547951 0.165667
0.351934 0.0550088 0.18407
0.457908 0.0531472 0.197665
0.572076 0.0501717 0.206973
0.0573892 0.0711376 0.124544
0.0893416 0.0870069 0.155627
0.138094 0.0993668 0.182055
0.202014 0.108659 0.203754
0.279377 0.115343 0.220768
0.367544 0.120104 0.233509
0.463218 0.123796 0.242695
0.562509 0.127443 0.249317
0.661265 0.132143 0.254459
0.0797131 0.155886 0.203372
0.121035 0.173159 0.225879
0.181048 0.186221 0.242817
0.253559 0.196765 0.255879
0.3346 0.205798 0.266102
0.420401 0.214298 0.274601
0.510491 0.222309 0.282353
0.604593 0.229831 0.28954
0.702373 0.236957 0.296269
0.0930495 0.257252 0.245533
0.144289 0.274723 0.263615
0.211887 0.288411 0.277684
0.287678 0.300511 0.289967
0.36968 0.311528 0.30103
0.45684 0.321721 0.311177
0.54847 0.331289 0.320577
0.644083 0.340307 0.329366
0.743297 0.348867 0.337636
0.120714 0.364187 0.274815
0.175372 0.382803 0.294331
0.244587 0.398077 0.310094
0.321904 0.411704 0.32401
0.405386 0.424186 0.336645
0.49398 0.435813 0.348318
0.586984 0.446754 0.359182
0.68394 0.457115 0.369406
0.784451 0.466972 0.379049
0.151797 0.477348 0.305348
0.207919 0.497429 0.326406
0.278538 0.514107 0.343679
0.357229 0.529091 0.359045
0.442039 0.542901 0.373098
0.531914 0.555825 0.38613
0.626169 0.568002 0.398337
0.72433 0.579583 0.409857
0.826032 0.590631 0.420768
0.184344 0.59649 0.337285
0.241779 0.617868 0.359747
0.31368 0.635828 0.378363
0.393606 0.652049 0.395056
0.479622 0.667079 0.410407
0.570672 0.681163 0.424689
0.666072 0.694499 0.438117
0.765362 0.707195 0.450828
0.868162 0.719356 0.462913
0.218235 0.721019 0.37052
0.27686 0.743618 0.394263
0.34992 0.762722 0.41413
0.430991 0.780087 0.432029
0.51812 0.796231 0.448554
0.610254 0.811414 0.463996
0.706722 0.825803 0.478569
0.80705 0.839536 0.492393
0.910872 0.85272 0.505562
0 0 0
0 0 0
0 0 0.000579843
0.02121 0.00653086 0.0267185
0.0607767 0.0151522 0.0620584
0.117739 0.0199283 0.0988022
0.193668 0.0205386 0.133959
0.288243 0.0171969 0.165286
0.399512 0.0104829 0.19144
0.0170596 0.014847 0.0405127
0.0402228 0.0285954 0.0799573
0.075349 0.0399939 0.120958
0.125231 0.0484169 0.160479
0.191043 0.0536202 0.196246
0.272343 0.0558022 0.226841
0.367315 0.0554818 0.251591
0.473106 0.0534524 0.270481
0.586099 0.0506905 0.28397
0.0608682 0.0761273 0.17319
0.0937667 0.091249 0.212543
0.143893 0.102831 0.246189
0.209033 0.111467 0.27396
0.287114 0.117739 0.295842
0.375357 0.122393 0.312261
0.470283 0.126329 0.323919
0.567971 0.130587 0.331792
0.66511 0.135988 0.337194
0.0810712 0.160327 0.275135
0.123476 0.177081 0.302403
0.184512 0.189792 0.322698
0.257618 0.200214 0.337789
0.338567 0.209445 0.348775
0.424308 0.218204 0.357397
0.514565 0.226383 0.365332
0.608835 0.234058 0.372686
0.706752 0.241337 0.379583
0.0957198 0.261189 0.327749
0.148058 0.278523 0.346303
0.215854 0.292378 0.360555
0.291798 0.304631 0.373007
0.373968 0.315816 0.384253
0.46128 0.326162 0.394553
0.553063 0.335866 0.404105
0.648798 0.345022 0.413046
0.748165 0.353735 0.421454
0.124895 0.368368 0.357931
0.179721 0.387152 0.3776
0.249073 0.402564 0.39353
0.326543 0.416327 0.407599
0.410163 0.428962 0.420386
0.498894 0.440726 0.432197
0.592035 0.451804 0.443198
0.689097 0.462287 0.453559
0.789746 0.472267 0.46334
0.156481 0.482033 0.388983
0.212741 0.502251 0.410193
0.283497 0.519066 0.427604
0.36231 0.534188 0.443122
0.447257 0.548119 0.457298
0.537255 0.561166 0.470466
0.631632 0.573465 0.482795
0.729915 0.585168 0.494438
0.831724 0.596323 0.50547
0.189487 0.601617 0.421408
0.247044 0.623133 0.444007
0.319066 0.641215 0.462745
0.3991 0.657557 0.479576
0.485237 0.672694 0.495033
0.576394 0.6869 0.509438
0.671916 0.700343 0.522988
0.771313 0.713146 0.535821
0.87422 0.725414 0.548012
0.223789 0.726574 0.45507
0.282521 0.749279 0.478935
0.355703 0.768505 0.498924
0.436866 0.785977 0.516945
0.524102 0.802213 0.533578
0.616342 0.817502 0.549142
0.712932 0.831998 0.563821
0.813352 0.845838 0.577752
0.917281 0.859113 0.591028
0 0 0
0 0 0
0.00393683 0 0.0100404
0.0323949 0.0103914 0.0495155
0.0752575 0.0176089 0.0942702
0.135592 0.0208743 0.140597
0.214481 0.0200961 0.184985
0.311192 0.0156252 0.224872
0.423514 0.00819409 0.258671
0.0230869 0.0200351 0.067216
0.0472114 0.03299 0.11667
0.0840467 0.0433356 0.167559
0.135866 0.05066 0.216342
0.203433 0.0548714 0.260456
0.285969 0.0562905 0.298283
0.38143 0.0555428 0.329076
0.486793 0.0534524 0.352743
0.598383 0.0510414 0.369726
0.0637369 0.0805066 0.232074
0.0975662 0.0948653 0.27982
0.149004 0.105684 0.320485
0.215228 0.113741 0.353918
0.293935 0.119692 0.380102
0.382101 0.124361 0.399435
0.476158 0.128664 0.41268
0.572076 0.133669 0.420813
0.668605 0.139498 0.426184
0.0820325 0.164141 0.356497
0.12549 0.180453 0.387854
0.187518 0.192889 0.410697
0.261128 0.203311 0.426886
0.341985 0.212833 0.437675
0.427878 0.221775 0.446464
0.518288 0.230106 0.454551
0.612711 0.237949 0.462089
0.710796 0.24538 0.469139
0.0983902 0.264622 0.416815
0.151507 0.281987 0.435248
0.219471 0.29601 0.449668
0.295598 0.308431 0.462303
0.37792 0.319753 0.473701
0.46537 0.330266 0.484169
0.55729 0.340108 0.493874
0.653178 0.349401 0.502968
0.752667 0.358236 0.511513
0.12874 0.372213 0.447272
0.183719 0.39115 0.467124
0.253223 0.406714 0.483192
0.330831 0.42063 0.497414
0.414588 0.433402 0.510353
0.503456 0.445289 0.522301
0.596719 0.456489 0.533455
0.693919 0.467109 0.543938
0.79469 0.477211 0.553857
0.16083 0.486366 0.478859
0.217227 0.506737 0.500221
0.288106 0.523674 0.517769
0.367056 0.538918 0.533425
0.45211 0.552987 0.547738
0.542229 0.566155 0.561028
0.636728 0.578576 0.573495
0.735134 0.590387 0.58526
0.837064 0.601663 0.596414
0.194263 0.606409 0.511757
0.251957 0.628046 0.534493
0.324086 0.646235 0.553368
0.404257 0.662699 0.570306
0.490501 0.677958 0.585901
0.581781 0.692287 0.600427
0.677409 0.705837 0.614099
0.776913 0.718746 0.627039
0.879911 0.731106 0.639338
0.228977 0.731762 0.545861
0.287831 0.754574 0.569848
0.36112 0.773922 0.589944
0.442405 0.791501 0.608087
0.529732 0.807858 0.624842
0.62208 0.82324 0.640513
0.718761 0.837842 0.655299
0.819287 0.851789 0.669337
0.923308 0.865156 0.682719
0 0 0
0 0 0.0019379
0.0126802 0.00451667 0.0302892
0.0438392 0.0136568 0.0802625
0.0897841 0.019379 0.135622
0.153185 0.021149 0.19234
0.234653 0.019028 0.246357
0.333104 0.0135653 0.29482
0.446067 0.00553903 0.335988
0.028748 0.0247959 0.102159
0.0537575 0.03682 0.162936
0.0922103 0.0460517 0.224308
0.145815 0.0522774 0.282567
0.214939 0.0555581 0.334905
0.298497 0.0563211 0.379599
0.394232 0.0552529 0.415839
0.498985 0.053254 0.443534
0.608972 0.0513313 0.463127
0.0660105 0.0842451 0.30132
0.100755 0.0978714 0.357214
0.153414 0.107988 0.404425
0.220661 0.115541 0.442863
0.299855 0.121294 0.472511
0.387839 0.126085 0.493828
0.480919 0.130877 0.507607
0.575174 0.136706 0.515007
0.671839 0.142718 0.520546
0.0826429 0.167361 0.446586
0.127169 0.183322 0.481147
0.190158 0.19559 0.505501
0.26421 0.206134 0.521675
0.345098 0.215961 0.531914
0.431159 0.225055 0.540871
0.521737 0.233555 0.549157
0.616327 0.24155 0.556848
0.714549 0.249134 0.56405
0.101152 0.267674 0.511238
0.154696 0.285176 0.529549
0.222827 0.299351 0.544152
0.299092 0.311925 0.556954
0.381567 0.323415 0.568521
0.469184 0.334066 0.579141
0.561242 0.344045 0.588998
0.657267 0.353491 0.598245
0.756893 0.362463 0.606943
0.132296 0.375769 0.541985
0.187427 0.394858 0.56199
0.257084 0.410574 0.578225
0.334829 0.424628 0.592599
0.418723 0.437537 0.605692
0.507713 0.449561 0.617777
0.601114 0.460883 0.629068
0.698451 0.471626 0.639689
0.799329 0.481865 0.649729
0.164874 0.490425 0.574105
0.221408 0.510918 0.595605
0.292424 0.527993 0.613291
0.371496 0.543359 0.629068
0.456687 0.557565 0.643534
0.546929 0.57084 0.656947
0.641535 0.583383 0.669535
0.740063 0.595315 0.681422
0.8421 0.606699 0.692714
0.198764 0.610895 0.607462
0.256565 0.632654 0.63032
0.328817 0.65098 0.649332
0.40911 0.667552 0.666407
0.49546 0.682933 0.682109
0.586847 0.697353 0.696757
0.682597 0.711025 0.710536
0.782193 0.724041 0.723598
0.885313 0.736507 0.736019
0.23386 0.73666 0.641993
0.292836 0.759579 0.666102
0.366232 0.779034 0.68632
0.447623 0.796735 0.704585
0.535073 0.813184 0.721447
0.627527 0.828672 0.737224
0.7243 0.843381 0.752117
0.824933 0.85742 0.766262
0.929046 0.870893 0.779751
0 0 0
0 0 0.0102388
0.0215763 0.00852979 0.0582284
0.0552224 0.0162966 0.119829
0.104128 0.0204471 0.187015
0.170306 0.0207218 0.254566
0.254002 0.0173648 0.318242
0.353796 0.011017 0.375021
0.467048 0.00254826 0.423041
0.0338903 0.0289616 0.146761
0.0597391 0.0400092 0.219471
0.0997177 0.048127 0.291615
0.154986 0.0532845 0.359213
0.225513 0.0557259 0.419364
0.309911 0.0559396 0.470283
0.405707 0.0546883 0.511177
0.509651 0.052903 0.541955
0.617868 0.0516365 0.563088
0.0676585 0.0873426 0.38088
0.103304 0.100267 0.444404
0.157168 0.109758 0.497444
0.225345 0.11693 0.539986
0.304952 0.122591 0.572106
0.39263 0.127642 0.594293
0.484581 0.133104 0.60737
0.577996 0.139528 0.613931
0.674815 0.145693 0.619654
0.0829938 0.170047 0.544549
0.128603 0.185748 0.581216
0.192493 0.197986 0.605951
0.266941 0.208789 0.620859
0.347982 0.21883 0.6309
0.434211 0.228107 0.64004
0.524941 0.236759 0.648478
0.619669 0.244907 0.656336
0.718044 0.252628 0.663706
0.103914 0.270436 0.610117
0.157626 0.288106 0.628611
0.225925 0.302449 0.643381
0.302358 0.31519 0.656352
0.384985 0.326818 0.66807
0.47274 0.337621 0.678859
0.564935 0.347753 0.688869
0.661097 0.357321 0.698253
0.760861 0.36643 0.707088
0.135607 0.379095 0.641443
0.19089 0.398322 0.661601
0.260685 0.414176 0.677989
0.338582 0.428367 0.692515
0.422614 0.441413 0.705745
0.511727 0.453574 0.717983
0.605264 0.465034 0.729397
0.702708 0.475898 0.740154
0.803723 0.486244 0.750332
0.168673 0.494224 0.674067
0.22533 0.514839 0.69572
0.296483 0.532052 0.713542
0.375692 0.547555 0.729458
0.46099 0.561868 0.744045
0.551354 0.575265 0.757595
0.646097 0.58793 0.770306
0.744717 0.59997 0.782315
0.846876 0.611475 0.793713
0.202991 0.615122 0.707897
0.260914 0.637018 0.730892
0.333303 0.655451 0.750027
0.413687 0.672145 0.767224
0.50016 0.687633 0.783047
0.591669 0.702174 0.797818
0.68751 0.715938 0.811704
0.787228 0.729076 0.824872
0.890455 0.741634 0.837415
0.238499 0.741283 0.742855
0.297581 0.764324 0.767086
0.371084 0.783886 0.787411
0.452583 0.801694 0.805783
0.540139 0.81825 0.822766
0.6327 0.833844 0.838651
0.72958 0.848661 0.853666
0.830304 0.862791 0.867903
0.934524 0.876356 0.881498
0 0 0.0039826
0.0065919 0.002533 0.0312047
0.0304723 0.0118868 0.0952316
0.0665293 0.0181735 0.169711
0.118105 0.0207523 0.249119
0.18677 0.0196231 0.327596
0.272343 0.0151369 0.400671
0.373159 0.00805676 0.465202
0.486381 0 0.51931
0.0384527 0.0325017 0.201816
0.0650797 0.0425116 0.286824
0.106538 0.0495308 0.36965
0.163333 0.0537118 0.446174
0.235096 0.0553902 0.513481
0.320165 0.0551919 0.569787
0.415885 0.0538949 0.614313
0.518853 0.052491 0.647059
0.625132 0.0520333 0.668528
0.0687114 0.0897841 0.470542
0.105287 0.102068 0.540948
0.160296 0.11104 0.598886
0.229328 0.117952 0.64448
0.309239 0.123659 0.677897
0.396536 0.129137 0.699702
0.487297 0.135424 0.710796
0.580591 0.142123 0.717128
0.677592 0.14847 0.723018
0.0831311 0.172274 0.649516
0.129854 0.187823 0.687068
0.194629 0.200153 0.710887
0.269444 0.211276 0.723949
0.350652 0.2215 0.734157
0.437034 0.23093 0.743481
0.527916 0.239734 0.752087
0.622812 0.248035 0.760113
0.72134 0.255909 0.767636
0.106477 0.272999 0.713252
0.160357 0.290837 0.731929
0.228809 0.305333 0.746883
0.305394 0.318227 0.760021
0.388174 0.330007 0.771893
0.476066 0.340948 0.782834
0.568414 0.351217 0.792996
0.664714 0.360937 0.802518
0.764599 0.370169 0.81149
0.138705 0.382193 0.745159
0.194125 0.401572 0.765484
0.264073 0.417563 0.782025
0.342107 0.431891 0.796689
0.426276 0.445075 0.810071
0.515526 0.457359 0.822431
0.609186 0.46894 0.833997
0.706752 0.479927 0.844877
0.807889 0.49041 0.855177
0.172244 0.497795 0.778302
0.229038 0.518547 0.800092
0.300328 0.535882 0.818051
0.379644 0.551522 0.834104
0.46508 0.565957 0.848814
0.555566 0.579477 0.862501
0.650416 0.592248 0.875334
0.749157 0.60441 0.887465
0.851423 0.616022 0.898985
0.207004 0.619135 0.812589
0.265049 0.641138 0.835706
0.337545 0.659693 0.854963
0.418051 0.676509 0.872282
0.504646 0.692103 0.888228
0.596246 0.706752 0.90312
0.69221 0.720638 0.917128
0.79202 0.733867 0.930404
0.895354 0.746532 0.943053
0.242893 0.745693 0.847974
0.302098 0.768841 0.872312
0.375708 0.78851 0.89276
0.457313 0.806424 0.911254
0.544976 0.823087 0.928344
0.637629 0.838788 0.944335
0.734615 0.853697 0.959457
0.835431 0.867933 0.9738
0.939742 0.88159 0.987503
