luts/MORROCO.cube
TITLE "Generated by Resolve"
LUT_3D_SIZE 9
0 0 0
0.0266575 0 0
0.0866255 0 0
0.163104 0 0
0.252323 0 0
0.364584 0 0
0.499611 0 0
0.658564 0 0
0.845609 0 0
0 0.0224002 0
0.0245823 0.0245823 0
0.0915084 0.0223087 0
0.174243 0.0172427 0
0.268055 0.0105898 0
0.383871 0 0
0.52221 0 0
0.684047 0 0
0.874067 0 0
0 0.084184 0
0.0213626 0.0905623 0
0.0916457 0.0916457 0
0.17763 0.0898299 0
0.274266 0.0859998 0
0.393042 0.0773022 0
0.533944 0.0635233 0
0.698177 0.0440833 0
0.890059 0.0176089 0
0 0.16318 0
0.0153506 0.172351 0
0.0885481 0.176349 0
0.176974 0.176974 0
0.275822 0.175357 0
0.396155 0.168231 0
0.538613 0.155993 0
0.704601 0.138323 0
0.898604 0.113954 0
0 0.254795 0
0.00836194 0.265827 0
0.0831617 0.271427 0
0.173205 0.273671 0
0.273884 0.273884 0
0.39675 0.269291 0
0.542168 0.260014 0
0.712139 0.246326 0
0.91107 0.226886 0
0 0.359823 0
0 0.372961 0
0.0655528 0.381292 0
0.158816 0.38674 0
0.263798 0.391272 0
0.391836 0.391836 0
0.542519 0.387839 0
0.717098 0.378744 0
0.920104 0.363378 0
0 0.482139 0
0 0.499916 0
0.0428626 0.513283 0
0.141527 0.524147 0
0.250996 0.53315 0
0.382818 0.537499 0
0.537209 0.537209 0
0.715587 0.531929 0
0.922515 0.520485 0
0 0.629282 0
0 0.651377 0
0.0144503 0.668544 0
0.116609 0.682902 0
0.229908 0.69572 0
0.365713 0.704067 0
0.524224 0.707897 0
0.706905 0.706905 0
0.918456 0.700099 0
0 0.799527 0
0 0.825513 0
0 0.846693 0
0.0805829 0.865232 0
0.198276 0.882475 0
0.338674 0.895399 0
0.502892 0.904921 0
0.691844 0.910201 0
0.909377 0.909377 0
0 0 0.0263523
0.0263218 0 0.0263218
0.0857252 0 0.0165255
0.163302 0 0.00630198
0.253254 0 0
0.366064 0 0
0.50135 0 0
0.660655 0 0
0.84802 0 0
0 0.0230564 0.0230564
0.0258183 0.0258183 0.0258183
0.0931716 0.0239719 0.0239719
0.176211 0.0192111 0.0192111
0.270253 0.0127871 0.0127871
0.386404 0.00148013 0.00148013
0.525017 0 0
0.687144 0 0
0.877485 0 0
0 0.0863661 0.0171664
0.023682 0.0928817 0.023682
0.0942855 0.0942855 0.0250858
0.18056 0.0927443 0.0235447
0.27747 0.0892042 0.0200046
0.396536 0.0807965 0.0115969
0.537621 0.0672007 0
0.701961 0.0478828 0
0.893996 0.0215457 0
0 0.166201 0.00920119
0.018677 0.175677 0.018677
0.0921035 0.179919 0.0229038
0.180713 0.180713 0.0237125
0.279622 0.179156 0.0221561
0.400153 0.172229 0.0152285
0.542855 0.160235 0.00323491
0.709117 0.142824 0
0.903441 0.118791 0
0 0.258579 0.00109865
0.012253 0.269718 0.012253
0.0872358 0.275517 0.0180362
0.177539 0.278004 0.0205386
0.278416 0.278416 0.0209506
0.401785 0.274327 0.0168612
0.547677 0.265522 0.00805676
0.718212 0.252384 0
0.917693 0.233509 0
0 0.364034 0
0 0.377707 0
0.070573 0.386297 0.00137331
0.164523 0.392462 0.0075227
0.270024 0.397498 0.0125582
0.398581 0.398581 0.0136416
0.549752 0.395056 0.0101167
0.724697 0.386328 0.00140383
0.928069 0.371344 0
0 0.487907 0
0 0.506432 0
0.049836 0.520256 0
0.148623 0.531243 0
0.258457 0.540612 0.000991836
0.390829 0.54551 0.00588998
0.545678 0.545678 0.00604257
0.724407 0.540734 0.00111391
0.931579 0.529549 0
0 0.636744 0
0 0.659205 0
0.0226596 0.676753 0
0.125216 0.691493 0
0.238926 0.704753 0
0.375158 0.713527 0
0.534142 0.7178 0
0.717311 0.717311 0
0.929229 0.710857 0
0 0.808331 0
0 0.834745 0
0 0.856153 0
0.090425 0.875074 0
0.208667 0.892851 0
0.350057 0.906783 0
0.514778 0.916808 0
0.704128 0.922499 0
0.922438 0.922438 0
0 0 0.0937972
0.0234073 0 0.092607
0.0831769 0 0.0831769
0.161883 0 0.0740826
0.252384 0 0.0641184
0.36556 0 0.049836
0.501335 0 0.0309148
0.660792 0 0.00669871
0.848585 0 0
0 0.0216983 0.090898
0.0249943 0.0249943 0.0941939
0.0927443 0.0235447 0.0927443
0.176257 0.0192569 0.0884565
0.270512 0.0130465 0.0822461
0.387076 0.00213626 0.0713359
0.525887 0 0.0554665
0.688289 0 0.0342107
0.878904 0 0.00645457
0 0.0864271 0.0864271
0.0240635 0.0932631 0.0932631
0.0950179 0.0950179 0.0950179
0.181521 0.0937209 0.0937209
0.278737 0.0904707 0.0904707
0.398032 0.0823072 0.0823072
0.5393 0.068864 0.068864
0.703746 0.0496681 0.0496681
0.895811 0.0233463 0.0233463
0 0.167269 0.0794537
0.0200504 0.17705 0.08925
0.0936599 0.181476 0.0936599
0.182422 0.182422 0.0946212
0.281331 0.180865 0.0930648
0.402182 0.174258 0.0864424
0.545129 0.162509 0.0747082
0.711498 0.14522 0.0574197
0.906416 0.121767 0.0339513
0 0.260243 0.0719768
0.0141604 0.271626 0.08336
0.0893568 0.277623 0.0893568
0.179828 0.280278 0.0920119
0.281102 0.281102 0.0928359
0.404898 0.277424 0.0891585
0.551324 0.269169 0.0809033
0.722286 0.256458 0.0681926
0.922484 0.238285 0.0500191
0 0.366522 0.050782
0 0.380529 0.0647898
0.0737469 0.389487 0.0737469
0.168307 0.396231 0.0805066
0.274479 0.401938 0.0862135
0.403342 0.403342 0.0876173
0.554772 0.400076 0.0843519
0.730282 0.391928 0.0762036
0.934096 0.377386 0.0616464
0 0.491829 0.0214084
0 0.511055 0.0406348
0.0548562 0.525277 0.0548562
0.154009 0.536629 0.0661936
0.26421 0.546365 0.0759442
0.396796 0.551492 0.0810712
0.551995 0.551995 0.0815595
0.731197 0.547524 0.0771038
0.938964 0.536934 0.0665141
0 0.642298 0
0 0.665141 0.0110628
0.0289921 0.68307 0.0289921
0.131945 0.698238 0.0441444
0.246098 0.71191 0.0578317
0.382773 0.721126 0.0670329
0.541924 0.725582 0.0714885
0.725628 0.725628 0.0715343
0.938537 0.72018 0.0660868
0 0.814923 0
0 0.841764 0
0 0.863813 0
0.0986191 0.883268 0.0108186
0.217426 0.90161 0.02916
0.359228 0.915938 0.0434882
0.524758 0.926787 0.0543374
0.714824 0.933196 0.0607462
0.933227 0.933227 0.0607767
0 0 0.178195
0.0179446 0 0.174945
0.0798657 0 0.167666
0.159167 0 0.159167
0.250187 0 0.149722
0.36379 0 0.135866
0.499947 0 0.117327
0.659693 0 0.0934157
0.847883 0 0.0632334
0 0.0191806 0.176196
0.0229648 0.0229648 0.179965
0.0911116 0.021912 0.178912
0.17496 0.0179599 0.17496
0.269535 0.0120699 0.16907
0.38645 0.0015259 0.158526
0.525505 0 0.142885
0.688212 0 0.121935
0.879057 0 0.0944076
0 0.0852522 0.173053
0.0231937 0.0923934 0.180194
0.0945449 0.0945449 0.182361
0.181231 0.093431 0.181231
0.278767 0.0905013 0.178302
0.398245 0.0825055 0.170321
0.539666 0.0692302 0.157046
0.704143 0.0500496 0.13785
0.896483 0.024033 0.111833
0 0.167086 0.167086
0.0201572 0.177157 0.177157
0.0939498 0.18175 0.18175
0.182834 0.182834 0.182834
0.281895 0.18143 0.18143
0.402945 0.175006 0.175006
0.546136 0.163516 0.163516
0.712825 0.146548 0.146548
0.908171 0.123522 0.123522
0 0.260578 0.160113
0.014786 0.272251 0.171801
0.0902113 0.278477 0.178012
0.180835 0.281285 0.180835
0.282551 0.282551 0.182101
0.406561 0.279103 0.178637
0.55375 0.271595 0.17113
0.725383 0.259571 0.159106
0.925795 0.241611 0.141146
0 0.367788 0.139864
0 0.382177 0.154253
0.0758831 0.391623 0.163684
0.170809 0.398733 0.170809
0.277729 0.405203 0.177279
0.407019 0.407019 0.179095
0.558801 0.40412 0.176181
0.734493 0.396139 0.168215
0.938628 0.381918 0.153979
0 0.494835 0.112215
0 0.51429 0.13167
0.0587015 0.529122 0.146502
0.158206 0.540825 0.158206
0.268788 0.550958 0.168338
0.401785 0.556466 0.173846
0.557366 0.557366 0.174746
0.736996 0.553338 0.170718
0.94522 0.543191 0.160571
0 0.646372 0.0800946
0 0.669596 0.103319
0.0338293 0.687922 0.121645
0.137194 0.703487 0.137194
0.251759 0.717586 0.151293
0.388876 0.72723 0.160937
0.54876 0.732418 0.16614
0.733028 0.733028 0.166735
0.946349 0.727977 0.1617
0 0.820584 0.035935
0 0.847837 0.0631876
0 0.870359 0.0857099
0.10547 0.89012 0.10547
0.224826 0.909026 0.124376
0.367651 0.924376 0.139727
0.533822 0.935851 0.151202
0.724056 0.942428 0.157778
0.94313 0.94313 0.15848
0 0 0.273976
0.0127871 0 0.270253
0.075761 0 0.264027
0.155734 0 0.256199
0.247303 0 0.247303
0.361242 0 0.233768
0.497734 0 0.215579
0.657801 0 0.191974
0.846265 0 0.162081
0 0.0161288 0.273594
0.0203555 0.0203555 0.277821
0.0887007 0.019501 0.276967
0.172869 0.0158541 0.27332
0.26775 0.0102846 0.26775
0.384955 3.0518e-05 0.257496
0.524285 0 0.24213
0.687312 0 0.2215
0.878355 0 0.194171
0 0.0832685 0.271534
0.0215152 0.0907149 0.278981
0.0931716 0.0931716 0.281437
0.180133 0.0923323 0.280598
0.277943 0.0896773 0.277943
0.397604 0.0818647 0.27013
0.539147 0.0687266 0.256992
0.703761 0.0496681 0.237934
0.896315 0.0238651 0.212131
0 0.16611 0.266575
0.0193942 0.17641 0.27686
0.09337 0.18117 0.281636
0.182223 0.182223 0.282689
0.281605 0.18114 0.281605
0.402884 0.174945 0.27541
0.546288 0.163668 0.264118
0.713359 0.147082 0.247532
0.908919 0.124269 0.22472
0 0.260182 0.260182
0.0145724 0.272038 0.272038
0.0902266 0.278492 0.278492
0.181155 0.281621 0.281621
0.283299 0.283299 0.283299
0.407767 0.280308 0.280308
0.555489 0.273335 0.273335
0.727718 0.261891 0.261891
0.928542 0.244358 0.244358
0 0.368215 0.240742
0 0.382834 0.25536
0.0773022 0.393027 0.265568
0.172869 0.400793 0.273335
0.280049 0.407507 0.280049
0.409934 0.409934 0.28246
0.562081 0.407401 0.279927
0.738155 0.399802 0.272328
0.942687 0.385962 0.258488
0 0.497047 0.214893
0 0.516945 0.234791
0.0614786 0.531899 0.249744
0.161364 0.543984 0.26183
0.272343 0.554498 0.272343
0.405768 0.560464 0.278294
0.5617 0.5617 0.279545
0.741741 0.558083 0.275929
0.950393 0.548363 0.266209
0 0.649897 0.18407
0 0.673503 0.207691
0.0381476 0.692226 0.226413
0.141924 0.708202 0.24239
0.256916 0.722744 0.256916
0.394476 0.73283 0.267018
0.554879 0.738537 0.272709
0.739498 0.739498 0.273671
0.953841 0.735485 0.269657
0 0.825376 0.141192
0 0.852934 0.16875
0.00344854 0.875898 0.191714
0.111757 0.896406 0.212207
0.231907 0.916106 0.231907
0.375082 0.931807 0.247608
0.541802 0.943832 0.259648
0.732815 0.951171 0.266987
0.951858 0.951858 0.267674
0 0 0.394293
0.00605783 0 0.390982
0.070161 0 0.385885
0.150713 0 0.378637
0.242664 0 0.370123
0.356954 0 0.356954
0.493675 0 0.338979
0.654093 0 0.31574
0.842817 0 0.286091
0 0.0110933 0.396033
0.0157321 0.0157321 0.400656
0.0846113 0.0154116 0.400351
0.168917 0.0119173 0.396857
0.264149 0.00668345 0.391623
0.381628 0 0.381628
0.521233 0 0.366537
0.684535 0 0.346181
0.875761 0 0.319036
0 0.0794385 0.395163
0.0179904 0.0871901 0.402914
0.0899367 0.0899367 0.405661
0.177203 0.0894026 0.405127
0.275242 0.0869764 0.402701
0.395071 0.0793469 0.395071
0.536721 0.0662852 0.382025
0.701473 0.0473793 0.363104
0.894301 0.0218509 0.337575
0 0.163287 0.391211
0.0167544 0.173754 0.401694
0.0908827 0.178683 0.406607
0.179812 0.179812 0.407752
0.279423 0.178958 0.406882
0.400946 0.173022 0.400946
0.544518 0.161898 0.389838
0.712139 0.145846 0.37377
0.908141 0.123491 0.351431
0 0.257893 0.385351
0.0124666 0.269932 0.397406
0.0882124 0.276478 0.403937
0.179629 0.280095 0.407568
0.282078 0.282078 0.409537
0.407218 0.279759 0.407218
0.555413 0.273259 0.400717
0.728252 0.262425 0.389899
0.929503 0.245319 0.372778
0 0.366842 0.366842
0 0.381872 0.381872
0.0768292 0.392569 0.392569
0.173114 0.401038 0.401038
0.280751 0.408209 0.408209
0.410758 0.410758 0.410758
0.563333 0.408637 0.408637
0.73994 0.401587 0.401587
0.944915 0.38819 0.38819
0 0.497475 0.342779
0 0.517769 0.363073
0.0626688 0.533089 0.378393
0.162921 0.545541 0.39086
0.274266 0.556435 0.40174
0.408042 0.562737 0.408042
0.564462 0.564462 0.409766
0.744945 0.561273 0.406577
0.95404 0.55201 0.397314
0 0.651637 0.313283
0 0.675639 0.337285
0.0406806 0.694774 0.35642
0.144884 0.711177 0.372808
0.260166 0.725978 0.387625
0.398062 0.736416 0.398062
0.558984 0.742657 0.404303
0.74461 0.74461 0.406256
0.959533 0.741161 0.402808
0 0.828321 0.271595
0 0.856458 0.299733
0.00743114 0.879896 0.323171
0.116182 0.900832 0.344121
0.236881 0.92108 0.364355
0.381033 0.937743 0.381033
0.548318 0.950347 0.393622
0.739406 0.957778 0.401053
0.95903 0.95903 0.402319
0 0 0.538705
0 0 0.53756
0.062623 0 0.533043
0.143709 0 0.526329
0.236072 0 0.518227
0.350805 0 0.505501
0.487755 0 0.487755
0.648585 0 0.464912
0.837507 0 0.435477
0 0.00424201 0.543862
0.00927749 0.00927749 0.548898
0.0784924 0.00929274 0.548913
0.163119 0.00611887 0.545739
0.258717 0.00125124 0.540871
0.37641 0 0.531106
0.516335 0 0.516335
0.679866 0 0.496208
0.87126 0 0.46923
0 0.0737469 0.544167
0.0127718 0.0819715 0.552392
0.0848096 0.0848096 0.555245
0.172396 0.084596 0.555016
0.270634 0.0823682 0.552789
0.390616 0.074876 0.545312
0.532204 0.0617838 0.532204
0.697322 0.0432288 0.513649
0.890394 0.0179446 0.488365
0 0.158556 0.541176
0.0122072 0.169223 0.551843
0.0864118 0.174212 0.556832
0.175555 0.175555 0.558175
0.275349 0.174899 0.557519
0.397086 0.169162 0.551781
0.541024 0.158404 0.541024
0.709056 0.142779 0.525399
0.905623 0.120974 0.503594
0 0.253697 0.535851
0.00851453 0.26598 0.548135
0.0844892 0.272755 0.55491
0.176272 0.276738 0.558892
0.279042 0.279042 0.561212
0.404822 0.277363 0.559518
0.553689 0.271534 0.553689
0.726787 0.260975 0.54313
0.928359 0.244175 0.526329
0 0.363668 0.518364
0 0.379187 0.533883
0.0745556 0.39028 0.544976
0.171557 0.399481 0.554177
0.279591 0.407065 0.561746
0.409964 0.409964 0.56466
0.562875 0.408179 0.562875
0.739696 0.401343 0.556039
0.945022 0.388296 0.542992
0 0.495872 0.495872
0 0.51664 0.51664
0.0620432 0.532479 0.532479
0.162692 0.545312 0.545312
0.274434 0.556588 0.556588
0.408606 0.563302 0.563302
0.565454 0.565454 0.565454
0.746365 0.562707 0.562707
0.955642 0.553613 0.553613
0 0.65127 0.467597
0 0.675654 0.491997
0.0411078 0.695201 0.511528
0.145724 0.712016 0.528344
0.261601 0.727428 0.543755
0.400076 0.73843 0.554772
0.561563 0.745235 0.561563
0.7476 0.7476 0.563943
0.963272 0.7449 0.561242
0 0.829587 0.427558
0 0.858183 0.456153
0.0093843 0.881834 0.479805
0.118914 0.903563 0.501534
0.240513 0.924697 0.522667
0.385107 0.941833 0.539803
0.552728 0.954757 0.552728
0.744488 0.96286 0.56083
0.963958 0.963958 0.561929
0 0 0.711238
0 0 0.711131
0.053193 0 0.707271
0.134752 0 0.70103
0.227512 0 0.693339
0.342596 0 0.680949
0.479866 0 0.663523
0.641016 0 0.641016
0.830198 0 0.611826
0 0 0.718929
0.000854505 0.000854505 0.724132
0.0703899 0.0011902 0.724483
0.155337 0 0.721614
0.251301 0 0.717113
0.369207 0 0.707561
0.509422 0 0.693095
0.673152 0 0.673152
0.864713 0 0.646342
0 0.0660563 0.72015
0.00538643 0.0745861 0.728679
0.0777142 0.0777142 0.731807
0.165576 0.0777752 0.731868
0.263981 0.0757153 0.729809
0.3841 0.0683604 0.722454
0.525856 0.055436 0.709514
0.691157 0.0370642 0.691157
0.884474 0.0120241 0.666102
0 0.151812 0.71809
0.00563058 0.162631 0.728923
0.0797894 0.16759 0.733883
0.169268 0.169268 0.735546
0.269291 0.168826 0.735103
0.391165 0.163241 0.729519
0.535561 0.152941 0.719219
0.703807 0.13753 0.703807
0.901122 0.116472 0.682765
0 0.247456 0.713283
0.00251774 0.259983 0.725811
0.0788281 0.267094 0.732921
0.171008 0.271473 0.737301
0.27425 0.27425 0.740078
0.400443 0.272984 0.738796
0.550027 0.267857 0.733684
0.723537 0.257725 0.723537
0.92546 0.241276 0.707103
0 0.358328 0.696681
0 0.374609 0.712963
0.070634 0.386358 0.724727
0.167865 0.395789 0.734142
0.276509 0.403983 0.742336
0.407248 0.407248 0.745602
0.560525 0.405844 0.744198
0.737758 0.399405 0.737758
0.943481 0.386755 0.725109
0 0.492531 0.676204
0 0.513573 0.69723
0.059205 0.529625 0.713283
0.16022 0.54284 0.726497
0.272358 0.554513 0.73817
0.406943 0.561624 0.745296
0.564187 0.564187 0.74786
0.745541 0.561883 0.745541
0.95555 0.553521 0.737194
0 0.64918 0.64918
0 0.673976 0.673976
0.0398413 0.693919 0.693919
0.144884 0.711177 0.711177
0.261219 0.727031 0.727031
0.400061 0.738415 0.738415
0.562051 0.745724 0.745724
0.749111 0.749111 0.749111
0.965408 0.747036 0.747036
0 0.828672 0.610315
0 0.857725 0.639353
0.00975052 0.8822 0.663844
0.119997 0.904646 0.686275
0.241932 0.926116 0.707744
0.387243 0.943969 0.725597
0.555474 0.957504 0.739132
0.747219 0.965576 0.747219
0.967147 0.967147 0.748775
0 0 0.91632
0 0 0.917342
0.0416114 0 0.914076
0.123629 0 0.908278
0.216602 0 0.900786
0.331975 0 0.888701
0.469551 0 0.87158
0.631006 0 0.849378
0.820478 0 0.820478
0 0 0.926116
0 0 0.931868
0.0598917 0 0.932342
0.145129 0 0.929778
0.241398 0 0.925582
0.359594 0 0.916304
0.500099 0 0.902129
0.663996 0 0.882368
0.85568 0 0.85568
0 0.0559548 0.92842
0 0.0647898 0.93724
0.0682383 0.0682383 0.940688
0.156313 0.068513 0.940963
0.254902 0.0666209 0.939086
0.375006 0.0592813 0.931731
0.517052 0.0466316 0.919081
0.682582 0.0284886 0.900938
0.876143 0.00369268 0.876143
0 0.142596 0.927245
0 0.153582 0.938231
0.0708782 0.158679 0.943328
0.160525 0.160525 0.945174
0.260792 0.160342 0.944991
0.382956 0.155032 0.939681
0.527779 0.145159 0.929808
0.696498 0.130205 0.914855
0.894377 0.109728 0.894377
0 0.238804 0.923003
0 0.251392 0.935576
0.0707408 0.259007 0.943191
0.163149 0.263615 0.947799
0.267155 0.267155 0.951339
0.393942 0.266484 0.950668
0.543862 0.261692 0.945891
0.717937 0.252125 0.936309
0.920226 0.236042 0.920226
0 0.35082 0.90753
0 0.367468 0.924178
0.0643168 0.380056 0.936782
0.162005 0.389944 0.946654
0.270787 0.398245 0.954971
0.401892 0.401892 0.958618
0.555596 0.400916 0.957626
0.733272 0.394919 0.951644
0.939345 0.38262 0.939345
0 0.486809 0.888838
0 0.508202 0.910231
0.0542153 0.524636 0.926665
0.155612 0.538231 0.940261
0.268147 0.550301 0.952331
0.403143 0.557839 0.959869
0.56083 0.56083 0.96286
0.742641 0.558968 0.960998
0.953155 0.551125 0.953155
0 0.644755 0.863111
0 0.669963 0.888319
0.0361791 0.690257 0.908629
0.141466 0.707744 0.926116
0.258244 0.724071 0.942428
0.397772 0.736126 0.954482
0.560616 0.744274 0.962646
0.748028 0.748028 0.9664
0.964874 0.746502 0.964874
0 0.82565 0.82565
0 0.855161 0.855161
0.00746166 0.879911 0.879911
0.11841 0.903059 0.903059
0.241321 0.925505 0.925505
0.387213 0.943923 0.943923
0.55552 0.957549 0.957549
0.747814 0.966186 0.966186
0.967483 0.967483 0.967483
