luts/MORROCO.cube
TITLE "Generated by Resolve"
LUT_3D_SIZE 33
0 0 0
0 0 0
0.00360113 0 0
0.014023 0 0
0.0266575 0 0
0.0405127 0 0
0.0555123 0 0
0.0710613 0 0
0.0866255 0 0
0.104112 0 0
0.122927 0 0
0.142519 0 0
0.163104 0 0
0.183963 0 0
0.205768 0 0
0.22855 0 0
0.252323 0 0
0.27779 0 0
0.304936 0 0
0.334279 0 0
0.364584 0 0
0.396536 0 0
0.429389 0 0
0.463905 0 0
0.499611 0 0
0.536675 0 0
0.575387 0 0
0.615717 0 0
0.658564 0 0
0.703334 0 0
0.749905 0 0
0.797498 0 0
0.845609 0 0
0 0 0
0 0 0
0.00288396 0 0
0.0125887 0 0
0.0242161 0 0
0.0367132 0 0
0.0515908 0 0
0.0674907 0 0
0.0847334 0 0
0.10309 0 0
0.122454 0 0
0.142748 0 0
0.163638 0 0
0.185122 0 0
0.207187 0 0
0.230259 0 0
0.254582 0 0
0.28014 0 0
0.307713 0 0
0.337194 0 0
0.367773 0 0
0.399969 0 0
0.433082 0 0
0.467826 0 0
0.503746 0 0
0.541146 0 0
0.57995 0 0
0.620478 0 0
0.663508 0 0
0.708492 0 0
0.755154 0 0
0.803052 0 0
0.851347 0 0
0 0.00416571 0
0 0.00254826 0
0.00230411 0.00230411 0
0.0121309 0.00183108 0
0.0244144 0.000793469 0
0.038529 0 0
0.0541543 0 0
0.0707256 0 0
0.0884871 0 0
0.107134 0 0
0.127108 0 0
0.147585 0 0
0.169009 0 0
0.190631 0 0
0.213138 0 0
0.236362 0 0
0.260945 0 0
0.286778 0 0
0.314656 0 0
0.344305 0 0
0.37528 0 0
0.407538 0 0
0.440848 0 0
0.475792 0 0
0.511925 0 0
0.549371 0 0
0.58851 0 0
0.629236 0 0
0.672389 0 0
0.717647 0 0
0.764492 0 0
0.81236 0 0
0.861036 0 0
0 0.0111849 0
0 0.0108492 0
0.00149538 0.0117952 0
0.0118563 0.0118563 0
0.024918 0.0115969 0
0.0394903 0.0110628 0
0.0554665 0.0101472 0
0.0725872 0.00924697 0
0.0905318 0.00801099 0
0.109712 0.00680552 0
0.129809 0.00521859 0
0.150774 0.00373846 0
0.17229 0.00196841 0
0.194354 0.000366217 0
0.216938 0 0
0.240406 0 0
0.265217 0 0
0.291264 0 0
0.319371 0 0
0.349233 0 0
0.380255 0 0
0.412863 0 0
0.446372 0 0
0.481514 0 0
0.51783 0 0
0.555489 0 0
0.594812 0 0
0.635706 0 0
0.678935 0 0
0.724468 0 0
0.771511 0 0
0.819577 0 0
0.868223 0 0
0 0.0224002 0
0 0.0227054 0
0.000320439 0.0239567 0
0.0113069 0.0246281 0
0.0245823 0.0245823 0
0.0395514 0.0244297 0
0.0559548 0.0239567 0
0.0732433 0.0232242 0
0.0915084 0.0223087 0
0.110918 0.0213321 0
0.131273 0.0200046 0
0.152499 0.0187839 0
0.174243 0.0172427 0
0.196551 0.0158999 0
0.219348 0.0142519 0
0.243091 0.0124971 0
0.268055 0.0105898 0
0.294301 0.00822461 0
0.322606 0.00564584 0
0.352667 0.00241093 0
0.383871 0 0
0.416693 0 0
0.450385 0 0
0.485527 0 0
0.52221 0 0
0.560037 0 0
0.599359 0 0
0.640635 0 0
0.684047 0 0
0.729564 0 0
0.776776 0 0
0.825223 0 0
0.874067 0 0
0 0.0358282 0
0 0.0363317 0
0 0.038117 0
0.0104829 0.0389105 0
0.0242466 0.039353 0
0.0393072 0.0393072 0
0.0560159 0.0391394 0
0.073518 0.0386206 0
0.0921798 0.0381018 0
0.111696 0.0372168 0
0.132342 0.0361944 0
0.153704 0.035111 0
0.175677 0.0337835 0
0.198184 0.032639 0
0.22118 0.0311894 0
0.24506 0.029572 0
0.270283 0.027924 0
0.296727 0.0257725 0
0.325032 0.0231785 0
0.355474 0.020325 0
0.386847 0.0170291 0
0.419654 0.0134279 0
0.453727 0.00979629 0
0.489052 0.0056611 0
0.525734 0.00123598 0
0.563943 0 0
0.603433 0 0
0.644694 0 0
0.688396 0 0
0.734203 0 0
0.781598 0 0
0.830014 0 0
0.879042 0 0
0 0.0507362 0
0 0.0517128 0
0 0.0535897 0
0.00944533 0.0547494 0
0.0233463 0.0553445 0
0.0386511 0.0555428 0
0.0556039 0.0556039 0
0.0733349 0.0552987 0
0.0922255 0.0550088 0
0.111925 0.0543374 0
0.132708 0.0534371 0
0.154345 0.0526284 0
0.176516 0.0514992 0
0.199191 0.0505226 0
0.222416 0.0493019 0
0.246479 0.0478828 0
0.271794 0.0463264 0
0.298512 0.044419 0
0.326986 0.0420081 0
0.357549 0.039292 0
0.389181 0.0362402 0
0.422171 0.0328374 0
0.45623 0.0291905 0
0.49192 0.0254215 0
0.528786 0.021149 0
0.566979 0.0166171 0
0.606729 0.0118105 0
0.648325 0.00665293 0
0.692073 0.00077821 0
0.737942 0 0
0.785565 0 0
0.83418 0 0
0.883299 0 0
0 0.0668956 0
0 0.0681315 0
0 0.0702373 0
0.0083772 0.0717174 0
0.0224308 0.0724498 0
0.0379339 0.0728466 0
0.0551003 0.0731212 0
0.0730297 0.0730297 0
0.0920119 0.0728313 0
0.112016 0.0724498 0
0.132998 0.0717479 0
0.154833 0.0711376 0
0.177172 0.0701915 0
0.199878 0.0692302 0
0.223423 0.0683452 0
0.247684 0.0671092 0
0.273075 0.0656291 0
0.300069 0.0640116 0
0.328756 0.0618143 0
0.359365 0.0591287 0
0.391104 0.056199 0
0.424475 0.0531624 0
0.458717 0.0496986 0
0.494423 0.0459297 0
0.531456 0.0418555 0
0.570001 0.0376593 0
0.609827 0.032929 0
0.651392 0.0277562 0
0.695262 0.0220035 0
0.741421 0.0159152 0
0.789059 0.00923171 0
0.83769 0.00230411 0
0.88687 0 0
0 0.084184 0
0 0.0856336 0
0 0.087953 0
0.0071107 0.0896315 0
0.0213626 0.0905623 0
0.0370794 0.0911574 0
0.0544289 0.0916457 0
0.0725567 0.0917372 0
0.0916457 0.0916457 0
0.111925 0.0915389 0
0.133089 0.0910201 0
0.154894 0.0903792 0
0.17763 0.0898299 0
0.200519 0.0890516 0
0.224063 0.0881666 0
0.248676 0.0872816 0
0.274266 0.0859998 0
0.301259 0.0843824 0
0.330114 0.0823377 0
0.361105 0.0800488 0
0.393042 0.0773022 0
0.426383 0.0742504 0
0.460777 0.0709392 0
0.496803 0.0674907 0
0.533944 0.0635233 0
0.572412 0.0592508 0
0.612345 0.054612 0
0.654169 0.0496986 0
0.698177 0.0440833 0
0.744213 0.0378729 0
0.791913 0.0312505 0
0.840604 0.0243992 0
0.890059 0.0176089 0
0 0.10251 0
0 0.104173 0
0 0.106676 0
0.00553903 0.108446 0
0.0201114 0.109697 0
0.0360113 0.110475 0
0.0533608 0.110948 0
0.0718395 0.111406 0
0.0911116 0.111498 0
0.111421 0.111421 0
0.132937 0.111254 0
0.15494 0.110811 0
0.177646 0.110231 0
0.200855 0.109789 0
0.224628 0.109117 0
0.249241 0.108248 0
0.275013 0.107134 0
0.302388 0.105898 0
0.331395 0.104021 0
0.362341 0.101671 0
0.3944 0.0990616 0
0.428046 0.0962997 0
0.462562 0.0931106 0
0.498482 0.0895705 0
0.535744 0.0856947 0
0.574472 0.0816815 0
0.614481 0.0771344 0
0.656229 0.0721447 0
0.700267 0.0665599 0
0.746395 0.0604562 0
0.794339 0.054078 0
0.843198 0.0473793 0
0.892592 0.040528 0
0 0.121889 0
0 0.123735 0
0 0.126436 0
0.0037232 0.128313 0
0.0184176 0.129686 0
0.0346075 0.13077 0
0.0521401 0.131426 0
0.0706951 0.131945 0
0.0902876 0.132357 0
0.110735 0.132418 0
0.13225 0.13225 0
0.154635 0.132189 0
0.177539 0.131807 0
0.200793 0.131395 0
0.224704 0.130877 0
0.249668 0.130358 0
0.275563 0.129366 0
0.302861 0.128054 0
0.331975 0.126284 0
0.363226 0.124224 0
0.395392 0.121736 0
0.428946 0.118883 0
0.463523 0.115755 0
0.499519 0.112291 0
0.537041 0.10869 0
0.575677 0.104585 0
0.615763 0.100114 0
0.657618 0.0952316 0
0.701762 0.0897536 0
0.74815 0.0838941 0
0.796124 0.0775464 0
0.84506 0.0709239 0
0.894591 0.06421 0
0 0.142092 0
0 0.143923 0
0 0.147005 0
0.00204471 0.149081 0
0.016846 0.150561 0
0.0331731 0.151781 0
0.0510109 0.152728 0
0.0696727 0.153368 0
0.0893111 0.153826 0
0.110155 0.154284 0
0.131868 0.154314 0
0.154223 0.154223 0
0.177264 0.153979 0
0.200839 0.153903 0
0.224857 0.153475 0
0.249744 0.152865 0
0.275746 0.15201 0
0.303181 0.15082 0
0.332555 0.14931 0
0.363684 0.147143 0
0.395911 0.144701 0
0.429526 0.141909 0
0.464271 0.138949 0
0.500496 0.135714 0
0.537942 0.132036 0
0.576684 0.128038 0
0.616876 0.123674 0
0.658854 0.118898 0
0.703334 0.113756 0
0.749722 0.107912 0
0.797803 0.101671 0
0.846876 0.0951858 0
0.896559 0.0886244 0
0 0.16318 0
0 0.165194 0
0 0.168246 0
0.000228885 0.17055 0
0.0153506 0.172351 0
0.0317998 0.173693 0
0.0496986 0.174716 0
0.0687572 0.175738 0
0.0885481 0.176349 0
0.109331 0.176745 0
0.131167 0.176898 0
0.153826 0.177111 0
0.176974 0.176974 0
0.200458 0.176806 0
0.224582 0.176486 0
0.249622 0.176028 0
0.275822 0.175357 0
0.303288 0.174212 0
0.332586 0.172625 0
0.363806 0.17055 0
0.396155 0.168231 0
0.43006 0.165728 0
0.464851 0.162814 0
0.50106 0.159564 0
0.538613 0.155993 0
0.577493 0.152132 0
0.617853 0.147936 0
0.660166 0.143496 0
0.704601 0.138323 0
0.751156 0.132631 0
0.79942 0.126574 0
0.848722 0.120317 0
0.898604 0.113954 0
0 0.184756 0
0 0.187152 0
0 0.190417 0
0 0.192844 0
0.014023 0.19469 0
0.0307622 0.196307 0
0.0488594 0.197528 0
0.0678264 0.198459 0
0.0877241 0.199191 0
0.10869 0.199756 0
0.130755 0.200137 0
0.153307 0.200259 0
0.176547 0.200198 0
0.200092 0.200092 0
0.22443 0.2 0
0.249546 0.199603 0
0.275715 0.198917 0
0.303288 0.197879 0
0.332692 0.196384 0
0.364034 0.19443 0
0.396658 0.192386 0
0.430518 0.189853 0
0.465461 0.187076 0
0.501823 0.183978 0
0.539528 0.18056 0
0.578561 0.176852 0
0.619287 0.173037 0
0.661616 0.168612 0
0.706249 0.163622 0
0.753002 0.158129 0
0.801465 0.15227 0
0.850996 0.146258 0
0.901167 0.140169 0
0 0.207401 0
0 0.209766 0
0 0.213169 0
0 0.21593 0
0.0127718 0.217868 0
0.0294957 0.219471 0
0.0476234 0.220737 0
0.0666972 0.221775 0
0.0868849 0.222782 0
0.107851 0.223362 0
0.129854 0.223682 0
0.152483 0.223865 0
0.175814 0.223911 0
0.199664 0.224109 0
0.223972 0.223972 0
0.249134 0.223636 0
0.27541 0.223041 0
0.303105 0.222126 0
0.332799 0.220935 0
0.364324 0.219165 0
0.396918 0.21709 0
0.43093 0.214694 0
0.466011 0.212085 0
0.502571 0.209171 0
0.54049 0.205966 0
0.579782 0.202518 0
0.620645 0.198825 0
0.663172 0.194614 0
0.70808 0.189899 0
0.755108 0.18468 0
0.80383 0.17908 0
0.853605 0.173297 0
0.904067 0.167514 0
0 0.230625 0
0 0.233188 0
0 0.236805 0
0 0.239475 0
0.0109255 0.24152 0
0.0277256 0.243198 0
0.046128 0.244724 0
0.0652628 0.245838 0
0.0853437 0.246723 0
0.106401 0.24741 0
0.128511 0.247837 0
0.1514 0.248264 0
0.174884 0.248478 0
0.198657 0.248585 0
0.223072 0.248569 0
0.248386 0.248386 0
0.27483 0.247944 0
0.302724 0.247242 0
0.33254 0.246174 0
0.364187 0.244526 0
0.396994 0.242649 0
0.43122 0.240467 0
0.466499 0.238056 0
0.503243 0.235325 0
0.541421 0.232395 0
0.581079 0.229313 0
0.622095 0.225772 0
0.664881 0.221805 0
0.710033 0.217334 0
0.757382 0.212451 0
0.806485 0.207218 0
0.856596 0.201785 0
0.907362 0.196307 0
0 0.254795 0
0 0.257374 0
0 0.26096 0
0 0.263691 0
0.00836194 0.265827 0
0.0254215 0.267765 0
0.0437324 0.2692 0
0.062974 0.27042 0
0.0831617 0.271427 0
0.104326 0.272206 0
0.126665 0.272862 0
0.14963 0.273365 0
0.173205 0.273671 0
0.197131 0.27393 0
0.221698 0.274067 0
0.247166 0.274037 0
0.273884 0.273884 0
0.302022 0.273411 0
0.331914 0.272419 0
0.36376 0.270954 0
0.39675 0.269291 0
0.43122 0.267353 0
0.466789 0.265217 0
0.503792 0.26276 0
0.542168 0.260014 0
0.582177 0.257282 0
0.623529 0.254063 0
0.666667 0.250462 0
0.712139 0.246326 0
0.759823 0.241749 0
0.809308 0.236927 0
0.859892 0.231952 0
0.91107 0.226886 0
0 0.27953 0
0 0.282185 0
0 0.285863 0
0 0.288884 0
0.00503548 0.291127 0
0.022034 0.293004 0
0.0404517 0.294545 0
0.0598154 0.295872 0
0.0801709 0.297047 0
0.101656 0.298146 0
0.124041 0.298848 0
0.147066 0.299413 0
0.170794 0.29987 0
0.194919 0.300328 0
0.219699 0.300679 0
0.24535 0.300847 0
0.272251 0.300862 0
0.300633 0.300633 0
0.330785 0.299901 0
0.362905 0.298726 0
0.396155 0.297292 0
0.430869 0.295613 0
0.466743 0.293782 0
0.504112 0.291676 0
0.54284 0.289296 0
0.58294 0.286656 0
0.624857 0.284001 0
0.668421 0.280842 0
0.714366 0.27715 0
0.762402 0.272953 0
0.812192 0.268406 0
0.86305 0.263722 0
0.914534 0.258961 0
0 0.305226 0
0 0.308003 0
0 0.311971 0
0 0.314916 0
0.00030518 0.317266 0
0.0174411 0.319295 0
0.0360266 0.320989 0
0.0555276 0.322484 0
0.076112 0.323888 0
0.0976883 0.325063 0
0.120272 0.325963 0
0.143511 0.326757 0
0.167437 0.327398 0
0.191745 0.328054 0
0.216754 0.328618 0
0.242741 0.329122 0
0.269963 0.329458 0
0.298482 0.329381 0
0.328908 0.328908 0
0.361364 0.328054 0
0.39498 0.327016 0
0.430014 0.325658 0
0.466209 0.324132 0
0.503944 0.322408 0
0.54313 0.32047 0
0.583673 0.318273 0
0.625696 0.31574 0
0.669779 0.313085 0
0.716014 0.309682 0
0.764355 0.305791 0
0.814389 0.301503 0
0.865476 0.297032 0
0.917189 0.2925 0
0 0.331991 0
0 0.335073 0
0 0.33901 0
0 0.342107 0
0 0.34461 0
0.0116426 0.346792 0
0.030396 0.348669 0
0.0502785 0.350515 0
0.0710002 0.352056 0
0.092668 0.353353 0
0.115465 0.354452 0
0.138949 0.355489 0
0.163165 0.35642 0
0.187716 0.357321 0
0.212985 0.358144 0
0.239292 0.358953 0
0.26685 0.35964 0
0.29572 0.359899 0
0.326452 0.359747 0
0.359228 0.359228 0
0.393256 0.358587 0
0.428763 0.357687 0
0.465354 0.356573 0
0.503395 0.355154 0
0.54287 0.353506 0
0.583703 0.351598 0
0.626017 0.349355 0
0.6701 0.3467 0
0.716564 0.343526 0
0.765179 0.33991 0
0.815473 0.335882 0
0.866789 0.33164 0
0.918868 0.327474 0
0 0.359823 0
0 0.36286 0
0 0.366949 0
0 0.370245 0
0 0.372961 0
0.00552377 0.375341 0
0.0244602 0.377401 0
0.0446021 0.379522 0
0.0655528 0.381292 0
0.0875105 0.382864 0
0.110536 0.384207 0
0.134279 0.385489 0
0.158816 0.38674 0
0.183749 0.388022 0
0.209354 0.389181 0
0.235874 0.390219 0
0.263798 0.391272 0
0.293187 0.39205 0
0.324376 0.39234 0
0.357504 0.392187 0
0.391836 0.391836 0
0.427619 0.391211 0
0.464515 0.390402 0
0.502831 0.389258 0
0.542519 0.387839 0
0.583581 0.386145 0
0.626139 0.384146 0
0.670466 0.38172 0
0.717098 0.378744 0
0.765911 0.375311 0
0.816434 0.371511 0
0.867964 0.367483 0
0.920104 0.363378 0
0 0.388525 0
0 0.391775 0
0 0.396063 0
0 0.399558 0
0 0.402502 0
0 0.405158 0
0.018204 0.407538 0
0.0385138 0.409827 0
0.0597543 0.411902 0
0.082063 0.413809 0
0.105455 0.415518 0
0.129519 0.417136 0
0.15436 0.418692 0
0.179675 0.420356 0
0.205737 0.421973 0
0.2327 0.423438 0
0.260807 0.424674 0
0.290455 0.425711 0
0.321996 0.426368 0
0.355489 0.426566 0
0.390112 0.42652 0
0.426123 0.426123 0
0.463249 0.425544 0
0.501808 0.424643 0
0.541711 0.423423 0
0.582971 0.421942 0
0.625757 0.420172 0
0.670344 0.418006 0
0.71722 0.415259 0
0.766232 0.412039 0
0.816983 0.408469 0
0.868772 0.4047 0
0.921157 0.400839 0
0 0.418296 0
0 0.42179 0
0 0.426368 0
0 0.430106 0
0 0.43331 0
0 0.436255 0
0.0119631 0.439002 0
0.0326238 0.441627 0
0.0541848 0.444022 0
0.0768139 0.446265 0
0.100633 0.448386 0
0.125154 0.450477 0
0.150393 0.45243 0
0.175998 0.454383 0
0.20235 0.456275 0
0.229603 0.458045 0
0.258 0.459571 0
0.287816 0.460777 0
0.319509 0.461585 0
0.353185 0.461967 0
0.387991 0.462104 0
0.424216 0.461921 0
0.461707 0.461707 0
0.500511 0.461051 0
0.540673 0.46009 0
0.582147 0.458824 0
0.625238 0.457359 0
0.670054 0.455421 0
0.717189 0.452934 0
0.76643 0.449943 0
0.817411 0.446601 0
0.869444 0.443076 0
0.922087 0.439475 0
0 0.449439 0
0 0.453193 0
0 0.458076 0
0 0.462196 0
0 0.465736 0
0 0.468986 0
0.00552377 0.472038 0
0.0265965 0.475074 0
0.048661 0.477958 0
0.0717021 0.480613 0
0.0957961 0.483024 0
0.120607 0.48539 0
0.146151 0.487648 0
0.17203 0.489876 0
0.198596 0.491997 0
0.226078 0.49398 0
0.254719 0.49575 0
0.284764 0.497185 0
0.31667 0.498207 0
0.350561 0.498802 0
0.385611 0.499184 0
0.422065 0.499245 0
0.459617 0.499077 0
0.498634 0.498634 0
0.539055 0.497932 0
0.580789 0.496925 0
0.624002 0.495583 0
0.669047 0.493889 0
0.716442 0.491661 0
0.765942 0.488914 0
0.817151 0.485801 0
0.869429 0.482521 0
0.922347 0.479194 0
0 0.482139 0
0 0.486213 0
0 0.491417 0
0 0.495918 0
0 0.499916 0
0 0.503594 0
0 0.506966 0
0.0205997 0.510201 0
0.0428626 0.513283 0
0.0661631 0.516197 0
0.090547 0.518898 0
0.115755 0.52166 0
0.141527 0.524147 0
0.167651 0.526604 0
0.19443 0.528954 0
0.222126 0.531151 0
0.250996 0.53315 0
0.281285 0.534829 0
0.31342 0.53608 0
0.347524 0.536889 0
0.382818 0.537499 0
0.419532 0.53782 0
0.457313 0.537896 0
0.496559 0.537682 0
0.537209 0.537209 0
0.579202 0.536461 0
0.622675 0.535378 0
0.667948 0.533913 0
0.715587 0.531929 0
0.765377 0.529473 0
0.816831 0.526604 0
0.869352 0.523568 0
0.922515 0.520485 0
0 0.516487 0
0 0.521019 0
0 0.526604 0
0 0.531411 0
0 0.535698 0
0 0.539666 0
0 0.543313 0
0.0144503 0.546792 0
0.0369268 0.550103 0
0.060441 0.553231 0
0.0850233 0.556115 0
0.110262 0.558907 0
0.136248 0.561608 0
0.162615 0.564309 0
0.189639 0.566903 0
0.217548 0.569314 0
0.246845 0.57174 0
0.277363 0.573648 0
0.309712 0.575113 0
0.344015 0.57612 0
0.37966 0.577096 0
0.416632 0.577661 0
0.454627 0.577951 0
0.494041 0.577905 0
0.535042 0.577783 0
0.577279 0.577279 0
0.620935 0.576379 0
0.666362 0.575051 0
0.714397 0.57348 0
0.76434 0.571176 0
0.815961 0.568475 0
0.868742 0.565698 0
0.922164 0.562875 0
0 0.55259 0
0 0.557427 0
0 0.563317 0
0 0.568383 0
0 0.572885 0
0 0.577081 0
0 0.580972 0
0.00776684 0.584665 0
0.030457 0.588174 0
0.0542 0.591531 0
0.0790265 0.594675 0
0.104509 0.597711 0
0.130694 0.60061 0
0.15729 0.60354 0
0.184573 0.606394 0
0.212726 0.609049 0
0.242039 0.61149 0
0.272801 0.613642 0
0.305455 0.615412 0
0.340047 0.616709 0
0.375784 0.617777 0
0.412985 0.61857 0
0.451301 0.619196 0
0.491051 0.619471 0
0.532174 0.619471 0
0.574685 0.619242 0
0.618708 0.618708 0
0.6645 0.617761 0
0.712642 0.616266 0
0.762951 0.614343 0
0.814984 0.612055 0
0.868025 0.609552 0
0.921721 0.606989 0
0 0.590021 0
0 0.595254 0
0 0.601404 0
0 0.606744 0
0 0.61146 0
0 0.615869 0
0 0.619989 0
0.000289921 0.623941 0
0.023209 0.62768 0
