luts/MORROCO.cube
TITLE "Generated by Resolve"
LUT_3D_SIZE 5
0 0 0
0.0866255 0 0
0.252323 0 0
0.499611 0 0
0.845609 0 0
0 0.084184 0
0.0916457 0.0916457 0
0.274266 0.0859998 0
0.533944 0.0635233 0
0.890059 0.0176089 0
0 0.254795 0
0.0831617 0.271427 0
0.273884 0.273884 0
0.542168 0.260014 0
0.91107 0.226886 0
0 0.482139 0
0.0428626 0.513283 0
0.250996 0.53315 0
0.537209 0.537209 0
0.922515 0.520485 0
0 0.799527 0
0 0.846693 0
0.198276 0.882475 0
0.502892 0.904921 0
0.909377 0.909377 0
0 0 0.0937972
0.0831769 0 0.0831769
0.252384 0 0.0641184
0.501335 0 0.0309148
0.848585 0 0
0 0.0864271 0.0864271
0.0950179 0.0950179 0.0950179
0.278737 0.0904707 0.0904707
0.5393 0.068864 0.068864
0.895811 0.0233463 0.0233463
0 0.260243 0.0719768
0.0893568 0.277623 0.0893568
0.281102 0.281102 0.0928359
0.551324 0.269169 0.0809033
0.922484 0.238285 0.0500191
0 0.491829 0.0214084
0.0548562 0.525277 0.0548562
0.26421 0.546365 0.0759442
0.551995 0.551995 0.0815595
0.938964 0.536934 0.0665141
0 0.814923 0
0 0.863813 0
0.217426 0.90161 0.02916
0.524758 0.926787 0.0543374
0.933227 0.933227 0.0607767
0 0 0.273976
0.075761 0 0.264027
0.247303 0 0.247303
0.497734 0 0.215579
0.846265 0 0.162081
0 0.0832685 0.271534
0.0931716 0.0931716 0.281437
0.277943 0.0896773 0.277943
0.539147 0.0687266 0.256992
0.896315 0.0238651 0.212131
0 0.260182 0.260182
0.0902266 0.278492 0.278492
0.283299 0.283299 0.283299
0.555489 0.273335 0.273335
0.928542 0.244358 0.244358
0 0.497047 0.214893
0.0614786 0.531899 0.249744
0.272343 0.554498 0.272343
0.5617 0.5617 0.279545
0.950393 0.548363 0.266209
0 0.825376 0.141192
0.00344854 0.875898 0.191714
0.231907 0.916106 0.231907
0.541802 0.943832 0.259648
0.951858 0.951858 0.267674
0 0 0.538705
0.062623 0 0.533043
0.236072 0 0.518227
0.487755 0 0.487755
0.837507 0 0.435477
0 0.0737469 0.544167
0.0848096 0.0848096 0.555245
0.270634 0.0823682 0.552789
0.532204 0.0617838 0.532204
0.890394 0.0179446 0.488365
0 0.253697 0.535851
0.0844892 0.272755 0.55491
0.279042 0.279042 0.561212
0.553689 0.271534 0.553689
0.928359 0.244175 0.526329
0 0.495872 0.495872
0.0620432 0.532479 0.532479
0.274434 0.556588 0.556588
0.565454 0.565454 0.565454
0.955642 0.553613 0.553613
0 0.829587 0.427558
0.0093843 0.881834 0.479805
0.240513 0.924697 0.522667
0.552728 0.954757 0.552728
0.963958 0.963958 0.561929
0 0 0.91632
0.0416114 0 0.914076
0.216602 0 0.900786
0.469551 0 0.87158
0.820478 0 0.820478
0 0.0559548 0.92842
0.0682383 0.0682383 0.940688
0.254902 0.0666209 0.939086
0.517052 0.0466316 0.919081
0.876143 0.00369268 0.876143
0 0.238804 0.923003
0.0707408 0.259007 0.943191
0.267155 0.267155 0.951339
0.543862 0.261692 0.945891
0.920226 0.236042 0.920226
0 0.486809 0.888838
0.0542153 0.524636 0.926665
0.268147 0.550301 0.952331
0.56083 0.56083 0.96286
0.953155 0.551125 0.953155
0 0.82565 0.82565
0.00746166 0.879911 0.879911
0.241321 0.925505 0.925505
0.55552 0.957549 0.957549
0.967483 0.967483 0.967483
