luts/Mostly Blue.cube
TITLE "Generated by Resolve"
LUT_3D_SIZE 9
0 0 0
0.0647746 0.0162509 0.0162509
0.129564 0.032517 0.032517
0.194339 0.0487678 0.0487678
0.259129 0.0650339 0.0650339
0.323903 0.0813001 0.0813001
0.388693 0.0975509 0.0975509
0.453483 0.113817 0.113817
0.518257 0.130068 0.130068
0.0851759 0.0910658 0.0851759
0.11809 0.11809 0.0886091
0.182147 0.136065 0.0899977
0.248722 0.152056 0.103716
0.314641 0.168048 0.119188
0.380224 0.184115 0.135088
0.44564 0.200198 0.151125
0.510948 0.216327 0.167224
0.576196 0.232456 0.183352
0.170367 0.182147 0.170367
0.198642 0.209094 0.18819
0.236194 0.236194 0.177234
0.297566 0.25565 0.171847
0.364309 0.272145 0.179995
0.431098 0.288151 0.192874
0.497459 0.304112 0.207446
0.5635 0.320104 0.222736
0.629313 0.33611 0.238392
0.255558 0.273228 0.255558
0.284886 0.299443 0.277607
0.312367 0.328099 0.280903
0.354299 0.354299 0.265858
0.413779 0.374655 0.257267
0.479545 0.391928 0.260502
0.546471 0.40824 0.269993
0.613336 0.424262 0.28246
0.679911 0.440223 0.296407
0.340749 0.364294 0.340749
0.370916 0.390082 0.364523
0.397299 0.418204 0.37641
0.427832 0.44686 0.370779
0.472404 0.472404 0.354482
0.530602 0.493309 0.344152
0.595132 0.51133 0.343709
0.661677 0.528069 0.34995
0.728634 0.54432 0.359991
0.42594 0.455375 0.42594
0.456733 0.480873 0.450706
0.483528 0.508431 0.466926
0.510491 0.53724 0.470359
0.544274 0.565423 0.459693
0.590509 0.590509 0.443107
0.647807 0.611795 0.431708
0.711162 0.630426 0.428595
0.77705 0.647654 0.431998
0.511131 0.546456 0.511131
0.542428 0.57174 0.536553
0.569772 0.598886 0.555215
0.595956 0.627314 0.564614
0.624735 0.656199 0.561807
0.66128 0.683848 0.548379
0.708614 0.708614 0.531731
0.76527 0.730159 0.519509
0.827558 0.74931 0.514549
0.596323 0.637537 0.596323
0.628031 0.662654 0.622263
0.655879 0.689494 0.642435
0.682155 0.71751 0.655634
0.708965 0.746334 0.659129
0.739864 0.775036 0.651942
0.778592 0.802197 0.636957
0.826719 0.826719 0.620356
0.882872 0.848478 0.607645
0.681514 0.728618 0.681514
0.713588 0.753567 0.707881
0.741848 0.780194 0.729076
0.768444 0.807858 0.744793
0.794614 0.836423 0.752819
0.82269 0.865354 0.751583
0.85568 0.893721 0.741558
0.896117 0.920485 0.725521
0.944823 0.944823 0.70898
0 0 0.197467
0.036759 0.0351263 0.036759
0.0993057 0.0498817 0.0745861
0.175311 0.0619059 0.0997024
0.245594 0.0762646 0.118593
0.313283 0.0915541 0.135897
0.379812 0.10724 0.152667
0.445747 0.123125 0.169223
0.51136 0.139132 0.185657
0 0.140566 0.140566
0.124987 0.124987 0.124987
0.189776 0.141253 0.141253
0.254551 0.157504 0.157504
0.319341 0.17377 0.17377
0.384115 0.190021 0.190021
0.448905 0.206287 0.206287
0.513695 0.222538 0.222538
0.57847 0.238804 0.238804
0 0.276509 0.0981765
0.210178 0.216068 0.210178
0.243091 0.243091 0.213611
0.307149 0.261067 0.214984
0.373724 0.277058 0.228717
0.439643 0.29305 0.24419
0.505226 0.309102 0.260075
0.570642 0.3252 0.276112
0.63595 0.341329 0.29221
0.0506142 0.357137 0.152773
0.295369 0.307149 0.295369
0.323644 0.334096 0.313191
0.361196 0.361196 0.302235
0.422568 0.380652 0.296849
0.489311 0.397147 0.304982
0.5561 0.413153 0.317861
0.622461 0.429114 0.332433
0.688502 0.445106 0.347738
0.199725 0.427329 0.256626
0.38056 0.398215 0.38056
0.409888 0.42443 0.402609
0.437354 0.453101 0.40589
0.479301 0.479301 0.39086
0.538781 0.499641 0.382269
0.604547 0.51693 0.385489
0.671473 0.533227 0.394995
0.738338 0.549264 0.407462
0.321065 0.506035 0.358053
0.465751 0.489296 0.465751
0.495918 0.515084 0.489525
0.522301 0.543206 0.501411
0.552834 0.571862 0.495766
0.597406 0.597406 0.479484
0.655604 0.618311 0.469139
0.720134 0.636332 0.468711
0.786679 0.653071 0.474937
0.428016 0.589456 0.454917
0.550942 0.580377 0.550942
0.581735 0.605875 0.575692
0.60853 0.633433 0.591913
0.635493 0.662242 0.595361
0.669276 0.690425 0.584695
0.715511 0.715511 0.568109
0.772808 0.736797 0.55671
0.836164 0.755428 0.553597
0.527276 0.675517 0.548455
0.636133 0.671458 0.636133
0.66743 0.696742 0.661555
0.694774 0.723888 0.680217
0.720958 0.752316 0.689616
0.749737 0.781201 0.686809
0.786267 0.80885 0.673365
0.833616 0.833616 0.656733
0.890272 0.855161 0.644511
0.622217 0.763058 0.639826
0.721325 0.762539 0.721325
0.753033 0.78764 0.747265
0.78088 0.814481 0.767437
0.807157 0.842512 0.780636
0.833967 0.871336 0.784131
0.864866 0.900038 0.776944
0.903593 0.927199 0.761959
0.95172 0.95172 0.745357
0 0 0.394949
0.103853 0.0117342 0.195987
0.073518 0.0702678 0.073518
0.123995 0.0885176 0.112169
0.198611 0.0997635 0.149187
0.276463 0.110964 0.177157
0.350622 0.123827 0.19942
0.421851 0.137835 0.218982
0.491173 0.152544 0.237201
0 0.135882 0.338537
0.119341 0.119341 0.322469
0.161746 0.160128 0.161746
0.224292 0.174868 0.199588
0.300298 0.186892 0.224704
0.370581 0.201266 0.243595
0.43827 0.216556 0.260899
0.504799 0.232242 0.277668
0.570748 0.248127 0.294209
0 0.281163 0.281163
0.0672618 0.265568 0.265568
0.249989 0.249989 0.249989
0.314778 0.266255 0.266255
0.379553 0.282506 0.282506
0.444343 0.298772 0.298772
0.509117 0.315022 0.315022
0.573907 0.331289 0.331289
0.638697 0.347539 0.347539
0 0.423865 0.23003
0.044831 0.401526 0.223178
0.33518 0.34107 0.33518
0.368093 0.368093 0.338613
0.432151 0.386069 0.339986
0.498726 0.40206 0.353719
0.564645 0.418051 0.369192
0.630228 0.434104 0.385077
0.695644 0.450202 0.401114
0 0.553048 0.196368
0.17557 0.482155 0.27776
0.420371 0.432151 0.420371
0.448646 0.459098 0.438193
0.486198 0.486198 0.427237
0.54757 0.505653 0.421851
0.614313 0.522148 0.429984
0.681102 0.538155 0.442863
0.747463 0.554116 0.457435
0 0.643931 0.224521
0.324697 0.552346 0.381598
0.505562 0.523217 0.505562
0.53489 0.549432 0.527611
0.562356 0.578103 0.530892
0.604303 0.604303 0.515862
0.663783 0.624643 0.507271
0.729549 0.641932 0.510491
0.796475 0.658228 0.519997
0.101167 0.714321 0.305547
0.446021 0.631037 0.483024
0.590753 0.614298 0.590753
0.62092 0.640085 0.614527
0.647303 0.668208 0.626413
0.677836 0.696864 0.620768
0.722408 0.722408 0.604486
0.780606 0.743313 0.594141
0.845136 0.761334 0.593713
0.257557 0.782528 0.407538
0.553017 0.714458 0.579919
0.675944 0.705379 0.675944
0.706737 0.730877 0.700694
0.733532 0.758434 0.716915
0.760494 0.787243 0.720363
0.794278 0.815427 0.709697
0.840513 0.840513 0.693111
0.89781 0.861799 0.681712
0.399405 0.854704 0.513222
0.652247 0.800519 0.673426
0.761135 0.79646 0.761135
0.792416 0.821744 0.786557
0.819776 0.84889 0.805219
0.84596 0.877317 0.814618
0.874739 0.906203 0.81181
0.911269 0.933852 0.798367
0.958618 0.958618 0.781735
0 0 0.592432
0.150164 0 0.488396
0.112688 0.0648814 0.136599
0.110277 0.105409 0.110277
0.15523 0.125414 0.147784
0.220981 0.138964 0.188174
0.297932 0.149645 0.223789
0.376242 0.160571 0.252995
0.452506 0.17258 0.277546
0 0.130312 0.536324
0.11371 0.11371 0.519966
0.22884 0.136721 0.320958
0.198505 0.19527 0.198505
0.248981 0.213519 0.237156
0.323613 0.22475 0.274174
0.40145 0.23595 0.302144
0.475608 0.248814 0.324407
0.546853 0.262821 0.343969
0 0.277058 0.478782
0.0582437 0.260884 0.463539
0.244343 0.244343 0.447471
0.286748 0.28513 0.286748
0.349294 0.29987 0.32459
0.425299 0.311894 0.349706
0.495583 0.326268 0.368597
0.563272 0.341558 0.385901
0.629801 0.357244 0.40267
0 0.421744 0.421744
0.00952163 0.406165 0.406165
0.192264 0.39057 0.39057
0.37499 0.37499 0.37499
0.43978 0.391257 0.391257
0.504555 0.407507 0.407507
0.569345 0.423774 0.423774
0.634119 0.440024 0.440024
0.698909 0.456291 0.456291
0 0.56466 0.369558
0 0.548867 0.355032
0.169833 0.526528 0.34818
0.460182 0.466072 0.460182
0.493095 0.493095 0.463615
0.557153 0.51107 0.464988
0.623728 0.527062 0.478721
0.689647 0.543053 0.494194
0.75523 0.559106 0.510079
0 0.706538 0.321462
0 0.678065 0.32137
0.300572 0.607156 0.402762
0.545373 0.557153 0.545373
0.573648 0.5841 0.563195
0.6112 0.6112 0.552239
0.672572 0.630655 0.546853
0.739315 0.64715 0.554986
0.806104 0.663157 0.567864
0 0.829587 0.294575
0.0699168 0.768933 0.349523
0.449699 0.677348 0.5066
0.630564 0.648219 0.630564
0.659892 0.674434 0.652613
0.687358 0.703105 0.655894
0.729305 0.729305 0.640864
0.788785 0.749645 0.632273
0.854551 0.766934 0.635493
0 0.92578 0.311452
0.226154 0.839307 0.430549
0.571023 0.756039 0.608026
0.715755 0.7393 0.715755
0.745922 0.765087 0.739528
0.772305 0.79321 0.751415
0.802838 0.821866 0.745769
0.84741 0.84741 0.729488
0.905608 0.868315 0.719142
0 1 0.371084
0.382483 0.907561 0.532509
0.678019 0.83946 0.704921
0.800946 0.830381 0.800946
0.831739 0.855879 0.825696
0.858534 0.883436 0.841917
0.885496 0.912245 0.845365
0.91928 0.940429 0.834699
0.965515 0.965515 0.818112
0 0 0.789929
0.157259 0 0.726467
0.207721 0.0234684 0.391974
0.133211 0.108049 0.141588
0.147036 0.140551 0.147036
0.18912 0.161501 0.183597
0.248005 0.17705 0.224353
0.31957 0.188968 0.2636
0.397238 0.199527 0.298375
0 0.124666 0.733898
0.108064 0.108064 0.717449
0.275166 0.106065 0.613367
0.23769 0.189868 0.261601
0.235279 0.230396 0.235279
0.280217 0.250416 0.27277
0.345968 0.263951 0.313161
0.422919 0.274632 0.348775
0.501228 0.285573 0.377997
0 0.271794 0.677073
0.0523079 0.255314 0.661326
0.238712 0.238712 0.644968
0.353841 0.261723 0.44596
0.323507 0.320272 0.323507
0.373983 0.338521 0.362173
0.448615 0.349752 0.399176
0.526452 0.360952 0.427146
0.60061 0.373816 0.449409
0 0.41796 0.618952
0 0.402075 0.603784
0.183246 0.385885 0.58854
0.369345 0.369345 0.572473
0.411749 0.410132 0.411749
0.474296 0.424872 0.449592
0.550301 0.436896 0.474708
0.620584 0.45127 0.493599
0.688273 0.46656 0.510903
0 0.562341 0.562341
0 0.546746 0.546746
0.134524 0.531167 0.531167
0.317266 0.515572 0.515572
0.499992 0.499992 0.499992
0.564782 0.516258 0.516258
0.629557 0.532509 0.532509
0.694347 0.548775 0.548775
0.759121 0.565026 0.565026
0 0.705379 0.50956
0 0.689662 0.49456
0.0923476 0.673869 0.480034
0.294835 0.65153 0.473182
0.585184 0.591073 0.585184
0.618097 0.618097 0.588617
0.682155 0.636072 0.58999
0.74873 0.652064 0.603723
0.814649 0.668055 0.619196
0 0.847745 0.46006
0 0.83154 0.446464
0.0896925 0.803067 0.446372
0.425574 0.732158 0.527764
0.670375 0.682155 0.670375
0.69865 0.709102 0.688197
0.736202 0.736202 0.677241
0.797574 0.755657 0.671855
0.864317 0.772152 0.679988
0 0.986786 0.415061
0 0.954589 0.419562
0.194919 0.893935 0.474525
0.574701 0.80235 0.631601
0.755566 0.77322 0.755566
0.784894 0.799435 0.777615
0.81236 0.828107 0.780896
0.854307 0.854307 0.765866
0.913787 0.874647 0.757275
0 1 0.392767
0 1 0.436454
0.351156 0.964309 0.55555
0.696025 0.881041 0.733028
0.840757 0.864302 0.840757
0.870924 0.890089 0.86453
0.897307 0.918212 0.876417
0.92784 0.946868 0.870771
0.972412 0.972412 0.85449
0 0 0.987411
0.155627 0 0.943191
0.272221 0 0.702159
0.215183 0.0797589 0.305486
0.161578 0.147021 0.165209
0.18381 0.175692 0.18381
0.22417 0.197223 0.219669
0.278233 0.214252 0.259953
0.344198 0.22771 0.300511
0 0.119036 0.931426
0.102419 0.102419 0.914931
0.282261 0.0925307 0.851453
0.332708 0.14847 0.516945
0.258198 0.233051 0.266575
0.272038 0.265538 0.272038
0.314107 0.286503 0.308598
0.372992 0.302037 0.34934
0.444556 0.31397 0.388586
0 0.266239 0.874968
0.0466011 0.249683 0.8589
0.233066 0.233066 0.842451
0.400168 0.231067 0.738369
0.362692 0.31487 0.386603
0.360281 0.355398 0.360281
0.405219 0.375418 0.397772
0.47097 0.388952 0.438163
0.547921 0.399634 0.473777
0 0.413062 0.817411
0 0.396796 0.802075
0.17731 0.380316 0.786328
0.363714 0.363714 0.76997
0.478843 0.386725 0.570962
0.448508 0.445274 0.448508
0.498985 0.463523 0.487175
0.573617 0.474754 0.524178
0.651453 0.485954 0.552148
0 0.55874 0.759228
0 0.542977 0.743954
0.123644 0.527077 0.728786
0.308248 0.510887 0.713542
0.494347 0.494347 0.697475
0.536751 0.535134 0.536751
0.599298 0.549874 0.574594
0.675303 0.561898 0.59971
0.745586 0.576272 0.618601
0 0.702922 0.702922
0 0.687343 0.687343
0.0767987 0.671748 0.671748
0.259525 0.656168 0.656168
0.442267 0.640574 0.640574
0.624994 0.624994 0.624994
0.689784 0.64126 0.64126
0.754559 0.657511 0.657511
0.819348 0.673777 0.673777
0 0.846052 0.649775
0 0.830381 0.634562
0.034287 0.814664 0.619562
0.21735 0.798871 0.605035
0.419837 0.776532 0.598184
0.710185 0.716075 0.710185
0.743099 0.743099 0.713619
0.807157 0.761074 0.714992
0.873732 0.777066 0.728725
0 0.988556 0.599435
0 0.972747 0.585077
0 0.956542 0.571466
0.214694 0.928069 0.571374
0.550576 0.85716 0.652766
0.795377 0.807157 0.795377
0.823651 0.834104 0.813199
0.861204 0.861204 0.802243
0.922576 0.880659 0.796857
0 1 0.551171
0 1 0.540063
0.00953689 1 0.544564
0.319921 1 0.599527
0.699702 0.927352 0.756603
0.880568 0.898222 0.880568
0.909895 0.924437 0.902617
0.937362 0.953109 0.905898
0.979309 0.979309 0.890867
0 0 1
0.151522 0 1
0.300328 0 0.976761
0.311559 0.0352178 0.587915
0.225391 0.129763 0.273213
0.193774 0.184146 0.195697
0.220569 0.210819 0.220569
0.2598 0.232746 0.255924
0.31046 0.250843 0.295567
0 0.11339 1
0.096788 0.096788 1
0.280644 0.0837568 1
0.397208 0.110597 0.827131
0.340185 0.204746 0.430472
0.286564 0.272007 0.290196
0.308797 0.300679 0.308797
0.349157 0.32221 0.344671
0.40322 0.339239 0.384939
0 0.260624 1
0.04094 0.244038 1
0.22742 0.22742 1
0.407263 0.217533 0.976455
0.45771 0.273472 0.641947
0.3832 0.358053 0.391577
0.39704 0.390539 0.39704
0.439109 0.411505 0.4336
0.497993 0.427039 0.474342
0 0.407691 1
0 0.391241 0.999969
0.171603 0.374685 0.983902
0.358068 0.358068 0.967453
0.52517 0.356069 0.863371
0.487694 0.439872 0.511604
0.485283 0.4804 0.485283
0.530221 0.50042 0.522774
0.595972 0.513954 0.563165
0 0.554147 0.95758
0 0.538064 0.942412
0.116503 0.521798 0.927077
0.302296 0.505318 0.91133
0.488716 0.488716 0.894972
0.603845 0.511727 0.695964
0.57351 0.570275 0.57351
0.623987 0.588525 0.612177
0.698619 0.599756 0.64918
0 0.699443 0.89958
0 0.683742 0.88423
0.0650034 0.667979 0.868955
0.248646 0.652079 0.853788
0.433249 0.635889 0.838544
0.619348 0.619348 0.822477
0.661753 0.660136 0.661753
0.7243 0.674876 0.699596
0.800305 0.6869 0.724712
0 0.843519 0.843519
0 0.827924 0.827924
0.0190738 0.812345 0.812345
0.201801 0.79675 0.79675
0.384527 0.78117 0.78117
0.567269 0.765576 0.765576
0.749996 0.749996 0.749996
0.814786 0.766262 0.766262
0.879561 0.782513 0.782513
0 0.986709 0.790112
0 0.971054 0.774777
0 0.955383 0.759564
0.159289 0.939666 0.744564
0.342351 0.923873 0.730037
0.544839 0.901534 0.723186
0.835187 0.841077 0.835187
0.868101 0.868101 0.838621
0.932158 0.886076 0.839994
0 1 0.739147
0 1 0.724437
0 1 0.710079
0.118853 1 0.696468
0.339696 1 0.696376
0.675578 0.982162 0.777768
0.920378 0.932158 0.920378
0.948653 0.959106 0.938201
0.986206 0.986206 0.927245
0 0 1
0.146548 0 1
0.311345 0 1
0.383612 0 0.902205
0.319539 0.0925307 0.489799
0.243122 0.174533 0.270542
0.228153 0.220295 0.229465
0.257328 0.24596 0.257328
0.29575 0.268162 0.292302
0 0.107759 1
0.0911421 0.0911421 1
0.276539 0.076585 1
0.42533 0.087129 1
0.436561 0.160204 0.712917
0.350378 0.254749 0.398199
0.318761 0.309133 0.320684
0.345556 0.335821 0.345556
0.384787 0.357748 0.380926
0 0.254994 1
0.0352941 0.238392 1
0.22179 0.22179 1
0.405646 0.208759 1
0.52221 0.235599 0.952132
0.465187 0.329747 0.555474
0.411566 0.397009 0.415198
0.433799 0.425681 0.433799
0.474159 0.447211 0.469673
0 0.402152 1
0 0.385626 1
0.165942 0.369039 1
0.352422 0.352422 1
0.532265 0.342535 1
0.582712 0.398474 0.766949
0.508202 0.483055 0.516579
0.522042 0.515541 0.522042
0.564111 0.536507 0.558602
0 0.549004 1
0 0.532692 1
0.11043 0.516243 1
0.296605 0.499687 1
0.48307 0.48307 1
0.650172 0.481071 0.988373
0.612696 0.564874 0.636606
0.610285 0.605402 0.610285
0.655222 0.625422 0.647776
0 0.695094 1
0 0.679149 1
0.0565499 0.663066 1
0.241505 0.646799 1
0.427314 0.63032 1
0.613718 0.613718 1
0.728847 0.636728 0.820966
0.698512 0.695277 0.698512
0.748989 0.713527 0.737163
0 0.840101 1
0 0.824445 1
0.00677501 0.808743 1
0.190005 0.792981 0.993957
0.373648 0.777081 0.97879
0.558251 0.760891 0.963546
0.74435 0.74435 0.947478
0.786755 0.785138 0.786755
0.849302 0.799878 0.824598
0 0.9841 0.9841
0 0.968521 0.968521
0 0.952926 0.952926
0.144076 0.937346 0.937346
0.326802 0.921752 0.921752
0.509529 0.906172 0.906172
0.692271 0.890578 0.890578
0.874998 0.874998 0.874998
0.939788 0.891264 0.891264
0 1 0.93051
0 1 0.915114
0 1 0.899779
0.10132 1 0.884565
0.284291 1 0.869566
0.467353 1 0.855039
0.669841 1 0.848188
0.960189 0.966079 0.960189
0.993103 0.993103 0.963623
0 0 1
0.141192 0 1
0.314534 0 1
0.426642 0 1
0.415412 0.046952 0.783886
0.326558 0.145754 0.435035
0.266423 0.216114 0.283177
0.263798 0.255894 0.264927
0.294087 0.281102 0.294087
0 0.102113 1
0.0854963 0.0854963 1
0.27155 0.0700694 1
0.436347 0.0715953 1
0.508598 0.119692 1
0.444526 0.217517 0.614786
0.368109 0.299535 0.395544
0.353155 0.345281 0.354467
0.382315 0.370947 0.382315
0 0.249363 1
0.0296483 0.232761 1
0.216144 0.216144 1
0.401541 0.201587 1
0.550332 0.212131 1
0.561563 0.285206 0.837919
0.47538 0.379751 0.523201
0.443763 0.434134 0.445686
0.470558 0.460822 0.470558
0 0.396567 1
0 0.379995 1
0.160296 0.363394 1
0.346792 0.346792 1
0.530648 0.333761 1
0.647211 0.360601 1
0.590188 0.454749 0.680476
0.536568 0.522011 0.5402
0.558801 0.550683 0.558801
0 0.543587 1
0 0.527169 1
0.104616 0.510628 1
0.290944 0.494041 1
0.477424 0.477424 1
0.657267 0.467536 1
0.707713 0.523476 0.891951
0.633204 0.608057 0.641581
0.647044 0.640543 0.647044
0 0.690181 1
0 0.674006 1
0.0497597 0.657694 1
0.235431 0.641245 1
0.421607 0.624689 1
0.608072 0.608072 1
0.775174 0.606073 1
0.737697 0.689876 0.761608
0.735286 0.730404 0.735286
0 0.83595 1
0 0.820096 1
0 0.80415 1
0.181552 0.788067 1
0.366506 0.771801 1
0.552316 0.755322 1
0.73872 0.73872 1
0.853849 0.76173 0.945968
0.823514 0.820279 0.823514
0 0.980743 1
0 0.965103 1
0 0.949447 1
0.131777 0.933745 1
0.315007 0.917983 1
0.49865 0.902083 1
0.683253 0.885893 1
0.869352 0.869352 1
0.911757 0.91014 0.911757
0 1 1
0 1 1
0 1 1
0.0863508 1 1
0.269078 1 1
0.451804 1 1
0.634531 1 1
0.817273 1 1
1 1 1
