luts/Mostly Blue.cube
TITLE "Generated by Resolve"
LUT_3D_SIZE 5
0 0 0
0.129564 0.032517 0.032517
0.259129 0.0650339 0.0650339
0.388693 0.0975509 0.0975509
0.518257 0.130068 0.130068
0.170367 0.182147 0.170367
0.236194 0.236194 0.177234
0.364309 0.272145 0.179995
0.497459 0.304112 0.207446
0.629313 0.33611 0.238392
0.340749 0.364294 0.340749
0.397299 0.418204 0.37641
0.472404 0.472404 0.354482
0.595132 0.51133 0.343709
0.728634 0.54432 0.359991
0.511131 0.546456 0.511131
0.569772 0.598886 0.555215
0.624735 0.656199 0.561807
0.708614 0.708614 0.531731
0.827558 0.74931 0.514549
0.681514 0.728618 0.681514
0.741848 0.780194 0.729076
0.794614 0.836423 0.752819
0.85568 0.893721 0.741558
0.944823 0.944823 0.70898
0 0 0.394949
0.073518 0.0702678 0.073518
0.198611 0.0997635 0.149187
0.350622 0.123827 0.19942
0.491173 0.152544 0.237201
0 0.281163 0.281163
0.249989 0.249989 0.249989
0.379553 0.282506 0.282506
0.509117 0.315022 0.315022
0.638697 0.347539 0.347539
0 0.553048 0.196368
0.420371 0.432151 0.420371
0.486198 0.486198 0.427237
0.614313 0.522148 0.429984
0.747463 0.554116 0.457435
0.101167 0.714321 0.305547
0.590753 0.614298 0.590753
0.647303 0.668208 0.626413
0.722408 0.722408 0.604486
0.845136 0.761334 0.593713
0.399405 0.854704 0.513222
0.761135 0.79646 0.761135
0.819776 0.84889 0.805219
0.874739 0.906203 0.81181
0.958618 0.958618 0.781735
0 0 0.789929
0.207721 0.0234684 0.391974
0.147036 0.140551 0.147036
0.248005 0.17705 0.224353
0.397238 0.199527 0.298375
0 0.271794 0.677073
0.238712 0.238712 0.644968
0.323507 0.320272 0.323507
0.448615 0.349752 0.399176
0.60061 0.373816 0.449409
0 0.562341 0.562341
0.134524 0.531167 0.531167
0.499992 0.499992 0.499992
0.629557 0.532509 0.532509
0.759121 0.565026 0.565026
0 0.847745 0.46006
0.0896925 0.803067 0.446372
0.670375 0.682155 0.670375
0.736202 0.736202 0.677241
0.864317 0.772152 0.679988
0 1 0.392767
0.351156 0.964309 0.55555
0.840757 0.864302 0.840757
0.897307 0.918212 0.876417
0.972412 0.972412 0.85449
0 0 1
0.300328 0 0.976761
0.225391 0.129763 0.273213
0.220569 0.210819 0.220569
0.31046 0.250843 0.295567
0 0.260624 1
0.22742 0.22742 1
0.45771 0.273472 0.641947
0.39704 0.390539 0.39704
0.497993 0.427039 0.474342
0 0.554147 0.95758
0.116503 0.521798 0.927077
0.488716 0.488716 0.894972
0.57351 0.570275 0.57351
0.698619 0.599756 0.64918
0 0.843519 0.843519
0.0190738 0.812345 0.812345
0.384527 0.78117 0.78117
0.749996 0.749996 0.749996
0.879561 0.782513 0.782513
0 1 0.739147
0 1 0.710079
0.339696 1 0.696376
0.920378 0.932158 0.920378
0.986206 0.986206 0.927245
0 0 1
0.314534 0 1
0.415412 0.046952 0.783886
0.266423 0.216114 0.283177
0.294087 0.281102 0.294087
0 0.249363 1
0.216144 0.216144 1
0.550332 0.212131 1
0.47538 0.379751 0.523201
0.470558 0.460822 0.470558
0 0.543587 1
0.104616 0.510628 1
0.477424 0.477424 1
0.707713 0.523476 0.891951
0.647044 0.640543 0.647044
0 0.83595 1
0 0.80415 1
0.366506 0.771801 1
0.73872 0.73872 1
0.823514 0.820279 0.823514
0 1 1
0 1 1
0.269078 1 1
0.634531 1 1
1 1 1
