luts/Mostly Blue.cube
TITLE "Generated by Resolve"
LUT_3D_SIZE 33
0 0 0
0.0161898 0.0040589 0.0040589
0.0323796 0.00813306 0.00813306
0.0485847 0.012192 0.012192
0.0647746 0.0162509 0.0162509
0.0809644 0.020325 0.020325
0.0971695 0.0243839 0.0243839
0.113359 0.0284581 0.0284581
0.129564 0.032517 0.032517
0.145754 0.0365759 0.0365759
0.161944 0.04065 0.04065
0.178149 0.0447089 0.0447089
0.194339 0.0487678 0.0487678
0.210544 0.052842 0.052842
0.226734 0.0569009 0.0569009
0.242924 0.0609751 0.0609751
0.259129 0.0650339 0.0650339
0.275319 0.0690929 0.0690929
0.291524 0.073167 0.073167
0.307713 0.0772259 0.0772259
0.323903 0.0813001 0.0813001
0.340108 0.085359 0.085359
0.356298 0.0894179 0.0894179
0.372503 0.093492 0.093492
0.388693 0.0975509 0.0975509
0.404883 0.10161 0.10161
0.421088 0.105684 0.105684
0.437278 0.109743 0.109743
0.453483 0.113817 0.113817
0.469673 0.117876 0.117876
0.485863 0.121935 0.121935
0.502068 0.126009 0.126009
0.518257 0.130068 0.130068
0.0212863 0.0227512 0.0212863
0.0295109 0.0295109 0.0221408
0.0455329 0.0340124 0.0224918
0.0621653 0.037995 0.0259251
0.078645 0.0420081 0.0297856
0.0950484 0.0460212 0.0337682
0.111406 0.0500343 0.0377813
0.127733 0.0540627 0.0417945
0.144045 0.0581064 0.0458381
0.160327 0.0621347 0.0498665
0.176608 0.0661784 0.0539254
0.192859 0.0702373 0.057969
0.20911 0.0742809 0.0620279
0.225345 0.0783398 0.0660868
0.241581 0.0823835 0.0701457
0.257801 0.0864424 0.0742046
0.274037 0.0905013 0.0782788
0.290257 0.0945602 0.0823377
0.306462 0.0986191 0.0863966
0.322683 0.102678 0.0904555
0.338888 0.106737 0.0945296
0.355093 0.110796 0.0985885
0.371298 0.11487 0.102663
0.387503 0.118929 0.106722
0.403708 0.122988 0.110796
0.419913 0.127047 0.114855
0.436103 0.131121 0.118914
0.452308 0.13518 0.122988
0.468513 0.139239 0.127047
0.484703 0.143313 0.131121
0.500908 0.147372 0.13518
0.517113 0.151431 0.139254
0.533303 0.155505 0.143313
0.0425879 0.0455329 0.0425879
0.0496529 0.0522621 0.0470436
0.0590372 0.0590372 0.0442969
0.0743725 0.0639048 0.0429541
0.0910658 0.0680247 0.0449836
0.107759 0.0720226 0.0482032
0.124361 0.0760204 0.0518502
0.140871 0.0800183 0.0556802
0.157321 0.0840162 0.0595865
0.173724 0.0880293 0.0635538
0.190112 0.0920424 0.0675364
0.20647 0.0960708 0.0715343
0.222812 0.100099 0.0755627
0.239139 0.104128 0.0795758
0.255467 0.108156 0.0836042
0.271778 0.112184 0.0876326
0.28809 0.116213 0.0916762
0.304387 0.120256 0.0957198
0.320668 0.1243 0.0997635
0.33695 0.128344 0.103807
0.353216 0.132387 0.107851
0.369482 0.136431 0.11191
0.385733 0.140475 0.115953
0.401984 0.144533 0.120012
0.418235 0.148577 0.124071
0.43447 0.152636 0.12813
0.450706 0.15668 0.132189
0.466941 0.160739 0.136248
0.483177 0.164797 0.140307
0.499397 0.168856 0.144366
0.515633 0.1729 0.148425
0.531853 0.176959 0.152499
0.548074 0.181018 0.156558
0.0638895 0.0682994 0.0638895
0.0712139 0.0748455 0.069398
0.0780804 0.0820172 0.070222
0.0885634 0.0885634 0.066453
0.103426 0.0936446 0.0643168
0.119875 0.0979782 0.0651102
0.136614 0.102052 0.0674907
0.153323 0.10605 0.0706035
0.16997 0.110048 0.0740978
0.186542 0.114031 0.0777905
0.203067 0.118029 0.08159
0.219532 0.122026 0.0854658
0.235981 0.12604 0.0893873
0.252399 0.130037 0.0933394
0.268788 0.134066 0.097322
0.285176 0.138079 0.101305
0.301534 0.142092 0.105318
0.317891 0.14612 0.109316
0.334234 0.150149 0.113344
0.350561 0.154177 0.117357
0.366888 0.158206 0.121386
0.383215 0.162234 0.125414
0.399527 0.166262 0.129442
0.415839 0.170306 0.133471
0.432151 0.174334 0.137514
0.448447 0.178378 0.141558
0.464729 0.182406 0.145602
0.481025 0.18645 0.149645
0.497292 0.190494 0.153689
0.513573 0.194537 0.157733
0.529839 0.198581 0.161791
0.546105 0.202625 0.165835
0.562356 0.206683 0.169894
0.0851759 0.0910658 0.0851759
0.0927138 0.0975052 0.0911269
0.099321 0.10454 0.0940871
0.10695 0.111696 0.0926833
0.11809 0.11809 0.0886091
0.132647 0.123323 0.0860304
0.148775 0.127825 0.0859236
0.165408 0.132006 0.08748
0.182147 0.136065 0.0899977
0.198871 0.140078 0.0930495
0.215549 0.144076 0.0964218
0.232151 0.148058 0.100008
0.248722 0.152056 0.103716
0.265248 0.156039 0.107515
0.281743 0.160037 0.11136
0.298207 0.16405 0.115267
0.314641 0.168048 0.119188
0.33106 0.172061 0.12314
0.347463 0.176074 0.127108
0.363851 0.180087 0.13109
0.380224 0.184115 0.135088
0.396597 0.188128 0.139086
0.412955 0.192157 0.143099
0.429297 0.19617 0.147097
0.44564 0.200198 0.151125
0.461982 0.204227 0.155138
0.478309 0.208255 0.159167
0.494636 0.212284 0.163195
0.510948 0.216327 0.167224
0.527276 0.220356 0.171252
0.543587 0.224384 0.17528
0.559899 0.228412 0.179324
0.576196 0.232456 0.183352
0.106477 0.113832 0.106477
0.114168 0.120211 0.112673
0.120867 0.127092 0.116716
0.127611 0.134295 0.117586
0.136065 0.141344 0.114916
0.147616 0.147616 0.110765
0.161944 0.152941 0.107912
0.177783 0.157595 0.107149
0.194247 0.161898 0.107988
0.210941 0.166033 0.109911
0.227695 0.170092 0.11249
0.244419 0.174105 0.115511
0.261097 0.178103 0.118807
0.277745 0.182086 0.122301
0.294347 0.186069 0.125933
0.310918 0.190066 0.129656
0.327443 0.194064 0.13344
0.343938 0.198062 0.13727
0.360418 0.20206 0.141146
0.376867 0.206058 0.145068
0.393317 0.210071 0.148989
0.409735 0.214069 0.152941
0.426139 0.218082 0.156909
0.442542 0.222095 0.160876
0.458915 0.226123 0.164858
0.475288 0.230137 0.168856
0.491661 0.234165 0.172854
0.508019 0.238178 0.176867
0.524376 0.242206 0.180865
0.540719 0.246235 0.184894
0.557061 0.250263 0.188907
0.573388 0.254292 0.19292
0.589715 0.25832 0.196948
0.127779 0.136599 0.127779
0.135592 0.142931 0.134127
0.142428 0.149706 0.138796
0.148974 0.156817 0.141146
0.156176 0.164034 0.140444
0.165301 0.170947 0.137087
0.177142 0.177142 0.132921
0.191302 0.182528 0.12987
0.206882 0.18732 0.128634
0.223163 0.191745 0.128878
0.239765 0.195956 0.130236
0.256489 0.200061 0.132357
0.273228 0.204105 0.134997
0.289967 0.208118 0.137987
0.306661 0.212116 0.141222
0.323323 0.216114 0.144656
0.33994 0.220096 0.148196
0.356542 0.224094 0.151858
0.373098 0.228077 0.155581
0.389624 0.232074 0.159365
0.406134 0.236072 0.163195
0.422629 0.24007 0.167056
0.439094 0.244068 0.170947
0.455543 0.248081 0.174853
0.471977 0.252079 0.17879
0.488396 0.256092 0.182742
0.504814 0.260105 0.186694
0.521218 0.264118 0.190661
0.537606 0.268132 0.194644
0.553979 0.272145 0.198642
0.570352 0.276173 0.202625
0.586725 0.280186 0.206622
0.603082 0.284215 0.210636
0.149081 0.15938 0.149081
0.157 0.165652 0.15555
0.163958 0.172366 0.160601
0.17052 0.17937 0.163897
0.177234 0.186572 0.164767
0.184955 0.193744 0.162982
0.194644 0.200534 0.159228
0.206668 0.206668 0.155077
0.220706 0.2121 0.151904
0.236057 0.216999 0.150286
0.252155 0.22153 0.150057
0.268635 0.225834 0.150912
0.285298 0.229999 0.152575
0.302022 0.234089 0.154833
0.318776 0.238132 0.157488
0.3355 0.242145 0.160464
0.352209 0.246143 0.163653
0.368887 0.250141 0.167025
0.385519 0.254124 0.17052
0.402136 0.258122 0.174105
0.418723 0.262104 0.177783
0.435279 0.266102 0.181506
0.45182 0.270085 0.18529
0.46833 0.274083 0.189105
0.484825 0.27808 0.192966
0.501305 0.282078 0.196841
0.517754 0.286091 0.200748
0.534203 0.290089 0.204654
0.550637 0.294102 0.208591
0.567056 0.298116 0.212543
0.583474 0.302113 0.216495
0.599878 0.306127 0.220462
0.616281 0.31014 0.22443
0.170367 0.182147 0.170367
0.178393 0.188388 0.176959
0.185458 0.195041 0.182254
0.192096 0.201953 0.186191
0.198642 0.209094 0.18819
0.205661 0.216327 0.187884
0.213916 0.223423 0.185382
0.224018 0.230106 0.181369
0.236194 0.236194 0.177234
0.250141 0.241672 0.173968
0.265293 0.246647 0.172076
0.281209 0.25127 0.17142
0.297566 0.25565 0.171847
0.314137 0.259892 0.173098
0.330831 0.264027 0.17496
0.34757 0.268116 0.17731
0.364309 0.272145 0.179995
0.381048 0.276173 0.18294
0.397757 0.280171 0.186114
0.414435 0.284169 0.189425
0.431098 0.288151 0.192874
0.44773 0.292149 0.196414
0.464332 0.296132 0.200031
0.480903 0.30013 0.203708
0.497459 0.304112 0.207446
0.514 0.30811 0.211215
0.530526 0.312108 0.21503
0.547021 0.316106 0.218875
0.5635 0.320104 0.222736
0.579965 0.324102 0.226627
0.596429 0.328099 0.230533
0.612879 0.332113 0.234455
0.629313 0.33611 0.238392
0.191669 0.204913 0.191669
0.199771 0.211124 0.198352
0.206912 0.217731 0.20383
0.213657 0.224567 0.208194
0.220188 0.231632 0.211017
0.226871 0.238849 0.211902
0.234272 0.246067 0.210666
0.242969 0.253071 0.207645
0.253437 0.259678 0.20351
0.265721 0.265721 0.19939
0.279576 0.271229 0.196063
0.294575 0.27628 0.193927
0.310323 0.28098 0.19295
0.326543 0.285451 0.192996
0.343023 0.289754 0.193851
0.359655 0.293935 0.195361
0.376364 0.298054 0.197391
0.393103 0.302129 0.199786
0.409857 0.306172 0.202487
0.426581 0.310185 0.205432
0.443305 0.314199 0.20856
0.459998 0.318196 0.211841
0.476661 0.322179 0.215244
0.493309 0.326177 0.218738
0.509926 0.330159 0.222309
0.526528 0.334142 0.22594
0.543099 0.33814 0.229633
0.559655 0.342123 0.233371
0.576181 0.34612 0.237156
0.592706 0.350118 0.240955
0.609216 0.354116 0.244785
0.625696 0.358114 0.248646
0.642176 0.362112 0.252522
0.21297 0.22768 0.21297
0.221149 0.23386 0.21973
0.228367 0.240436 0.225345
0.235187 0.247211 0.23003
0.241764 0.254215 0.233448
0.24831 0.261372 0.235248
0.255238 0.268605 0.235172
0.26302 0.275776 0.233249
0.272129 0.282704 0.229847
0.282872 0.289219 0.22565
0.295247 0.295247 0.221546
0.309041 0.300786 0.218158
0.323903 0.305882 0.215854
0.339498 0.310674 0.214588
0.355581 0.315206 0.214298
0.371954 0.31957 0.214817
0.388525 0.323827 0.215991
0.405188 0.327977 0.2177
0.421912 0.332082 0.219821
0.438651 0.336156 0.222278
0.45539 0.340185 0.224994
0.472129 0.344213 0.227924
0.488853 0.348211 0.231037
0.505547 0.352209 0.234272
0.522225 0.356207 0.237629
0.538872 0.360204 0.241093
0.555505 0.364187 0.244617
0.572122 0.36817 0.248219
0.588708 0.372168 0.251865
0.60528 0.37615 0.255573
0.621836 0.380148 0.259312
0.638376 0.384146 0.263081
0.654902 0.388128 0.26688
0.234257 0.250446 0.234257
0.242512 0.256596 0.241108
0.24979 0.263142 0.246815
0.256703 0.269886 0.251759
0.263325 0.276814 0.255619
0.269841 0.283909 0.258122
0.276524 0.291127 0.259007
0.283742 0.29836 0.258152
0.29189 0.30547 0.25568
0.30135 0.312322 0.252018
0.312322 0.318776 0.247791
0.324773 0.324773 0.243702
0.338521 0.330327 0.240269
0.353262 0.335485 0.237751
0.368704 0.340337 0.236316
0.384649 0.344945 0.235737
0.400931 0.349371 0.235935
0.417411 0.353674 0.236805
0.434028 0.357885 0.238209
0.450721 0.36202 0.24007
0.467445 0.36611 0.242267
0.484184 0.370169 0.24477
0.500938 0.374212 0.247501
0.517678 0.378225 0.250416
0.534386 0.382239 0.253498
0.551095 0.386236 0.256718
0.567773 0.390234 0.260044
0.584436 0.394232 0.263462
0.601083 0.398215 0.266957
0.6177 0.402197 0.270512
0.634318 0.406195 0.274128
0.650904 0.410178 0.27779
0.66746 0.414176 0.281498
0.255558 0.273228 0.255558
0.263874 0.279332 0.26247
0.271199 0.285863 0.268269
0.278187 0.292561 0.273396
0.284886 0.299443 0.277607
0.291417 0.306477 0.280659
0.297978 0.313649 0.282307
0.304845 0.320882 0.282383
0.312367 0.328099 0.280903
0.320867 0.335134 0.27808
0.330632 0.341924 0.274174
0.341787 0.348318 0.269932
0.354299 0.354299 0.265858
0.367987 0.359869 0.262394
0.382635 0.365072 0.259754
0.39794 0.369985 0.258106
0.413779 0.374655 0.257267
0.429953 0.379141 0.257191
0.446357 0.38349 0.257786
0.462898 0.387747 0.258915
0.479545 0.391928 0.260502
0.496254 0.396048 0.262455
0.512993 0.400137 0.264729
0.529732 0.404196 0.267247
0.546471 0.40824 0.269993
0.56321 0.412253 0.272908
0.579934 0.416266 0.275975
0.596643 0.420264 0.279164
0.613336 0.424262 0.28246
0.629999 0.428244 0.285847
0.646647 0.432242 0.289311
0.663294 0.436225 0.292836
0.679911 0.440223 0.296407
0.27686 0.295995 0.27686
0.285237 0.302083 0.283848
0.292607 0.308583 0.289708
0.299657 0.315251 0.294972
0.306416 0.322072 0.299458
0.312993 0.329061 0.302937
0.319509 0.336187 0.305211
0.326177 0.343404 0.306081
0.333272 0.350637 0.305501
0.3411 0.357809 0.303487
0.34992 0.364797 0.300343
0.359945 0.371511 0.29633
0.371267 0.377859 0.292073
0.383825 0.383825 0.288014
0.397482 0.38941 0.28452
0.412024 0.394659 0.281773
0.427222 0.399603 0.279957
0.442939 0.404334 0.278889
0.459007 0.408881 0.278569
0.475319 0.413291 0.278889
0.491814 0.417594 0.279759
0.508415 0.421805 0.281086
0.525078 0.425971 0.282811
0.541787 0.430091 0.284871
0.558526 0.434165 0.28719
0.57528 0.438224 0.289754
0.59202 0.442252 0.2925
0.608759 0.446281 0.295399
0.625483 0.450278 0.298451
0.642191 0.454292 0.301625
0.658885 0.458289 0.304891
0.675563 0.462272 0.308248
0.692226 0.46627 0.311681
0.298161 0.318761 0.298161
0.3066 0.324819 0.305211
0.314 0.331319 0.311116
0.321111 0.337957 0.316518
0.327932 0.344732 0.321218
0.334554 0.351675 0.325048
0.34107 0.35874 0.32781
0.347646 0.365927 0.329351
0.354467 0.373159 0.329549
0.361822 0.380392 0.328389
0.369924 0.387518 0.325963
0.379034 0.39443 0.322576
0.389288 0.401099 0.318471
0.400748 0.407401 0.314214
0.413352 0.413352 0.31017
0.426978 0.418952 0.306661
0.441428 0.424231 0.303822
0.456519 0.429236 0.301854
0.472129 0.434012 0.300587
0.48809 0.438605 0.300038
0.504326 0.443061 0.300114
0.520745 0.44741 0.30074
0.537285 0.451667 0.301839
0.553918 0.455863 0.303334
0.570611 0.460014 0.305165
0.587335 0.464118 0.307301
0.604074 0.468193 0.309667
0.620813 0.472236 0.312245
0.637552 0.47628 0.314992
0.654292 0.480293 0.317906
0.671016 0.484306 0.320943
0.687739 0.488304 0.324086
0.704433 0.492302 0.327321
0.319448 0.341527 0.319448
0.327962 0.34757 0.326574
0.335393 0.35404 0.332525
0.34255 0.360662 0.338018
0.349432 0.367407 0.342901
0.3561 0.374304 0.347005
0.362646 0.381323 0.350195
0.369162 0.388464 0.352285
0.375845 0.395682 0.35317
0.382864 0.402914 0.352773
0.390448 0.410117 0.351125
0.39884 0.417197 0.348363
0.408209 0.424063 0.344778
0.418662 0.430671 0.340612
0.430243 0.436942 0.336355
0.442878 0.442878 0.332326
0.456474 0.448493 0.328786
0.470848 0.453803 0.325887
0.485847 0.458839 0.323781
0.50135 0.463661 0.322347
0.51722 0.468315 0.321584
0.533364 0.472816 0.321447
0.549706 0.477211 0.321843
0.566201 0.481514 0.322713
0.582788 0.48574 0.323995
0.599451 0.489906 0.325628
0.616144 0.494041 0.32755
0.632868 0.498146 0.329732
0.649607 0.502205 0.332143
0.666362 0.506264 0.334737
0.683101 0.510292 0.337499
0.69984 0.514321 0.340398
0.716564 0.518334 0.34342
0.340749 0.364294 0.340749
0.349325 0.370306 0.347936
0.356786 0.376776 0.353933
0.363973 0.383368 0.359503
0.370916 0.390082 0.364523
0.377646 0.396933 0.368872
0.384207 0.403922 0.372396
0.390723 0.411017 0.374945
0.397299 0.418204 0.37641
0.40412 0.425437 0.376699
0.411337 0.43267 0.375784
0.419181 0.439841 0.373724
0.427832 0.44686 0.370779
0.437415 0.453681 0.366949
0.448051 0.460227 0.362753
0.459724 0.466484 0.358495
0.472404 0.472404 0.354482
0.485969 0.478019 0.350927
0.500282 0.48336 0.347951
0.515221 0.488441 0.345647
0.530602 0.493309 0.344152
0.54638 0.498009 0.343206
0.562432 0.502556 0.34287
0.578714 0.506981 0.343053
0.595132 0.51133 0.343709
0.611673 0.515587 0.344778
0.62829 0.519799 0.346212
0.644968 0.523949 0.347936
0.661677 0.528069 0.34995
0.678416 0.532174 0.352178
0.695155 0.536233 0.35462
0.711894 0.540276 0.357229
0.728634 0.54432 0.359991
0.362051 0.387076 0.362051
0.370687 0.393057 0.369284
0.378164 0.399512 0.375326
0.385397 0.406088 0.380972
0.392386 0.412772 0.386114
0.399161 0.419593 0.390661
0.405783 0.426535 0.394461
0.412299 0.433585 0.397391
0.41883 0.440742 0.399359
0.425498 0.447959 0.400229
0.432471 0.455192 0.4
0.439902 0.462409 0.398627
0.44799 0.469551 0.396231
0.45687 0.476509 0.393042
0.466667 0.483284 0.38912
0.477455 0.489799 0.384894
0.489235 0.49601 0.380652
0.50193 0.50193 0.376638
0.515465 0.507561 0.373068
0.529732 0.512917 0.370031
0.544579 0.518029 0.36762
0.559869 0.522942 0.365988
0.575555 0.527687 0.364889
0.591546 0.53228 0.364355
0.607736 0.536751 0.364355
0.624109 0.541131 0.364813
0.640589 0.545434 0.365682
0.657176 0.549661 0.366903
0.673808 0.553857 0.36846
0.690501 0.557992 0.370291
0.70721 0.562112 0.372351
0.723949 0.566186 0.37464
0.740688 0.57026 0.377096
0.383352 0.409842 0.383352
0.39205 0.415808 0.390646
0.399558 0.422248 0.396719
0.406806 0.428809 0.402411
0.413855 0.435477 0.407675
0.420676 0.442252 0.412375
0.427329 0.449165 0.416419
0.433875 0.456168 0.419684
0.440391 0.463294 0.422065
0.446967 0.470481 0.423453
0.453758 0.477714 0.423819
0.460899 0.484947 0.423102
0.468544 0.492149 0.421347
0.47686 0.499245 0.418677
0.485969 0.506157 0.41529
0.495949 0.512886 0.411276
0.506874 0.519356 0.407019
0.51873 0.525551 0.402792
0.531456 0.531456 0.398795
0.544976 0.537087 0.395209
0.559182 0.542473 0.392126
0.573953 0.547616 0.389624
0.589166 0.55256 0.387869
0.604776 0.557351 0.386618
0.620676 0.561975 0.385916
0.63679 0.566491 0.385718
0.653101 0.570916 0.385992
0.669535 0.57525 0.386679
0.686061 0.579507 0.387717
0.702678 0.583734 0.38909
0.719341 0.5879 0.390753
0.736034 0.592035 0.392645
0.752758 0.596139 0.394781
0.404639 0.432609 0.404639
0.413397 0.438544 0.412009
0.42092 0.444984 0.418097
0.428214 0.45153 0.42385
0.435294 0.458167 0.429191
0.442176 0.464927 0.434043
0.448875 0.471794 0.438285
0.455436 0.478782 0.441825
0.461952 0.485863 0.444572
0.468482 0.493019 0.446418
0.475166 0.500237 0.447303
0.482094 0.507469 0.447181
0.489403 0.514702 0.446052
0.497261 0.521874 0.443961
0.505791 0.528923 0.441047
0.515099 0.53579 0.437507
0.525261 0.542473 0.433433
0.536309 0.548913 0.42916
0.548241 0.555077 0.424933
0.560983 0.560983 0.420951
0.574487 0.566629 0.41735
0.588632 0.57203 0.414221
0.603342 0.577203 0.411658
0.618479 0.582177 0.409781
0.633997 0.586999 0.408377
0.649821 0.591669 0.407523
0.665873 0.596231 0.407172
0.682124 0.600671 0.407263
0.698497 0.605051 0.407767
0.714992 0.609354 0.408637
0.731563 0.613596 0.409827
0.74818 0.617792 0.411322
0.764858 0.621942 0.413062
0.42594 0.455375 0.42594
0.43476 0.461295 0.433356
0.442298 0.46772 0.439475
0.449622 0.47425 0.445274
0.456733 0.480873 0.450706
0.463645 0.487617 0.455665
0.47039 0.494453 0.46009
0.476997 0.501396 0.463874
0.483528 0.508431 0.466926
0.490043 0.515557 0.469154
0.496635 0.522759 0.470512
0.50341 0.529992 0.470924
0.510491 0.53724 0.470359
0.517998 0.544442 0.468864
0.526055 0.551583 0.466499
0.534798 0.558572 0.463478
0.544274 0.565423 0.459693
0.554589 0.572061 0.455573
0.565744 0.57847 0.451301
0.577737 0.584619 0.447089
0.590509 0.590509 0.443107
0.603998 0.596155 0.43949
0.618097 0.601572 0.436332
0.632746 0.606775 0.433692
0.647807 0.611795 0.431708
0.663249 0.616648 0.430182
0.678996 0.621347 0.429191
0.694987 0.62594 0.428672
0.711162 0.630426 0.428595
0.727489 0.634836 0.428931
0.743923 0.63917 0.429633
0.760464 0.643427 0.430671
0.77705 0.647654 0.431998
0.447242 0.478157 0.447242
0.456107 0.484047 0.454719
0.463676 0.490471 0.460853
0.471015 0.496986 0.466697
0.478172 0.503594 0.47219
0.48513 0.510307 0.477256
0.491905 0.517113 0.481834
0.498558 0.524025 0.485817
0.505104 0.531029 0.489143
0.511604 0.538125 0.491722
0.518151 0.545296 0.493477
0.524819 0.552514 0.494362
0.531716 0.559747 0.494347
0.538949 0.566979 0.4934
0.546639 0.574166 0.491585
0.554894 0.581277 0.48896
0.563836 0.588235 0.485756
0.57348 0.595041 0.48188
0.583932 0.601648 0.477714
0.595193 0.608011 0.473442
0.607248 0.614145 0.469245
0.620035 0.620035 0.465263
0.633509 0.625696 0.461646
0.647562 0.631128 0.458442
0.66215 0.636347 0.455741
0.677165 0.641398 0.453559
0.692531 0.646281 0.452033
0.708202 0.651026 0.450889
0.724117 0.65565 0.450233
0.74023 0.660166 0.450004
0.756497 0.664607 0.450187
0.772885 0.668971 0.450721
0.78938 0.673259 0.451591
0.468544 0.500923 0.468544
0.47747 0.506783 0.476066
0.485039 0.513207 0.482216
0.492409 0.519707 0.488106
0.499596 0.526299 0.49366
0.506584 0.532998 0.498817
0.513405 0.539788 0.503517
0.520088 0.54667 0.507698
0.526665 0.553643 0.511254
0.533181 0.560708 0.514138
0.539696 0.567834 0.516258
0.546304 0.575036 0.517571
0.553063 0.582269 0.518013
0.560082 0.589517 0.517586
0.567483 0.596735 0.516304
0.575357 0.603891 0.514199
0.583795 0.610956 0.51136
0.592905 0.617884 0.508003
0.602731 0.624659 0.504051
0.613306 0.63122 0.499855
0.624659 0.637568 0.495583
0.636759 0.643687 0.491386
0.649561 0.649561 0.487419
0.66302 0.655222 0.483787
0.677043 0.66067 0.480568
0.691569 0.665919 0.477791
0.706538 0.670985 0.475517
0.721813 0.675898 0.473899
0.737423 0.680674 0.472648
0.753262 0.685344 0.471839
0.769314 0.689891 0.471473
0.785534 0.694362 0.471504
0.801877 0.698756 0.471885
0.48983 0.52369 0.48983
0.498817 0.529534 0.497429
0.506401 0.535943 0.503594
0.513802 0.542443 0.509499
0.521004 0.54902 0.515114
0.528038 0.555688 0.520363
0.534905 0.562463 0.525185
0.541619 0.569314 0.529503
0.548226 0.576257 0.533272
0.554757 0.583291 0.536416
0.561273 0.590402 0.538857
0.567819 0.597574 0.540551
0.574487 0.604791 0.541421
0.581353 0.612024 0.541482
0.588525 0.619272 0.540703
0.596078 0.626474 0.539101
0.60412 0.6336 0.536751
0.612741 0.640635 0.533715
0.622019 0.647517 0.530221
0.631983 0.654261 0.526223
0.64268 0.660792 0.521996
0.654124 0.667109 0.517723
0.66627 0.673213 0.513542
0.679088 0.679088 0.509575
0.692531 0.684749 0.505928
0.706523 0.690211 0.502678
0.721004 0.695476 0.49987
0.735897 0.700587 0.497505
0.75111 0.705516 0.495796
0.766659 0.710323 0.494423
0.782437 0.715023 0.493492
0.798428 0.7196 0.492988
0.814588 0.724102 0.492866
0.511131 0.546456 0.511131
0.52018 0.552285 0.518776
0.527779 0.558694 0.524956
0.535195 0.565179 0.530907
0.542428 0.57174 0.536553
0.549477 0.578393 0.541878
0.55639 0.585138 0.546807
0.563134 0.591974 0.551278
0.569772 0.598886 0.555215
0.576333 0.60589 0.558587
0.582834 0.61297 0.561318
0.589364 0.620111 0.563333
0.595956 0.627314 0.564614
0.602716 0.634546 0.565103
0.609705 0.641794 0.564797
0.617014 0.649012 0.563684
0.624735 0.656199 0.561807
0.632944 0.66331 0.559228
0.641764 0.670283 0.556161
0.651179 0.67715 0.552438
0.66128 0.683848 0.548379
0.672084 0.690364 0.544137
0.683589 0.696651 0.539864
0.695781 0.702739 0.535698
0.708614 0.708614 0.531731
0.722042 0.71429 0.528084
0.736004 0.719753 0.524804
0.750439 0.725048 0.521935
0.76527 0.730159 0.519509
0.780438 0.735134 0.517708
0.795911 0.739971 0.516228
0.811627 0.744686 0.51519
0.827558 0.74931 0.514549
0.532433 0.569223 0.532433
0.541527 0.575021 0.540139
0.549142 0.58143 0.546334
0.556573 0.587915 0.5523
0.563836 0.594461 0.557992
0.570916 0.601099 0.563378
0.577859 0.607828 0.568399
0.584649 0.614633 0.572992
0.591318 0.62153 0.577096
0.597894 0.628504 0.580682
0.60441 0.635554 0.583658
0.610925 0.642664 0.585977
0.617487 0.649851 0.58761
0.62414 0.657069 0.588495
0.630991 0.664302 0.588602
0.638117 0.67155 0.587961
0.645563 0.678767 0.586557
0.653437 0.685924 0.584436
0.66183 0.693004 0.581659
0.670787 0.699947 0.578454
0.680354 0.706783 0.574624
0.690578 0.713451 0.57052
0.701488 0.719921 0.566278
0.713069 0.726207 0.562005
0.725292 0.73228 0.557839
0.73814 0.73814 0.553887
0.751553 0.743816 0.550225
0.765484 0.749294 0.546929
0.779873 0.754604 0.544015
0.794659 0.759747 0.541527
0.809766 0.764736 0.539635
0.825177 0.769604 0.538064
0.840848 0.77435 0.536904
0.553735 0.592004 0.553735
0.56289 0.597772 0.561486
0.570504 0.604181 0.567697
0.577951 0.610651 0.573693
0.585229 0.617197 0.579416
0.592355 0.623819 0.584863
0.599329 0.630518 0.58996
0.606149 0.637308 0.594675
0.612848 0.644175 0.598932
0.619455 0.651118 0.602686
0.625986 0.658137 0.60589
0.632486 0.665232 0.608484
0.639017 0.672389 0.610422
0.645624 0.679591 0.611658
0.652369 0.686824 0.612192
0.659327 0.694072 0.611963
0.666575 0.701305 0.611002
0.674174 0.708492 0.609339
0.6822 0.715633 0.606989
0.690745 0.722683 0.604044
0.699855 0.729595 0.600702
0.70956 0.7364 0.596811
0.719905 0.743038 0.592676
0.730892 0.749477 0.588403
0.74255 0.755749 0.584146
0.754818 0.761807 0.579995
0.767666 0.767666 0.576043
0.781079 0.773342 0.572381
0.79498 0.778836 0.569055
0.809323 0.784161 0.56611
0.824063 0.789319 0.563561
0.839124 0.794339 0.561502
0.854459 0.799237 0.55993
0.575021 0.614771 0.575021
0.584237 0.620523 0.582849
