luts/Muted 01.cube
TITLE "Generated by Resolve"
LUT_3D_SIZE 9
0.0755322 0.0835737 0.0881666
0.0903487 0.0972305 0.102571
0.112779 0.112306 0.117617
0.142504 0.127367 0.13225
0.177417 0.140658 0.145068
0.211078 0.147677 0.152544
0.242145 0.15053 0.157275
0.266667 0.150088 0.15906
0.293065 0.155032 0.163455
0.109834 0.133608 0.131884
0.131212 0.155718 0.151141
0.168093 0.178134 0.168475
0.213626 0.199023 0.18323
0.263172 0.215274 0.193362
0.313069 0.226123 0.199832
0.358968 0.231815 0.202243
0.397192 0.233219 0.202457
0.425803 0.230411 0.201114
0.149905 0.206989 0.183368
0.172305 0.233509 0.199496
0.227939 0.263584 0.214603
0.289647 0.288716 0.224247
0.351553 0.307347 0.226688
0.412009 0.320119 0.228672
0.4663 0.326955 0.228717
0.51043 0.328786 0.226551
0.546502 0.327489 0.227237
0.181903 0.290074 0.225727
0.213275 0.322881 0.237766
0.284596 0.357336 0.245899
0.359365 0.384527 0.249653
0.4327 0.404913 0.252628
0.49662 0.419013 0.253086
0.553216 0.428489 0.251255
0.600885 0.432364 0.251804
0.639704 0.433494 0.251606
0.205951 0.373953 0.256489
0.253819 0.41236 0.263508
0.339361 0.449531 0.269856
0.424002 0.477531 0.274601
0.500847 0.498619 0.277623
0.568002 0.513329 0.276539
0.623178 0.52343 0.27425
0.668391 0.528618 0.272755
0.707469 0.531502 0.270832
0.228 0.45301 0.280293
0.29604 0.495293 0.289158
0.396643 0.532601 0.294102
0.483818 0.560098 0.296986
0.560906 0.580377 0.298344
0.624949 0.594232 0.293324
0.679988 0.604242 0.290425
0.723079 0.610361 0.291051
0.759045 0.61416 0.290593
0.250034 0.524849 0.306722
0.350439 0.568872 0.312703
0.452018 0.604334 0.314961
0.540871 0.630915 0.315343
0.614466 0.648936 0.31606
0.676875 0.662593 0.313207
0.726207 0.672328 0.313436
0.766857 0.678706 0.316258
0.801022 0.68278 0.316213
0.296254 0.591501 0.332128
0.407736 0.633143 0.336919
0.508476 0.665965 0.336645
0.592004 0.690013 0.336889
0.662516 0.708186 0.34139
0.719799 0.720623 0.343954
0.766979 0.728985 0.345998
0.803281 0.735561 0.348669
0.834913 0.73843 0.346761
0.351019 0.64976 0.359411
0.466514 0.689693 0.363012
0.562173 0.719509 0.366155
0.641367 0.741695 0.369589
0.70428 0.756451 0.373373
0.757092 0.767895 0.378439
0.798657 0.776181 0.381582
0.83444 0.780987 0.383825
0.864958 0.78265 0.379797
0.0818647 0.0920119 0.104829
0.0948348 0.103838 0.118502
0.120241 0.119905 0.13695
0.151461 0.134798 0.15404
0.186892 0.146395 0.167514
0.221836 0.152575 0.176287
0.250629 0.152178 0.179706
0.277501 0.15349 0.182834
0.308141 0.160952 0.188861
0.117906 0.145159 0.155993
0.136568 0.165606 0.175586
0.17499 0.187655 0.196063
0.222385 0.208148 0.21384
0.274159 0.22327 0.22652
0.325139 0.233021 0.234257
0.372503 0.238025 0.238804
0.409842 0.237736 0.239399
0.438239 0.233951 0.237736
0.156435 0.219883 0.214542
0.176974 0.244968 0.231724
0.233066 0.274174 0.251682
0.296284 0.298161 0.265248
0.362097 0.316579 0.273075
0.423011 0.327031 0.276982
0.477165 0.332815 0.277424
0.521431 0.334218 0.276265
0.556527 0.331243 0.273213
0.18674 0.303853 0.263813
0.21503 0.33547 0.279042
0.286778 0.368765 0.293095
0.366171 0.395834 0.302022
0.439643 0.414633 0.306935
0.505074 0.428061 0.307729
0.561456 0.43563 0.305959
0.6094 0.439155 0.30312
0.646906 0.438743 0.29781
0.209812 0.389136 0.302358
0.250538 0.427024 0.31487
0.340948 0.462165 0.324971
0.428611 0.48986 0.331106
0.506661 0.50927 0.333639
0.574914 0.523781 0.334432
0.62858 0.531548 0.331579
0.674556 0.536751 0.32694
0.712795 0.539025 0.31928
0.229313 0.469322 0.333669
0.294026 0.510231 0.343893
0.397696 0.545769 0.351354
0.488319 0.572427 0.356268
0.565438 0.591012 0.358968
0.630304 0.604685 0.358114
0.68365 0.613397 0.354498
0.726726 0.619196 0.351202
0.761822 0.622278 0.34757
0.255253 0.541939 0.361532
0.351049 0.58439 0.370703
0.454673 0.61767 0.377508
0.543984 0.643015 0.380926
0.617609 0.660197 0.382452
0.680201 0.673487 0.383474
0.727825 0.681254 0.383566
0.768322 0.687694 0.383047
0.801587 0.690898 0.379034
0.296956 0.607828 0.389593
0.408042 0.648051 0.397818
0.510826 0.67921 0.40267
0.595407 0.702251 0.407233
0.664652 0.718639 0.41207
0.721218 0.730175 0.413535
0.767025 0.738125 0.414786
0.802823 0.744015 0.415335
0.834501 0.746578 0.412604
0.344335 0.665507 0.418219
0.466468 0.70425 0.426276
0.564645 0.731929 0.431922
0.64332 0.752911 0.436042
0.706127 0.76704 0.440665
0.757855 0.777615 0.444816
0.798352 0.784527 0.447654
0.833402 0.788327 0.447135
0.863661 0.790478 0.442832
0.0892958 0.10074 0.123888
0.100679 0.111101 0.137545
0.128237 0.127626 0.15877
0.16022 0.141344 0.177127
0.19588 0.15111 0.19173
0.231601 0.156115 0.201999
0.259434 0.154513 0.20528
0.293187 0.160388 0.213779
0.320958 0.165148 0.218891
0.125826 0.156573 0.182696
0.141176 0.174411 0.201785
0.182208 0.196979 0.225956
0.231617 0.216968 0.247028
0.284947 0.23125 0.262562
0.337758 0.240497 0.273381
0.384573 0.243656 0.278843
0.421973 0.242405 0.280705
0.450919 0.237873 0.280125
0.162585 0.232166 0.247791
0.181308 0.255833 0.267033
0.237842 0.283803 0.289708
0.303502 0.307271 0.306462
0.371221 0.324437 0.317952
0.433097 0.334142 0.324025
0.487297 0.339223 0.327153
0.53106 0.339391 0.326818
0.566751 0.33637 0.325246
0.191394 0.317311 0.304601
0.216083 0.347173 0.321218
0.289815 0.379797 0.339132
0.371298 0.405402 0.35137
0.446998 0.423621 0.358816
0.513573 0.435645 0.361685
0.570336 0.442039 0.362615
0.616938 0.444694 0.360693
0.654139 0.444038 0.358495
0.213382 0.403525 0.348348
0.247822 0.438682 0.362448
0.343511 0.473762 0.376471
0.433982 0.500053 0.385138
0.513481 0.51873 0.390417
0.580194 0.531258 0.392294
0.634165 0.539208 0.391714
0.679469 0.543389 0.389258
0.717647 0.545419 0.385931
0.232334 0.484291 0.383612
0.296849 0.523247 0.396109
0.401541 0.557946 0.406409
0.492119 0.582528 0.413092
0.56997 0.601022 0.417884
0.634241 0.613382 0.419196
0.687327 0.621271 0.419364
0.729061 0.625864 0.418585
0.764004 0.628946 0.416342
0.259739 0.557244 0.41384
0.352544 0.59704 0.424979
0.457649 0.629709 0.434104
0.547295 0.653208 0.439658
0.621256 0.669673 0.443656
0.681651 0.681178 0.445975
0.729152 0.689158 0.446494
0.769146 0.694514 0.445258
0.80235 0.697322 0.443732
0.293477 0.622095 0.443366
0.406577 0.660533 0.453056
0.513603 0.690822 0.460105
0.597772 0.711986 0.465782
0.667369 0.727855 0.469718
0.722072 0.737896 0.472557
0.766766 0.745403 0.475013
0.802411 0.75021 0.474495
0.833936 0.751888 0.471046
0.338567 0.679316 0.471626
0.46598 0.715633 0.480751
0.569009 0.743297 0.487617
0.645823 0.762356 0.492271
0.707683 0.775616 0.497414
0.758556 0.784833 0.501472
0.798123 0.790997 0.503853
0.833432 0.795148 0.503288
0.863127 0.796567 0.498985
0.0959945 0.108278 0.142947
0.10782 0.118273 0.157687
0.135653 0.133669 0.180087
0.168353 0.14641 0.199954
0.204715 0.154788 0.215915
0.237263 0.156085 0.224598
0.272206 0.159548 0.234089
0.305699 0.164767 0.243122
0.333394 0.168887 0.249149
0.132357 0.165835 0.208103
0.147036 0.183032 0.228626
0.189502 0.205463 0.256184
0.240528 0.22414 0.279805
0.29546 0.238437 0.298497
0.34844 0.245899 0.310384
0.395392 0.248371 0.317342
0.433433 0.246738 0.320882
0.46125 0.241016 0.320851
0.167987 0.243015 0.280613
0.184268 0.265141 0.301122
0.243122 0.292622 0.326894
0.311421 0.315572 0.347539
0.379553 0.331151 0.361257
0.442634 0.340383 0.370291
0.495949 0.34403 0.374273
0.539971 0.343816 0.375937
0.574792 0.340063 0.375082
0.195438 0.328908 0.343496
0.21825 0.357916 0.362463
0.294453 0.389258 0.383261
0.378088 0.414267 0.398901
0.453742 0.431281 0.407782
0.521599 0.442374 0.413138
0.577432 0.447501 0.415122
0.623377 0.449821 0.415808
0.659709 0.448203 0.414679
0.21677 0.416144 0.392279
0.25156 0.450248 0.408774
0.347845 0.483391 0.424582
0.439216 0.509117 0.435584
0.518669 0.526223 0.442222
0.585611 0.538155 0.446555
0.639124 0.5449 0.447395
0.684581 0.549538 0.447272
0.721233 0.55021 0.445212
0.236393 0.496834 0.43035
0.301137 0.535073 0.4448
0.404318 0.56733 0.456825
0.49659 0.591073 0.46566
0.575143 0.608988 0.470817
0.638498 0.620066 0.47396
0.690105 0.627085 0.474998
0.731258 0.631708 0.474891
0.765896 0.63389 0.472709
0.261738 0.569512 0.462333
0.351278 0.608499 0.475547
0.460273 0.639231 0.485176
0.551781 0.66183 0.492042
0.624872 0.676921 0.496544
0.684321 0.687755 0.499947
0.730861 0.695308 0.50045
0.770474 0.700084 0.500725
0.802991 0.701808 0.499016
0.290227 0.634394 0.49221
0.404288 0.671473 0.503304
0.517769 0.700099 0.511742
0.602152 0.721096 0.517723
0.670207 0.735531 0.521691
0.723949 0.744533 0.525078
0.767407 0.750759 0.527504
0.802823 0.755383 0.52781
0.83444 0.756848 0.524376
0.332143 0.690654 0.520409
0.468635 0.726436 0.530465
0.573266 0.752697 0.53753
0.6495 0.77052 0.543328
0.709972 0.782223 0.54815
0.759411 0.790661 0.552102
0.798932 0.796841 0.554772
0.833692 0.800839 0.554696
0.863203 0.802213 0.550072
0.10164 0.114427 0.160555
0.115145 0.124422 0.177157
0.141939 0.137575 0.199207
0.174517 0.148989 0.219883
0.211353 0.156649 0.23743
0.246372 0.159091 0.248554
0.284413 0.164706 0.261585
0.316274 0.167819 0.270146
0.345617 0.172961 0.278386
0.137926 0.173587 0.232334
0.153994 0.191714 0.255818
0.19675 0.212757 0.285206
0.248631 0.230854 0.311162
0.304631 0.243885 0.331548
0.358358 0.25095 0.345418
0.405493 0.252781 0.354223
0.442527 0.249699 0.358114
0.471458 0.244877 0.359396
0.172564 0.252064 0.312139
0.18941 0.273762 0.334112
0.248737 0.300847 0.363165
0.318761 0.32224 0.385763
0.387854 0.337545 0.40264
0.450706 0.345235 0.412619
0.504921 0.348745 0.418662
0.548119 0.347631 0.421225
0.582269 0.343389 0.421988
0.19913 0.339193 0.380514
0.22121 0.367163 0.401068
0.300099 0.397757 0.425101
0.384329 0.42121 0.442252
0.461463 0.437354 0.453483
0.52842 0.447471 0.460441
0.583627 0.45243 0.46421
0.629236 0.453742 0.465965
0.664515 0.45153 0.465766
0.219852 0.426673 0.433112
0.257832 0.460105 0.451942
0.352926 0.492149 0.469688
0.445518 0.516365 0.482139
0.524636 0.532738 0.490547
0.59115 0.543893 0.495674
0.644526 0.550149 0.498085
0.689067 0.553094 0.498848
0.7252 0.552972 0.498665
0.239826 0.50811 0.473594
0.303822 0.544198 0.489418
0.408606 0.575128 0.503365
0.502525 0.59881 0.513344
0.580667 0.615717 0.519905
0.642756 0.625193 0.523766
0.693614 0.632059 0.525963
0.734066 0.636332 0.525582
0.768887 0.638621 0.52459
0.261845 0.580209 0.5066
0.351751 0.617411 0.521035
0.465827 0.647105 0.531777
0.556268 0.668315 0.539345
0.628656 0.683406 0.544991
0.687205 0.693553 0.548302
0.733898 0.700099 0.550317
0.772442 0.703838 0.551308
0.804486 0.705318 0.549569
0.289342 0.644816 0.536736
0.405646 0.680125 0.548318
0.522484 0.708202 0.558328
0.606744 0.728237 0.564675
0.673152 0.741726 0.5691
0.725658 0.749218 0.572656
0.768902 0.755459 0.574655
0.803861 0.759426 0.574746
0.835462 0.760525 0.572198
0.330739 0.70106 0.565072
0.47451 0.73547 0.575296
0.577813 0.760571 0.582666
0.652415 0.776349 0.588968
0.71252 0.787564 0.594186
0.760891 0.795804 0.597604
0.800137 0.801709 0.600229
0.834653 0.80557 0.600015
0.863203 0.805173 0.595712
0.106554 0.119051 0.176516
0.121584 0.128588 0.194537
0.146731 0.138994 0.215167
0.180545 0.151278 0.239216
0.217716 0.157641 0.256916
0.256596 0.163378 0.273182
0.294194 0.167941 0.286702
0.32639 0.17052 0.296086
0.357107 0.177111 0.306493
0.143206 0.181094 0.256352
0.160296 0.19855 0.281376
0.204105 0.219287 0.313069
0.257374 0.237003 0.341756
0.313497 0.248463 0.362829
0.368368 0.255436 0.37908
0.414267 0.255756 0.387915
0.452613 0.253422 0.393164
0.480156 0.247639 0.393896
0.17644 0.259586 0.341238
0.194644 0.282017 0.366186
0.254917 0.307347 0.396872
0.326589 0.328847 0.422736
0.395941 0.342489 0.439963
0.459159 0.350042 0.451759
0.512535 0.352819 0.458701
0.555413 0.351324 0.462593
0.588647 0.345815 0.463828
0.202274 0.347646 0.414816
0.224918 0.37499 0.437385
0.30576 0.405066 0.463172
0.391363 0.427482 0.482048
0.469261 0.443519 0.495323
0.534707 0.451972 0.503792
0.590677 0.457053 0.509056
0.634958 0.456947 0.511162
0.669154 0.453834 0.511772
0.222934 0.436027 0.470817
0.263066 0.468833 0.491188
0.359304 0.49958 0.510506
0.451286 0.522347 0.52433
0.530694 0.538659 0.534539
0.596338 0.548699 0.540749
0.6495 0.554498 0.544091
0.693126 0.556466 0.545663
0.728328 0.555673 0.545754
0.242695 0.517571 0.51281
0.307546 0.552163 0.530541
0.415213 0.582986 0.545953
0.507942 0.605234 0.556451
0.584955 0.62063 0.563653
0.646311 0.629648 0.568322
0.696971 0.63595 0.571237
0.737469 0.639872 0.572534
0.771939 0.641566 0.571923
0.265705 0.589685 0.546929
0.356313 0.625269 0.561685
0.470787 0.654017 0.574044
0.56109 0.674281 0.582864
0.632654 0.688655 0.588907
0.690501 0.698711 0.59234
0.736324 0.703685 0.594736
0.774563 0.70724 0.595956
0.806241 0.707835 0.594156
0.291691 0.653544 0.576379
0.41236 0.687907 0.589914
0.527169 0.7149 0.599435
0.611444 0.734218 0.606455
0.675914 0.745922 0.611582
0.728115 0.753628 0.615473
0.77023 0.759213 0.617121
0.805631 0.763272 0.617594
0.836896 0.763485 0.615488
0.334371 0.709773 0.603601
0.481605 0.743679 0.615335
0.583108 0.766232 0.623346
0.656794 0.781643 0.629496
0.71516 0.792065 0.634333
0.762783 0.80032 0.638498
0.80148 0.805798 0.640986
0.835492 0.808301 0.639948
0.864057 0.807752 0.636164
0.11078 0.122545 0.191104
0.125902 0.130556 0.208621
0.152163 0.141573 0.231617
0.188067 0.154314 0.258717
0.22504 0.160235 0.277241
0.266636 0.167452 0.297108
0.302846 0.16994 0.309834
0.337591 0.174502 0.322316
0.368902 0.181491 0.334066
0.147753 0.187427 0.278477
0.165881 0.20502 0.305638
0.212039 0.225574 0.340063
0.265675 0.241993 0.369772
0.322927 0.253101 0.393149
0.376959 0.258473 0.409262
0.423346 0.258976 0.419471
0.461128 0.25626 0.424994
0.487984 0.249836 0.425864
0.18024 0.267231 0.369284
0.198581 0.28864 0.395071
0.261067 0.314015 0.429068
0.334844 0.334356 0.456138
0.404013 0.346853 0.474678
0.467124 0.354269 0.487724
0.519921 0.356451 0.495811
0.562127 0.354513 0.500206
0.594873 0.349111 0.501381
0.20502 0.35491 0.446311
0.228885 0.382284 0.470375
0.313008 0.411124 0.498283
0.398947 0.433173 0.519219
0.475807 0.448157 0.533516
0.541283 0.45658 0.542718
0.596521 0.460487 0.548409
0.639673 0.460365 0.551446
0.673304 0.45684 0.552575
0.225605 0.443442 0.504585
0.269368 0.476555 0.527153
0.365713 0.505638 0.547692
0.457847 0.527764 0.562707
0.536538 0.543145 0.573159
0.601846 0.552758 0.580423
0.653956 0.556985 0.584955
0.696788 0.559014 0.587106
0.73077 0.557855 0.587533
0.244877 0.524956 0.547631
0.31429 0.559426 0.567147
0.421164 0.589105 0.583917
0.514839 0.610758 0.595682
0.589685 0.62443 0.602914
0.650706 0.633646 0.608179
0.700816 0.639353 0.611383
0.740978 0.642527 0.613611
0.774014 0.642283 0.614252
0.269841 0.598047 0.582452
0.36202 0.632395 0.598871
0.476692 0.659739 0.611994
0.566857 0.679774 0.621363
0.636988 0.693477 0.627695
0.693919 0.701976 0.632029
0.738888 0.706554 0.634165
0.776516 0.709621 0.635264
0.808087 0.710369 0.634501
0.295171 0.660655 0.611582
0.421958 0.695354 0.626795
0.533593 0.720623 0.636561
0.616022 0.738552 0.643687
0.679423 0.749523 0.64921
0.730571 0.757107 0.653117
0.772732 0.762982 0.655558
0.807416 0.765881 0.656443
0.838666 0.766201 0.654078
0.345998 0.717556 0.638224
0.489311 0.749493 0.650523
0.588769 0.771191 0.659586
0.660777 0.78587 0.665568
0.718486 0.796323 0.670466
0.764935 0.804013 0.674281
0.803235 0.808911 0.677089
0.836667 0.810666 0.676295
0.865141 0.809308 0.672862
0.113924 0.124529 0.20296
0.129442 0.131426 0.220371
0.159106 0.145815 0.249744
0.193957 0.155917 0.274891
0.233478 0.16376 0.297826
0.275792 0.170672 0.31931
0.311315 0.172335 0.331518
0.350027 0.179873 0.348486
0.378698 0.18471 0.358068
0.151843 0.193072 0.299214
0.171847 0.210956 0.328771
0.219516 0.230808 0.365026
0.27451 0.246845 0.396567
0.330983 0.257038 0.42034
0.385397 0.261784 0.437491
0.432013 0.262028 0.448203
0.468971 0.25864 0.454002
0.495903 0.252262 0.455238
0.183352 0.273274 0.394537
0.201923 0.294469 0.421744
0.267735 0.319509 0.457496
0.342382 0.339132 0.486275
0.41239 0.35169 0.506859
0.474556 0.357763 0.520027
0.527626 0.360052 0.528923
0.568505 0.356832 0.532982
0.601282 0.352071 0.535119
0.207584 0.361654 0.474769
0.232822 0.388434 0.500099
0.320119 0.417136 0.530755
0.405722 0.437903 0.552254
0.482994 0.452628 0.567422
0.547738 0.459586 0.577035
0.602502 0.463462 0.584207
0.643854 0.462608 0.586816
0.677562 0.459464 0.588403
0.228092 0.450706 0.534951
0.273564 0.482139 0.558389
0.373495 0.511345 0.581323
0.464805 0.53228 0.59704
0.542672 0.547005 0.608255
0.606806 0.555383 0.615579
0.658366 0.559625 0.620447
0.699992 0.560601 0.623285
0.733593 0.559091 0.624857
0.248722 0.532265 0.579324
0.319509 0.565759 0.599557
0.42739 0.594842 0.617639
0.5205 0.615076 0.630076
0.594324 0.628153 0.637949
0.654826 0.636805 0.64358
0.704295 0.642298 0.647852
0.743053 0.644221 0.649317
0.775631 0.64358 0.650202
0.27219 0.604807 0.614115
0.366186 0.638148 0.6318
0.483558 0.665278 0.646036
0.571405 0.684108 0.655482
0.641291 0.697581 0.662684
0.696498 0.704768 0.666758
0.741665 0.709194 0.669413
0.778836 0.711803 0.670756
0.809995 0.711742 0.67039
0.299611 0.667536 0.643366
0.431205 0.701686 0.659342
0.539284 0.725811 0.669642
0.620096 0.741772 0.676966
0.682597 0.752758 0.68246
0.733257 0.760571 0.686656
0.775143 0.765972 0.689815
0.809918 0.768597 0.690593
0.84033 0.767224 0.688548
0.359533 0.724697 0.669474
0.497032 0.754314 0.682322
0.593866 0.775311 0.691402
0.664652 0.78967 0.697978
0.721431 0.800076 0.70312
0.767483 0.807385 0.7066
0.805158 0.811292 0.70869
0.838651 0.812604 0.708797
0.867048 0.811414 0.706661
0.116823 0.126131 0.213321
0.134112 0.134249 0.233814
0.16527 0.149172 0.265995
0.200061 0.157839 0.290547
0.242557 0.167926 0.318318
0.282811 0.171984 0.337072
0.322667 0.176928 0.354452
0.359762 0.183368 0.370321
0.388113 0.187549 0.379705
0.155459 0.197971 0.31783
0.177447 0.215854 0.349462
0.226703 0.235584 0.387686
0.282017 0.250721 0.420081
0.3393 0.260121 0.444999
0.393637 0.26421 0.462882
0.440208 0.264439 0.474311
0.477287 0.261234 0.480583
0.503029 0.254032 0.480797
0.186114 0.27863 0.416861
0.205966 0.300191 0.446235
0.274571 0.324498 0.483619
0.350668 0.343389 0.513924
0.420157 0.355032 0.53463
0.482612 0.361807 0.549569
0.533837 0.362615 0.557916
0.57499 0.360098 0.563088
0.606836 0.354513 0.564614
0.209781 0.367254 0.499504
0.236698 0.394263 0.527611
0.328023 0.42182 0.559335
0.413184 0.442802 0.581903
0.48893 0.455848 0.597086
0.554131 0.463188 0.608087
0.606943 0.465721 0.614816
0.64831 0.464988 0.618784
0.681468 0.461433 0.620203
0.23006 0.456199 0.561776
0.279713 0.488121 0.586709
0.379721 0.515557 0.610376
0.47126 0.536965 0.628183
0.548241 0.550103 0.639063
0.612024 0.55816 0.647135
0.661784 0.56144 0.651591
0.703105 0.562478 0.655192
0.735943 0.560861 0.656489
0.251682 0.538048 0.607034
0.323171 0.571511 0.629221
0.431754 0.598886 0.647425
0.526268 0.618494 0.660151
0.599176 0.631159 0.66894
0.659434 0.64004 0.675685
0.707088 0.644175 0.679454
0.745312 0.64535 0.681437
0.777508 0.644755 0.682216
0.271794 0.609918 0.641917
0.369848 0.643473 0.661097
0.489464 0.669841 0.676066
0.576867 0.688029 0.686183
0.645716 0.699855 0.692668
0.699977 0.70753 0.69723
0.743862 0.711604 0.700572
0.780682 0.714443 0.702617
0.812085 0.713176 0.702281
0.305928 0.673594 0.671077
0.438209 0.707103 0.688518
0.545419 0.729534 0.699138
0.624796 0.745113 0.706783
0.686244 0.755596 0.712215
0.736706 0.7635 0.717159
0.77792 0.769085 0.719692
0.81178 0.770397 0.720562
0.842084 0.768582 0.719844
0.37113 0.730068 0.697337
0.504509 0.758831 0.710613
0.599664 0.779446 0.720043
0.66862 0.79353 0.726802
0.725139 0.803708 0.732204
0.769985 0.809873 0.735286
0.807691 0.813581 0.737911
0.841199 0.814832 0.737438
0.869139 0.813123 0.735897
