luts/Muted 01.cube
TITLE "Generated by Resolve"
LUT_3D_SIZE 5
0.0755322 0.0835737 0.0881666
0.112779 0.112306 0.117617
0.177417 0.140658 0.145068
0.242145 0.15053 0.157275
0.293065 0.155032 0.163455
0.149905 0.206989 0.183368
0.227939 0.263584 0.214603
0.351553 0.307347 0.226688
0.4663 0.326955 0.228717
0.546502 0.327489 0.227237
0.205951 0.373953 0.256489
0.339361 0.449531 0.269856
0.500847 0.498619 0.277623
0.623178 0.52343 0.27425
0.707469 0.531502 0.270832
0.250034 0.524849 0.306722
0.452018 0.604334 0.314961
0.614466 0.648936 0.31606
0.726207 0.672328 0.313436
0.801022 0.68278 0.316213
0.351019 0.64976 0.359411
0.562173 0.719509 0.366155
0.70428 0.756451 0.373373
0.798657 0.776181 0.381582
0.864958 0.78265 0.379797
0.0892958 0.10074 0.123888
0.128237 0.127626 0.15877
0.19588 0.15111 0.19173
0.259434 0.154513 0.20528
0.320958 0.165148 0.218891
0.162585 0.232166 0.247791
0.237842 0.283803 0.289708
0.371221 0.324437 0.317952
0.487297 0.339223 0.327153
0.566751 0.33637 0.325246
0.213382 0.403525 0.348348
0.343511 0.473762 0.376471
0.513481 0.51873 0.390417
0.634165 0.539208 0.391714
0.717647 0.545419 0.385931
0.259739 0.557244 0.41384
0.457649 0.629709 0.434104
0.621256 0.669673 0.443656
0.729152 0.689158 0.446494
0.80235 0.697322 0.443732
0.338567 0.679316 0.471626
0.569009 0.743297 0.487617
0.707683 0.775616 0.497414
0.798123 0.790997 0.503853
0.863127 0.796567 0.498985
0.10164 0.114427 0.160555
0.141939 0.137575 0.199207
0.211353 0.156649 0.23743
0.284413 0.164706 0.261585
0.345617 0.172961 0.278386
0.172564 0.252064 0.312139
0.248737 0.300847 0.363165
0.387854 0.337545 0.40264
0.504921 0.348745 0.418662
0.582269 0.343389 0.421988
0.219852 0.426673 0.433112
0.352926 0.492149 0.469688
0.524636 0.532738 0.490547
0.644526 0.550149 0.498085
0.7252 0.552972 0.498665
0.261845 0.580209 0.5066
0.465827 0.647105 0.531777
0.628656 0.683406 0.544991
0.733898 0.700099 0.550317
0.804486 0.705318 0.549569
0.330739 0.70106 0.565072
0.577813 0.760571 0.582666
0.71252 0.787564 0.594186
0.800137 0.801709 0.600229
0.863203 0.805173 0.595712
0.11078 0.122545 0.191104
0.152163 0.141573 0.231617
0.22504 0.160235 0.277241
0.302846 0.16994 0.309834
0.368902 0.181491 0.334066
0.18024 0.267231 0.369284
0.261067 0.314015 0.429068
0.404013 0.346853 0.474678
0.519921 0.356451 0.495811
0.594873 0.349111 0.501381
0.225605 0.443442 0.504585
0.365713 0.505638 0.547692
0.536538 0.543145 0.573159
0.653956 0.556985 0.584955
0.73077 0.557855 0.587533
0.269841 0.598047 0.582452
0.476692 0.659739 0.611994
0.636988 0.693477 0.627695
0.738888 0.706554 0.634165
0.808087 0.710369 0.634501
0.345998 0.717556 0.638224
0.588769 0.771191 0.659586
0.718486 0.796323 0.670466
0.803235 0.808911 0.677089
0.865141 0.809308 0.672862
0.116823 0.126131 0.213321
0.16527 0.149172 0.265995
0.242557 0.167926 0.318318
0.322667 0.176928 0.354452
0.388113 0.187549 0.379705
0.186114 0.27863 0.416861
0.274571 0.324498 0.483619
0.420157 0.355032 0.53463
0.533837 0.362615 0.557916
0.606836 0.354513 0.564614
0.23006 0.456199 0.561776
0.379721 0.515557 0.610376
0.548241 0.550103 0.639063
0.661784 0.56144 0.651591
0.735943 0.560861 0.656489
0.271794 0.609918 0.641917
0.489464 0.669841 0.676066
0.645716 0.699855 0.692668
0.743862 0.711604 0.700572
0.812085 0.713176 0.702281
0.37113 0.730068 0.697337
0.599664 0.779446 0.720043
0.725139 0.803708 0.732204
0.807691 0.813581 0.737911
0.869139 0.813123 0.735897
