luts/Muted 01.cube
TITLE "Generated by Resolve"
LUT_3D_SIZE 33
0.0755322 0.0835737 0.0881666
0.0780804 0.0861677 0.0909895
0.0814984 0.0894789 0.0945602
0.0856184 0.0931868 0.0983749
0.0903487 0.0972305 0.102571
0.0954299 0.101106 0.106569
0.100954 0.105013 0.110475
0.106874 0.108812 0.114244
0.112779 0.112306 0.117617
0.119371 0.116152 0.121294
0.126726 0.119951 0.124971
0.134569 0.123857 0.128771
0.142504 0.127367 0.13225
0.151064 0.131182 0.135744
0.159579 0.13463 0.139116
0.168185 0.137621 0.141985
0.177417 0.140658 0.145068
0.185992 0.142901 0.147311
0.19498 0.145296 0.149599
0.203326 0.146761 0.151278
0.211078 0.147677 0.152544
0.219196 0.148623 0.15404
0.226337 0.148928 0.154894
0.234379 0.149859 0.156039
0.242145 0.15053 0.157275
0.248646 0.150408 0.157778
0.255375 0.150668 0.158572
0.260807 0.150286 0.158724
0.266667 0.150088 0.15906
0.27335 0.151049 0.160159
0.279545 0.151797 0.160922
0.286397 0.15317 0.162142
0.293065 0.155032 0.163455
0.082002 0.0926833 0.0968795
0.0850538 0.0960861 0.100313
0.0889143 0.0999313 0.104219
0.0937819 0.104417 0.108736
0.099321 0.109102 0.113344
0.10547 0.11371 0.117693
0.111986 0.118212 0.122072
0.118334 0.122179 0.125795
0.125429 0.126589 0.129793
0.13315 0.130846 0.1337
0.141482 0.135149 0.137758
0.150378 0.139528 0.141802
0.159045 0.143297 0.145251
0.168307 0.147127 0.148775
0.17763 0.150576 0.15201
0.187625 0.154086 0.155032
0.197299 0.157122 0.15758
0.207523 0.160311 0.160311
0.217899 0.163043 0.162814
0.227466 0.165133 0.16466
0.237491 0.167208 0.166415
0.246845 0.168688 0.167788
0.256321 0.169787 0.169268
0.265019 0.17055 0.170382
0.273121 0.170962 0.171099
0.281147 0.171466 0.171786
0.288075 0.17113 0.172198
0.29575 0.171344 0.172869
0.302632 0.17142 0.173449
0.308568 0.171008 0.173632
0.315038 0.170932 0.173846
0.319661 0.170184 0.173831
0.324834 0.169802 0.173922
0.0904402 0.104524 0.107683
0.0932784 0.107927 0.110857
0.0973068 0.112428 0.115038
0.102922 0.117388 0.119829
0.109331 0.12256 0.124773
0.116228 0.127794 0.129656
0.123186 0.132647 0.134035
0.13109 0.137667 0.13846
0.139162 0.142382 0.142687
0.147875 0.147265 0.14699
0.157168 0.151995 0.151156
0.166339 0.156222 0.154711
0.176486 0.160449 0.158236
0.186343 0.164202 0.161196
0.196811 0.168048 0.164233
0.207202 0.171572 0.166888
0.218173 0.174884 0.16968
0.229496 0.17847 0.172183
0.240299 0.181186 0.174228
0.251469 0.183825 0.176333
0.262303 0.185733 0.178134
0.273091 0.187732 0.179675
0.283467 0.189258 0.180819
0.292973 0.190234 0.18172
0.302861 0.191226 0.182879
0.311406 0.19144 0.183444
0.320699 0.192096 0.184253
0.328496 0.192111 0.184497
0.335607 0.191791 0.184665
0.343191 0.191775 0.185153
0.348821 0.190921 0.184985
0.354772 0.190417 0.184939
0.36051 0.189837 0.184848
0.0993668 0.117678 0.11873
0.102907 0.122316 0.122988
0.107362 0.12723 0.12752
0.11313 0.132784 0.132647
0.12018 0.138811 0.138109
0.127764 0.143999 0.142687
0.136049 0.149462 0.147463
0.14432 0.154498 0.151583
0.153353 0.159609 0.15581
0.163027 0.164858 0.159869
0.172839 0.169497 0.163546
0.183719 0.174487 0.167422
0.194339 0.178866 0.17052
0.205951 0.183459 0.173907
0.217624 0.18764 0.176867
0.228992 0.191272 0.179355
0.24065 0.194965 0.182055
0.25214 0.197833 0.184009
0.264088 0.200549 0.186191
0.275761 0.20293 0.187579
0.287144 0.205081 0.189014
0.298665 0.207034 0.190478
0.30956 0.208408 0.191531
0.320699 0.210025 0.192645
0.331395 0.211322 0.193332
0.341253 0.212039 0.193774
0.350668 0.212467 0.194491
0.35877 0.212253 0.194553
0.367605 0.212528 0.194858
0.374823 0.212131 0.194766
0.381369 0.211276 0.194644
0.388128 0.210498 0.194675
0.39295 0.209201 0.194293
0.109834 0.133608 0.131884
0.113298 0.138598 0.136416
0.117296 0.143694 0.140856
0.12401 0.150072 0.146487
0.131212 0.155718 0.151141
0.139559 0.1617 0.155901
0.148318 0.16701 0.159884
0.158022 0.172625 0.164324
0.168093 0.178134 0.168475
0.178408 0.183337 0.172229
0.189776 0.188922 0.176226
0.201373 0.19411 0.179599
0.213626 0.199023 0.18323
0.226017 0.204059 0.186618
0.238132 0.207965 0.189029
0.25095 0.212146 0.191653
0.263172 0.215274 0.193362
0.276081 0.218753 0.195438
0.288563 0.221653 0.197147
0.300649 0.224033 0.198291
0.313069 0.226123 0.199832
0.324651 0.227771 0.200351
0.33695 0.229923 0.201328
0.348226 0.231174 0.201923
0.358968 0.231815 0.202243
0.369528 0.232609 0.202609
0.378897 0.232929 0.20238
0.388617 0.233371 0.202426
0.397192 0.233219 0.202457
0.404639 0.232288 0.202213
0.412802 0.231998 0.202029
0.419364 0.231098 0.20148
0.425803 0.230411 0.201114
0.120714 0.151293 0.146029
0.123842 0.156252 0.150179
0.128298 0.161852 0.154604
0.134035 0.167437 0.158831
0.141558 0.173632 0.163485
0.150805 0.17966 0.167987
0.160876 0.185931 0.172564
0.171603 0.192142 0.176989
0.183078 0.198184 0.181018
0.195087 0.204242 0.18529
0.207187 0.209827 0.189044
0.219745 0.215091 0.19234
0.232853 0.220539 0.19556
0.245731 0.224994 0.197772
0.259678 0.22974 0.200443
0.272633 0.233341 0.202121
0.28603 0.237079 0.203861
0.299596 0.24065 0.205234
0.312383 0.243214 0.206287
0.32575 0.246372 0.207446
0.33843 0.248585 0.208164
0.351156 0.250889 0.208759
0.363516 0.252415 0.209216
0.375204 0.253529 0.208988
0.386938 0.25481 0.209049
0.397238 0.255192 0.208698
0.407752 0.255558 0.208743
0.417975 0.255818 0.208911
0.426474 0.255222 0.20798
0.435294 0.254765 0.207889
0.443763 0.254658 0.207965
0.45037 0.253208 0.207935
0.457877 0.252644 0.208087
0.130846 0.16907 0.158801
0.134173 0.174685 0.162982
0.137743 0.17998 0.166827
0.144106 0.186099 0.171328
0.152255 0.192615 0.175891
0.161761 0.198825 0.180179
0.173358 0.205844 0.185
0.185428 0.212497 0.189441
0.198215 0.219242 0.193729
0.211368 0.225696 0.19733
0.224292 0.231556 0.200641
0.238056 0.237339 0.20383
0.251713 0.242313 0.206195
0.266239 0.247517 0.208423
0.280568 0.252064 0.210117
0.294286 0.255863 0.211154
0.308568 0.259678 0.212696
0.32192 0.262623 0.213443
0.336049 0.266285 0.214237
0.349996 0.269368 0.214923
0.363485 0.271717 0.215091
0.376745 0.274083 0.215717
0.388983 0.275441 0.215839
0.402045 0.277333 0.216236
0.413931 0.278218 0.216587
0.425116 0.278767 0.216281
0.436439 0.2795 0.216434
0.446097 0.279408 0.216236
0.456245 0.279591 0.216342
0.465751 0.279301 0.216587
0.473289 0.278218 0.215991
0.481605 0.277836 0.215991
0.488594 0.276692 0.215656
0.140581 0.187701 0.171283
0.143694 0.193423 0.175113
0.148119 0.199695 0.179538
0.153887 0.206012 0.183749
0.161883 0.21239 0.187747
0.173236 0.219776 0.192767
0.18555 0.226749 0.196689
0.199145 0.234119 0.201053
0.213184 0.241291 0.204868
0.227131 0.2477 0.208042
0.241749 0.254078 0.211276
0.255726 0.259663 0.213367
0.270878 0.265232 0.215305
0.285969 0.270436 0.217014
0.300481 0.274525 0.218173
0.315373 0.279332 0.219226
0.329809 0.283146 0.21973
0.344701 0.287083 0.219867
0.35964 0.290425 0.220844
0.373495 0.29308 0.221134
0.387808 0.295842 0.221805
0.401389 0.297948 0.222126
0.414923 0.299519 0.222248
0.427817 0.300801 0.222965
0.439963 0.301747 0.223117
0.452491 0.303258 0.223529
0.463172 0.303166 0.223194
0.473899 0.303487 0.222904
0.484611 0.304158 0.222751
0.493233 0.303578 0.222416
0.502373 0.303105 0.222019
0.511284 0.302785 0.221683
0.518196 0.301579 0.22118
0.149905 0.206989 0.183368
0.152956 0.213352 0.187716
0.156619 0.219638 0.191531
0.163043 0.2262 0.1953
0.172305 0.233509 0.199496
0.184009 0.241001 0.20351
0.198199 0.248859 0.207691
0.21297 0.256641 0.211658
0.227939 0.263584 0.214603
0.243229 0.270481 0.217624
0.258289 0.276799 0.220264
0.273747 0.28275 0.222217
0.289647 0.288716 0.224247
0.304677 0.293416 0.224796
0.320363 0.298741 0.225299
0.335653 0.30309 0.225696
0.351553 0.307347 0.226688
0.367208 0.311315 0.227436
0.38201 0.314244 0.227832
0.397299 0.317494 0.228061
0.412009 0.320119 0.228672
0.426108 0.322148 0.229023
0.440116 0.324041 0.229343
0.452827 0.325246 0.229114
0.4663 0.326955 0.228717
0.478218 0.327596 0.228382
0.489235 0.327993 0.227665
0.500648 0.328862 0.226825
0.51043 0.328786 0.226551
0.520256 0.328634 0.226352
0.53019 0.328771 0.226795
0.538323 0.328145 0.22681
0.546502 0.327489 0.227237
0.158785 0.227192 0.195239
0.162005 0.23415 0.199481
0.165835 0.240391 0.202701
0.170947 0.247349 0.206104
0.18233 0.255207 0.209873
0.195529 0.263066 0.213535
0.210575 0.271275 0.21735
0.226429 0.278828 0.220844
0.242634 0.28658 0.224094
0.258579 0.293767 0.226795
0.274815 0.300206 0.228519
0.291203 0.306554 0.229786
0.307225 0.312245 0.230625
0.323659 0.317769 0.231525
0.34023 0.323064 0.232456
0.356451 0.327337 0.232715
0.372915 0.331777 0.233036
0.388525 0.335103 0.233341
0.4047 0.338613 0.233814
0.420294 0.34168 0.234379
0.434852 0.344076 0.234073
0.449561 0.346685 0.233906
0.463004 0.348272 0.233814
0.477104 0.350195 0.234668
0.490013 0.35198 0.234897
0.501534 0.352636 0.234836
0.513802 0.354162 0.234623
0.525109 0.354681 0.235111
0.535485 0.354864 0.235142
0.546212 0.355428 0.235401
0.555245 0.354788 0.235325
0.564492 0.354742 0.235233
0.573785 0.354528 0.23534
0.167147 0.24799 0.206516
0.169802 0.254765 0.209552
0.173693 0.261784 0.21268
0.181827 0.269413 0.21622
0.192416 0.277104 0.219623
0.20737 0.285969 0.223499
0.22295 0.293828 0.226719
0.240116 0.302266 0.229618
0.257298 0.310201 0.232502
0.273777 0.317311 0.234287
0.290929 0.324117 0.23566
0.307744 0.330449 0.236637
0.325307 0.336477 0.237308
0.342641 0.342199 0.238087
0.359533 0.347082 0.238468
0.376577 0.351919 0.238972
0.393256 0.355962 0.239277
0.410208 0.359716 0.239765
0.426322 0.363333 0.24004
0.441367 0.365957 0.240116
0.456962 0.369482 0.240711
0.471824 0.371862 0.241337
0.485679 0.37377 0.241077
0.499367 0.375891 0.241154
0.51165 0.37702 0.241123
0.524422 0.378897 0.241443
0.536614 0.379721 0.241856
0.547799 0.380316 0.24181
0.559426 0.381537 0.241611
0.569345 0.381338 0.241276
0.579171 0.381277 0.241291
0.588663 0.381155 0.241016
0.597436 0.380941 0.240497
0.174685 0.268666 0.2159
0.177691 0.276188 0.219501
0.182132 0.283726 0.222705
0.189914 0.291279 0.225528
0.203662 0.300267 0.229023
0.21857 0.308385 0.231922
0.236286 0.317403 0.235157
0.253437 0.325917 0.23769
0.270497 0.33341 0.239353
0.288518 0.341192 0.240482
0.306767 0.348348 0.24213
0.324468 0.354559 0.242939
0.34284 0.361074 0.243763
0.360464 0.366064 0.244205
0.378851 0.37145 0.244541
0.396841 0.37612 0.245335
0.413748 0.380041 0.245762
0.430411 0.384207 0.246586
0.446235 0.388052 0.247013
0.46247 0.391455 0.247196
0.477623 0.39443 0.247791
0.491722 0.39649 0.2477
0.50631 0.399466 0.247944
0.519493 0.401236 0.247883
0.532921 0.402853 0.247913
0.545953 0.404715 0.247318
0.557519 0.405249 0.24683
0.569589 0.406561 0.246479
0.581353 0.407584 0.246006
0.590951 0.407309 0.245182
0.601144 0.407813 0.244144
0.61088 0.408194 0.243275
0.618982 0.407462 0.243519
0.181903 0.290074 0.225727
0.18471 0.297887 0.228779
0.190631 0.305394 0.231449
0.200214 0.313893 0.234668
0.213275 0.322881 0.237766
0.230533 0.331899 0.239918
0.248234 0.340948 0.241978
0.266209 0.349294 0.243656
0.284596 0.357336 0.245899
0.303258 0.364996 0.247395
0.321859 0.371817 0.248295
0.341009 0.378882 0.248951
0.359365 0.384527 0.249653
0.378714 0.390341 0.251041
0.397253 0.395789 0.252064
0.414786 0.400305 0.252491
0.4327 0.404913 0.252628
0.449638 0.409232 0.253422
0.465934 0.412818 0.253346
0.481712 0.416144 0.253452
0.49662 0.419013 0.253086
0.511513 0.422263 0.252811
0.52607 0.424445 0.252262
0.539605 0.426261 0.251637
0.553216 0.428489 0.251255
0.565789 0.429786 0.251728
0.578546 0.430945 0.251972
0.590723 0.432029 0.251835
0.600885 0.432364 0.251804
0.611429 0.433097 0.251987
0.622065 0.433875 0.251942
0.630625 0.433097 0.251942
0.639704 0.433494 0.251606
0.188571 0.311421 0.234775
0.192309 0.319448 0.237659
0.197375 0.327321 0.239765
0.209384 0.336629 0.242374
0.223819 0.345418 0.244434
0.241047 0.354955 0.246677
0.260029 0.363897 0.248783
0.279133 0.37258 0.250477
0.298512 0.381064 0.251835
0.317388 0.388373 0.253071
0.337316 0.395895 0.25452
0.35758 0.403113 0.256062
0.376608 0.408881 0.256733
0.396094 0.414847 0.257115
0.414343 0.419623 0.257603
0.433036 0.424918 0.258518
0.450645 0.429404 0.259037
0.467353 0.433371 0.258671
0.484016 0.437293 0.258396
0.499489 0.440146 0.25742
0.515618 0.443305 0.258183
0.530571 0.44625 0.258747
0.544732 0.448371 0.258671
0.559274 0.451102 0.259205
0.572671 0.452903 0.259068
0.585519 0.454215 0.259297
0.598428 0.456153 0.259419
0.609018 0.456626 0.259113
0.619989 0.457649 0.258824
0.6309 0.458335 0.258274
0.640406 0.458625 0.257557
0.649836 0.459129 0.256931
0.659083 0.459449 0.256245
0.194614 0.332479 0.24271
0.198627 0.340734 0.2448
0.206668 0.349813 0.247166
0.216846 0.358267 0.249058
0.234104 0.36846 0.25127
0.252476 0.378042 0.25333
0.271641 0.38706 0.255009
0.291829 0.396017 0.25684
0.311803 0.403891 0.258198
0.332662 0.411872 0.259648
0.352972 0.419669 0.260792
0.372595 0.425727 0.261601
0.392767 0.432441 0.262577
0.4121 0.437964 0.263386
0.431327 0.443687 0.263661
0.449714 0.448661 0.263569
0.467079 0.452949 0.2636
0.48484 0.457465 0.264179
0.501747 0.461128 0.265141
0.517952 0.464546 0.265248
0.533776 0.467445 0.265538
0.548867 0.470359 0.265248
0.563638 0.472908 0.265415
0.577768 0.475105 0.266056
0.590631 0.476661 0.265949
0.603754 0.478798 0.265812
0.615473 0.480171 0.264973
0.62649 0.481071 0.264286
0.637491 0.482048 0.263554
0.647684 0.482872 0.26247
0.65742 0.483619 0.261433
0.667201 0.48423 0.260121
0.676387 0.484306 0.25893
0.200671 0.353307 0.249439
0.205066 0.362112 0.25156
0.213169 0.370733 0.25359
0.227329 0.380819 0.255924
0.24361 0.390692 0.25803
0.262898 0.400183 0.259739
0.283452 0.409659 0.261051
0.304738 0.418799 0.262959
0.32575 0.426902 0.264164
0.34699 0.435218 0.265431
0.367498 0.442023 0.266163
0.388388 0.449424 0.266926
0.409155 0.456031 0.26772
0.428153 0.461509 0.268528
0.447471 0.467124 0.269581
0.46598 0.471809 0.270344
0.484459 0.476493 0.271046
0.501976 0.480537 0.271611
0.518715 0.483818 0.27158
0.535515 0.487648 0.271977
0.55108 0.490517 0.272236
0.566476 0.493248 0.272129
0.581079 0.496315 0.271824
0.594156 0.497948 0.270832
0.607431 0.500603 0.270237
0.620035 0.502342 0.269383
0.63122 0.503594 0.268132
0.642802 0.505501 0.266712
0.653788 0.506798 0.265431
0.66363 0.507286 0.264912
0.67393 0.508202 0.264836
0.683604 0.508507 0.264393
0.692393 0.508751 0.264652
0.205951 0.373953 0.256489
0.212131 0.383429 0.258671
0.221439 0.392523 0.260136
0.235508 0.402823 0.261921
0.253819 0.41236 0.263508
0.273564 0.422766 0.265843
0.29572 0.43238 0.267582
0.317311 0.441001 0.268696
0.339361 0.449531 0.269856
0.360906 0.457176 0.270466
0.382818 0.464591 0.272435
0.404105 0.471778 0.273671
0.424002 0.477531 0.274601
0.444297 0.483879 0.275685
0.463783 0.489143 0.276448
0.482689 0.49398 0.27689
0.500847 0.498619 0.277623
0.518288 0.502449 0.277592
0.535958 0.506645 0.277592
0.552392 0.510094 0.277333
0.568002 0.513329 0.276539
0.583246 0.516564 0.275868
0.596933 0.519081 0.274891
0.609949 0.521263 0.274266
0.623178 0.52343 0.27425
0.634699 0.524575 0.273594
0.646586 0.52668 0.27335
0.658198 0.528222 0.273182
0.668391 0.528618 0.272755
0.679164 0.529809 0.272709
0.689586 0.530892 0.271901
0.698665 0.530755 0.271153
0.707469 0.531502 0.270832
0.211826 0.394263 0.262852
0.2168 0.403433 0.26424
0.229297 0.413764 0.266239
0.244556 0.423819 0.268269
0.263416 0.434012 0.270222
0.285206 0.444083 0.271443
0.307591 0.453452 0.272801
0.33051 0.46247 0.274586
0.353475 0.471534 0.276661
0.375525 0.47892 0.277745
0.397711 0.486686 0.279164
0.418601 0.493111 0.279774
0.439887 0.50013 0.281254
0.460212 0.505959 0.282277
0.479408 0.510765 0.282307
0.498772 0.515801 0.282628
0.517082 0.52015 0.282063
0.535042 0.524239 0.281819
0.552041 0.52813 0.281437
0.568093 0.531395 0.281559
0.583703 0.534783 0.281651
0.59791 0.53785 0.281132
0.611749 0.540078 0.280629
0.62533 0.542626 0.280491
0.637583 0.544396 0.280079
0.649546 0.546227 0.279301
0.661814 0.548318 0.278645
0.672709 0.549233 0.277882
0.68365 0.550759 0.27718
0.694499 0.552209 0.276371
0.703822 0.552544 0.275349
0.713024 0.553582 0.274556
0.721935 0.554299 0.273716
0.216861 0.413642 0.26862
0.224735 0.424048 0.270665
0.235248 0.434577 0.272175
0.253468 0.444602 0.273747
0.273884 0.455451 0.275746
0.297215 0.465705 0.277775
0.320851 0.475151 0.279698
0.344121 0.484123 0.281041
0.366827 0.491981 0.282597
0.389929 0.500114 0.284108
0.412116 0.507591 0.285344
0.433753 0.514336 0.286427
0.454719 0.520684 0.286854
0.474632 0.525917 0.286458
0.494697 0.531624 0.286458
0.513878 0.536492 0.286931
0.53254 0.540703 0.287434
0.550271 0.545449 0.287861
0.567056 0.549508 0.28748
0.583169 0.552911 0.287343
0.598291 0.556085 0.287388
0.6121 0.558511 0.286381
0.626062 0.561379 0.285634
0.63917 0.563745 0.284977
0.65156 0.565255 0.283619
0.664424 0.567224 0.282979
0.67602 0.568887 0.282109
0.686732 0.56997 0.281117
0.697902 0.571618 0.279957
0.707897 0.572534 0.278721
0.717174 0.57319 0.277943
0.726223 0.574151 0.277073
0.734707 0.574685 0.276326
0.221653 0.433845 0.274479
0.230228 0.444221 0.276463
0.244144 0.454398 0.278157
0.261051 0.464942 0.280217
0.285756 0.47602 0.28246
0.309194 0.485359 0.28426
0.333791 0.495109 0.28629
0.357382 0.503731 0.287556
0.38088 0.512184 0.289006
0.404807 0.520668 0.289952
0.426551 0.527581 0.290227
0.448508 0.53489 0.290562
0.469612 0.541238 0.291386
0.489906 0.546792 0.291798
0.510079 0.552239 0.292775
0.528862 0.556817 0.292668
0.547509 0.561547 0.293141
0.564523 0.565637 0.29337
0.581308 0.5691 0.293263
0.596933 0.572442 0.292912
0.611429 0.57525 0.291814
0.625971 0.57792 0.29012
0.639689 0.58056 0.288991
0.65275 0.582391 0.287953
0.665888 0.584604 0.286519
0.678264 0.586679 0.2851
0.689311 0.588159 0.283467
0.700572 0.589944 0.283314
0.71165 0.591836 0.283879
0.720684 0.592493 0.284169
0.729778 0.593378 0.284703
0.73872 0.594308 0.28423
0.747326 0.595376 0.284443
0.228 0.45301 0.280293
0.236469 0.463111 0.281987
0.251789 0.474266 0.284779
0.272557 0.485084 0.287236
0.29604 0.495293 0.289158
0.321523 0.505333 0.290852
0.34696 0.515084 0.29189
0.371939 0.524132 0.2934
0.396643 0.532601 0.294102
0.419043 0.540063 0.294743
0.441047 0.547524 0.295735
0.462776 0.553964 0.29633
0.483818 0.560098 0.296986
0.504387 0.565881 0.297627
0.524132 0.57113 0.298436
0.543313 0.576196 0.298512
0.560906 0.580377 0.298344
0.578134 0.584024 0.297597
0.594873 0.588006 0.296651
0.610162 0.591287 0.295293
0.624949 0.594232 0.293324
0.639597 0.597025 0.291661
0.653559 0.599313 0.291341
0.666972 0.601724 0.290257
0.679988 0.604242 0.290425
0.691203 0.60589 0.290517
0.702754 0.607752 0.291218
0.713909 0.609506 0.291508
0.723079 0.610361 0.291051
0.732601 0.611643 0.291264
0.741817 0.613031 0.291234
0.750484 0.613535 0.290898
0.759045 0.61416 0.290593
0.23209 0.472343 0.287175
0.24416 0.482673 0.289372
0.259556 0.493187 0.29131
0.28304 0.503685 0.293111
0.308339 0.514199 0.295018
0.335119 0.524712 0.296834
0.360555 0.533806 0.297749
0.386435 0.543069 0.298894
0.410559 0.551431 0.299458
0.433158 0.559014 0.299962
0.45594 0.566522 0.301335
0.47744 0.572641 0.301839
0.498604 0.579049 0.302617
0.518807 0.584894 0.303075
0.538323 0.589929 0.302464
0.557412 0.59469 0.302159
0.575067 0.599237 0.301305
0.591806 0.602625 0.299687
0.607797 0.605997 0.298848
0.623316 0.609171 0.297795
0.638865 0.612207 0.297902
0.652964 0.61474 0.298589
0.666712 0.617258 0.298421
0.680385 0.619791 0.29836
0.692149 0.622019 0.298909
0.703441 0.623545 0.298085
0.71487 0.625681 0.29778
0.725246 0.627436 0.297322
0.734447 0.628321 0.296757
0.744137 0.630091 0.296132
0.753292 0.631067 0.295048
0.761807 0.631983 0.294453
0.77023 0.632944 0.293645
0.238499 0.489662 0.293462
0.249485 0.500481 0.29575
0.27129 0.511849 0.297902
0.294759 0.522438 0.299611
0.322133 0.533181 0.300771
0.348562 0.542794 0.301762
0.375158 0.552728 0.303258
0.400732 0.561975 0.304509
0.424399 0.570077 0.305364
0.44773 0.577874 0.30634
0.470008 0.584558 0.306523
0.491783 0.591196 0.306538
0.512734 0.596857 0.306538
0.533318 0.602579 0.306325
0.552651 0.607416 0.305425
0.570916 0.611734 0.305287
0.588479 0.615778 0.30428
0.605158 0.619608 0.304631
0.621668 0.62327 0.305226
0.637507 0.626673 0.30486
0.652049 0.629511 0.305241
0.666072 0.63212 0.30457
0.6804 0.635019 0.30425
0.692714 0.637537 0.304112
0.704128 0.63949 0.303181
0.715633 0.641855 0.302266
0.726238 0.64387 0.301427
0.735943 0.64509 0.300114
0.74583 0.646754 0.299214
0.755383 0.648173 0.29807
0.763821 0.648707 0.297276
0.772549 0.649744 0.29749
0.780728 0.65037 0.297978
0.244221 0.50753 0.300206
0.260136 0.519051 0.302159
0.281743 0.530007 0.303578
0.308766 0.541131 0.305196
0.335576 0.551415 0.306798
0.362676 0.561151 0.308125
0.390021 0.571237 0.309819
0.414221 0.579095 0.309773
0.438315 0.587472 0.310262
0.461494 0.594842 0.310689
0.48368 0.60148 0.310445
0.505806 0.607996 0.31046
0.527047 0.614008 0.310658
0.546975 0.619196 0.309972
0.56585 0.624216 0.31046
0.583825 0.628351 0.310155
0.60148 0.632731 0.310689
0.61854 0.636866 0.311208
0.634897 0.640223 0.310307
0.650217 0.643793 0.310262
0.664912 0.646952 0.310002
0.679316 0.649485 0.309392
0.692042 0.652003 0.308843
0.703822 0.654246 0.307561
0.715419 0.656336 0.305959
0.726436 0.658427 0.304707
0.736584 0.659663 0.304677
0.746654 0.661524 0.305653
0.756619 0.662959 0.306706
0.765393 0.663905 0.307103
0.774289 0.665141 0.307576
0.783154 0.665843 0.308827
0.791409 0.666667 0.308919
0.250034 0.524849 0.306722
0.270878 0.536019 0.308202
0.29453 0.547478 0.309957
0.322545 0.558572 0.311192
0.350439 0.568872 0.312703
0.378576 0.579171 0.313832
0.404013 0.588251 0.314702
0.428046 0.596399 0.314839
0.452018 0.604334 0.314961
0.47509 0.611383 0.314229
0.498207 0.61854 0.315206
0.51989 0.624964 0.315541
0.540871 0.630915 0.315343
0.560098 0.635843 0.316014
0.578927 0.640833 0.316152
0.597238 0.644907 0.315999
0.614466 0.648936 0.31606
0.631281 0.652964 0.315908
0.646815 0.656291 0.315389
0.662028 0.659693 0.314778
0.676875 0.662593 0.313207
0.690379 0.665461 0.311925
0.702693 0.66804 0.312001
0.71429 0.669993 0.312322
0.726207 0.672328 0.313436
0.736675 0.674022 0.314656
0.74699 0.67538 0.314855
0.757443 0.677287 0.315724
0.766857 0.678706 0.316258
0.775677 0.679896 0.316732
0.784756 0.681163 0.317388
0.793362 0.682078 0.316899
0.801022 0.68278 0.316213
0.261311 0.541665 0.312261
0.280278 0.553185 0.314031
0.308461 0.565026 0.315831
0.336522 0.575967 0.317418
0.364996 0.586587 0.318685
0.392523 0.596536 0.319005
0.417746 0.604547 0.318837
0.442664 0.613001 0.319554
0.46714 0.620706 0.320714
0.489662 0.627588 0.32108
0.511803 0.634241 0.321294
0.533028 0.64036 0.320729
0.553353 0.645884 0.320943
0.573159 0.651072 0.321523
0.591745 0.655894 0.320989
0.609384 0.660533 0.320668
0.62681 0.664775 0.319905
0.643137 0.668528 0.318273
0.659068 0.672175 0.318517
0.674098 0.675639 0.318944
0.688304 0.678721 0.319387
0.700816 0.6813 0.320531
0.712963 0.683513 0.320943
0.725521 0.685939 0.32166
0.736446 0.687922 0.322744
0.746975 0.689281 0.323369
0.757794 0.691264 0.324269
0.767651 0.692653 0.324849
0.776822 0.693523 0.324605
0.785855 0.694896 0.324285
0.794614 0.696178 0.323812
0.802121 0.696605 0.323033
0.80972 0.69752 0.322179
0.270863 0.558801 0.318822
0.295171 0.570703 0.321096
0.322499 0.582071 0.322377
0.351263 0.592355 0.323217
0.379736 0.602655 0.324392
0.405661 0.611383 0.324819
0.432334 0.620386 0.325887
0.457023 0.628428 0.32639
0.480751 0.635828 0.325994
0.503532 0.642878 0.326177
0.526024 0.649775 0.326162
0.547066 0.655695 0.326146
0.566949 0.661357 0.325689
0.586267 0.666758 0.324498
0.604105 0.671366 0.32343
0.622339 0.676143 0.323629
0.639307 0.680339 0.324056
0.65539 0.684077 0.325505
0.67068 0.687419 0.326802
0.685817 0.690593 0.327047
0.698848 0.693019 0.327962
0.711666 0.695674 0.329381
0.723964 0.697749 0.330053
0.735592 0.699702 0.33106
0.746548 0.701717 0.331792
0.757473 0.703258 0.331334
0.767987 0.704967 0.331838
0.77705 0.706508 0.331304
0.786053 0.707851 0.33077
0.795148 0.709514 0.329809
0.802899 0.710384 0.328481
0.810697 0.711208 0.328435
0.818418 0.711894 0.328283
0.28217 0.57525 0.325444
0.309346 0.587167 0.327398
0.336675 0.59765 0.328511
0.365728 0.608255 0.330037
0.393896 0.618051 0.330556
0.420539 0.627054 0.330983
