luts/Natures Glory5600K_GY_Corr709_65.cube
TITLE "Generated by Resolve"
LUT_3D_SIZE 17
0 0 0
0.0530709 0 0
0.0844587 0 0
0.124132 0 0
0.177615 0 0
0.242496 0 0
0.311559 0 0
0.389624 0 0
0.477394 0 0
0.573816 0 0
0.678126 0 0
0.786908 0 0
0.900023 0 0
1 0 0
1 0 0
1 0 0
1 0 0
0 0.0270695 0
0.0491798 0.0201114 0
0.0903792 0.0166476 0
0.139116 0.0116121 0
0.199084 0.00320439 0
0.264439 0 0
0.336385 0 0
0.417258 0 0
0.507179 0 0
0.604959 0 0
0.708583 0 0
0.815686 0 0
0.92604 0 0
1 0 0
1 0 0
1 0 0
1 0 0
0 0.0468757 0
0.0467384 0.0401007 0
0.119081 0.0333867 0
0.175662 0.0261692 0
0.232944 0.0161746 0
0.299351 0.00146487 0
0.373053 0 0
0.455375 0 0
0.545708 0 0
0.642802 0 0
0.745357 0 0
0.850095 0 0
0.956069 0 0
1 0 0
1 0 0
1 0 0
1 0 0
0 0.0715038 0
0.0417029 0.0653239 0
0.119066 0.0578164 0
0.212772 0.0436408 0
0.278386 0.0299992 0
0.346288 0.0126802 0
0.421332 0 0
0.504646 0 0
0.596002 0 0
0.690776 0 0
0.791119 0 0
0.892164 0 0
0.992172 0 0
1 0 0
1 0 0
1 0 0
1 0 0
0 0.102251 0
0.0286107 0.0970016 0
0.108248 0.0898909 0
0.211078 0.074876 0
0.327306 0.0485237 0
0.404883 0.0251621 0
0.481392 0 0
0.565332 0 0
0.654444 0 0
0.747433 0 0
0.844053 0 0
0.939635 0 0
1 0 0
1 0 0
1 0 0
1 0 0
1 0 0
0 0.134905 0
0.00973526 0.1308 0
0.0933852 0.124788 0
0.203357 0.112428 0
0.324239 0.0887007 0
0.466423 0.0424048 0
0.554101 0.00573739 0
0.635859 0 0
0.722469 0 0
0.8121 0 0
0.903304 0 0
0.99144 0 0
1 0 0
1 0 0
1 0 0
1 0 0
1 0 0
0 0.164706 0
0 0.161181 0
0.0767834 0.155825 0
0.196902 0.145113 0
0.321889 0.124895 0
0.465003 0.0851911 0
0.618372 0.0167849 0
0.711208 0 0
0.795178 0 0
0.879728 0 0
0.963287 0 0
1 0 0
1 0 0
1 0 0
1 0 0
1 0 0
1 0 0
0 0.191516 0
0 0.189593 0
0.0584115 0.185946 0
0.18735 0.178286 0
0.315358 0.163561 0
0.459174 0.134813 0
0.614176 0.0800183 0
0.774701 0 0
0.868849 0 0
0.945998 0 0
1 0 0
1 0 0
1 0 0
1 0 0
1 0 0
1 0 0
1 0 0
0 0.216007 0
0 0.21677 0
0.032639 0.216281 0
0.17174 0.213001 0
0.305135 0.204623 0
0.451621 0.18645 0
0.607477 0.153384 0
0.769451 0.0927138 0
0.92372 0 0
1 0 0
1 0 0
1 0 0
1 0 0
1 0 0
1 0 0
1 0 0
1 0 0
0 0.256458 0
0 0.258824 0
0 0.260029 0
0.14313 0.25951 0
0.28777 0.255268 0
0.439017 0.243717 0
0.598169 0.22211 0
0.761425 0.185504 0
0.916243 0.130983 0
1 0.0529641 0
1 0 0
1 0 0
1 0 0
1 0 0
1 0 0
1 0 0
1 0 0
0 0.324346 0
0 0.327092 0
0 0.328771 0
0.0650797 0.329397 0
0.250278 0.327184 0
0.414679 0.319417 0
0.581308 0.304295 0
0.74725 0.27982 0
0.904677 0.245472 0
1 0.205982 0
1 0.169024 0
1 0.139574 0
1 0.110552 0
1 0.0774243 0
1 0.041886 0
1 0.00276188 0
1 0 0
0 0.405936 0
0 0.408896 0
0 0.410956 0
0 0.412451 0
0.181872 0.411795 0
0.37554 0.406775 0
0.55436 0.396353 0
0.726879 0.379202 0
0.887053 0.355871 0
1 0.331151 0
1 0.310155 0
1 0.296284 0
1 0.285389 0
1 0.273686 0
1 0.261555 0
1 0.249149 0
1 0.248295 0
0 0.505592 0
0 0.508583 0
0 0.510948 0
0 0.512993 0
0.00561532 0.513069 0
0.303227 0.510552 0
0.507958 0.503532 0
0.692683 0.490974 0
0.858717 0.475074 0
0.996918 0.458076 0
1 0.444327 0
1 0.436805 0
1 0.434882 0
1 0.430976 0
1 0.424689 0
1 0.420447 0
1 0.41973 0
0 0.634882 0
0 0.637659 0
0 0.640055 0
0 0.642222 0
0 0.642832 0
0.124056 0.64155 0
0.421866 0.63624 0
0.631922 0.627726 0
0.810651 0.615808 0
0.954894 0.604334 0
1 0.594934 0
1 0.589578 0
1 0.588952 0
1 0.592294 0
1 0.591699 0
1 0.59086 0
1 0.589502 0
0 0.824643 0
0 0.826581 0
0 0.82829 0
0 0.82916 0
0 0.829709 0
0 0.827848 0
0.158633 0.823896 0
0.494926 0.816632 0
0.70985 0.807172 0
0.872236 0.798138 0
0.99147 0.790387 0
1 0.785077 0
1 0.783719 0
1 0.785092 0
1 0.790173 0
1 0.793347 0
1 0.792325 0
0 1 0
0 1 0
0 1 0
0 1 0
0 1 0
0 1 0
0 1 0
0 1 0
0.454871 1 0
0.685939 1 0
0.837339 1 0
0.938231 1 0
1 1 0
1 1 0
1 1 0
1 1 0
1 1 0
0 1 0
0 1 0
0 1 0
0 1 0
0 1 0
0 1 0
0 1 0
0 1 0
0.37673 1 0
0.637629 1 0
0.796689 1 0
0.902815 1 0
0.971099 1 0
1 1 0
1 1 0
1 1 0
1 1 0
0 0 0.0258183
0.0467231 0 0.0235294
0.0749828 0 0.0218204
0.113115 0 0.0192874
0.161959 0 0.0136568
0.221866 0 0.00259403
0.289952 0 0
0.368551 0 0
0.45771 0 0
0.56141 0 0
0.668116 0 0
0.780972 0 0
0.897368 0 0
1 0 0
1 0 0
1 0 0
1 0 0
0 0.0217288 0.0174258
0.0160067 0.0152743 0.0150912
0.0476387 0.0123751 0.0132753
0.0912337 0.00852979 0.00962844
0.151858 0.00198367 0.000488289
0.222446 0 0
0.301274 0 0
0.390021 0 0
0.489616 0 0
0.592203 0 0
0.699107 0 0
0.810925 0 0
0.923445 0 0
1 0 0
1 0 0
1 0 0
1 0 0
0 0.0423133 0.0103456
0.00695811 0.0355077 0.00793469
0.0698253 0.0299535 0.00384527
0.125811 0.0245975 0
0.187839 0.0164187 0
0.260563 0.00354009 0
0.34107 0 0
0.431586 0 0
0.532723 0 0
0.631525 0 0
0.737774 0 0
0.84625 0 0
0.953674 0 0
1 0 0
1 0 0
1 0 0
1 0 0
0 0.0697185 0
0 0.0626993 0
0.06598 0.0566415 0
0.166262 0.0452888 0
0.236591 0.0335088 0
0.311299 0.0173495 0
0.393927 0 0
0.486442 0 0
0.582925 0 0
0.68101 0 0
0.784543 0 0
0.889632 0 0
0.989868 0 0
1 0 0
1 0 0
1 0 0
1 0 0
0 0.104738 0
0 0.0977493 0
0.0579385 0.0918898 0
0.169909 0.0789197 0
0.293553 0.0547494 0
0.376349 0.0321202 0
0.461585 0.00315862 0
0.551415 0 0
0.643442 0 0
0.739635 0 0
0.839902 0 0
0.937453 0 0
1 0 0
1 0 0
1 0 0
1 0 0
1 0 0
0 0.140093 0
0 0.133623 0
0.0510567 0.128313 0
0.172259 0.116945 0
0.300053 0.0946059 0
0.449226 0.0484932 0
0.539132 0.0116732 0
0.623713 0 0
0.714244 0 0
0.807401 0 0
0.900755 0 0
0.989258 0 0
1 0 0
1 0 0
1 0 0
1 0 0
1 0 0
0 0.168841 0
0 0.164126 0
0.0491188 0.158846 0
0.179614 0.147768 0
0.307942 0.128328 0
0.452369 0.0902266 0
0.608179 0.0223087 0
0.70338 0 0
0.790494 0 0
0.876905 0 0
0.961303 0 0
1 0 0
1 0 0
1 0 0
1 0 0
1 0 0
1 0 0
0 0.193378 0
0 0.191241 0
0.0402991 0.187869 0
0.17293 0.180194 0
0.30428 0.165637 0
0.450858 0.137255 0
0.608255 0.0824292 0
0.771893 0 0
0.866438 0 0
0.944198 0 0
1 0 0
1 0 0
1 0 0
1 0 0
1 0 0
1 0 0
1 0 0
0 0.216968 0
0 0.217609 0
0.021561 0.21709 0
0.163516 0.213718 0
0.299504 0.204929 0
0.447868 0.186557 0
0.605814 0.152804 0
0.767803 0.0919203 0
0.92253 0 0
1 0 0
1 0 0
1 0 0
1 0 0
1 0 0
1 0 0
1 0 0
1 0 0
0 0.255604 0
0 0.257877 0
0 0.258961 0
0.140032 0.258473 0
0.285618 0.254261 0
0.437522 0.242771 0
0.596567 0.221195 0
0.759854 0.184405 0
0.915557 0.129244 0
1 0.0505989 0
1 0 0
1 0 0
1 0 0
1 0 0
1 0 0
1 0 0
1 0 0
0 0.323537 0
0 0.326314 0
0 0.327672 0
0.061326 0.328328 0
0.248951 0.326146 0
0.413245 0.318776 0
0.579751 0.303197 0
0.746777 0.278492 0
0.904051 0.244007 0
1 0.205035 0
1 0.166781 0
1 0.137301 0
1 0.107286 0
1 0.0734417 0
1 0.0378882 0
1 0 0
1 0 0
0 0.404974 0
0 0.407996 0
0 0.409781 0
0 0.411307 0
0.178958 0.410681 0
0.372763 0.406149 0
0.552804 0.39527 0
0.725338 0.378134 0
0.885679 0.354742 0
1 0.330159 0
1 0.308507 0
1 0.294377 0
1 0.28333 0
1 0.272236 0
1 0.260044 0
1 0.24744 0
1 0.245945 0
0 0.504112 0
0 0.507134 0
0 0.509529 0
0 0.511604 0
0.00230411 0.511711 0
0.301778 0.509209 0
0.506508 0.50222 0
0.691249 0.489662 0
0.85745 0.473716 0
0.996582 0.45655 0
1 0.442618 0
1 0.434928 0
1 0.433112 0
1 0.429129 0
1 0.422782 0
1 0.418448 0
1 0.417716 0
0 0.633204 0
0 0.636011 0
0 0.638422 0
0 0.640208 0
0 0.641276 0
0.119554 0.64004 0
0.420493 0.63473 0
0.63061 0.62623 0
0.809445 0.61445 0
0.954894 0.602243 0
1 0.59324 0
1 0.587854 0
1 0.587198 0
1 0.590539 0
1 0.589853 0
1 0.588983 0
1 0.587625 0
0 0.822309 0
0 0.824292 0
0 0.825437 0
0 0.826932 0
0 0.827527 0
0 0.825696 0
0.158114 0.821775 0
0.494362 0.814389 0
0.710185 0.805035 0
0.872892 0.795392 0
0.991653 0.78764 0
1 0.782879 0
1 0.781369 0
1 0.782773 0
1 0.788006 0
1 0.79115 0
1 0.789975 0
0 1 0
0 1 0
0 1 0
0 1 0
0 1 0
0 1 0
0 1 0
0 1 0
0.45478 1 0
0.68748 1 0
0.838117 1 0
0.939513 1 0
1 1 0
1 1 0
1 1 0
1 1 0
1 1 0
0 1 0
0 1 0
0 1 0
0 1 0
0 1 0
0 1 0
0 1 0
0 1 0
0.372442 1 0
0.635309 1 0
0.796033 1 0
0.901961 1 0
0.97084 1 0
1 1 0
1 1 0
1 1 0
1 1 0
0 0 0.0479133
0.0476844 0 0.0455634
0.0758526 0 0.0437018
0.113664 0 0.0410925
0.161975 0 0.0374304
0.221775 0 0.0328985
0.289067 0 0.026978
0.365347 0 0.0194858
0.450538 0 0.010193
0.545281 0 0
0.650004 0 0
0.761563 0 0
0.886259 0 0
1 0 0
1 0 0
1 0 0
1 0 0
0 0.0173495 0.0392462
0.0137636 0.0106508 0.0369268
0.0415656 0.00827039 0.0349279
0.0831311 0.00459297 0.0323186
0.139162 0 0.028809
0.204395 0 0.0242008
0.275532 0 0.0182345
0.354498 0 0.0106813
0.442298 0 0.0012665
0.547311 0 0
0.666224 0 0
0.792065 0 0
0.913451 0 0
1 0 0
1 0 0
1 0 0
1 0 0
0 0.0390631 0.0344396
0.00209049 0.0325322 0.0319677
0.0302434 0.0301061 0.0301213
0.075288 0.0259251 0.0274815
0.139651 0.0188144 0.0238346
0.212436 0.00733959 0.0189364
0.292622 0 0.0122072
0.381781 0 0.00291447
0.480446 0 0
0.588739 0 0
0.707622 0 0
0.831922 0 0
0.94461 0 0
1 0 0
1 0 0
1 0 0
1 0 0
0 0.0678874 0.0256657
0 0.0613718 0.0236667
0.0207828 0.0578927 0.0218967
0.113146 0.0486763 0.0188296
0.185214 0.0385901 0.0149081
0.259525 0.0241855 0.00979629
0.342077 0.0037232 0.0010071
0.432624 0 0
0.533043 0 0
0.642618 0 0
0.760815 0 0
0.877211 0 0
0.98233 0 0
1 0 0
1 0 0
1 0 0
1 0 0
0 0.104845 0.0158846
0 0.0993362 0.0140078
0.0077821 0.0951095 0.012253
0.111727 0.0850233 0.00921645
0.239521 0.0641337 0.0030518
0.320211 0.0451667 0
0.40473 0.0196384 0
0.496986 0 0
0.599496 0 0
0.708827 0 0
0.824613 0 0
0.927687 0 0
1 0 0
1 0 0
1 0 0
1 0 0
1 0 0
0 0.142824 0.00508125
0 0.138201 0.00294499
0 0.133928 0
0.106249 0.125261 0
0.241535 0.107713 0
0.38909 0.0703899 0
0.482063 0.0369116 0
0.576318 0 0
0.679316 0 0
0.787121 0 0
0.889342 0 0
0.982422 0 0
1 0 0
1 0 0
1 0 0
1 0 0
1 0 0
0 0.176699 0
0 0.172274 0
0 0.168017 0
0.10486 0.159808 0
0.246769 0.144152 0
0.398444 0.112734 0
0.562417 0.0495766 0
0.667918 0 0
0.768887 0 0
0.864408 0 0
0.952895 0 0
1 0 0
1 0 0
1 0 0
1 0 0
1 0 0
1 0 0
0 0.204395 0
0 0.20061 0
0 0.197574 0
0.108675 0.191043 0
0.256748 0.177813 0
0.412177 0.151217 0
0.57966 0.0997024 0
0.755077 0.00344854 0
0.853971 0 0
0.935744 0 0
1 0 0
1 0 0
1 0 0
1 0 0
1 0 0
1 0 0
1 0 0
0 0.224201 0
0 0.223713 0
0 0.223316 0
0.12047 0.22002 0
0.271672 0.2112 0
0.43032 0.191608 0
0.591287 0.158602 0
0.756619 0.0990158 0
0.915251 0.00196841 0
1 0 0
1 0 0
1 0 0
1 0 0
1 0 0
1 0 0
1 0 0
1 0 0
0 0.257694 0
0 0.259388 0
0 0.260624 0
0.118029 0.260334 0
0.271092 0.255863 0
0.425849 0.244816 0
0.588296 0.222965 0
0.754879 0.185412 0
0.914122 0.127977 0
1 0.0481422 0
1 0 0
1 0 0
1 0 0
1 0 0
1 0 0
1 0 0
1 0 0
0 0.323812 0
0 0.326177 0
0 0.327871 0
0.0469215 0.328435 0
0.240375 0.32607 0
0.408988 0.317891 0
0.57818 0.302205 0
0.745205 0.27747 0
0.902663 0.242741 0
1 0.20264 0
1 0.164523 0
1 0.13463 0
1 0.104417 0
1 0.0694438 0
1 0.0338598 0
1 0 0
1 0 0
0 0.403891 0
0 0.406394 0
0 0.408484 0
0 0.410056 0
0.176501 0.409476 0
0.371618 0.404944 0
0.551293 0.394095 0
0.723629 0.376959 0
0.884352 0.35346 0
1 0.328588 0
1 0.306783 0
1 0.292546 0
1 0.281254 0
1 0.270069 0
1 0.257893 0
1 0.24509 0
1 0.243381 0
0 0.502617 0
0 0.505684 0
0 0.508095 0
0 0.510231 0
0 0.510246 0
0.299535 0.507774 0
0.50515 0.500786 0
0.689815 0.48835 0
0.856992 0.472282 0
0.995605 0.4551 0
1 0.44097 0
1 0.432761 0
1 0.431357 0
1 0.427237 0
1 0.420844 0
1 0.416266 0
1 0.414801 0
0 0.631098 0
0 0.633921 0
0 0.636362 0
0 0.638621 0
0 0.639704 0
0.119936 0.637934 0
0.41912 0.633219 0
0.629572 0.624292 0
0.809369 0.612848 0
0.95407 0.600671 0
1 0.590921 0
1 0.585641 0
1 0.584787 0
1 0.588129 0
1 0.587488 0
1 0.58645 0
1 0.585779 0
0 0.819364 0
0 0.821408 0
0 0.823148 0
0 0.824704 0
0 0.824735 0
0 0.82356 0
0.159289 0.819074 0
0.493645 0.812284 0
0.709651 0.802777 0
0.872602 0.793118 0
0.992203 0.785443 0
1 0.780667 0
1 0.779171 0
1 0.780026 0
1 0.78587 0
1 0.788403 0
1 0.787823 0
0 1 0
0 1 0
0 1 0
0 1 0
0 1 0
0 1 0
0 1 0
0 1 0
0.456779 1 0
0.688838 1 0
0.839323 1 0
0.940856 1 0
1 1 0
1 1 0
1 1 0
1 1 0
1 1 0
0 1 0
0 1 0
0 1 0
0 1 0
0 1 0
0 1 0
0 1 0
0 1 0
0.370031 1 0
0.634012 1 0
0.795377 1 0
0.901549 1 0
0.970367 1 0
1 1 0
1 1 0
1 1 0
1 1 0
0 0 0.0823987
0.0486458 0 0.079469
0.076585 0 0.0771801
0.114046 0 0.0742351
0.16231 0 0.0702068
0.221607 0 0.0648966
0.288777 0 0.0581064
0.364828 0 0.0501869
0.450095 0 0.0408484
0.544106 0 0.0293431
0.649027 0 0.0147097
0.759701 0 0
0.87631 0 0
0.998795 0 0
1 0 0
1 0 0
1 0 0
0 0.00910964 0.0725261
0.0124514 0.00183108 0.0699016
0.040238 0 0.0675517
0.0814069 0 0.0646983
0.138079 0 0.0607462
0.203296 0 0.0554055
0.274723 0 0.0487678
0.353796 0 0.0409247
0.44097 0 0.0318456
0.537209 0 0.0201114
0.642924 0 0.00560006
0.754681 0 0
0.872053 0 0
1 0 0
1 0 0
1 0 0
