luts/Natures Glory5600K_GY_Corr709_65.cube
TITLE "Generated by Resolve"
LUT_3D_SIZE 5
0 0 0
0.177615 0 0
0.477394 0 0
0.900023 0 0
1 0 0
0 0.102251 0
0.327306 0.0485237 0
0.654444 0 0
1 0 0
1 0 0
0 0.216007 0
0.305135 0.204623 0
0.92372 0 0
1 0 0
1 0 0
0 0.505592 0
0.00561532 0.513069 0
0.858717 0.475074 0
1 0.434882 0
1 0.41973 0
0 1 0
0 1 0
0.37673 1 0
0.971099 1 0
1 1 0
0 0 0.131792
0.162249 0 0.120348
0.449424 0 0.0895552
0.875578 0 0.018265
1 0 0
0 0.10457 0.10013
0.09131 0.0868544 0.0872816
0.450843 0.00355535 0.0503548
0.924971 0 0
1 0 0
0 0.265721 0.00784314
0.0130007 0.255818 0
0.760494 0.148089 0
1 0 0
1 0 0
0 0.519615 0
0 0.526009 0
0.807874 0.483207 0
1 0.425788 0
1 0.40766 0
0 1 0
0 1 0
0.35874 1 0
0.969299 1 0
1 1 0
0 0 0.4094
0.124376 0 0.400946
0.42948 0 0.380468
0.862043 0 0.338689
1 0 0.26479
0 0 0.39202
0.0411383 0 0.3832
0.407263 0 0.362188
0.853025 0 0.319387
1 0 0.24181
0 0.339712 0.342275
0 0.333654 0.333059
0.313695 0.308156 0.308995
0.840223 0.191501 0.25684
1 0 0.15848
0 0.6336 0.0732128
0 0.627634 0.0577096
0.0641337 0.611521 0.0259098
1 0.561807 0
1 0.494163 0
0 1 0
0 1 0
0 1 0
0.780789 1 0
1 1 0
0 0 0.809461
0 0 0.802823
0.368902 0 0.786374
0.827832 0 0.756619
1 0 0.708553
0 0 0.797223
0 0 0.790448
0.349493 0 0.773938
0.821469 0 0.744106
1 0 0.695491
0 0.161898 0.764981
0 0.151354 0.757977
0.251301 0.107179 0.74165
0.788708 0 0.710811
1 0 0.660243
0 0.683177 0.691539
0 0.680308 0.68397
0 0.66949 0.66537
0.635508 0.629114 0.629297
1 0.53341 0.573571
0 1 0
0 1 0
0 1 0
0.142321 1 0
1 1 0.237583
0 0 1
0 0 1
0.273045 0 1
0.778347 0 1
1 0 1
0 0 1
0 0 1
0.267002 0 1
0.778286 0 1
1 0 1
0 0 1
0 0 1
0.135744 0 1
0.746303 0 1
1 0 1
0 0.556573 1
0 0.552254 1
0 0.53669 1
0.586069 0.483513 1
1 0.34342 1
0 1 1
0 1 1
0 1 1
0 1 1
1 1 1
