luts/Natural.cube
TITLE "Generated by Resolve"
LUT_3D_SIZE 9
0.000381476 0.0291142 0.0178988
0.115297 0.0222782 0.00634775
0.243473 0.0231174 0.00708019
0.376364 0.0287938 0.0129091
0.504234 0.0392615 0.0236667
0.603708 0.0519112 0.0369421
0.685969 0.0664988 0.0524147
0.758007 0.0823835 0.0691691
0.827314 0.09897 0.0877394
0.00914015 0.145815 0.0566567
0.105928 0.151293 0.0127108
0.267338 0.141802 0.0247959
0.407614 0.146975 0.0432898
0.529961 0.155932 0.0602884
0.621408 0.164508 0.073579
0.699474 0.172381 0.0877394
0.769711 0.179416 0.101823
0.840833 0.187594 0.11722
0.0298161 0.28043 0.109483
0.093843 0.295171 0.0499733
0.288975 0.284199 0.0429389
0.434119 0.281285 0.0634012
0.548455 0.282994 0.0946059
0.641352 0.28275 0.115038
0.72224 0.282567 0.132219
0.79556 0.284566 0.146304
0.869169 0.290318 0.15993
0.0626078 0.413306 0.163256
0.098146 0.428717 0.109529
0.209522 0.442557 0.092546
0.432898 0.415427 0.0888685
0.562127 0.408301 0.110033
0.647761 0.404654 0.138369
0.728145 0.40293 0.158129
0.80911 0.403769 0.176699
0.89276 0.406912 0.196185
0.097612 0.521614 0.213352
0.123903 0.533623 0.181125
0.200015 0.548608 0.143145
0.30811 0.561425 0.134066
0.547234 0.527459 0.134112
0.660471 0.522332 0.15201
0.745159 0.521843 0.177356
0.825528 0.524727 0.201648
0.908995 0.528771 0.224018
0.127916 0.613733 0.260258
0.146593 0.622858 0.240192
0.186297 0.64213 0.187015
0.303487 0.654749 0.178927
0.419547 0.664805 0.171649
0.652049 0.631128 0.175067
0.759228 0.628977 0.192508
0.848203 0.63064 0.214893
0.929015 0.634256 0.242252
0.158663 0.707485 0.310536
0.172396 0.71458 0.297246
0.20972 0.73283 0.259831
0.300389 0.74815 0.22388
0.407126 0.762158 0.214786
0.543221 0.762585 0.208515
0.753475 0.729778 0.213245
0.859586 0.72784 0.230472
0.951812 0.728908 0.25098
0.190906 0.806363 0.364431
0.201022 0.810651 0.353872
0.235767 0.826612 0.326741
0.295369 0.843763 0.268727
0.411124 0.855039 0.259129
0.504265 0.867628 0.250431
0.656016 0.85655 0.243915
0.853559 0.824369 0.249561
0.958846 0.820508 0.265766
0.223484 0.906935 0.418494
0.23122 0.908309 0.409613
0.261585 0.919905 0.387717
0.301823 0.935897 0.324926
0.409384 0.945464 0.300847
0.505837 0.955337 0.289952
0.589502 0.964034 0.282002
0.759548 0.941176 0.275273
0.946975 0.909056 0.281651
0 0.0335393 0.132113
0.128725 0.016495 0.137819
0.258885 0.0177615 0.123751
0.387457 0.0244602 0.125444
0.513146 0.0356451 0.134569
0.610834 0.0489967 0.143114
0.692363 0.0643931 0.150759
0.76379 0.080827 0.157931
0.833112 0.0982223 0.166339
0.0109712 0.152651 0.136065
0.118914 0.146273 0.129931
0.26482 0.144503 0.127214
0.409018 0.14551 0.127886
0.534051 0.150759 0.134951
0.626581 0.158373 0.144762
0.70573 0.165438 0.153826
0.776822 0.172168 0.162387
0.848081 0.180484 0.172198
0.032639 0.285863 0.171466
0.11809 0.288472 0.166003
0.280415 0.289586 0.122271
0.431891 0.28394 0.156893
0.556664 0.281712 0.169757
0.64686 0.281392 0.179232
0.721477 0.283131 0.186236
0.792401 0.286366 0.193606
0.866224 0.291661 0.203189
0.0663005 0.416236 0.21857
0.10959 0.424567 0.203922
0.22855 0.435416 0.183001
0.428656 0.420768 0.131212
0.561028 0.410544 0.166476
0.651881 0.405615 0.193744
0.735409 0.402533 0.213336
0.816693 0.402792 0.230976
0.897322 0.406699 0.246601
0.101091 0.52433 0.262547
0.131182 0.531212 0.253101
0.212985 0.544213 0.228824
0.318837 0.557794 0.180346
0.544228 0.532296 0.152865
0.6607 0.525032 0.18735
0.745434 0.523903 0.222324
0.828992 0.525658 0.24831
0.914656 0.528817 0.270726
0.130938 0.616815 0.304768
0.152285 0.622339 0.298695
0.200641 0.63888 0.270222
0.312947 0.651347 0.242725
0.417395 0.666041 0.197147
0.649226 0.635081 0.190066
0.758999 0.631327 0.218936
0.846983 0.632197 0.251759
0.930129 0.63505 0.282124
0.161288 0.710842 0.351644
0.176913 0.715114 0.347478
0.217121 0.730617 0.327031
0.311009 0.744823 0.295109
0.412055 0.759747 0.250309
0.531868 0.766476 0.228443
0.750515 0.732769 0.226291
0.858549 0.729503 0.252262
0.950088 0.729763 0.280629
0.193164 0.809781 0.402258
0.204318 0.811566 0.397925
0.241413 0.824201 0.383902
0.310719 0.839704 0.342657
0.415824 0.852018 0.308217
0.509514 0.86482 0.272892
0.642023 0.860914 0.259434
0.850263 0.826337 0.260868
0.957031 0.821424 0.283742
0.22533 0.910033 0.452491
0.232624 0.908995 0.447181
0.265644 0.917525 0.436545
0.308141 0.933059 0.384817
0.414343 0.942016 0.354147
0.505241 0.952621 0.313375
0.591989 0.961593 0.300099
0.745922 0.945205 0.287297
0.943709 0.910399 0.2916
0 0.0353704 0.2701
0.122484 0.0184176 0.271122
0.269276 0.0154879 0.262196
0.410803 0.0243229 0.257847
0.532921 0.0372625 0.257572
0.624537 0.0495308 0.256184
0.702525 0.0650339 0.254856
0.771588 0.0823682 0.253559
0.839643 0.0996414 0.254231
0 0.157153 0.259846
0.115419 0.146502 0.271901
0.277546 0.14081 0.268238
0.422782 0.142657 0.263096
0.544823 0.147372 0.262531
0.634867 0.156069 0.263127
0.712642 0.163851 0.263615
0.783123 0.17116 0.264088
0.854139 0.180072 0.267216
0.0357671 0.293614 0.27538
0.114046 0.294087 0.273304
0.276081 0.290654 0.275242
0.419608 0.290181 0.275425
0.543511 0.289143 0.275303
0.640482 0.28603 0.273518
0.724208 0.282017 0.270878
0.803006 0.2795 0.269749
0.880278 0.282383 0.274128
0.0691844 0.426566 0.300175
0.113161 0.428641 0.290654
0.264851 0.425971 0.309194
0.418128 0.423972 0.266926
0.547738 0.415152 0.295872
0.646006 0.409522 0.303838
0.732372 0.405997 0.305928
0.814008 0.406195 0.30573
0.897276 0.408347 0.306523
0.104112 0.533379 0.327749
0.134478 0.534661 0.322896
0.244114 0.53785 0.334005
0.356237 0.546868 0.314839
0.536431 0.535729 0.264881
0.652522 0.528176 0.293523
0.739559 0.527611 0.321065
0.827985 0.527993 0.335241
0.918486 0.529351 0.347784
0.133837 0.624643 0.360906
0.155444 0.626184 0.358923
0.22771 0.634775 0.36199
0.345266 0.644144 0.355352
0.444205 0.658717 0.308278
0.643809 0.638468 0.27332
0.756313 0.633478 0.29308
0.841413 0.634607 0.335668
0.928527 0.636652 0.358251
0.164172 0.718196 0.402853
0.179904 0.719142 0.40177
0.224765 0.729366 0.399222
0.3393 0.738994 0.394202
0.444114 0.75108 0.36466
0.533639 0.765713 0.304936
0.745724 0.735775 0.285313
0.857649 0.73106 0.301045
0.94696 0.730556 0.340948
0.195895 0.816556 0.45005
0.206958 0.815427 0.448096
0.247349 0.823102 0.447852
0.336706 0.834211 0.433143
0.44416 0.844358 0.410956
0.53109 0.857389 0.363241
0.627924 0.864607 0.30161
0.846006 0.828748 0.294362
0.956512 0.822217 0.313588
0.227771 0.916091 0.497642
0.234653 0.912367 0.493996
0.270039 0.916182 0.494469
0.331518 0.927428 0.468803
0.439673 0.934829 0.447929
0.529046 0.944228 0.409995
0.60174 0.956374 0.354238
0.726314 0.950439 0.309758
0.939818 0.912108 0.308064
0 0.0378882 0.412894
0.120562 0.0200961 0.411017
0.267536 0.01738 0.403616
0.418997 0.0287175 0.403555
0.551949 0.0428473 0.402777
0.646159 0.0554513 0.393683
0.721859 0.0674296 0.381003
0.78764 0.0828412 0.369253
0.853284 0.10074 0.361898
0 0.160739 0.402258
0.113832 0.14612 0.424567
0.276539 0.14081 0.422049
0.437232 0.137285 0.420691
0.56408 0.143206 0.408988
0.651484 0.153429 0.396796
0.725399 0.162356 0.386679
0.793149 0.170779 0.37879
0.863096 0.180743 0.375463
0.0250401 0.29723 0.409995
0.111788 0.293843 0.426032
0.275273 0.290318 0.423728
0.431754 0.285863 0.419883
0.555566 0.285084 0.410285
0.647974 0.283345 0.402914
0.730098 0.280247 0.396262
0.808469 0.278309 0.391577
0.887098 0.281041 0.391104
0.0736553 0.430335 0.414878
0.106722 0.4327 0.416281
0.259144 0.429679 0.414816
0.411749 0.423468 0.413764
0.535149 0.419959 0.410132
0.633478 0.415778 0.406882
0.72105 0.412726 0.404913
0.806149 0.411933 0.405325
0.892393 0.412757 0.40734
0.107424 0.54052 0.4215
0.132342 0.541939 0.415045
0.244892 0.54139 0.417655
0.390036 0.537728 0.434913
0.524437 0.538827 0.396918
0.639048 0.532235 0.424033
0.731807 0.531533 0.434943
0.820142 0.532753 0.440726
0.906859 0.536202 0.442695
0.137011 0.633661 0.440131
0.155016 0.63447 0.434897
0.234272 0.637537 0.439841
0.375845 0.637858 0.460624
0.48188 0.647791 0.444678
0.634531 0.641352 0.398474
0.744503 0.636393 0.424323
0.830549 0.6383 0.452689
0.920974 0.639948 0.466484
0.167422 0.727871 0.473365
0.18056 0.727199 0.469123
0.228092 0.732082 0.471702
0.367926 0.733684 0.491371
0.477485 0.742321 0.484001
0.563531 0.755764 0.439673
0.737209 0.737957 0.405051
0.848493 0.732937 0.422705
0.933562 0.73344 0.462318
0.199115 0.825956 0.515038
0.20798 0.823117 0.510506
0.25069 0.825513 0.514305
0.362875 0.829282 0.523568
0.474434 0.836622 0.518791
0.564034 0.846525 0.489433
0.637858 0.859174 0.432395
0.837293 0.830076 0.409262
0.948241 0.823148 0.421515
0.230777 0.924727 0.558145
0.23711 0.919661 0.552743
0.272877 0.917876 0.555352
0.355276 0.922423 0.553002
0.467704 0.927169 0.54786
0.559106 0.934127 0.524956
0.630961 0.944305 0.480064
0.7178 0.95021 0.416724
0.931731 0.912871 0.405829
0 0.0416114 0.547372
0.12134 0.0231174 0.545434
0.268025 0.0219577 0.539864
0.419196 0.0329442 0.539666
0.553887 0.0481727 0.538537
0.654124 0.0612802 0.529427
0.736385 0.0739605 0.514336
0.805463 0.0862287 0.496269
0.871672 0.102022 0.482033
0 0.164492 0.539498
0.11725 0.148547 0.557778
0.273808 0.143206 0.562097
0.430488 0.141573 0.559152
0.566674 0.141787 0.552148
0.663218 0.150942 0.536187
0.742061 0.159854 0.51899
0.811002 0.169329 0.50367
0.879866 0.18024 0.49366
0.0209354 0.29929 0.542794
0.122103 0.292821 0.558648
0.271473 0.289204 0.566323
0.427329 0.284489 0.561273
0.564401 0.279011 0.554101
0.665949 0.274403 0.540795
0.747967 0.272679 0.526101
0.823529 0.273121 0.51548
0.8981 0.279408 0.510124
0.0629129 0.430945 0.53843
0.124437 0.429465 0.547982
0.254429 0.427466 0.553307
0.407385 0.421439 0.548058
0.544259 0.414466 0.541741
0.644678 0.410697 0.531304
0.729274 0.409842 0.525567
0.813046 0.410254 0.524239
0.898878 0.411933 0.525185
0.111803 0.542184 0.531579
0.131502 0.543206 0.532799
0.229267 0.544915 0.535241
0.382849 0.541192 0.533074
0.523888 0.537255 0.53164
0.628611 0.536797 0.532067
0.720821 0.537392 0.533593
0.809796 0.538903 0.536034
0.899168 0.541451 0.539544
0.140917 0.639033 0.538491
0.154528 0.639948 0.534936
0.214466 0.645426 0.534051
0.374197 0.642069 0.53994
0.513405 0.64004 0.556649
0.620661 0.64509 0.526314
0.731014 0.639979 0.551049
0.8224 0.641443 0.562188
0.91194 0.644175 0.56762
0.171099 0.735332 0.561669
0.180453 0.734737 0.555932
0.224414 0.739193 0.553491
0.373281 0.736446 0.565469
0.506798 0.735927 0.583703
0.598154 0.744457 0.571435
0.726482 0.740429 0.528939
0.835645 0.73521 0.552789
0.921874 0.736507 0.576364
0.20264 0.83447 0.59501
0.21004 0.831876 0.588083
0.248692 0.83238 0.585534
0.371221 0.830655 0.595453
0.502388 0.830442 0.611582
0.595193 0.836851 0.604242
0.667247 0.847822 0.566567
0.827436 0.831388 0.530632
0.937148 0.824247 0.545953
0.234043 0.933242 0.630991
0.239979 0.928405 0.62327
0.271916 0.923858 0.619684
0.364965 0.92253 0.622339
0.494347 0.920729 0.635172
0.587381 0.925124 0.628672
0.662287 0.932219 0.603464
0.72961 0.943038 0.551202
0.921874 0.91339 0.525124
0 0.0459602 0.661952
0.123659 0.0268864 0.66009
0.269734 0.0271 0.655436
0.418753 0.0376898 0.654108
0.550103 0.0520333 0.649271
0.65124 0.0660716 0.639521
0.737621 0.0790265 0.625376
0.81265 0.091783 0.608362
0.88455 0.104387 0.593637
0 0.168246 0.655421
0.120668 0.152209 0.67068
0.271092 0.147768 0.672831
0.422827 0.147509 0.668284
0.556558 0.148562 0.661067
0.660563 0.150484 0.650309
0.745724 0.158831 0.633082
0.821607 0.1682 0.616938
0.89572 0.179507 0.605005
0.0208133 0.300664 0.654337
0.126696 0.292699 0.667796
0.266697 0.287266 0.683665
0.421378 0.282475 0.677867
0.558328 0.277043 0.669886
0.665675 0.270359 0.658839
0.7579 0.266026 0.645441
0.839429 0.266758 0.632319
0.914321 0.275837 0.621439
0.0572519 0.430121 0.644526
0.131472 0.426383 0.654551
0.248859 0.424002 0.667933
0.401358 0.41825 0.662577
0.539071 0.412116 0.656367
0.650034 0.405203 0.649073
0.745586 0.402106 0.641199
0.830655 0.403632 0.634516
0.914229 0.407187 0.631327
0.102464 0.542138 0.632929
0.138506 0.540871 0.63827
0.225208 0.543053 0.649729
0.3785 0.539544 0.647547
0.519844 0.536187 0.64538
0.636835 0.533135 0.643503
0.732631 0.533303 0.639445
0.818296 0.536492 0.638712
0.906172 0.539879 0.641123
0.145098 0.641032 0.63444
0.155444 0.641337 0.635248
0.205081 0.647074 0.641871
0.361883 0.645533 0.641642
0.505806 0.64387 0.641352
0.626062 0.64242 0.641138
0.721889 0.643824 0.643519
0.812406 0.646326 0.646326
0.90341 0.648615 0.65153
0.174868 0.739422 0.651118
0.182574 0.738903 0.647654
0.221378 0.743618 0.647303
0.354376 0.743526 0.647639
0.503487 0.740185 0.651774
0.623758 0.737545 0.665309
0.710796 0.743984 0.641398
0.82269 0.738033 0.661982
0.914015 0.739025 0.670893
0.206165 0.840024 0.677745
0.212802 0.837858 0.671565
0.245762 0.838468 0.666255
0.353765 0.838178 0.664958
0.506065 0.832593 0.675807
0.619348 0.830427 0.69041
0.697643 0.836667 0.680598
0.816617 0.832944 0.639551
0.923552 0.825696 0.660685
0.237217 0.939254 0.707073
0.242679 0.934905 0.698863
0.269581 0.930388 0.690379
0.351644 0.92871 0.685664
0.502113 0.920928 0.699275
0.611215 0.918456 0.711421
0.689326 0.922438 0.704173
0.758007 0.931151 0.669627
0.911604 0.914061 0.632975
0 0.0514839 0.773312
0.127382 0.0319371 0.770962
0.271214 0.0331121 0.766293
0.416403 0.043061 0.760876
0.54493 0.0564736 0.752224
0.644785 0.06981 0.739345
0.731792 0.0836347 0.723705
0.811353 0.0962081 0.707424
0.889616 0.109346 0.693584
0.00151064 0.172732 0.766354
0.123201 0.156039 0.777295
0.268559 0.151614 0.776928
0.416007 0.151873 0.77023
0.547509 0.153887 0.761059
0.650416 0.15584 0.748608
0.741009 0.158907 0.734279
0.822354 0.168368 0.718608
0.903273 0.180056 0.706783
0.0216068 0.301289 0.758328
0.128817 0.292226 0.769253
0.260655 0.284764 0.791836
0.414435 0.279911 0.78497
0.550744 0.274388 0.775219
0.658595 0.268177 0.763012
0.754864 0.263066 0.751141
0.843091 0.263966 0.73872
0.924804 0.273472 0.72636
0.0539101 0.428214 0.742641
0.134386 0.423209 0.751965
0.243061 0.420142 0.772335
0.394949 0.414878 0.767346
0.532952 0.409018 0.760311
0.645365 0.403449 0.753155
0.746151 0.399374 0.747402
0.840757 0.398367 0.741955
0.931044 0.400763 0.736416
0.0957198 0.54136 0.727291
0.142 0.539086 0.734081
0.226398 0.540261 0.750607
0.374517 0.53785 0.751492
0.516258 0.534859 0.749081
0.633738 0.532189 0.746807
0.737545 0.530098 0.745159
0.834134 0.530709 0.742779
0.922744 0.534325 0.739635
0.137179 0.642466 0.725963
0.158129 0.641566 0.729732
0.218631 0.645212 0.741421
0.358557 0.645075 0.744686
0.50312 0.643442 0.744045
0.624155 0.642023 0.743526
0.729168 0.641032 0.743465
0.82443 0.642924 0.741955
0.911238 0.646723 0.742
0.178882 0.741741 0.73817
0.185382 0.74081 0.737942
0.220325 0.744671 0.743008
0.346548 0.745174 0.744747
0.493065 0.743084 0.743816
0.616129 0.741299 0.743145
0.721523 0.739864 0.742733
0.814755 0.741192 0.744823
0.905364 0.742809 0.747662
0.209781 0.843519 0.760464
0.215671 0.841474 0.756436
0.244678 0.841627 0.753277
0.338979 0.842649 0.750973
0.488975 0.838788 0.750378
0.615152 0.834272 0.752163
0.719814 0.830396 0.762875
0.800626 0.83592 0.740642
0.911421 0.827756 0.757626
0.24065 0.943847 0.785367
0.245411 0.939178 0.778073
0.268193 0.934569 0.768856
0.332662 0.934646 0.760998
0.486091 0.927184 0.762341
0.613764 0.919875 0.770138
0.710704 0.916167 0.781933
0.78526 0.920439 0.772259
0.901152 0.915007 0.730297
0.00167849 0.0584421 0.884962
0.129992 0.0381323 0.881086
0.270146 0.039765 0.872999
0.411414 0.0489662 0.863478
0.537987 0.0615244 0.851118
0.637171 0.0740826 0.83444
0.723827 0.0872663 0.816342
0.805554 0.100267 0.800198
0.888792 0.113741 0.788312
0.00517281 0.176455 0.872465
0.124468 0.159228 0.879866
0.264775 0.155077 0.877577
0.408423 0.15523 0.868269
0.538079 0.157595 0.856077
0.640574 0.160235 0.841505
0.731487 0.163897 0.826551
0.818021 0.169421 0.814038
0.904067 0.181537 0.803616
0.0228275 0.300999 0.85803
0.129213 0.291112 0.866621
0.256611 0.283619 0.88571
0.405982 0.277699 0.883436
0.541268 0.272862 0.871946
0.649531 0.26804 0.859113
0.746105 0.26424 0.847181
0.840253 0.262791 0.838788
0.927581 0.272526 0.826871
0.0518959 0.425772 0.836255
0.135027 0.419791 0.84445
0.244312 0.416388 0.862242
0.387717 0.410773 0.866606
0.526833 0.406027 0.859617
0.640406 0.401328 0.852399
0.742061 0.398398 0.846876
0.840192 0.396887 0.843061
0.937362 0.397681 0.839673
0.0914778 0.540719 0.818998
0.143603 0.537514 0.825971
0.233799 0.537667 0.84213
0.369619 0.535943 0.850919
0.512489 0.533562 0.848615
0.630869 0.531197 0.846098
0.734829 0.529671 0.844388
0.835752 0.52929 0.843961
0.933455 0.530144 0.842405
0.131426 0.643778 0.816114
0.159533 0.64181 0.82092
0.230701 0.644007 0.834272
0.355367 0.644587 0.8439
0.500648 0.643336 0.843351
0.622019 0.641825 0.842481
0.72726 0.641108 0.842329
0.82887 0.640772 0.842817
0.926513 0.641596 0.84152
0.171725 0.744121 0.826261
0.186694 0.742351 0.828153
0.234592 0.743862 0.83595
0.343572 0.74519 0.843442
0.490776 0.742962 0.842268
0.614221 0.741161 0.841413
0.719814 0.739666 0.840818
0.821408 0.738674 0.840894
0.916671 0.739208 0.838422
0.213764 0.845914 0.844923
0.218799 0.843519 0.84329
0.244953 0.842939 0.844099
0.332357 0.843885 0.846357
0.481849 0.840253 0.843793
0.606378 0.836683 0.841199
0.711559 0.833692 0.839109
0.812512 0.831083 0.837354
0.903929 0.830198 0.836774
0.244114 0.9467 0.866194
0.248234 0.942031 0.860563
0.268238 0.93695 0.853269
0.320256 0.937423 0.848676
0.471031 0.931105 0.844327
0.598199 0.925353 0.841535
0.705165 0.919738 0.841398
0.805524 0.914351 0.84979
0.88574 0.917433 0.827131
0.00601205 0.0666361 0.991272
0.130449 0.044892 0.985
0.26659 0.0468299 0.97406
0.404334 0.0552682 0.961318
0.52929 0.0670024 0.945937
0.628016 0.0789197 0.927367
0.715175 0.0914626 0.907744
0.798566 0.104189 0.891524
0.884627 0.118013 0.880613
0.00840772 0.179736 0.97322
0.124254 0.162036 0.977722
0.259358 0.157473 0.973541
0.399939 0.157946 0.962463
0.528054 0.160555 0.948959
0.630289 0.1635 0.932631
0.721721 0.168063 0.916899
0.810269 0.174792 0.90547
0.901061 0.183536 0.89807
0.0238041 0.300221 0.953674
0.128542 0.28954 0.96022
0.251545 0.282063 0.97528
0.395926 0.276829 0.97203
0.529625 0.273701 0.960357
0.637766 0.270924 0.947875
0.734951 0.269734 0.936843
0.82945 0.270436 0.929397
0.925475 0.272633 0.924804
0.0505531 0.422919 0.928664
0.133852 0.416388 0.935744
0.242741 0.412695 0.950835
0.379904 0.406577 0.964492
0.519936 0.40264 0.957824
0.635386 0.39939 0.950759
0.737789 0.397147 0.945159
0.836866 0.396811 0.941756
0.936675 0.397116 0.939559
0.0885023 0.539757 0.91014
0.143526 0.535988 0.916945
0.237781 0.535668 0.932357
0.364782 0.533898 0.94902
0.508186 0.532021 0.947005
0.62742 0.530236 0.944564
0.732448 0.529335 0.942931
0.833371 0.529274 0.941833
0.933852 0.529519 0.94139
0.127474 0.64535 0.906905
0.161547 0.642573 0.912154
0.237949 0.643397 0.925338
0.351949 0.644053 0.94197
0.497612 0.643 0.940841
0.619821 0.641901 0.940078
0.725383 0.641077 0.939651
0.826993 0.640803 0.939864
0.928038 0.640513 0.940307
0.166323 0.746487 0.914717
0.187762 0.743954 0.917586
0.243732 0.743847 0.926467
0.340841 0.745235 0.940368
0.488289 0.742947 0.93933
0.612253 0.741054 0.938308
0.717952 0.739559 0.937606
0.819745 0.738521 0.93753
0.920363 0.737011 0.937011
0.20679 0.848737 0.931655
0.218357 0.845518 0.931426
0.254871 0.843015 0.934279
0.330114 0.844114 0.94316
0.479072 0.840116 0.940368
0.604196 0.836378 0.93756
0.709453 0.833173 0.935225
0.810315 0.830411 0.933272
0.910079 0.827237 0.931105
0.247791 0.948608 0.949554
0.25124 0.943679 0.945815
0.269139 0.937774 0.941024
0.314382 0.937682 0.942535
0.464347 0.931533 0.937423
0.591257 0.926055 0.932921
0.696437 0.92134 0.929122
0.796811 0.917021 0.925658
0.895384 0.912566 0.922042
