luts/Natural.cube
TITLE "Generated by Resolve"
LUT_3D_SIZE 33
0.000381476 0.0291142 0.0178988
0.0109407 0.0275273 0.0087129
0.0530556 0.0238193 0.00683604
0.0852827 0.0225223 0.00724804
0.115297 0.0222782 0.00634775
0.146593 0.0221103 0.00585946
0.178607 0.0221714 0.00619516
0.210956 0.0225223 0.00650034
0.243473 0.0231174 0.00708019
0.276616 0.0241703 0.00813306
0.309834 0.0254063 0.00941482
0.343099 0.0269322 0.0109865
0.376364 0.0287938 0.0129091
0.409949 0.0310216 0.015198
0.442786 0.0335241 0.0177615
0.474372 0.0363012 0.0206149
0.504234 0.0392615 0.0236667
0.531365 0.0421759 0.0267491
0.557137 0.0453346 0.030045
0.581231 0.0486 0.033463
0.603708 0.0519112 0.0369421
0.62562 0.0555123 0.0407721
0.64654 0.0591287 0.0445258
0.666575 0.0628367 0.0484321
0.685969 0.0664988 0.0524147
0.704921 0.0704814 0.0566415
0.723033 0.0743877 0.0607462
0.740688 0.0782025 0.0648814
0.758007 0.0823835 0.0691691
0.775113 0.0866102 0.0733501
0.792752 0.0906539 0.0779583
0.809842 0.0948196 0.0828717
0.827314 0.09897 0.0877394
0.00201419 0.05626 0.0265354
0.00682078 0.0571145 0.0135348
0.0492409 0.0547341 0.00511177
0.0873274 0.0513619 0.00740063
0.120195 0.0500496 0.00981155
0.153307 0.0491493 0.011429
0.185046 0.0492409 0.0121157
0.216434 0.0500496 0.0121614
0.248386 0.051133 0.0125277
0.280766 0.0527199 0.0131228
0.313649 0.0545663 0.0141756
0.346807 0.0567025 0.0157015
0.380087 0.0591135 0.0176242
0.413565 0.0618448 0.0199283
0.446281 0.0648203 0.0225834
0.477531 0.0681621 0.0256657
0.506874 0.0713664 0.0288243
0.53341 0.0744945 0.0319677
0.558999 0.0778668 0.035523
0.582712 0.0813764 0.0390021
0.604974 0.0845655 0.0425422
0.626612 0.0877394 0.0462501
0.647425 0.0909438 0.0501564
0.667521 0.0941176 0.0541543
0.686885 0.0971847 0.0581521
0.705638 0.100313 0.0622873
0.723934 0.103563 0.0663005
0.741482 0.106676 0.0705577
0.758709 0.109636 0.0748455
0.776104 0.113008 0.0795453
0.794018 0.116197 0.0844434
0.811429 0.119463 0.0891737
0.829023 0.122728 0.0937819
0.00390631 0.0857252 0.0360113
0.00758373 0.0861372 0.0218204
0.0332647 0.0889754 0.0090486
0.0887922 0.0826734 0.00729381
0.123125 0.0808423 0.00851453
0.155413 0.0798657 0.0120851
0.189029 0.0796063 0.014847
0.223178 0.0796063 0.0173953
0.257008 0.0802319 0.0195773
0.29015 0.0818647 0.0212863
0.322972 0.0839399 0.0227207
0.355749 0.0865339 0.0241855
0.388479 0.0894789 0.0258946
0.4215 0.0925765 0.0281987
0.453605 0.0960403 0.0309758
0.483894 0.0993668 0.033875
0.512398 0.102556 0.0369268
0.538277 0.105364 0.0399634
0.563027 0.108171 0.0432288
0.586252 0.110796 0.0466316
0.608408 0.113619 0.0503243
0.629725 0.116228 0.0536507
0.650156 0.118715 0.0574655
0.670161 0.121294 0.0615091
0.689403 0.123751 0.0655833
0.707942 0.126253 0.0696727
0.726223 0.128801 0.0740368
0.743709 0.131136 0.0782177
0.761105 0.133639 0.0827955
0.778592 0.13611 0.0872206
0.796429 0.138705 0.0916152
0.813916 0.141344 0.0961471
0.831754 0.144152 0.100572
0.00622568 0.115679 0.0460059
0.00984207 0.116335 0.0307927
0.0292668 0.120256 0.0146487
0.0638895 0.121386 0.0100099
0.126101 0.11223 0.00970474
0.161028 0.110979 0.0105898
0.193072 0.110048 0.0152132
0.226673 0.110155 0.0190738
0.261341 0.110536 0.0224613
0.296574 0.111208 0.0259403
0.331304 0.112444 0.0293889
0.365484 0.114321 0.0326848
0.399145 0.116762 0.0358434
0.432319 0.119722 0.0390173
0.463828 0.122774 0.0419928
0.49305 0.12578 0.0449378
0.520668 0.128634 0.0478981
0.546014 0.131456 0.0510109
0.570047 0.133959 0.0540322
0.592355 0.136355 0.057145
0.614008 0.138735 0.0604715
0.635019 0.141085 0.0640879
0.655192 0.143297 0.0676738
0.674617 0.145434 0.0713817
0.693645 0.147723 0.0754101
0.711986 0.14963 0.0792859
0.730022 0.151766 0.0837262
0.747539 0.153643 0.087602
0.765072 0.15584 0.0917525
0.7823 0.157946 0.0957504
0.800137 0.160128 0.0998245
0.817731 0.162509 0.104082
0.835721 0.164935 0.108217
0.00914015 0.145815 0.0566567
0.0128939 0.146929 0.0408484
0.0261082 0.151705 0.0206302
0.0606699 0.152819 0.0158541
0.105928 0.151293 0.0127108
0.165057 0.142824 0.013077
0.200793 0.142031 0.0141909
0.233433 0.141299 0.0199588
0.267338 0.141802 0.0247959
0.301946 0.142641 0.0294194
0.337362 0.143664 0.0337377
0.372747 0.145037 0.0383307
0.407614 0.146975 0.0432898
0.441627 0.149142 0.0480354
0.473365 0.151339 0.0524453
0.502678 0.153613 0.0565042
0.529961 0.155932 0.0602884
0.554772 0.15816 0.0637217
0.578561 0.160479 0.0672465
0.600366 0.162524 0.0703746
0.621408 0.164508 0.073579
0.641901 0.16672 0.0770886
0.661631 0.168597 0.0804303
0.680797 0.17055 0.0841993
0.699474 0.172381 0.0877394
0.717388 0.17406 0.0911116
0.735073 0.175845 0.0946822
0.752285 0.177462 0.098085
0.769711 0.179416 0.101823
0.786908 0.181094 0.105364
0.804456 0.183246 0.109255
0.822583 0.185183 0.113115
0.840833 0.187594 0.11722
0.0128481 0.17734 0.0684215
0.0167849 0.178851 0.0519875
0.0261845 0.183963 0.0296025
0.0594034 0.18584 0.0235599
0.0928054 0.188617 0.0191043
0.153841 0.180957 0.0179751
0.205982 0.175586 0.0179599
0.242741 0.175158 0.019501
0.276265 0.174777 0.0260166
0.310124 0.17557 0.0323644
0.344488 0.176776 0.0381476
0.378912 0.178073 0.0436408
0.413748 0.179675 0.0492409
0.447974 0.181201 0.0549477
0.480049 0.182666 0.0605631
0.509743 0.184146 0.0658122
0.537331 0.185718 0.0707408
0.562539 0.187152 0.0752422
0.586374 0.188876 0.0797436
0.608148 0.190372 0.0838788
0.629099 0.191897 0.0875257
0.649653 0.193576 0.0911421
0.669123 0.195071 0.0943923
0.688029 0.196811 0.0977798
0.706203 0.198199 0.100816
0.723888 0.199619 0.103838
0.741238 0.20116 0.106935
0.758465 0.202502 0.109895
0.775769 0.204196 0.113191
0.792767 0.205707 0.116335
0.810147 0.207645 0.119829
0.828305 0.209445 0.123262
0.846418 0.21178 0.12697
0.0174105 0.210163 0.08159
0.0215457 0.212055 0.0642863
0.0307012 0.216892 0.0425574
0.0586709 0.220142 0.032105
0.0927749 0.222812 0.0274968
0.12726 0.22536 0.0238651
0.201312 0.21326 0.0251011
0.248585 0.210208 0.024506
0.28603 0.210163 0.0266423
0.32018 0.210025 0.0336309
0.353124 0.210849 0.0416419
0.386633 0.211917 0.0484474
0.419699 0.213092 0.0550393
0.452766 0.214313 0.0614023
0.484367 0.215503 0.0674907
0.514244 0.216632 0.0735332
0.542245 0.217472 0.0793469
0.567819 0.21828 0.0849622
0.591684 0.219287 0.090074
0.613886 0.220111 0.0945602
0.635294 0.220951 0.0987564
0.656123 0.22208 0.102876
0.6757 0.222995 0.106493
0.69485 0.22414 0.110033
0.712963 0.225055 0.11313
0.730785 0.226246 0.116274
0.748104 0.227314 0.119158
0.765515 0.228702 0.12221
0.782528 0.229984 0.125002
0.799741 0.231571 0.128023
0.817014 0.233112 0.131029
0.835462 0.23508 0.134417
0.853407 0.236988 0.137743
0.0230869 0.244709 0.0953231
0.027451 0.246952 0.0780652
0.0365759 0.251667 0.0567025
0.0590677 0.256092 0.0419013
0.0935378 0.258915 0.0382086
0.123888 0.262669 0.0336919
0.16907 0.261952 0.0306859
0.246464 0.248631 0.0337682
0.291417 0.246387 0.0331273
0.328817 0.246174 0.0357519
0.362982 0.245792 0.0428779
0.394766 0.246311 0.0521401
0.426596 0.24715 0.0602121
0.45861 0.248051 0.0675517
0.488975 0.248798 0.0745098
0.517968 0.24976 0.0813916
0.545327 0.250294 0.0873579
0.571084 0.250599 0.0928511
0.594827 0.250858 0.098024
0.617487 0.251164 0.103044
0.639307 0.251377 0.107637
0.660349 0.251911 0.112169
0.6804 0.252186 0.116152
0.69987 0.25275 0.120073
0.718349 0.253086 0.123522
0.736721 0.253819 0.127031
0.754421 0.254566 0.130068
0.772107 0.255634 0.133257
0.789349 0.256565 0.136233
0.806897 0.258 0.139406
0.824399 0.259464 0.142428
0.843076 0.261265 0.145754
0.861173 0.263127 0.148943
0.0298161 0.28043 0.109483
0.0343481 0.282811 0.0937209
0.0433356 0.287297 0.0731212
0.0591135 0.292454 0.0529641
0.093843 0.295171 0.0499733
0.124758 0.298619 0.045716
0.155184 0.302754 0.0418555
0.21294 0.297276 0.0394903
0.288975 0.284199 0.0429389
0.332464 0.282094 0.0432136
0.36936 0.281682 0.0463111
0.403128 0.281117 0.0532998
0.434119 0.281285 0.0634012
0.464591 0.281758 0.0728008
0.494133 0.282139 0.0806134
0.522042 0.282765 0.0881819
0.548455 0.282994 0.0946059
0.573648 0.28304 0.100298
0.597101 0.283162 0.105516
0.619379 0.282963 0.110323
0.641352 0.28275 0.115038
0.662608 0.282612 0.119707
0.683207 0.282551 0.124163
0.702876 0.282338 0.128206
0.72224 0.282567 0.132219
0.740917 0.282643 0.135744
0.759457 0.283192 0.139483
0.777325 0.283635 0.142733
0.79556 0.284566 0.146304
0.813489 0.285481 0.149584
0.831785 0.286946 0.153094
0.850507 0.288457 0.156466
0.869169 0.290318 0.15993
0.0372168 0.315343 0.123308
0.041886 0.317845 0.108904
0.0505379 0.32195 0.0908217
0.0626535 0.327504 0.0687724
0.0936446 0.330755 0.0626535
0.12488 0.333989 0.0591745
0.15462 0.33785 0.0548562
0.187686 0.340703 0.0511788
0.256321 0.331121 0.0497444
0.328939 0.31902 0.053193
0.371069 0.316869 0.0545205
0.407248 0.316213 0.0579995
0.440665 0.31545 0.064683
0.471244 0.315206 0.0753185
0.499062 0.315175 0.0856336
0.526131 0.315389 0.0938735
0.552041 0.315251 0.100587
0.576684 0.315129 0.106798
0.599176 0.314916 0.112261
0.620844 0.314473 0.117174
0.642649 0.314107 0.121965
0.663447 0.313497 0.126345
0.684184 0.313161 0.130831
0.704341 0.312596 0.135058
0.724254 0.31249 0.139162
0.74345 0.312306 0.143114
0.762554 0.312459 0.147219
0.781292 0.312734 0.15108
0.800137 0.313375 0.155032
0.818814 0.314046 0.158785
0.837781 0.315312 0.162707
0.857298 0.316487 0.166537
0.8766 0.318135 0.170413
0.0452583 0.34931 0.136904
0.0500191 0.351843 0.123751
0.0583047 0.355703 0.107897
0.0704356 0.360967 0.0895705
0.0929885 0.365103 0.0759289
0.124269 0.3682 0.0732128
0.154482 0.371786 0.0694743
0.183413 0.375647 0.0652476
0.221714 0.376623 0.0617227
0.296986 0.364126 0.0610971
0.36611 0.352651 0.0644541
0.407156 0.350286 0.0666667
0.442466 0.349371 0.0705119
0.475776 0.348394 0.0773327
0.504784 0.347936 0.0878004
0.530678 0.347402 0.0975357
0.555306 0.34696 0.105562
0.579751 0.3467 0.112398
0.601648 0.345953 0.117891
0.622919 0.345495 0.123262
0.643717 0.344701 0.128099
0.664485 0.344274 0.132845
0.684932 0.343603 0.137209
0.705379 0.343267 0.141512
0.725231 0.342748 0.145571
0.744991 0.342596 0.149859
0.764553 0.342382 0.154116
0.784375 0.342611 0.158572
0.803754 0.342916 0.162768
0.823407 0.343725 0.167163
0.842817 0.344457 0.171298
0.862608 0.345724 0.175616
0.882872 0.346899 0.179767
0.053727 0.381903 0.149996
0.0585184 0.384451 0.138186
0.0662699 0.387945 0.123964
0.0783856 0.393027 0.108827
0.0919509 0.397986 0.0896468
0.123293 0.401129 0.0878004
0.153719 0.404471 0.0848859
0.182773 0.408225 0.080827
0.21117 0.411841 0.0767987
0.255558 0.409934 0.0729686
0.334539 0.395621 0.0729839
0.400778 0.384634 0.0763561
0.440925 0.382284 0.0794995
0.475639 0.38117 0.0839551
0.50721 0.379995 0.0905165
0.534813 0.37879 0.0991989
0.559457 0.378088 0.108385
0.582528 0.377188 0.11635
0.604044 0.376532 0.122896
0.624857 0.375601 0.128313
0.645869 0.375021 0.133593
0.666026 0.374334 0.138476
0.686351 0.373922 0.143191
0.70631 0.373266 0.147631
0.726329 0.373068 0.152071
0.746227 0.372732 0.156283
0.76643 0.372839 0.160815
0.786374 0.372869 0.165225
0.806714 0.373312 0.16994
0.826719 0.373754 0.174441
0.84712 0.374594 0.179187
0.86717 0.375463 0.183719
0.888014 0.376486 0.188266
0.0626078 0.413306 0.163256
0.0673686 0.415671 0.152529
0.0744793 0.418891 0.139971
0.0866865 0.423743 0.126818
0.098146 0.428717 0.109529
0.12163 0.432319 0.101152
0.152041 0.43537 0.0990005
0.181445 0.438804 0.0960708
0.209522 0.442557 0.092546
0.238544 0.445563 0.0888533
0.289052 0.441291 0.0851453
0.370092 0.425834 0.0855726
0.432898 0.415427 0.0888685
0.472496 0.412482 0.0923476
0.505852 0.411383 0.0968338
0.535576 0.409827 0.102632
0.562127 0.408301 0.110033
0.586221 0.407248 0.118532
0.607156 0.406195 0.126101
0.627436 0.405509 0.132692
0.647761 0.404654 0.138369
0.66833 0.404105 0.143618
0.688289 0.403433 0.148394
0.708446 0.403204 0.153399
0.728145 0.40293 0.158129
0.748302 0.403067 0.162799
0.768368 0.403052 0.167346
0.7888 0.403479 0.172091
0.80911 0.403769 0.176699
0.829404 0.404257 0.181384
0.850202 0.405097 0.186297
0.870954 0.405814 0.191104
0.89276 0.406912 0.196185
0.0715801 0.443015 0.176349
0.0763256 0.445197 0.166476
0.0827955 0.448203 0.155642
0.0940719 0.452735 0.144411
0.105272 0.457633 0.129274
0.119509 0.462135 0.113649
0.150118 0.465095 0.112047
0.179797 0.46836 0.109926
0.20795 0.471839 0.107073
0.235416 0.475319 0.103777
0.265858 0.477302 0.100359
0.321904 0.470375 0.0966201
0.402518 0.454688 0.0973526
0.463249 0.444556 0.100603
0.501823 0.441413 0.104677
0.533349 0.440177 0.108949
0.562051 0.438605 0.114153
0.588113 0.437034 0.120684
0.610834 0.435935 0.128252
0.630976 0.434714 0.135378
0.65098 0.434089 0.142168
0.670771 0.433387 0.148058
0.691005 0.433204 0.153506
0.711223 0.432837 0.158587
0.73138 0.433021 0.163821
0.751293 0.433051 0.168734
0.771405 0.433265 0.173678
0.791699 0.433768 0.178668
0.811887 0.434241 0.183459
0.832731 0.435035 0.188464
0.853452 0.435721 0.193286
0.874708 0.436728 0.198367
0.896391 0.437613 0.203387
0.0807813 0.471458 0.189273
0.0856336 0.473426 0.180362
0.0907301 0.476097 0.170703
0.101106 0.480278 0.161303
0.112062 0.485069 0.147906
0.12224 0.489693 0.131289
0.14725 0.492958 0.124239
0.177295 0.49572 0.122255
0.205722 0.498955 0.120058
0.233158 0.502449 0.117342
0.259846 0.505653 0.114397
0.293248 0.506355 0.11107
0.353658 0.497871 0.107622
0.432898 0.482841 0.108629
0.492348 0.473228 0.112276
0.529534 0.469932 0.116487
0.559533 0.468711 0.120607
0.587472 0.467094 0.125368
0.612314 0.465614 0.131121
0.634638 0.464515 0.137804
0.655116 0.463539 0.144762
0.675166 0.463188 0.151659
0.694804 0.462821 0.157763
0.714946 0.462928 0.163699
0.734966 0.462928 0.169162
0.755367 0.463294 0.174426
0.77554 0.463615 0.179614
0.795514 0.464103 0.184833
0.815991 0.464958 0.190158
0.836393 0.465644 0.195209
0.857466 0.466636 0.200458
0.878279 0.467552 0.205447
0.900236 0.468391 0.210544
0.0896468 0.497368 0.201495
0.0938735 0.499168 0.19353
0.0981155 0.501518 0.184634
0.107469 0.505287 0.176806
0.118181 0.509972 0.164858
0.128023 0.514549 0.150561
0.143389 0.518791 0.135668
0.173907 0.521385 0.133928
0.20322 0.524224 0.131762
0.230915 0.527718 0.129641
0.257481 0.531106 0.127016
0.283818 0.534218 0.124437
0.32108 0.533516 0.121202
0.385565 0.52401 0.118486
0.463706 0.509407 0.119738
0.520027 0.500633 0.123339
0.556039 0.497505 0.127733
0.585168 0.49662 0.131853
0.611826 0.495384 0.136339
0.636484 0.494438 0.141695
0.658961 0.493523 0.147723
0.679896 0.492866 0.154376
0.700221 0.492775 0.161273
0.719814 0.492729 0.167636
0.739574 0.493034 0.173892
0.759701 0.493416 0.179721
0.779797 0.493858 0.185138
0.800351 0.494667 0.190707
0.820676 0.495293 0.196109
0.84094 0.496193 0.201526
0.861708 0.497246 0.207004
0.882628 0.498131 0.212253
0.904601 0.499367 0.217716
0.097612 0.521614 0.213352
0.101671 0.523522 0.206287
0.105623 0.52578 0.198505
0.113664 0.529107 0.191424
0.123903 0.533623 0.181125
0.133593 0.538201 0.168322
0.143847 0.54287 0.15108
0.170153 0.545937 0.145113
0.200015 0.548608 0.143145
0.228382 0.551583 0.140871
0.255482 0.555154 0.138643
0.281361 0.558572 0.13637
0.30811 0.561425 0.134066
0.349584 0.559518 0.131029
0.417426 0.549264 0.12903
0.494209 0.535393 0.130541
0.547234 0.527459 0.134112
0.582452 0.524666 0.138705
0.610285 0.52398 0.142794
0.636194 0.52311 0.147082
0.660471 0.522332 0.15201
0.683452 0.521904 0.157748
0.704997 0.521477 0.16408
0.725414 0.521691 0.170733
0.745159 0.521843 0.177356
0.764691 0.522271 0.183749
0.784894 0.523018 0.190021
0.804944 0.52372 0.195865
0.825528 0.524727 0.201648
0.846067 0.525536 0.207202
0.866651 0.526436 0.212757
0.887465 0.527642 0.218387
0.908995 0.528771 0.224018
0.10544 0.545312 0.225116
0.109194 0.547005 0.218708
0.112902 0.549004 0.211536
0.119707 0.552071 0.205402
0.129427 0.556374 0.196597
0.139116 0.561044 0.184955
0.149035 0.565637 0.169909
0.166033 0.569818 0.155947
0.196612 0.572473 0.154223
0.225696 0.575402 0.152178
0.253666 0.578882 0.150011
0.27982 0.582437 0.147784
0.305501 0.585977 0.145769
0.333822 0.588418 0.143694
0.379553 0.585321 0.140948
0.451575 0.574136 0.139574
0.523781 0.561395 0.141161
0.574289 0.554131 0.144762
0.60856 0.551675 0.149508
0.63534 0.551064 0.153506
0.660456 0.550408 0.157595
0.684901 0.550057 0.162402
0.708293 0.549752 0.167819
0.730114 0.549584 0.173785
0.751064 0.549905 0.180301
0.770855 0.550271 0.186923
0.790524 0.550759 0.193484
0.810422 0.551781 0.200107
0.830472 0.552575 0.206302
0.850828 0.553475 0.212207
0.871717 0.554681 0.218067
0.892576 0.555673 0.223713
0.913527 0.55671 0.229374
0.113069 0.568566 0.236805
0.11667 0.570336 0.231128
0.12018 0.572198 0.224643
0.125933 0.575051 0.21915
0.135088 0.579126 0.211734
0.144808 0.583871 0.201175
0.154421 0.58854 0.187869
0.164935 0.593454 0.169863
0.193057 0.596475 0.165316
0.222858 0.599283 0.163455
0.251743 0.602518 0.161364
0.278676 0.605875 0.159106
0.304601 0.609384 0.156878
0.329885 0.612818 0.155123
0.360708 0.614481 0.15317
0.411597 0.610254 0.150729
0.484657 0.599145 0.150042
0.552834 0.587366 0.151659
0.601053 0.580682 0.155245
0.633967 0.578164 0.15993
0.659785 0.57792 0.163928
0.685115 0.577462 0.168048
0.709682 0.577295 0.172717
0.733257 0.577173 0.177905
0.755367 0.577203 0.183551
0.776379 0.577417 0.1897
0.796674 0.578134 0.196368
0.816388 0.578775 0.203128
0.836088 0.579644 0.209842
0.856306 0.580728 0.216419
0.876692 0.581674 0.222599
0.897276 0.582757 0.228504
0.91873 0.583978 0.23447
0.12076 0.591836 0.248661
0.124071 0.593393 0.243549
0.127382 0.595087 0.237675
0.132158 0.597635 0.232609
0.140871 0.601404 0.226276
0.15053 0.606073 0.216693
0.159899 0.610681 0.204746
0.170169 0.615473 0.188724
0.189456 0.619501 0.176043
0.22005 0.622263 0.17438
0.249516 0.625254 0.172335
0.27747 0.628641 0.170169
0.304112 0.63238 0.168002
0.329412 0.636088 0.166018
0.35465 0.639612 0.164538
0.389654 0.640238 0.162585
0.444251 0.634668 0.160433
0.516869 0.623377 0.160174
0.581369 0.612757 0.161868
0.626917 0.606836 0.165469
0.658793 0.604578 0.170138
0.684886 0.604379 0.174258
0.710018 0.604196 0.178347
0.734386 0.604166 0.182834
0.758221 0.604288 0.187884
0.780575 0.604425 0.193194
0.802029 0.604685 0.199161
0.822583 0.605478 0.205783
0.842588 0.606119 0.212619
0.862287 0.606958 0.219486
0.882521 0.608072 0.226291
0.902892 0.609018 0.232715
0.923506 0.610101 0.238804
0.127916 0.613733 0.260258
0.131106 0.615259 0.255665
0.134264 0.616876 0.250324
0.13814 0.61915 0.24567
0.146593 0.622858 0.240192
0.156069 0.627482 0.231662
0.165408 0.632212 0.220737
0.175463 0.637049 0.206256
0.186297 0.64213 0.187015
0.217273 0.644923 0.185061
0.247333 0.647868 0.183215
0.27602 0.651072 0.181064
0.303487 0.654749 0.178927
0.329213 0.658518 0.176776
0.354467 0.662272 0.174914
0.380911 0.665476 0.173556
0.419547 0.664805 0.171649
0.477913 0.657969 0.169833
0.548745 0.646693 0.16994
0.609827 0.636637 0.171557
0.652049 0.631128 0.175067
0.684047 0.629099 0.179904
0.709819 0.628946 0.183993
0.734874 0.628916 0.188113
0.759228 0.628977 0.192508
0.783123 0.629313 0.197375
0.805737 0.629541 0.202548
0.827405 0.629877 0.208377
0.848203 0.63064 0.214893
0.868498 0.631327 0.221775
0.888411 0.632181 0.228702
0.908354 0.633097 0.235492
0.929015 0.634256 0.242252
0.135409 0.636591 0.272419
0.13843 0.637995 0.268254
0.141466 0.639551 0.263401
0.144793 0.64152 0.25864
0.152667 0.645167 0.254398
0.161868 0.649622 0.246906
0.171221 0.654444 0.236835
0.181109 0.659312 0.223651
0.191791 0.664332 0.206287
0.214466 0.668162 0.195941
0.245121 0.671061 0.194232
0.2748 0.674128 0.192172
0.302632 0.677562 0.190005
0.329366 0.681376 0.187854
0.354864 0.685176 0.185748
0.379828 0.68896 0.184115
0.408118 0.691447 0.182712
0.450248 0.689509 0.180865
0.511437 0.681575 0.17937
0.580087 0.670298 0.179675
0.635493 0.661128 0.181125
0.67715 0.655863 0.184695
0.709255 0.653864 0.189624
0.734951 0.653696 0.193729
0.759899 0.653712 0.197818
0.784146 0.653849 0.202075
0.808103 0.654246 0.206836
0.830869 0.654505 0.211917
0.852811 0.654871 0.217624
0.873777 0.65539 0.223911
0.894469 0.656214 0.230823
0.914443 0.657053 0.23772
0.934661 0.657862 0.244694
0.142947 0.659709 0.284794
0.145937 0.661219 0.281086
0.148806 0.662669 0.276738
0.15172 0.664424 0.272084
0.159075 0.667948 0.268589
0.167971 0.672206 0.262104
0.177279 0.677058 0.252857
0.187045 0.681926 0.240635
0.197604 0.686931 0.224674
0.211276 0.691814 0.206989
0.243091 0.694591 0.205371
0.273136 0.697566 0.203449
0.301961 0.700786 0.201251
0.329168 0.704265 0.198993
0.355169 0.708202 0.196857
0.380468 0.712093 0.194903
0.405432 0.715694 0.193347
0.43621 0.717144 0.191821
0.481422 0.714122 0.190158
0.543893 0.705257 0.188907
0.608942 0.694347 0.189319
0.661555 0.685634 0.190661
0.702464 0.680644 0.194324
0.734325 0.678447 0.199176
0.760388 0.678447 0.203433
0.785092 0.678538 0.207401
0.809232 0.678706 0.211566
0.833021 0.678935 0.21619
0.856092 0.679408 0.221317
0.878294 0.679759 0.226871
0.899626 0.680171 0.233021
0.920455 0.680903 0.239765
0.941192 0.681666 0.246754
0.150744 0.683406 0.29752
0.153567 0.68484 0.29424
0.156329 0.686198 0.290379
0.159121 0.687846 0.286091
0.165698 0.691127 0.282872
0.174243 0.695155 0.277317
0.183551 0.699992 0.268803
0.193256 0.70489 0.257267
0.20354 0.709819 0.242481
0.214542 0.714961 0.223499
0.240787 0.718425 0.216464
0.271855 0.721279 0.214588
0.301122 0.724361 0.212497
0.329213 0.727672 0.210178
0.355718 0.731273 0.207889
0.381048 0.735134 0.205768
0.406012 0.738994 0.203998
0.430976 0.74229 0.202609
0.464805 0.742596 0.200977
0.513222 0.738384 0.19939
0.574075 0.729213 0.198398
0.635737 0.718624 0.19884
0.6878 0.71014 0.200168
0.727932 0.705287 0.203861
0.759655 0.70312 0.208667
0.785565 0.703029 0.212833
0.810071 0.703304 0.216876
0.834379 0.703395 0.221042
0.857969 0.703578 0.225559
0.881376 0.704005 0.23061
0.903685 0.704387 0.235996
0.925536 0.704707 0.242039
0.946792 0.705226 0.248585
0.158663 0.707485 0.310536
0.161288 0.708675 0.307515
0.164019 0.710094 0.304067
0.166644 0.711604 0.300206
0.172396 0.71458 0.297246
0.180758 0.718486 0.292241
0.189914 0.723186 0.284413
0.199557 0.728069 0.273747
0.20972 0.73283 0.259831
0.220615 0.738033 0.242603
0.238682 0.742428 0.227665
0.270253 0.745205 0.225925
0.300389 0.74815 0.22388
0.32903 0.751308 0.221592
0.356161 0.754726 0.219257
0.382177 0.758404 0.216907
0.407126 0.762158 0.214786
0.430976 0.765713 0.213092
0.457115 0.76846 0.211704
0.493858 0.767803 0.21004
0.543221 0.762585 0.208515
0.603738 0.752941 0.207691
0.662821 0.742428 0.208103
0.713603 0.7346 0.209522
0.753475 0.729778 0.213245
0.785016 0.727581 0.218082
0.810742 0.727321 0.222202
0.835294 0.727718 0.226307
0.859586 0.72784 0.230472
0.883207 0.728008 0.234882
0.906523 0.728145 0.239673
0.929366 0.728603 0.24509
0.951812 0.728908 0.25098
0.166644 0.731884 0.323857
0.169146 0.732876 0.320974
0.171679 0.734112 0.317861
0.174304 0.735683 0.31426
0.179507 0.738277 0.31107
0.187411 0.742077 0.307225
0.196399 0.746456 0.300038
0.20589 0.751217 0.290074
0.215991 0.756069 0.27715
0.226642 0.761028 0.26096
0.237842 0.766186 0.24033
0.268437 0.769024 0.237095
0.299138 0.771832 0.235126
0.328634 0.774792 0.232837
0.356451 0.77818 0.230564
0.382986 0.781811 0.22826
0.408301 0.785458 0.225895
0.43238 0.788983 0.22385
0.455711 0.792325 0.222248
0.483772 0.794095 0.220676
0.522225 0.792599 0.219074
0.571786 0.786709 0.217624
0.631281 0.776822 0.216922
0.690135 0.766262 0.217365
0.739483 0.758526 0.218631
0.778653 0.754162 0.222583
0.810208 0.751919 0.22742
0.835813 0.751583 0.23154
0.860304 0.751644 0.235492
0.884611 0.75201 0.239689
0.908492 0.752102 0.244053
0.931884 0.752178 0.248829
0.955261 0.752224 0.254017
0.174685 0.756573 0.337346
0.177081 0.757473 0.334554
0.179507 0.758495 0.331594
0.181994 0.75996 0.328603
0.186633 0.76228 0.325414
0.194263 0.765942 0.322225
0.203021 0.770016 0.315679
0.212604 0.774792 0.306172
0.222629 0.779599 0.293965
0.233082 0.784436 0.278737
0.244022 0.78941 0.259815
0.266667 0.793225 0.248432
0.298161 0.795865 0.246464
0.328115 0.798672 0.244236
0.356512 0.801694 0.241825
0.383581 0.805005 0.239399
0.409247 0.808499 0.236942
0.433722 0.812238 0.234775
0.456977 0.815579 0.232837
0.4804 0.818601 0.231296
0.510048 0.819471 0.229648
