luts/Nature.cube
#Created by: Affinity Photo (Serif Europe Ltd.)
TITLE "Exported LUT"
#LUT size
LUT_3D_SIZE 6
#data domain
DOMAIN_MIN 0.0 0.0 0.0
DOMAIN_MAX 1.0 1.0 1.0
#LUT data points
0.001099 0.000000 0.000000
0.333394 0.000000 0.000000
0.604959 0.000000 0.000000
0.795254 0.000000 0.000000
0.949569 0.000000 0.000000
1.000000 0.000000 0.000000
0.000000 0.292973 0.000000
0.236439 0.249973 0.000000
0.514702 0.178912 0.000000
0.705913 0.124346 0.000000
0.875792 0.064103 0.000000
1.000000 0.000000 0.000000
0.000000 0.495583 0.000000
0.000000 0.467369 0.000000
0.397574 0.435554 0.000000
0.679835 0.386069 0.000000
0.886168 0.340139 0.000000
1.000000 0.304631 0.000000
0.000000 0.676432 0.000000
0.000000 0.664012 0.000000
0.177554 0.649027 0.000000
0.577447 0.627558 0.000000
0.839612 0.595880 0.000000
1.000000 0.563775 0.000000
0.000000 0.852705 0.000000
0.000000 0.846815 0.000000
0.000000 0.837507 0.000000
0.463966 0.821622 0.000000
0.750576 0.800000 0.000000
0.970092 0.774289 0.000000
0.000000 1.000000 0.000000
0.000000 1.000000 0.000000
0.000000 0.997253 0.000000
0.335637 0.980056 0.000000
0.678294 0.960021 0.000000
0.901274 0.940383 0.000000
0.000000 0.000000 0.531441
0.374136 0.000000 0.420249
0.692531 0.000000 0.292271
0.868360 0.000000 0.217548
1.000000 0.000000 0.180301
1.000000 0.000000 0.158099
0.000000 0.273274 0.311589
0.230488 0.233845 0.270542
0.491508 0.180575 0.234791
0.702678 0.103227 0.208652
0.889570 0.000000 0.189700
1.000000 0.000000 0.173022
0.000000 0.480827 0.130068
0.000000 0.455589 0.133211
0.409277 0.427054 0.107881
0.661631 0.391821 0.132097
0.849424 0.369528 0.155886
1.000000 0.357794 0.159731
0.000000 0.670359 0.000000
0.000000 0.659541 0.000000
0.206226 0.644800 0.000000
0.587152 0.624994 0.000000
0.843397 0.592996 0.000000
1.000000 0.566934 0.000000
0.000000 0.849851 0.000000
0.000000 0.845808 0.000000
0.000000 0.836362 0.000000
0.464469 0.819821 0.000000
0.752850 0.797238 0.000000
0.974640 0.769940 0.000000
0.000000 1.000000 0.000000
0.000000 1.000000 0.000000
0.000000 0.995682 0.000000
0.317266 0.978485 0.000000
0.666651 0.959945 0.000000
0.895491 0.940398 0.000000
0.000000 0.000000 0.967468
0.214679 0.000000 0.892256
0.641428 0.000000 0.732631
0.876173 0.000000 0.603525
1.000000 0.000000 0.519036
1.000000 0.000000 0.464012
0.000000 0.252094 0.772549
0.053147 0.204257 0.700099
0.515892 0.057740 0.612619
0.791150 0.000000 0.546487
0.998947 0.000000 0.485008
1.000000 0.000000 0.443641
0.000000 0.464515 0.539605
0.000000 0.441993 0.516854
0.409186 0.416846 0.487785
0.664912 0.381216 0.467063
0.871382 0.346044 0.444953
1.000000 0.317311 0.427588
0.000000 0.663615 0.416907
0.000000 0.652811 0.412665
0.272663 0.635859 0.405188
0.606363 0.616678 0.384237
0.827665 0.596201 0.388540
0.996155 0.585077 0.396185
0.000000 0.847074 0.285557
0.000000 0.842268 0.276204
0.000000 0.831113 0.257053
0.494331 0.813153 0.231357
0.768826 0.790921 0.180209
0.984512 0.763897 0.168338
0.000000 1.000000 0.071183
0.000000 1.000000 0.026169
0.000000 0.992309 0.000000
0.324819 0.975952 0.000000
0.673228 0.957687 0.000000
0.904891 0.937591 0.000000
0.000000 0.000000 1.000000
0.000000 0.000000 1.000000
0.553582 0.000000 1.000000
0.831632 0.000000 0.925597
1.000000 0.000000 0.825818
1.000000 0.000000 0.747448
0.000000 0.214740 1.000000
0.000000 0.164492 1.000000
0.453452 0.000000 0.947860
0.765484 0.000000 0.871183
0.999573 0.000000 0.798032
1.000000 0.000000 0.734051
0.000000 0.455680 0.878157
0.000000 0.435920 0.857588
0.356817 0.402106 0.821347
0.680659 0.343557 0.775967
0.947921 0.218402 0.738109
1.000000 0.000000 0.683909
0.000000 0.655604 0.738094
0.000000 0.644282 0.727886
0.279835 0.627939 0.697780
0.605310 0.610788 0.665782
0.823484 0.592737 0.645380
1.000000 0.577173 0.626596
0.000000 0.844144 0.630930
0.000000 0.838178 0.621988
0.000000 0.824430 0.604532
0.526864 0.801968 0.590784
0.779004 0.782330 0.569268
0.966751 0.765530 0.570993
0.000000 1.000000 0.522148
0.000000 1.000000 0.512642
0.000000 0.986587 0.493446
0.375799 0.968124 0.479011
0.699458 0.949783 0.462531
0.919844 0.931685 0.433387
0.000000 0.000000 1.000000
0.073838 0.000000 1.000000
0.467201 0.000000 1.000000
0.778363 0.000000 1.000000
1.000000 0.000000 1.000000
1.000000 0.000000 0.969223
0.000000 0.192477 1.000000
0.000000 0.139773 1.000000
0.361364 0.000000 1.000000
0.722683 0.000000 1.000000
0.974823 0.000000 1.000000
1.000000 0.000000 0.975082
0.000000 0.441703 1.000000
0.000000 0.422782 1.000000
0.225589 0.385077 1.000000
0.653895 0.311925 1.000000
0.934173 0.177646 1.000000
1.000000 0.000000 0.941558
0.000000 0.650828 1.000000
0.000000 0.640681 0.997940
0.021210 0.627268 0.967727
0.585428 0.602640 0.922744
0.844526 0.570413 0.882124
1.000000 0.511177 0.853208
0.000000 0.840040 0.895720
0.000000 0.833082 0.883070
0.000000 0.817182 0.856077
0.533379 0.794278 0.820523
0.776455 0.777447 0.794995
0.950423 0.767880 0.781903
0.000000 1.000000 0.787869
0.000000 0.996719 0.777386
0.000000 0.980880 0.759319
0.394415 0.960998 0.741634
0.723705 0.939635 0.735698
0.925643 0.925368 0.719478
0.000000 0.000000 1.000000
0.033524 0.000000 1.000000
0.439887 0.000000 1.000000
0.724498 0.000000 1.000000
0.956970 0.000000 1.000000
1.000000 0.000000 1.000000
0.000000 0.186343 1.000000
0.000000 0.147311 1.000000
0.329686 0.000000 1.000000
0.664714 0.000000 1.000000
0.941985 0.000000 1.000000
1.000000 0.000000 1.000000
0.000000 0.425528 1.000000
0.000000 0.407446 1.000000
0.000000 0.370016 1.000000
0.604974 0.294652 1.000000
0.908309 0.127001 1.000000
1.000000 0.000000 1.000000
0.000000 0.644556 1.000000
0.000000 0.636713 1.000000
0.000000 0.621622 1.000000
0.537499 0.592325 1.000000
0.835447 0.552880 1.000000
1.000000 0.496162 1.000000
0.000000 0.834775 1.000000
0.000000 0.827527 1.000000
0.000000 0.812604 1.000000
0.483833 0.792386 1.000000
0.768063 0.771618 1.000000
0.976196 0.750347 0.975067
0.000000 1.000000 1.000000
0.000000 0.991806 1.000000
0.000000 0.974563 0.984543
0.399558 0.953689 0.957092
0.730556 0.933516 0.933349
0.923003 0.921935 0.921553
