luts/Natures Glory5600K_GY_Corr709_65.cube
TITLE "Generated by Resolve"
LUT_3D_SIZE 9
0 0 0
0.0844587 0 0
0.177615 0 0
0.311559 0 0
0.477394 0 0
0.678126 0 0
0.900023 0 0
1 0 0
1 0 0
0 0.0468757 0
0.119081 0.0333867 0
0.232944 0.0161746 0
0.373053 0 0
0.545708 0 0
0.745357 0 0
0.956069 0 0
1 0 0
1 0 0
0 0.102251 0
0.108248 0.0898909 0
0.327306 0.0485237 0
0.481392 0 0
0.654444 0 0
0.844053 0 0
1 0 0
1 0 0
1 0 0
0 0.164706 0
0.0767834 0.155825 0
0.321889 0.124895 0
0.618372 0.0167849 0
0.795178 0 0
0.963287 0 0
1 0 0
1 0 0
1 0 0
0 0.216007 0
0.032639 0.216281 0
0.305135 0.204623 0
0.607477 0.153384 0
0.92372 0 0
1 0 0
1 0 0
1 0 0
1 0 0
0 0.324346 0
0 0.328771 0
0.250278 0.327184 0
0.581308 0.304295 0
0.904677 0.245472 0
1 0.169024 0
1 0.110552 0
1 0.041886 0
1 0 0
0 0.505592 0
0 0.510948 0
0.00561532 0.513069 0
0.507958 0.503532 0
0.858717 0.475074 0
1 0.444327 0
1 0.434882 0
1 0.424689 0
1 0.41973 0
0 0.824643 0
0 0.82829 0
0 0.829709 0
0.158633 0.823896 0
0.70985 0.807172 0
0.99147 0.790387 0
1 0.783719 0
1 0.790173 0
1 0.792325 0
0 1 0
0 1 0
0 1 0
0 1 0
0.37673 1 0
0.796689 1 0
0.971099 1 0
1 1 0
1 1 0
0 0 0.0479133
0.0758526 0 0.0437018
0.161975 0 0.0374304
0.289067 0 0.026978
0.450538 0 0.010193
0.650004 0 0
0.886259 0 0
1 0 0
1 0 0
0 0.0390631 0.0344396
0.0302434 0.0301061 0.0301213
0.139651 0.0188144 0.0238346
0.292622 0 0.0122072
0.480446 0 0
0.707622 0 0
0.94461 0 0
1 0 0
1 0 0
0 0.104845 0.0158846
0.0077821 0.0951095 0.012253
0.239521 0.0641337 0.0030518
0.40473 0.0196384 0
0.599496 0 0
0.824613 0 0
1 0 0
1 0 0
1 0 0
0 0.176699 0
0 0.168017 0
0.246769 0.144152 0
0.562417 0.0495766 0
0.768887 0 0
0.952895 0 0
1 0 0
1 0 0
1 0 0
0 0.224201 0
0 0.223316 0
0.271672 0.2112 0
0.591287 0.158602 0
0.915251 0.00196841 0
1 0 0
1 0 0
1 0 0
1 0 0
0 0.323812 0
0 0.327871 0
0.240375 0.32607 0
0.57818 0.302205 0
0.902663 0.242741 0
1 0.164523 0
1 0.104417 0
1 0.0338598 0
1 0 0
0 0.502617 0
0 0.508095 0
0 0.510246 0
0.50515 0.500786 0
0.856992 0.472282 0
1 0.44097 0
1 0.431357 0
1 0.420844 0
1 0.414801 0
0 0.819364 0
0 0.823148 0
0 0.824735 0
0.159289 0.819074 0
0.709651 0.802777 0
0.992203 0.785443 0
1 0.779171 0
1 0.78587 0
1 0.787823 0
0 1 0
0 1 0
0 1 0
0 1 0
0.370031 1 0
0.795377 1 0
0.970367 1 0
1 1 0
1 1 0
0 0 0.131792
0.076936 0 0.126894
0.162249 0 0.120348
0.288121 0 0.108049
0.449424 0 0.0895552
0.647852 0 0.0594186
0.875578 0 0.018265
1 0 0
1 0 0
0 0.0218051 0.118044
0.0236362 0.0123293 0.11339
0.125277 0.00317388 0.105699
0.267094 0 0.0932479
0.436072 0 0.0727092
0.638819 0 0.0426795
0.8692 0 0.00257877
1 0 0
1 0 0
0 0.10457 0.10013
0 0.0966049 0.0950942
0.09131 0.0868544 0.0872816
0.260975 0.0598154 0.0726635
0.450843 0.00355535 0.0503548
0.677363 0 0.0183871
0.924971 0 0
1 0 0
1 0 0
0 0.19852 0.0524453
0 0.192828 0.047776
0.0422675 0.183948 0.0407111
0.390982 0.138766 0.0233768
0.596185 0.0611429 0.00177005
0.819547 0 0
1 0 0
1 0 0
1 0 0
0 0.265721 0.00784314
0 0.260365 0.00480659
0.0130007 0.255818 0
0.401205 0.232685 0
0.760494 0.148089 0
0.968368 0 0
1 0 0
1 0 0
1 0 0
0 0.359487 0
0 0.355306 0
0 0.359045 0
0.409827 0.346975 0
0.787091 0.297993 0
1 0.211185 0
1 0.121294 0
1 0.0259098 0
1 0 0
0 0.519615 0
0 0.523064 0
0 0.526009 0
0.397543 0.516899 0
0.807874 0.483207 0
1 0.439979 0
1 0.425788 0
1 0.414008 0
1 0.40766 0
0 0.814466 0
0 0.816938 0
0 0.818845 0
0.12604 0.813138 0
0.708293 0.795087 0
0.9935 0.777173 0
1 0.771008 0
1 0.777691 0
1 0.779522 0
0 1 0
0 1 0
0 1 0
0 1 0
0.35874 1 0
0.791882 1 0
0.969299 1 0
1 1 0
1 1 0
0 0 0.254429
0.0626535 0 0.250813
0.150896 0 0.245136
0.279454 0 0.235233
0.442283 0 0.22092
0.6421 0 0.199191
0.870512 0 0.167208
1 0 0.118853
1 0 0.0445411
0 0 0.244907
0.00814832 0 0.240925
0.111269 0 0.235142
0.257694 0 0.225574
0.429023 0 0.210468
0.633295 0 0.187915
0.864469 0 0.154437
1 0 0.103426
1 0 0.0261997
0 0.064744 0.232364
0 0.054902 0.22829
0.0723125 0.046128 0.222553
0.24004 0.0238193 0.212482
0.419287 0 0.196704
0.627405 0 0.173404
0.860914 0 0.138338
1 0 0.0825971
1 0 0.00538643
0 0.209232 0.208072
0 0.204318 0.203952
0 0.199344 0.197513
0.191302 0.184924 0.185748
0.404395 0.151919 0.167193
0.63801 0.0654459 0.138048
0.888579 0 0.092256
1 0 0.0227665
1 0 0
0 0.31342 0.1364
0 0.309194 0.131731
0 0.303273 0.123934
0.148272 0.291417 0.110704
0.544198 0.255573 0.0827649
0.779904 0.18761 0.04065
1 0.0463264 0
1 0 0
1 0 0
0 0.41915 0.0328832
0 0.415595 0.0286107
0 0.409949 0.0223697
0.0567788 0.404562 0.0075227
0.539315 0.387076 0
0.910338 0.335882 0
1 0.26923 0
1 0.187304 0
1 0.0899367 0
0 0.579263 0
0 0.57641 0
0 0.571359 0
0 0.57232 0
0.508049 0.559777 0
0.901274 0.525628 0
1 0.493721 0
1 0.461646 0
1 0.434913 0
0 0.847913 0
0 0.845701 0
0 0.844358 0
0 0.844755 0
0.343175 0.833173 0
0.830121 0.808896 0
1 0.788861 0
1 0.783368 0
1 0.775692 0
0 1 0
0 1 0
0 1 0
0 1 0
0 1 0
0.67837 1 0
0.940902 1 0
1 1 0
1 1 0
0 0 0.4094
0.0282139 0 0.405737
0.124376 0 0.400946
0.26186 0 0.392432
0.42948 0 0.380468
0.631876 0 0.362676
0.862043 0 0.338689
1 0 0.306767
1 0 0.26479
0 0 0.402213
0 0 0.39855
0.082826 0 0.393713
0.241611 0 0.38529
0.417716 0 0.372671
0.624323 0 0.354955
0.857114 0 0.330739
1 0 0.298466
1 0 0.255604
0 0 0.39202
0 0 0.388357
0.0411383 0 0.3832
0.2224 0 0.374701
0.407263 0 0.362188
0.61796 0 0.343923
0.853025 0 0.319387
1 0 0.285573
1 0 0.24181
0 0.159091 0.373785
0 0.152743 0.370123
0 0.147112 0.364782
0.168597 0.132204 0.356023
0.379644 0.0956436 0.343114
0.601465 0.012314 0.324361
0.842237 0 0.298817
1 0 0.263432
1 0 0.217212
0 0.339712 0.342275
0 0.336873 0.338598
0 0.333654 0.333059
0 0.32639 0.323583
0.313695 0.308156 0.308995
0.57644 0.269261 0.287755
0.840223 0.191501 0.25684
1 0.000915541 0.214298
1 0 0.15848
0 0.473777 0.239567
0 0.470726 0.235309
0 0.466331 0.228916
0 0.45771 0.217548
0.255619 0.443061 0.203586
0.697307 0.415442 0.195163
0.942565 0.362799 0.155871
1 0.289387 0.0977188
1 0.203418 0.0228733
0 0.6336 0.0732128
0 0.631159 0.0668956
0 0.627634 0.0577096
0 0.620172 0.0425422
0.0641337 0.611521 0.0259098
0.663752 0.593164 0
1 0.561807 0
1 0.525933 0
1 0.494163 0
0 0.879255 0
0 0.877745 0
0 0.874723 0
0 0.869276 0
0 0.864363 0
0.538003 0.848157 0
0.9299 0.825223 0
1 0.81326 0
1 0.802823 0
0 1 0
0 1 0
0 1 0
0 1 0
0 1 0
0.181903 1 0
0.780789 1 0
0.996262 1 0
1 1 0
0 0 0.598383
0 0 0.595087
0.0626841 0 0.590524
0.22797 0 0.582605
0.406287 0 0.571725
0.614359 0 0.556619
0.848753 0 0.536461
1 0 0.51075
1 0 0.479149
0 0 0.593011
0 0 0.589837
0.041001 0 0.585153
0.217868 0 0.577447
0.401587 0 0.566552
0.611673 0 0.551431
0.847395 0 0.53135
1 0 0.505684
1 0 0.47361
0 0 0.583368
0 0 0.580179
0 0 0.575647
0.187945 0 0.567788
0.385565 0 0.556771
0.601923 0 0.541588
0.840833 0 0.521294
1 0 0.494972
1 0 0.46273
0 0.0329137 0.567987
0 0.0222324 0.565225
0 0.0155947 0.560189
0.129717 0 0.552682
0.35964 0 0.541176
0.586542 0 0.525917
0.830945 0 0.505379
1 0 0.478752
1 0 0.444999
0 0.281666 0.543679
0 0.277653 0.540413
0 0.274281 0.535821
0 0.265888 0.52781
0.289067 0.247303 0.516564
0.548302 0.207431 0.500526
0.805829 0.121736 0.4795
1 0 0.451514
1 0 0.416068
0 0.500175 0.505318
0 0.498314 0.5019
0 0.496132 0.497124
0 0.490837 0.48867
0.0510872 0.479774 0.475959
0.46128 0.458732 0.45864
0.763928 0.41735 0.434684
1 0.347326 0.402014
1 0.247761 0.361563
0 0.676097 0.363394
0 0.673671 0.359426
0 0.671046 0.35288
0 0.665064 0.342046
0 0.653895 0.325567
0.380545 0.635584 0.311147
0.842191 0.607614 0.334081
1 0.567041 0.298619
1 0.526146 0.254459
0 0.901411 0.0888533
0 0.899672 0.0817121
0 0.897642 0.0682841
0 0.89305 0.0487526
0 0.884489 0.0197452
0.0111543 0.871611 0.00885023
0.750454 0.849424 0.0304875
1 0.828534 0.05832
1 0.812573 0
0 1 0
0 1 0
0 1 0
0 1 0
0 1 0
0 1 0
0.555886 1 0
0.930083 1 0
1 1 0
0 0 0.809461
0 0 0.806943
0 0 0.802823
0.163607 0 0.796078
0.368902 0 0.786374
0.587381 0 0.773495
0.827832 0 0.756619
1 0 0.735393
1 0 0.708553
0 0 0.805417
0 0 0.802869
0 0 0.798733
0.16347 0 0.791943
0.369375 0 0.78233
0.587961 0 0.769741
0.82858 0 0.752773
1 0 0.731502
1 0 0.704402
0 0 0.797223
0 0 0.794644
0 0 0.790448
0.118456 0 0.783688
0.349493 0 0.773938
0.576776 0 0.761196
0.821469 0 0.744106
1 0 0.722622
1 0 0.695491
0 0 0.784787
0 0 0.782116
0 0 0.778042
0.0440223 0 0.771145
0.32398 0 0.761654
0.562829 0 0.748272
0.812772 0 0.731472
1 0 0.709102
1 0 0.681605
0 0.161898 0.764981
0 0.154833 0.762295
0 0.151354 0.757977
0 0.138903 0.751324
0.251301 0.107179 0.74165
0.525353 0.0319829 0.728496
0.788708 0 0.710811
1 0 0.687724
1 0 0.660243
0 0.435416 0.735042
0 0.432074 0.732738
0 0.430579 0.728298
0 0.425193 0.721492
0 0.413825 0.711467
0.437095 0.39115 0.697246
0.736049 0.349416 0.678599
1 0.275227 0.655009
1 0.144533 0.626673
0 0.683177 0.691539
0 0.681346 0.688441
0 0.680308 0.68397
0 0.676753 0.676463
0 0.66949 0.66537
0.212024 0.655451 0.650706
0.635508 0.629114 0.629297
0.964736 0.587793 0.605066
1 0.53341 0.573571
0 0.905699 0.524117
0 0.904555 0.518975
0 0.90277 0.511803
0 0.899458 0.499153
0 0.892317 0.48191
0 0.88014 0.457755
0.510491 0.859632 0.439139
0.964462 0.829648 0.494133
1 0.805295 0.466224
0 1 0
0 1 0
0 1 0
0 1 0
0 1 0
0 1 0
0.142321 1 0
0.838666 1 0
1 1 0.237583
0 0 1
0 0 1
0 0 1
0.018204 0 1
0.306767 0 1
0.546487 0 1
0.798703 0 1
1 0 0.980499
1 0 0.956954
0 0 1
0 0 1
0 0 1
0.0236973 0 1
0.309636 0 1
0.548852 0 1
0.800244 0 0.996323
1 0 0.976776
1 0 0.953155
0 0 1
0 0 1
0 0 1
0 0 1
0.289906 0 1
0.538766 0 1
0.794247 0 0.988388
1 0 0.969253
1 0 0.945327
0 0 1
0 0 1
0 0 1
0 0 1
0.263554 0 1
0.526314 0 0.992996
0.786816 0 0.97734
1 0 0.95761
1 0 0.933608
0 0 1
0 0 1
0 0 1
0 0 0.996902
0.179599 0 0.987457
0.489769 0 0.975235
0.76408 0 0.959564
1 0 0.939437
1 0 0.91487
0 0.319646 0.984176
0 0.315847 0.981399
0 0.314427 0.977295
0 0.308248 0.970993
0 0.294148 0.961776
0.399466 0.264088 0.94931
0.712703 0.203006 0.933211
1 0.0590372 0.912444
1 0 0.887526
0 0.612909 0.947997
0 0.611185 0.945312
0 0.609949 0.941085
0 0.606546 0.934295
0 0.599039 0.924865
0.142229 0.584222 0.91191
0.606973 0.558404 0.894728
0.939529 0.515511 0.873823
1 0.455741 0.848783
0 0.884871 0.897169
0 0.883864 0.894545
0 0.882902 0.890288
0 0.880446 0.883177
0 0.875273 0.87306
0 0.865339 0.859327
0.384787 0.847654 0.842206
0.820432 0.820096 0.819989
1 0.783154 0.793118
0 1 0.692744
0 1 0.687465
0 1 0.677943
0 1 0.663508
0 1 0.64271
0 1 0.61474
0 1 0.578241
0.688869 1 0.546395
1 1 0.670375
0 0 1
0 0 1
0 0 1
0 0 1
0.273045 0 1
0.52192 0 1
0.778347 0 1
1 0 1
1 0 1
0 0 1
0 0 1
0 0 1
0 0 1
0.275074 0 1
0.523812 0 1
0.780011 0 1
1 0 1
1 0 1
0 0 1
0 0 1
0 0 1
0 0 1
0.267002 0 1
0.520623 0 1
0.778286 0 1
1 0 1
1 0 1
0 0 1
0 0 1
0 0 1
0 0 1
0.230808 0 1
0.503319 0 1
0.767788 0 1
1 0 1
1 0 1
0 0 1
0 0 1
0 0 1
0 0 1
0.135744 0 1
0.466392 0 1
0.746303 0 1
1 0 1
1 0 1
0 0.226612 1
0 0.221408 1
0 0.215656 1
0 0.20351 1
0 0.177386 1
0.373617 0.118791 1
0.69427 0 1
0.990845 0 1
1 0 1
0 0.556573 1
0 0.554284 1
0 0.552254 1
0 0.547036 1
0 0.53669 1
0.0723583 0.517418 1
0.586069 0.483513 1
0.922744 0.428351 1
1 0.34342 1
0 0.838224 1
0 0.836591 1
0 0.83534 1
0 0.831952 1
0 0.825147 1
0 0.812467 1
0.353185 0.791531 1
0.802533 0.759625 1
1 0.716625 1
0 1 1
0 1 1
0 1 1
0 1 1
0 1 1
0 1 1
0 1 1
0.612909 1 1
1 1 1
