luts/Natural.cube
TITLE "Generated by Resolve"
LUT_3D_SIZE 5
0.000381476 0.0291142 0.0178988
0.243473 0.0231174 0.00708019
0.504234 0.0392615 0.0236667
0.685969 0.0664988 0.0524147
0.827314 0.09897 0.0877394
0.0298161 0.28043 0.109483
0.288975 0.284199 0.0429389
0.548455 0.282994 0.0946059
0.72224 0.282567 0.132219
0.869169 0.290318 0.15993
0.097612 0.521614 0.213352
0.200015 0.548608 0.143145
0.547234 0.527459 0.134112
0.745159 0.521843 0.177356
0.908995 0.528771 0.224018
0.158663 0.707485 0.310536
0.20972 0.73283 0.259831
0.407126 0.762158 0.214786
0.753475 0.729778 0.213245
0.951812 0.728908 0.25098
0.223484 0.906935 0.418494
0.261585 0.919905 0.387717
0.409384 0.945464 0.300847
0.589502 0.964034 0.282002
0.946975 0.909056 0.281651
0 0.0353704 0.2701
0.269276 0.0154879 0.262196
0.532921 0.0372625 0.257572
0.702525 0.0650339 0.254856
0.839643 0.0996414 0.254231
0.0357671 0.293614 0.27538
0.276081 0.290654 0.275242
0.543511 0.289143 0.275303
0.724208 0.282017 0.270878
0.880278 0.282383 0.274128
0.104112 0.533379 0.327749
0.244114 0.53785 0.334005
0.536431 0.535729 0.264881
0.739559 0.527611 0.321065
0.918486 0.529351 0.347784
0.164172 0.718196 0.402853
0.224765 0.729366 0.399222
0.444114 0.75108 0.36466
0.745724 0.735775 0.285313
0.94696 0.730556 0.340948
0.227771 0.916091 0.497642
0.270039 0.916182 0.494469
0.439673 0.934829 0.447929
0.60174 0.956374 0.354238
0.939818 0.912108 0.308064
0 0.0416114 0.547372
0.268025 0.0219577 0.539864
0.553887 0.0481727 0.538537
0.736385 0.0739605 0.514336
0.871672 0.102022 0.482033
0.0209354 0.29929 0.542794
0.271473 0.289204 0.566323
0.564401 0.279011 0.554101
0.747967 0.272679 0.526101
0.8981 0.279408 0.510124
0.111803 0.542184 0.531579
0.229267 0.544915 0.535241
0.523888 0.537255 0.53164
0.720821 0.537392 0.533593
0.899168 0.541451 0.539544
0.171099 0.735332 0.561669
0.224414 0.739193 0.553491
0.506798 0.735927 0.583703
0.726482 0.740429 0.528939
0.921874 0.736507 0.576364
0.234043 0.933242 0.630991
0.271916 0.923858 0.619684
0.494347 0.920729 0.635172
0.662287 0.932219 0.603464
0.921874 0.91339 0.525124
0 0.0514839 0.773312
0.271214 0.0331121 0.766293
0.54493 0.0564736 0.752224
0.731792 0.0836347 0.723705
0.889616 0.109346 0.693584
0.0216068 0.301289 0.758328
0.260655 0.284764 0.791836
0.550744 0.274388 0.775219
0.754864 0.263066 0.751141
0.924804 0.273472 0.72636
0.0957198 0.54136 0.727291
0.226398 0.540261 0.750607
0.516258 0.534859 0.749081
0.737545 0.530098 0.745159
0.922744 0.534325 0.739635
0.178882 0.741741 0.73817
0.220325 0.744671 0.743008
0.493065 0.743084 0.743816
0.721523 0.739864 0.742733
0.905364 0.742809 0.747662
0.24065 0.943847 0.785367
0.268193 0.934569 0.768856
0.486091 0.927184 0.762341
0.710704 0.916167 0.781933
0.901152 0.915007 0.730297
0.00601205 0.0666361 0.991272
0.26659 0.0468299 0.97406
0.52929 0.0670024 0.945937
0.715175 0.0914626 0.907744
0.884627 0.118013 0.880613
0.0238041 0.300221 0.953674
0.251545 0.282063 0.97528
0.529625 0.273701 0.960357
0.734951 0.269734 0.936843
0.925475 0.272633 0.924804
0.0885023 0.539757 0.91014
0.237781 0.535668 0.932357
0.508186 0.532021 0.947005
0.732448 0.529335 0.942931
0.933852 0.529519 0.94139
0.166323 0.746487 0.914717
0.243732 0.743847 0.926467
0.488289 0.742947 0.93933
0.717952 0.739559 0.937606
0.920363 0.737011 0.937011
0.247791 0.948608 0.949554
0.269139 0.937774 0.941024
0.464347 0.931533 0.937423
0.696437 0.92134 0.929122
0.895384 0.912566 0.922042
