luts/Nature.cube
#Created by: Affinity Photo (Serif Europe Ltd.)
TITLE "Exported LUT"
#LUT size
LUT_3D_SIZE 16
#data domain
DOMAIN_MIN 0.0 0.0 0.0
DOMAIN_MAX 1.0 1.0 1.0
#LUT data points
0.001099 0.000000 0.000000
0.105364 0.000000 0.000000
0.221988 0.000000 0.000000
0.333394 0.000000 0.000000
0.435355 0.000000 0.000000
0.525765 0.000000 0.000000
0.604959 0.000000 0.000000
0.674968 0.000000 0.000000
0.737789 0.000000 0.000000
0.795254 0.000000 0.000000
0.848936 0.000000 0.000000
0.899992 0.000000 0.000000
0.949569 0.000000 0.000000
0.998672 0.000000 0.000000
1.000000 0.000000 0.000000
1.000000 0.000000 0.000000
0.000000 0.100786 0.000000
0.093645 0.092760 0.000000
0.209873 0.076585 0.000000
0.309606 0.058183 0.000000
0.401633 0.031037 0.000000
0.487358 0.000000 0.000000
0.563867 0.000000 0.000000
0.633005 0.000000 0.000000
0.696574 0.000000 0.000000
0.755978 0.000000 0.000000
0.812375 0.000000 0.000000
0.866743 0.000000 0.000000
0.919875 0.000000 0.000000
0.972641 0.000000 0.000000
1.000000 0.000000 0.000000
1.000000 0.000000 0.000000
0.000000 0.202960 0.000000
0.020966 0.194080 0.000000
0.175753 0.179965 0.000000
0.291966 0.156527 0.000000
0.383688 0.132586 0.000000
0.461967 0.110658 0.000000
0.530861 0.091875 0.000000
0.593515 0.076478 0.000000
0.657877 0.038666 0.000000
0.720150 0.000000 0.000000
0.779934 0.000000 0.000000
0.837903 0.000000 0.000000
0.894636 0.000000 0.000000
0.950881 0.000000 0.000000
1.000000 0.000000 0.000000
1.000000 0.000000 0.000000
0.000000 0.292973 0.000000
0.000000 0.281590 0.000000
0.094850 0.267765 0.000000
0.236439 0.249973 0.000000
0.349340 0.225589 0.000000
0.438514 0.201190 0.000000
0.514702 0.178912 0.000000
0.583032 0.158831 0.000000
0.646265 0.140703 0.000000
0.705913 0.124346 0.000000
0.763012 0.109300 0.000000
0.818296 0.095033 0.000000
0.875792 0.064103 0.000000
0.934737 0.000000 0.000000
0.993866 0.000000 0.000000
1.000000 0.000000 0.000000
0.000000 0.368551 0.000000
0.000000 0.356344 0.000000
0.000000 0.342901 0.000000
0.158190 0.328344 0.000000
0.288457 0.311315 0.000000
0.397116 0.290166 0.000000
0.488991 0.267491 0.000000
0.567224 0.247013 0.000000
0.638025 0.228061 0.000000
0.703624 0.210559 0.000000
0.765438 0.194232 0.000000
0.824399 0.178820 0.000000
0.881285 0.164065 0.000000
0.936980 0.149371 0.000000
0.992523 0.134234 0.000000
1.000000 0.117647 0.000000
0.000000 0.434363 0.000000
0.000000 0.423117 0.000000
0.000000 0.411276 0.000000
0.000000 0.399420 0.000000
0.218021 0.386831 0.000000
0.341375 0.372366 0.000000
0.447242 0.354955 0.000000
0.542123 0.334829 0.000000
0.623011 0.316335 0.000000
0.696071 0.299001 0.000000
0.763561 0.282643 0.000000
0.826780 0.267201 0.000000
0.886915 0.252506 0.000000
0.944991 0.238270 0.000000
1.000000 0.224125 0.000000
1.000000 0.209598 0.000000
0.000000 0.495583 0.000000
0.000000 0.486213 0.000000
0.000000 0.476616 0.000000
0.000000 0.467369 0.000000
0.110506 0.458015 0.000000
0.279377 0.447684 0.000000
0.397574 0.435554 0.000000
0.501381 0.420859 0.000000
0.597345 0.403021 0.000000
0.679835 0.386069 0.000000
0.754040 0.370001 0.000000
0.822293 0.354726 0.000000
0.886168 0.340139 0.000000
0.947158 0.326146 0.000000
1.000000 0.314992 0.000000
1.000000 0.304631 0.000000
0.000000 0.555688 0.000000
0.000000 0.548409 0.000000
0.000000 0.541054 0.000000
0.000000 0.534066 0.000000
0.000000 0.527062 0.000000
0.197345 0.519448 0.000000
0.342275 0.510536 0.000000
0.456031 0.499794 0.000000
0.557336 0.486732 0.000000
0.650904 0.471168 0.000000
0.735058 0.454749 0.000000
0.809461 0.439719 0.000000
0.878843 0.427527 0.000000
0.943664 0.416648 0.000000
1.000000 0.406287 0.000000
1.000000 0.396246 0.000000
0.000000 0.615991 0.000000
0.000000 0.610559 0.000000
0.000000 0.605051 0.000000
0.000000 0.599741 0.000000
0.000000 0.594385 0.000000
0.009674 0.588464 0.000000
0.274464 0.581537 0.000000
0.405951 0.573175 0.000000
0.515023 0.563012 0.000000
0.613108 0.551064 0.000000
0.704936 0.538842 0.000000
0.789990 0.525719 0.000000
0.864027 0.514153 0.000000
0.931868 0.503227 0.000000
0.995590 0.492821 0.000000
1.000000 0.482765 0.000000
0.000000 0.676432 0.000000
0.000000 0.672358 0.000000
0.000000 0.668177 0.000000
0.000000 0.664012 0.000000
0.000000 0.659648 0.000000
0.000000 0.654765 0.000000
0.177554 0.649027 0.000000
0.347875 0.642222 0.000000
0.471336 0.635370 0.000000
0.577447 0.627558 0.000000
0.672328 0.618280 0.000000
0.759197 0.607660 0.000000
0.839612 0.595880 0.000000
0.912581 0.584314 0.000000
0.979034 0.573861 0.000000
1.000000 0.563775 0.000000
0.000000 0.736370 0.000000
0.000000 0.733227 0.000000
0.000000 0.729885 0.000000
0.000000 0.726406 0.000000
0.000000 0.722622 0.000000
0.000000 0.718349 0.000000
0.000000 0.714580 0.000000
0.284001 0.710231 0.000000
0.427420 0.704662 0.000000
0.540795 0.697856 0.000000
0.639216 0.689891 0.000000
0.727779 0.680949 0.000000
0.809064 0.671122 0.000000
0.884947 0.660487 0.000000
0.956878 0.649104 0.000000
1.000000 0.638987 0.000000
0.000000 0.795209 0.000000
0.000000 0.792660 0.000000
0.000000 0.789776 0.000000
0.000000 0.786618 0.000000
0.000000 0.784222 0.000000
0.000000 0.781613 0.000000
0.000000 0.778195 0.000000
0.201205 0.773846 0.000000
0.379339 0.768521 0.000000
0.502922 0.762203 0.000000
0.605951 0.755077 0.000000
0.696818 0.747158 0.000000
0.779263 0.738598 0.000000
0.855711 0.729458 0.000000
0.927932 0.719692 0.000000
0.997757 0.709224 0.000000
0.000000 0.852705 0.000000
0.000000 0.850431 0.000000
0.000000 0.848615 0.000000
0.000000 0.846815 0.000000
0.000000 0.844388 0.000000
0.000000 0.841306 0.000000
0.000000 0.837507 0.000000
0.037324 0.832975 0.000000
0.325780 0.827665 0.000000
0.463966 0.821622 0.000000
0.572900 0.814923 0.000000
0.666651 0.807706 0.000000
0.750576 0.800000 0.000000
0.827771 0.791867 0.000000
0.900313 0.783322 0.000000
0.970092 0.774289 0.000000
0.000000 0.909621 0.000000
0.000000 0.908370 0.000000
0.000000 0.906538 0.000000
0.000000 0.904082 0.000000
0.000000 0.901076 0.000000
0.000000 0.897429 0.000000
0.000000 0.893202 0.000000
0.000000 0.888350 0.000000
0.263539 0.882948 0.000000
0.423713 0.877012 0.000000
0.539986 0.870619 0.000000
0.637339 0.863844 0.000000
0.723125 0.856764 0.000000
0.801236 0.849409 0.000000
0.874342 0.841718 0.000000
0.944076 0.833707 0.000000
0.000000 0.966033 0.000000
0.000000 0.964263 0.000000
0.000000 0.961791 0.000000
0.000000 0.958709 0.000000
0.000000 0.955032 0.000000
0.000000 0.950820 0.000000
0.000000 0.946120 0.000000
0.000000 0.940963 0.000000
0.183230 0.935378 0.000000
0.381247 0.929458 0.000000
0.507271 0.923247 0.000000
0.608850 0.916808 0.000000
0.697108 0.910140 0.000000
0.777890 0.902922 0.000000
0.851804 0.895720 0.000000
0.921111 0.888609 0.000000
0.000000 1.000000 0.000000
0.000000 1.000000 0.000000
0.000000 1.000000 0.000000
0.000000 1.000000 0.000000
0.000000 1.000000 0.000000
0.000000 1.000000 0.000000
0.000000 0.997253 0.000000
0.000000 0.991760 0.000000
0.018631 0.986007 0.000000
0.335637 0.980056 0.000000
0.477226 0.973571 0.000000
0.586648 0.966781 0.000000
0.678294 0.960021 0.000000
0.759075 0.953384 0.000000
0.832593 0.946822 0.000000
0.901274 0.940383 0.000000
0.000000 0.000000 0.122103
0.113329 0.000000 0.116075
0.259403 0.000000 0.102022
0.368658 0.000000 0.074693
0.467735 0.000000 0.052873
0.554971 0.000000 0.034318
0.631220 0.000000 0.020096
0.698726 0.000000 0.009003
0.759518 0.000000 0.000000
0.815457 0.000000 0.000000
0.867887 0.000000 0.000000
0.918029 0.000000 0.000000
0.966888 0.000000 0.000000
1.000000 0.000000 0.000000
1.000000 0.000000 0.000000
1.000000 0.000000 0.000000
0.000000 0.097444 0.102235
0.090227 0.090196 0.096193
0.200824 0.078248 0.088121
0.304555 0.056397 0.077913
0.399359 0.019150 0.067048
0.484489 0.000000 0.056260
0.560678 0.000000 0.045548
0.629862 0.000000 0.034745
0.693706 0.000000 0.024613
0.753613 0.000000 0.015030
0.810590 0.000000 0.005585
0.865568 0.000000 0.000000
0.919356 0.000000 0.000000
0.972747 0.000000 0.000000
1.000000 0.000000 0.000000
1.000000 0.000000 0.000000
0.000000 0.199268 0.051194
0.028244 0.189014 0.054612
0.171771 0.175738 0.043153
0.276783 0.158328 0.047089
0.362188 0.143709 0.052247
0.440970 0.128054 0.049378
0.516442 0.105943 0.040345
0.586511 0.078050 0.031159
0.652491 0.036774 0.022370
0.715297 0.000000 0.013581
0.775662 0.000000 0.004685
0.834180 0.000000 0.000000
0.891478 0.000000 0.000000
0.948241 0.000000 0.000000
1.000000 0.000000 0.000000
1.000000 0.000000 0.000000
0.000000 0.287831 0.000000
0.000000 0.275807 0.000000
0.100603 0.262135 0.000000
0.233387 0.245487 0.000000
0.339681 0.224109 0.000000
0.423880 0.205127 0.000000
0.497032 0.189288 0.000000
0.563516 0.176379 0.000000
0.625574 0.166308 0.004746
0.688899 0.150896 0.001190
0.752361 0.128588 0.000000
0.813886 0.100771 0.000000
0.873960 0.061616 0.000000
0.933227 0.000000 0.000000
0.992615 0.000000 0.000000
1.000000 0.000000 0.000000
0.000000 0.362860 0.000000
0.000000 0.350637 0.000000
0.000000 0.337545 0.000000
0.161334 0.323690 0.000000
0.287037 0.307546 0.000000
0.393698 0.287434 0.000000
0.480461 0.268330 0.000000
0.556085 0.251652 0.000000
0.625010 0.237079 0.000000
0.689265 0.224414 0.000000
0.750088 0.213382 0.000000
0.808240 0.203784 0.000000
0.864515 0.195239 0.000000
0.921324 0.184100 0.000000
0.982147 0.161547 0.000000
1.000000 0.132723 0.000000
0.000000 0.429007 0.000000
0.000000 0.418036 0.000000
0.000000 0.406699 0.000000
0.000839 0.395483 0.000000
0.220111 0.383490 0.000000
0.341115 0.369635 0.000000
0.446113 0.352728 0.000000
0.537713 0.334462 0.000000
0.616403 0.318288 0.000000
0.687739 0.303578 0.000000
0.753811 0.290196 0.000000
0.815885 0.278004 0.000000
0.875090 0.266773 0.000000
0.932387 0.256275 0.000000
0.988922 0.246235 0.000000
1.000000 0.236774 0.000000
0.000000 0.491081 0.000000
0.000000 0.482124 0.000000
0.000000 0.473091 0.000000
0.000000 0.464347 0.000000
0.117250 0.455451 0.000000
0.280797 0.445502 0.000000
0.397879 0.433692 0.000000
0.501396 0.419165 0.000000
0.595514 0.402121 0.000000
0.676112 0.386603 0.000000
0.748760 0.372168 0.000000
0.815686 0.358724 0.000000
0.878447 0.346166 0.000000
0.938735 0.334844 0.000000
0.997955 0.326452 0.000000
1.000000 0.318303 0.000000
0.000000 0.552239 0.000000
0.000000 0.545373 0.000000
0.000000 0.538460 0.000000
0.000000 0.531838 0.000000
0.000000 0.525154 0.000000
0.200000 0.517784 0.000000
0.343206 0.509071 0.000000
0.456535 0.498390 0.000000
0.557763 0.485328 0.000000
0.651469 0.469642 0.000000
0.733028 0.454459 0.000000
0.806409 0.440833 0.000000
0.874846 0.430411 0.000000
0.938582 0.420691 0.000000
0.999207 0.411566 0.000000
1.000000 0.402853 0.000000
0.000000 0.613504 0.000000
0.000000 0.608392 0.000000
0.000000 0.603204 0.000000
0.000000 0.598154 0.000000
0.000000 0.592981 0.000000
0.018036 0.587213 0.000000
0.275425 0.580392 0.000000
0.406394 0.572030 0.000000
0.515404 0.561852 0.000000
0.613794 0.550057 0.000000
0.706203 0.538293 0.000000
0.789456 0.525826 0.000000
0.862348 0.514794 0.000000
0.929168 0.504570 0.000000
0.991852 0.494987 0.000000
1.000000 0.485740 0.000000
0.000000 0.674708 0.000000
0.000000 0.670863 0.000000
0.000000 0.666880 0.000000
0.000000 0.662867 0.000000
0.000000 0.658625 0.000000
0.000000 0.653819 0.000000
0.178027 0.648081 0.000000
0.348196 0.641428 0.000000
0.472435 0.635157 0.000000
0.578332 0.627222 0.000000
0.673228 0.617807 0.000000
0.760067 0.607004 0.000000
0.840558 0.595041 0.000000
0.911467 0.584329 0.000000
0.977005 0.574319 0.000000
1.000000 0.564752 0.000000
0.000000 0.735180 0.000000
0.000000 0.732189 0.000000
0.000000 0.728954 0.000000
0.000000 0.725536 0.000000
0.000000 0.721782 0.000000
0.000000 0.717662 0.000000
0.000000 0.714412 0.000000
0.284855 0.710002 0.000000
0.428061 0.704356 0.000000
0.541299 0.697459 0.000000
0.639704 0.689403 0.000000
0.728283 0.680339 0.000000
0.809598 0.670375 0.000000
0.885466 0.659571 0.000000
0.955993 0.648707 0.000000
1.000000 0.638880 0.000000
0.000000 0.794369 0.000000
0.000000 0.791882 0.000000
0.000000 0.789044 0.000000
0.000000 0.786007 0.000000
0.000000 0.784070 0.000000
0.000000 0.781430 0.000000
0.000000 0.777935 0.000000
0.201175 0.773495 0.000000
0.379339 0.768109 0.000000
0.503014 0.761730 0.000000
0.606027 0.754528 0.000000
0.696910 0.746517 0.000000
0.779400 0.737881 0.000000
0.855833 0.728634 0.000000
0.928176 0.718746 0.000000
0.998016 0.708171 0.000000
0.000000 0.852064 0.000000
0.000000 0.849867 0.000000
0.000000 0.848478 0.000000
0.000000 0.846616 0.000000
0.000000 0.844129 0.000000
0.000000 0.840970 0.000000
0.000000 0.837125 0.000000
0.031662 0.832502 0.000000
0.325063 0.827131 0.000000
0.463462 0.821042 0.000000
0.572549 0.814298 0.000000
0.666377 0.807019 0.000000
0.750378 0.799283 0.000000
0.827604 0.791104 0.000000
0.900175 0.782528 0.000000
0.969985 0.773404 0.000000
0.000000 0.909438 0.000000
0.000000 0.908141 0.000000
0.000000 0.906218 0.000000
0.000000 0.903716 0.000000
0.000000 0.900633 0.000000
0.000000 0.896941 0.000000
0.000000 0.892668 0.000000
0.000000 0.887785 0.000000
0.261433 0.882322 0.000000
0.422538 0.876356 0.000000
0.539239 0.869932 0.000000
0.636667 0.863142 0.000000
0.722576 0.856046 0.000000
0.800778 0.848707 0.000000
0.873838 0.841047 0.000000
0.943679 0.833021 0.000000
0.000000 0.965667 0.000000
0.000000 0.963821 0.000000
0.000000 0.961303 0.000000
0.000000 0.958144 0.000000
0.000000 0.954421 0.000000
0.000000 0.950149 0.000000
0.000000 0.945418 0.000000
0.000000 0.940246 0.000000
0.178698 0.934661 0.000000
0.379400 0.928725 0.000000
0.505959 0.922515 0.000000
0.607813 0.916091 0.000000
0.696025 0.909499 0.000000
0.775433 0.902739 0.000000
0.849973 0.895476 0.000000
0.919936 0.888197 0.000000
0.000000 1.000000 0.000000
0.000000 1.000000 0.000000
0.000000 1.000000 0.000000
0.000000 1.000000 0.000000
0.000000 1.000000 0.000000
0.000000 1.000000 0.000000
0.000000 0.996414 0.000000
0.000000 0.990906 0.000000
0.000000 0.985168 0.000000
0.332937 0.979232 0.000000
0.472618 0.973144 0.000000
0.580270 0.966888 0.000000
0.673747 0.960067 0.000000
0.755764 0.953307 0.000000
0.830198 0.946654 0.000000
0.899611 0.940108 0.000000
0.000000 0.000000 0.325521
0.080705 0.000000 0.307774
0.253849 0.000000 0.278019
0.388800 0.000000 0.239994
0.507881 0.000000 0.201617
0.591455 0.000000 0.170291
0.664012 0.000000 0.147967
0.728405 0.000000 0.130846
0.786709 0.000000 0.116854
0.840742 0.000000 0.104891
0.891722 0.000000 0.094118
0.940703 0.000000 0.084092
0.988632 0.000000 0.074342
1.000000 0.000000 0.064469
1.000000 0.000000 0.053849
1.000000 0.000000 0.046784
0.000000 0.094560 0.275608
0.066438 0.082948 0.259449
0.211856 0.053605 0.236194
0.340780 0.000000 0.213703
0.441627 0.000000 0.183886
0.524102 0.000000 0.161120
0.597391 0.000000 0.143877
0.663935 0.000000 0.130098
0.725582 0.000000 0.118502
0.783673 0.000000 0.108415
0.839170 0.000000 0.099229
0.892897 0.000000 0.090608
0.945525 0.000000 0.082139
0.997818 0.000000 0.073518
1.000000 0.000000 0.064271
1.000000 0.000000 0.055833
0.000000 0.193347 0.214160
0.033722 0.183078 0.204028
0.169116 0.170626 0.191165
0.270954 0.154910 0.179370
0.362463 0.135439 0.166644
0.445655 0.111498 0.154772
0.521675 0.080980 0.144121
0.592264 0.035111 0.134585
0.658717 0.000000 0.125963
0.722026 0.000000 0.117998
0.782864 0.000000 0.110475
0.841779 0.000000 0.103151
0.899443 0.000000 0.095842
0.956420 0.000000 0.088319
1.000000 0.000000 0.080201
1.000000 0.000000 0.071153
0.000000 0.281209 0.160082
0.000000 0.269306 0.157046
0.119036 0.254414 0.154162
0.234760 0.239261 0.145602
0.326604 0.224002 0.144015
0.403601 0.212238 0.143557
0.478767 0.198978 0.137484
0.551019 0.183932 0.130602
0.619944 0.167330 0.124041
0.686183 0.148379 0.117647
0.750027 0.126009 0.111360
0.811917 0.097917 0.105058
0.872328 0.057572 0.098512
0.931930 0.000000 0.091600
0.991577 0.000000 0.083955
1.000000 0.000000 0.075303
0.000000 0.356115 0.089113
0.000000 0.344320 0.090745
0.000000 0.330663 0.093782
0.178088 0.316732 0.091585
0.290578 0.302251 0.076280
0.388418 0.285252 0.073915
0.468330 0.271275 0.088258
0.539727 0.259983 0.095918
0.605783 0.251057 0.101320
0.667964 0.244221 0.105776
0.733318 0.231907 0.100938
0.797269 0.217365 0.094636
0.859510 0.201007 0.087907
0.920638 0.182040 0.080552
0.981552 0.159319 0.072313
1.000000 0.130114 0.062608
0.000000 0.422919 0.000000
0.000000 0.412497 0.000000
0.000000 0.401129 0.000000
0.066987 0.389670 0.000000
0.231846 0.378622 0.000000
0.345373 0.365713 0.000000
0.446906 0.349859 0.000000
0.531991 0.334997 0.000000
0.606790 0.322377 0.000000
0.675242 0.311498 0.013962
0.739055 0.302159 0.027939
0.799344 0.294179 0.039567
0.857099 0.287266 0.048783
0.913207 0.281239 0.056046
0.971771 0.271458 0.053986
1.000000 0.257740 0.041444
0.000000 0.486076 0.000000
0.000000 0.477653 0.000000
0.000000 0.468772 0.000000
0.000000 0.459983 0.000000
0.141405 0.451637 0.000000
0.289082 0.442237 0.000000
0.402060 0.430900 0.000000
0.503700 0.416770 0.000000
0.593698 0.401450 0.000000
0.671168 0.388083 0.000000
0.741222 0.376104 0.000000
0.805982 0.365316 0.000000
0.867018 0.355581 0.000000
0.926314 0.348104 0.000000
0.984329 0.342336 0.000000
1.000000 0.336919 0.000000
0.000000 0.548348 0.000000
0.000000 0.541939 0.000000
0.000000 0.535302 0.000000
0.000000 0.528740 0.000000
0.000000 0.522408 0.000000
0.212146 0.515328 0.000000
0.349020 0.506844 0.000000
0.460136 0.496330 0.000000
0.560433 0.483284 0.000000
0.652125 0.468132 0.000000
0.731044 0.454444 0.000000
0.802853 0.443259 0.000000
0.869444 0.434348 0.000000
0.931502 0.426322 0.000000
0.990692 0.418891 0.000000
1.000000 0.411872 0.000000
0.000000 0.610620 0.000000
0.000000 0.605844 0.000000
0.000000 0.600946 0.000000
0.000000 0.596033 0.000000
0.000000 0.591058 0.000000
0.057939 0.585428 0.000000
0.282155 0.578683 0.000000
0.410300 0.570397 0.000000
0.518364 0.560250 0.000000
0.617105 0.549111 0.000000
0.709361 0.537057 0.000000
0.789639 0.525628 0.000000
0.860899 0.515435 0.000000
0.926131 0.506127 0.000000
0.987442 0.497566 0.000000
1.000000 0.489464 0.000000
0.000000 0.672572 0.000000
0.000000 0.669001 0.000000
0.000000 0.665278 0.000000
0.000000 0.661418 0.000000
0.000000 0.657267 0.000000
0.000000 0.652506 0.000000
0.185733 0.646860 0.000000
0.352972 0.640925 0.000000
0.475837 0.634531 0.000000
0.581201 0.626459 0.000000
0.675898 0.616815 0.000000
0.762753 0.605722 0.000000
0.841642 0.594110 0.000000
0.911177 0.583902 0.000000
0.975509 0.574456 0.000000
1.000000 0.565545 0.000000
0.000000 0.733577 0.000000
0.000000 0.730800 0.000000
0.000000 0.727794 0.000000
0.000000 0.724544 0.000000
0.000000 0.720821 0.000000
0.000000 0.717433 0.000000
0.000000 0.714092 0.000000
0.288411 0.709606 0.000000
0.430503 0.703838 0.000000
0.543374 0.696803 0.000000
0.641611 0.688594 0.000000
0.730205 0.679286 0.000000
0.811658 0.669047 0.000000
0.887755 0.657923 0.000000
0.956283 0.647730 0.000000
1.000000 0.638270 0.000000
0.000000 0.793133 0.000000
0.000000 0.790799 0.000000
0.000000 0.788190 0.000000
0.000000 0.785931 0.000000
0.000000 0.783948 0.000000
0.000000 0.781231 0.000000
0.000000 0.777646 0.000000
0.202655 0.773129 0.000000
0.380331 0.767620 0.000000
0.503899 0.761166 0.000000
0.607034 0.753796 0.000000
0.698039 0.745663 0.000000
0.780713 0.736797 0.000000
0.857389 0.727321 0.000000
0.929961 0.717174 0.000000
0.998734 0.706859 0.000000
0.000000 0.851057 0.000000
0.000000 0.849500 0.000000
0.000000 0.848341 0.000000
0.000000 0.846510 0.000000
0.000000 0.843961 0.000000
0.000000 0.840726 0.000000
0.000000 0.836789 0.000000
0.021118 0.832105 0.000000
0.323949 0.826673 0.000000
0.463004 0.820478 0.000000
0.572427 0.813672 0.000000
0.666545 0.806256 0.000000
0.750820 0.798383 0.000000
0.828351 0.790066 0.000000
0.901228 0.781262 0.000000
0.971328 0.771954 0.000000
0.000000 0.908949 0.000000
0.000000 0.907759 0.000000
0.000000 0.906065 0.000000
0.000000 0.903548 0.000000
0.000000 0.900404 0.000000
0.000000 0.896620 0.000000
0.000000 0.892271 0.000000
0.000000 0.887343 0.000000
0.257191 0.881834 0.000000
0.420371 0.875792 0.000000
0.537942 0.869322 0.000000
0.635874 0.862470 0.000000
0.722240 0.855283 0.000000
0.800763 0.847852 0.000000
0.874128 0.840070 0.000000
0.944289 0.831952 0.000000
0.000000 0.965103 0.000000
0.000000 0.963378 0.000000
0.000000 0.961089 0.000000
0.000000 0.957885 0.000000
0.000000 0.954086 0.000000
0.000000 0.949752 0.000000
0.000000 0.944945 0.000000
0.000000 0.939742 0.000000
0.167666 0.934127 0.000000
0.375296 0.928161 0.000000
0.503395 0.921950 0.000000
0.606134 0.915480 0.000000
0.694804 0.908843 0.000000
0.774746 0.902037 0.000000
0.848692 0.895079 0.000000
0.918944 0.887861 0.000000
0.000000 1.000000 0.000000
0.000000 1.000000 0.000000
0.000000 1.000000 0.000000
0.000000 1.000000 0.000000
0.000000 1.000000 0.000000
0.000000 1.000000 0.000000
0.000000 0.995850 0.000000
0.000000 0.990356 0.000000
0.000000 0.984604 0.000000
0.326299 0.978668 0.000000
0.468772 0.972610 0.000000
0.577111 0.966415 0.000000
0.668742 0.960204 0.000000
0.750118 0.953887 0.000000
0.825559 0.947234 0.000000
0.896773 0.940352 0.000000
0.000000 0.000000 0.531441
0.000000 0.000000 0.511177
0.223606 0.000000 0.466087
0.374136 0.000000 0.420249
0.497841 0.000000 0.374090
0.602670 0.000000 0.330571
0.692531 0.000000 0.292271
0.760143 0.000000 0.260319
0.816205 0.000000 0.236179
0.868360 0.000000 0.217548
0.917876 0.000000 0.202670
0.965713 0.000000 0.190509
1.000000 0.000000 0.180301
1.000000 0.000000 0.171435
1.000000 0.000000 0.163546
1.000000 0.000000 0.158099
0.000000 0.082002 0.474647
0.000000 0.064546 0.453834
0.189868 0.016358 0.416800
0.329915 0.000000 0.379705
0.449607 0.000000 0.344549
0.553521 0.000000 0.307988
0.636210 0.000000 0.273930
0.700374 0.000000 0.247257
0.759915 0.000000 0.227222
0.816205 0.000000 0.211643
0.870176 0.000000 0.199130
0.922545 0.000000 0.188785
0.973953 0.000000 0.180026
1.000000 0.000000 0.172381
1.000000 0.000000 0.165377
1.000000 0.000000 0.159579
0.000000 0.189334 0.382757
0.000000 0.178744 0.368063
0.150515 0.162615 0.344869
0.274388 0.139635 0.318807
0.388800 0.087388 0.300618
0.487892 0.000000 0.274739
0.563775 0.000000 0.250950
0.633173 0.000000 0.232807
0.698131 0.000000 0.218540
0.759884 0.000000 0.207065
0.819196 0.000000 0.197498
0.876585 0.000000 0.189410
0.932708 0.000000 0.182284
0.988128 0.000000 0.175830
1.000000 0.000000 0.169802
1.000000 0.000000 0.163928
0.000000 0.273274 0.311589
0.000000 0.261601 0.300435
0.119539 0.247486 0.284428
0.230488 0.233845 0.270542
0.326635 0.217334 0.258930
0.412421 0.199863 0.246082
0.491508 0.180575 0.234791
0.565560 0.159045 0.224933
0.635676 0.134066 0.216266
0.702678 0.103227 0.208652
0.766995 0.059815 0.201770
0.829114 0.000000 0.195560
0.889570 0.000000 0.189700
0.948959 0.000000 0.184131
1.000000 0.000000 0.178622
1.000000 0.000000 0.173022
0.000000 0.348669 0.255756
0.000000 0.337255 0.250645
0.000000 0.324041 0.244190
0.187976 0.309667 0.238422
0.291279 0.296574 0.231449
0.376013 0.285191 0.228901
0.450996 0.276143 0.226322
0.525521 0.265721 0.220478
0.597131 0.254627 0.215000
0.665995 0.242679 0.209751
0.732372 0.229572 0.204669
0.796582 0.215000 0.199802
0.859007 0.198474 0.194888
0.920241 0.179400 0.189944
0.981231 0.156283 0.184848
1.000000 0.126452 0.179400
0.000000 0.416434 0.196124
0.000000 0.406531 0.194537
0.000000 0.395636 0.192721
0.100450 0.383871 0.192340
0.247608 0.372045 0.191501
0.350469 0.360922 0.179355
0.443107 0.348058 0.177218
0.520470 0.337850 0.185901
0.590616 0.329778 0.190875
0.655833 0.323400 0.194629
0.719081 0.317067 0.195834
0.784482 0.306828 0.191241
0.847898 0.295659 0.186557
0.909926 0.283314 0.181735
0.971633 0.269474 0.176669
1.000000 0.256992 0.171038
0.000000 0.480827 0.130068
0.000000 0.472923 0.130755
0.000000 0.464469 0.131350
0.000000 0.455589 0.133211
0.176287 0.446021 0.136858
0.303334 0.437461 0.124300
0.409277 0.427054 0.107881
0.506828 0.413947 0.090806
0.588937 0.401907 0.117128
0.661631 0.391821 0.132097
0.728222 0.383200 0.142138
0.790356 0.375799 0.149752
0.849424 0.369528 0.155886
0.907637 0.366140 0.159380
0.964218 0.363516 0.162066
1.000000 0.357794 0.159731
0.000000 0.544366 0.019165
0.000000 0.538338 0.022980
