luts/Nemesis.cube
TITLE "Generated by Resolve"
LUT_3D_SIZE 5
0 0 0.0227359
0.134325 0 0
0.392676 0 0
0.608133 0 0
0.803128 0 0
0 0.247395 0.0603189
0.163516 0.196338 0
0.43418 0.194675 0.0041352
0.652674 0.20763 0.021561
0.848829 0.226764 0.0434119
0 0.49688 0.104952
0.201328 0.448417 0.0429694
0.471626 0.447349 0.0456397
0.693523 0.458946 0.0636301
0.891768 0.477363 0.0865492
0 0.745571 0.151781
0.245716 0.697932 0.092668
0.511528 0.698512 0.0929427
0.734035 0.710399 0.10901
0.933883 0.728389 0.131655
0 0.993927 0.200305
0.292149 0.946777 0.142977
0.554742 0.948318 0.142977
0.776043 0.960769 0.157137
0.976074 0.978836 0.178653
0 0.00291447 0.217258
0.137545 0 0.171481
0.400916 0 0.163561
0.616709 0 0.173999
0.811627 0 0.19234
0 0.25304 0.256825
0.162142 0.203662 0.205936
0.445808 0.199329 0.202258
0.662852 0.213046 0.216175
0.858595 0.232486 0.236378
0 0.502968 0.299367
0.202106 0.456184 0.238468
0.478904 0.453758 0.236011
0.703578 0.464729 0.255024
0.901823 0.483162 0.277928
0 0.752056 0.344427
0.248157 0.70547 0.285328
0.515206 0.706035 0.281788
0.741039 0.717037 0.297047
0.942443 0.734524 0.320058
0 1 0.392157
0.295674 0.954391 0.334142
0.558434 0.956069 0.331746
0.78117 0.968139 0.344442
0.982803 0.985641 0.365713
0 0.00717174 0.422538
0.136934 0 0.37937
0.404135 0 0.375616
0.622339 0 0.384207
0.818143 0 0.400641
0 0.257237 0.464439
0.173526 0.205905 0.425437
0.450843 0.203357 0.422751
0.670359 0.217105 0.429236
0.866148 0.236896 0.44567
0 0.507759 0.507607
0.206943 0.460639 0.458946
0.48925 0.456962 0.452323
0.714076 0.468223 0.466926
0.911101 0.487083 0.486671
0 0.757244 0.551965
0.251164 0.71133 0.497002
0.514824 0.713344 0.489311
0.747539 0.722591 0.501534
0.951461 0.739223 0.525444
0 1 0.598169
0.298726 0.960357 0.541909
0.559457 0.962936 0.53724
0.784115 0.974823 0.547173
0.988693 0.991608 0.567864
0 0.0113222 0.634394
0.138979 0 0.591882
0.404685 0 0.592386
0.62446 0 0.601999
0.821729 0 0.617929
0 0.26128 0.679072
0.179522 0.210651 0.639735
0.449363 0.209735 0.642939
0.672877 0.222095 0.651469
0.870848 0.241443 0.665965
0 0.511482 0.723339
0.216876 0.463035 0.681453
0.4869 0.46154 0.689937
0.718837 0.471458 0.697673
0.918227 0.490562 0.710475
0 0.761257 0.767803
0.25774 0.714672 0.720226
0.516701 0.717128 0.722042
0.757168 0.724743 0.727459
0.961624 0.741634 0.747341
0 1 0.813718
0.303349 0.96495 0.761944
0.560494 0.968261 0.759197
0.782773 0.981231 0.76437
0.993667 0.996414 0.781292
0 0.014725 0.851911
0.141512 0 0.809598
0.405173 0 0.812192
0.625254 0 0.824247
0.823621 0 0.841047
0 0.264881 0.898558
0.184375 0.214984 0.858518
0.449638 0.215274 0.863233
0.672312 0.227512 0.875212
0.872114 0.246174 0.891188
0 0.515114 0.944564
0.225177 0.4663 0.904051
0.490257 0.466346 0.911482
0.716503 0.477302 0.925292
0.919234 0.495094 0.940108
0 0.76495 0.989807
0.266224 0.71754 0.946517
0.527077 0.718883 0.953811
0.754177 0.729168 0.972473
0.964721 0.744671 0.987564
0 1 1
0.309926 0.968032 0.988159
0.5664 0.971084 0.991394
0.784405 0.984573 1
0.996094 0.999161 1
