luts/Nemesis.cube
TITLE "Generated by Resolve"
LUT_3D_SIZE 9
0 0 0.0227359
0 0 0
0.134325 0 0
0.271809 0 0
0.392676 0 0
0.503731 0 0
0.608133 0 0
0.7075 0 0
0.803128 0 0
0 0.122362 0.0398566
0 0.087068 0
0.150301 0.0682231 0
0.292546 0.0656748 0
0.414603 0.0685588 0
0.526513 0.0745556 0
0.63122 0.0822766 0.000900282
0.730694 0.0914778 0.0108644
0.826612 0.101732 0.0217746
0 0.247395 0.0603189
0 0.212543 0.0148775
0.163516 0.196338 0
0.310018 0.192523 0
0.43418 0.194675 0.0041352
0.547265 0.200244 0.0123598
0.652674 0.20763 0.021561
0.753002 0.216754 0.0321813
0.848829 0.226764 0.0434119
0 0.372183 0.0820935
0 0.337362 0.0374151
0.180865 0.322789 0.0182803
0.326955 0.319341 0.0181277
0.452873 0.320958 0.0240024
0.567071 0.326162 0.032517
0.673182 0.333288 0.0423743
0.774151 0.342199 0.0532082
0.870634 0.351965 0.0649882
0 0.49688 0.104952
0.0149538 0.462089 0.060914
0.201328 0.448417 0.0429694
0.345052 0.445533 0.0406958
0.471626 0.447349 0.0456397
0.586419 0.45211 0.0537423
0.693523 0.458946 0.0636301
0.794934 0.467674 0.0749371
0.891768 0.477363 0.0865492
0 0.621286 0.128084
0.0386816 0.586465 0.0850538
0.222919 0.573373 0.0677348
0.365209 0.570977 0.0648966
0.490974 0.57319 0.0688945
0.606149 0.577844 0.0763867
0.713726 0.584787 0.0857404
0.815641 0.593164 0.0969406
0.913024 0.602777 0.108873
0 0.745571 0.151781
0.0624704 0.710796 0.109392
0.245716 0.697932 0.092668
0.386282 0.696071 0.0896773
0.511528 0.698512 0.0929427
0.626093 0.70341 0.0997635
0.734035 0.710399 0.10901
0.836027 0.718685 0.1196
0.933883 0.728389 0.131655
0 0.869749 0.175952
0.0866712 0.835019 0.134249
0.268757 0.822385 0.117723
0.408408 0.820798 0.114992
0.532677 0.82356 0.117662
0.64712 0.82855 0.124086
0.754742 0.835676 0.133013
0.856992 0.843931 0.143084
0.955047 0.853605 0.15491
0 0.993927 0.200305
0.110994 0.959411 0.159274
0.292149 0.946777 0.142977
0.431403 0.945586 0.14052
0.554742 0.948318 0.142977
0.668513 0.953567 0.148791
0.776043 0.960769 0.157137
0.877989 0.969131 0.167117
0.976074 0.978836 0.178653
0 0.00158694 0.11899
0 0 0.0879072
0.138079 0 0.0671855
0.276509 0 0.0600137
0.39762 0 0.0616312
0.508492 0 0.066804
0.61297 0 0.0743572
0.712291 0 0.0832837
0.807889 0 0.093492
0 0.125139 0.136431
0 0.0889906 0.100435
0.158007 0.0695811 0.0813764
0.298222 0.0678264 0.078294
0.420172 0.0712291 0.0817884
0.531548 0.0771649 0.0877546
0.636286 0.0852216 0.0959335
0.735759 0.094377 0.105272
0.831403 0.10486 0.115969
0 0.250477 0.156405
0 0.215732 0.115541
0.165225 0.200305 0.0908064
0.31574 0.195148 0.0935836
0.439826 0.197406 0.0997024
0.552621 0.202914 0.10724
0.657801 0.21059 0.116274
0.757794 0.219593 0.126055
0.853758 0.229908 0.137224
0 0.375357 0.177798
0 0.341024 0.134997
0.181292 0.327108 0.113222
0.330526 0.322896 0.111421
0.457816 0.324071 0.117754
0.572442 0.329122 0.126574
0.678691 0.336217 0.136278
0.779385 0.345205 0.147204
0.875639 0.355108 0.158404
0 0.500069 0.199649
0.0170901 0.465782 0.157092
0.201923 0.45243 0.137041
0.347463 0.449485 0.133577
0.475227 0.450675 0.138216
0.591119 0.45539 0.14667
0.698314 0.462181 0.15668
0.800031 0.470832 0.167803
0.897032 0.480446 0.179812
0 0.624537 0.222385
0.0407568 0.59028 0.180163
0.224109 0.577218 0.161486
0.366918 0.575158 0.157412
0.493797 0.576745 0.160815
0.609812 0.581506 0.168353
0.717937 0.588037 0.178073
0.820157 0.596521 0.189303
0.917586 0.606012 0.20119
0 0.749126 0.245884
0.0648356 0.71458 0.203967
0.24712 0.702052 0.186282
0.38819 0.70016 0.182284
0.513664 0.702495 0.184909
0.62945 0.707164 0.19147
0.737606 0.713909 0.200595
0.840345 0.722133 0.211612
0.938277 0.731487 0.223301
0 0.873411 0.269673
0.0888991 0.838819 0.228031
0.270497 0.826459 0.211124
0.410239 0.824933 0.207309
0.535042 0.827573 0.209812
0.649729 0.832563 0.215518
0.758022 0.83949 0.224277
0.860502 0.847654 0.234638
0.958694 0.857038 0.246082
0 0.997559 0.29395
0.113176 0.963012 0.252506
0.294316 0.950729 0.236149
0.433143 0.949432 0.2327
0.556893 0.952422 0.234928
0.671229 0.957534 0.240391
0.779004 0.96466 0.248707
0.881498 0.972869 0.258595
0.979873 0.982483 0.270115
0 0.00291447 0.217258
0 0 0.187228
0.137545 0 0.171481
0.279118 0 0.163867
0.400916 0 0.163561
0.512291 0 0.167529
0.616709 0 0.173999
0.716274 0 0.182605
0.811627 0 0.19234
0 0.127611 0.236576
0 0.090547 0.205005
0.157733 0.0722515 0.194888
0.302632 0.0698558 0.184436
0.424598 0.0735943 0.184482
0.536049 0.0796521 0.188968
0.640742 0.0878157 0.196201
0.740032 0.0970779 0.204883
0.835569 0.107591 0.214786
0 0.25304 0.256825
0 0.217594 0.220737
0.162142 0.203662 0.205936
0.32224 0.196399 0.198871
0.445808 0.199329 0.202258
0.557702 0.205127 0.208026
0.662852 0.213046 0.216175
0.762585 0.22211 0.225727
0.858595 0.232486 0.236378
0 0.378149 0.277653
0 0.343618 0.238453
0.180209 0.330968 0.217395
0.333715 0.325628 0.210636
0.463416 0.326329 0.217975
0.577523 0.331228 0.226291
0.683787 0.338689 0.235782
0.784237 0.347478 0.245838
0.880552 0.357733 0.257069
0 0.502968 0.299367
0.0194858 0.468864 0.258762
0.202106 0.456184 0.238468
0.348135 0.453254 0.231708
0.478904 0.453758 0.236011
0.595728 0.457893 0.244923
0.703578 0.464729 0.255024
0.804822 0.473182 0.266041
0.901823 0.483162 0.277928
0 0.627558 0.321675
0.0431373 0.593484 0.280568
0.224811 0.580957 0.261555
0.367575 0.579065 0.255833
0.495872 0.580362 0.257816
0.613397 0.58468 0.265293
0.722118 0.591028 0.275303
0.824842 0.599359 0.286549
0.922499 0.608743 0.298711
0 0.752056 0.344427
0.0670024 0.717952 0.303258
0.248157 0.70547 0.285328
0.389044 0.704067 0.280247
0.515206 0.706035 0.281788
0.632059 0.710704 0.287892
0.741039 0.717037 0.297047
0.844236 0.725261 0.308263
0.942443 0.734524 0.320058
0 0.876539 0.368048
0.0910506 0.842252 0.326787
0.271702 0.829862 0.309468
0.411551 0.828702 0.305165
0.536095 0.831189 0.306401
0.651957 0.836194 0.311971
0.760616 0.842725 0.320104
0.863996 0.85095 0.33077
0.962646 0.860105 0.342504
0 1 0.392157
0.115511 0.96643 0.350729
0.295674 0.954391 0.334142
0.434516 0.953231 0.330114
0.558434 0.956069 0.331746
0.672984 0.961318 0.336645
0.78117 0.968139 0.344442
0.884199 0.976425 0.354421
0.982803 0.985641 0.365713
0 0.00503548 0.318853
0 0 0.288273
0.136721 0 0.275074
0.280018 0 0.269535
0.403098 0 0.268757
0.515236 0 0.271962
0.619944 0 0.277729
0.719783 0 0.285725
0.815244 0 0.294972
0 0.129747 0.338827
0 0.0925002 0.308858
0.156191 0.0759747 0.299474
0.303304 0.0727245 0.293339
0.427161 0.0757763 0.291234
0.539406 0.082063 0.294408
0.644099 0.0900282 0.300237
0.743877 0.0995499 0.308324
0.839445 0.109834 0.317845
0 0.255344 0.359762
0 0.219318 0.326879
0.169772 0.204013 0.319356
0.32491 0.198001 0.314458
0.450034 0.201144 0.31107
0.562173 0.207111 0.314427
0.667033 0.214954 0.320806
0.766964 0.224399 0.329412
0.862501 0.234668 0.339162
0 0.38056 0.380819
0.000762951 0.345586 0.344915
0.182727 0.332799 0.331334
0.33901 0.326925 0.321431
0.469902 0.32752 0.326329
0.583154 0.332937 0.332082
0.68893 0.340642 0.340169
0.788922 0.349676 0.349538
0.885145 0.359884 0.360067
0 0.50547 0.402304
0.0223697 0.471077 0.36408
0.20322 0.458976 0.346929
0.34638 0.457008 0.337209
0.482689 0.456291 0.338979
0.6009 0.459876 0.348302
0.708705 0.466804 0.35848
0.809979 0.475334 0.368795
0.906767 0.48539 0.380331
0 0.630259 0.424186
0.0455482 0.596124 0.384894
0.225818 0.58407 0.366934
0.366934 0.582605 0.359594
0.496696 0.583932 0.359258
0.6168 0.587152 0.366491
0.726833 0.593423 0.376913
0.829404 0.601434 0.388312
0.927199 0.611139 0.40032
0 0.754772 0.446845
0.0692302 0.720867 0.406928
0.249332 0.70869 0.389197
0.389395 0.707607 0.383307
0.515694 0.709743 0.382971
0.633646 0.713848 0.38822
0.744335 0.719982 0.397452
0.848051 0.727718 0.408392
0.946838 0.737102 0.420829
0 0.87921 0.469902
0.0933089 0.845243 0.429755
0.273014 0.833143 0.412253
0.412192 0.832258 0.407355
0.536812 0.834821 0.407614
0.653254 0.839734 0.412253
0.762875 0.846006 0.420172
0.867033 0.853971 0.430762
0.966186 0.86302 0.44239
0 1 0.49369
0.117494 0.969573 0.45304
0.297139 0.957443 0.436179
0.43566 0.956664 0.431907
0.559136 0.959548 0.43238
0.67422 0.964874 0.437095
0.782879 0.971527 0.444099
0.886702 0.97969 0.453956
0.986068 0.988693 0.465156
0 0.00717174 0.422538
0 0 0.391379
0.136934 0 0.37937
0.280049 0 0.375784
0.404135 0 0.375616
0.517006 0 0.37879
0.622339 0 0.384207
0.722164 0 0.391653
0.818143 0 0.400641
0 0.131853 0.443107
0 0.094728 0.413397
0.156863 0.0791943 0.403937
0.302571 0.0761578 0.400885
0.428183 0.0785534 0.399954
0.541527 0.084596 0.402457
0.646906 0.0924392 0.407492
0.746899 0.101946 0.415106
0.84268 0.112245 0.423789
0 0.257237 0.464439
0 0.221103 0.43331
0.173526 0.205905 0.425437
0.322591 0.201633 0.424857
0.450843 0.203357 0.422751
0.56492 0.209293 0.424186
0.670359 0.217105 0.429236
0.770321 0.226627 0.436759
0.866148 0.236896 0.44567
0 0.382498 0.486046
0.00556954 0.347341 0.452689
0.1888 0.333486 0.442924
0.337163 0.328939 0.446647
0.47277 0.328588 0.44329
0.58735 0.334493 0.443763
0.692943 0.342229 0.449012
0.793439 0.351537 0.457206
0.889235 0.361761 0.466667
0 0.507759 0.507607
0.0267491 0.472969 0.471931
0.206943 0.460639 0.458946
0.346593 0.458991 0.456306
0.48925 0.456962 0.452323
0.607202 0.460914 0.458885
0.714076 0.468223 0.466926
0.814832 0.477104 0.47628
0.911101 0.487083 0.486671
0 0.632593 0.529503
0.0488441 0.598199 0.492103
0.228397 0.586282 0.476905
0.366766 0.585351 0.471153
0.495491 0.587533 0.466529
0.620417 0.589502 0.471962
0.731838 0.59527 0.483192
0.83447 0.603281 0.494423
0.931899 0.61297 0.505928
0 0.757244 0.551965
0.0720531 0.723018 0.513283
0.251164 0.71133 0.497002
0.389303 0.71046 0.491371
0.514824 0.713344 0.489311
0.634623 0.717067 0.492363
0.747539 0.722591 0.501534
0.852308 0.729976 0.51281
0.951461 0.739223 0.525444
0 0.881788 0.574624
0.0957351 0.8477 0.535531
0.27483 0.835889 0.519127
0.412726 0.835126 0.513893
0.536645 0.838285 0.51313
0.653361 0.842939 0.515999
0.764553 0.84918 0.523217
0.86978 0.856535 0.533501
0.969955 0.865553 0.545571
0 1 0.598169
0.119966 0.972259 0.55845
0.298726 0.960357 0.541909
0.4365 0.959838 0.537423
0.559457 0.962936 0.53724
0.674571 0.968338 0.540856
0.784115 0.974823 0.547173
0.888609 0.982498 0.556329
0.988693 0.991608 0.567864
0 0.00926223 0.527779
0 0 0.495659
0.137774 0 0.484916
0.27985 0 0.482551
0.404486 0 0.48368
0.517815 0 0.487083
0.623896 0 0.492653
0.724056 0 0.499809
0.82031 0 0.508644
0 0.133913 0.549325
0 0.0970016 0.519219
0.158175 0.0822156 0.50956
0.302129 0.0791943 0.508095
0.427985 0.0816815 0.508995
0.542138 0.0871138 0.511711
0.648508 0.0949874 0.51693
0.74873 0.104173 0.52372
0.844923 0.114702 0.532296
0 0.259297 0.571038
0 0.222965 0.540597
0.176684 0.208286 0.532067
0.32192 0.204974 0.532387
0.450111 0.206485 0.53344
0.565484 0.211795 0.535439
0.67219 0.219486 0.539773
0.77261 0.228702 0.546334
0.868986 0.239109 0.554955
0 0.384497 0.592767
0.0104829 0.34905 0.560906
0.194064 0.334905 0.552377
0.33904 0.331533 0.554833
0.470634 0.331823 0.557168
0.588525 0.336675 0.558236
0.695659 0.344137 0.561593
0.796368 0.353536 0.568338
0.892439 0.363806 0.576516
0 0.50959 0.614603
0.0311131 0.474723 0.581094
0.212024 0.461601 0.570306
0.353201 0.459373 0.572671
0.486442 0.458732 0.579446
0.610361 0.461997 0.57847
0.718044 0.469352 0.58114
0.818952 0.478691 0.588083
0.915419 0.488746 0.597101
0 0.634714 0.636851
0.0526436 0.600153 0.60116
0.231952 0.587686 0.588479
0.369985 0.58677 0.587152
0.493843 0.589441 0.588647
0.626932 0.589975 0.587686
0.737682 0.59585 0.59617
0.839887 0.604532 0.605615
0.936782 0.614328 0.61593
0 0.759503 0.658976
0.0754711 0.725078 0.622232
0.253941 0.71339 0.608026
0.390982 0.712642 0.604227
0.513878 0.716136 0.603098
0.633036 0.720592 0.601572
0.750942 0.72462 0.609232
0.857374 0.731579 0.621515
0.956207 0.740719 0.633661
0 0.884047 0.681666
0.0986343 0.849867 0.643656
0.277165 0.838224 0.628717
0.413886 0.837613 0.624613
0.536355 0.841276 0.623804
0.652354 0.846357 0.624796
0.765301 0.852247 0.629938
0.872786 0.858961 0.639902
0.973983 0.867643 0.652399
0 1 0.705013
0.122499 0.97438 0.66601
0.300755 0.962875 0.650507
0.437385 0.962295 0.646433
0.559792 0.965911 0.646433
0.673899 0.97142 0.648524
0.784115 0.978149 0.653574
0.889921 0.985534 0.661845
0.991318 0.994278 0.673091
0 0.0113222 0.634394
0 0 0.602396
0.138979 0 0.591882
0.280171 0 0.590433
0.404685 0 0.592386
0.518318 0 0.596353
0.62446 0 0.601999
0.725383 0 0.609415
0.821729 0 0.617929
0 0.136004 0.656733
0 0.0990768 0.626017
0.160052 0.0849317 0.616785
0.302281 0.0823377 0.615976
0.427848 0.0847944 0.618097
0.542229 0.090074 0.62179
0.64921 0.097734 0.627237
0.749981 0.106752 0.634043
0.846677 0.117082 0.642512
0 0.26128 0.679072
0 0.22472 0.648508
0.179522 0.210651 0.639735
0.322484 0.207721 0.640345
0.449363 0.209735 0.642939
0.565194 0.214603 0.646525
0.672877 0.222095 0.651469
0.774044 0.231037 0.657832
0.870848 0.241443 0.665965
0 0.38645 0.701259
0.014847 0.350713 0.670146
0.198245 0.336751 0.661387
0.3411 0.333913 0.663294
0.469627 0.335103 0.667277
0.587182 0.339452 0.670771
0.696101 0.346654 0.674983
0.797681 0.355505 0.68098
0.894636 0.365896 0.688807
0 0.511482 0.723339
0.0356603 0.476387 0.690867
0.216876 0.463035 0.681453
0.358282 0.460731 0.683909
0.4869 0.46154 0.689937
0.608118 0.464775 0.694774
0.718837 0.471458 0.697673
0.821149 0.480201 0.702907
0.918227 0.490562 0.710475
0 0.636439 0.745495
0.0570535 0.601755 0.711833
0.236713 0.589059 0.700633
0.375311 0.587701 0.701946
0.500679 0.589456 0.70811
0.624292 0.591791 0.717189
0.740719 0.596719 0.718425
0.843793 0.605676 0.722515
0.940764 0.615717 0.730098
0 0.761257 0.767803
0.0790875 0.726955 0.732616
0.25774 0.714672 0.720226
0.394705 0.714031 0.719249
0.516701 0.717128 0.722042
0.631479 0.72253 0.726726
0.757168 0.724743 0.727459
0.863462 0.732158 0.737346
0.961624 0.741634 0.747341
0 0.886137 0.790555
0.101991 0.851804 0.754192
0.280079 0.840101 0.740475
0.416297 0.839551 0.737957
0.537438 0.843091 0.738842
0.65095 0.84918 0.740505
0.762982 0.855436 0.741375
0.875669 0.861097 0.749889
0.978607 0.868879 0.762768
0 1 0.813718
0.125292 0.976532 0.776135
0.303349 0.96495 0.761944
0.439414 0.964446 0.758724
0.560494 0.968261 0.759197
0.673503 0.974243 0.761364
0.782773 0.981231 0.76437
0.890211 0.988556 0.770611
0.993667 0.996414 0.781292
0 0.0132296 0.742901
0 0 0.710689
0.140154 0 0.699794
0.280812 0 0.699184
0.4047 0 0.701762
0.518624 0 0.706477
0.624887 0 0.71281
0.726207 0 0.720455
0.822858 0 0.729015
0 0.137896 0.765408
0 0.101274 0.734798
0.161776 0.0873579 0.72488
0.303014 0.0852216 0.724895
0.42768 0.0875563 0.727733
0.542351 0.0929732 0.732418
0.649134 0.100313 0.738048
0.750729 0.109346 0.745785
0.847532 0.119387 0.753964
0 0.263172 0.788403
0 0.226749 0.757565
0.181979 0.213046 0.748486
0.323644 0.210483 0.749142
0.449271 0.212772 0.75285
0.564752 0.217639 0.757427
0.672755 0.224887 0.763226
0.774487 0.233677 0.770062
0.871565 0.243656 0.778164
0 0.388342 0.810803
0.0188144 0.3523 0.779812
0.201831 0.33872 0.770993
0.343175 0.336156 0.772641
0.46981 0.338033 0.77731
0.586343 0.34255 0.7823
0.695521 0.349538 0.787854
0.79794 0.358099 0.794247
0.89575 0.368109 0.802136
0 0.513329 0.833448
0.0394903 0.477821 0.801495
0.221408 0.464561 0.792584
0.361715 0.462318 0.794385
0.488457 0.464012 0.800519
0.606653 0.467903 0.806638
0.717632 0.474357 0.812345
0.82121 0.482628 0.818219
0.919432 0.492699 0.825391
0 0.638315 0.855711
0.0609751 0.603311 0.82295
0.241184 0.590494 0.812863
0.380194 0.588739 0.81474
0.505257 0.590784 0.821195
0.624247 0.594247 0.829572
0.737942 0.599771 0.836194
0.843748 0.607477 0.841047
0.942763 0.61738 0.847379
0 0.763119 0.878202
0.0830701 0.728603 0.844129
0.262074 0.716075 0.833143
0.399512 0.715114 0.833982
0.522072 0.717815 0.839139
0.63827 0.722347 0.848203
0.753964 0.726574 0.858625
0.865614 0.732692 0.862119
0.96527 0.742565 0.867002
0 0.887861 0.900664
0.105623 0.853544 0.865888
0.283635 0.841459 0.8533
0.420127 0.840925 0.85272
0.541253 0.844205 0.856245
0.653895 0.850156 0.861891
0.7617 0.857114 0.868482
0.881743 0.861158 0.871
0.984833 0.869154 0.881392
0 1 0.923796
0.128603 0.978378 0.887602
0.306279 0.966461 0.874495
0.442267 0.966186 0.872862
0.562585 0.969848 0.874846
0.674601 0.976181 0.878691
0.781247 0.983749 0.882475
0.887495 0.991913 0.885069
0.995682 0.998611 0.893126
0 0.014725 0.851911
0 0 0.820142
0.141512 0 0.809598
0.281636 0 0.809293
0.405173 0 0.812192
0.518837 0 0.817594
0.625254 0 0.824247
0.726589 0 0.832074
0.823621 0 0.841047
0 0.139803 0.875273
0 0.103456 0.844556
0.163577 0.0897383 0.83444
0.30399 0.087953 0.83476
0.428 0.0903944 0.838117
0.542397 0.0958419 0.843519
0.649348 0.103044 0.850141
0.751019 0.112047 0.857923
0.848081 0.121981 0.866346
0 0.264881 0.898558
0.00131228 0.22887 0.867857
0.184375 0.214984 0.858518
0.325063 0.213077 0.859098
0.449638 0.215274 0.863233
0.564614 0.220539 0.868681
0.672312 0.227512 0.875212
0.774487 0.236393 0.882902
0.872114 0.246174 0.891188
0 0.390173 0.921798
0.0223392 0.354162 0.890837
0.204807 0.340475 0.881544
0.345342 0.338476 0.883101
0.470405 0.34049 0.887587
0.586206 0.345434 0.893782
0.69485 0.352148 0.900298
0.797803 0.3608 0.907835
0.895781 0.37052 0.915724
0 0.515114 0.944564
0.0435798 0.479454 0.913024
0.225177 0.4663 0.904051
0.365103 0.464149 0.905882
0.490257 0.466346 0.911482
0.606638 0.470771 0.91809
0.716503 0.477302 0.925292
0.820417 0.485481 0.932433
0.919234 0.495094 0.940108
0 0.640101 0.967178
0.0649424 0.604791 0.934859
0.245487 0.592004 0.925338
0.384207 0.590188 0.927275
0.508858 0.592523 0.93344
0.625406 0.596719 0.941482
0.736919 0.602747 0.949767
0.842496 0.610269 0.956939
0.942489 0.619791 0.964233
0 0.76495 0.989807
0.0867781 0.729946 0.956573
0.266224 0.71754 0.946517
0.403891 0.716121 0.947707
0.527077 0.718883 0.953811
0.642435 0.723354 0.962631
0.754177 0.729168 0.972473
0.862425 0.73579 0.980865
0.964721 0.744671 0.987564
0 0.889723 1
0.109102 0.855039 0.978469
0.287526 0.842924 0.967193
0.424094 0.841993 0.967544
0.545892 0.845212 0.97261
0.659052 0.850462 0.980301
0.768414 0.856886 0.990982
0.877729 0.862898 1
0.986023 0.870024 1
0 1 1
0.132235 0.980072 1
0.309926 0.968032 0.988159
0.446006 0.96759 0.987884
0.5664 0.971084 0.991394
0.67834 0.977172 0.997635
0.784405 0.984573 1
0.887098 0.993072 1
0.996094 0.999161 1
