luts/Nemesis.cube
TITLE "Generated by Resolve"
LUT_3D_SIZE 33
0 0 0.0227359
0 0 0.0198825
0 0 0.0150301
0 0 0.00466926
0 0 0
0.00376898 0 0
0.0524453 0 0
0.0951247 0 0
0.134325 0 0
0.171283 0 0
0.206149 0 0
0.239231 0 0
0.271809 0 0
0.303243 0 0
0.333867 0 0
0.363653 0 0
0.392676 0 0
0.421286 0 0
0.449149 0 0
0.476707 0 0
0.503731 0 0
0.530526 0 0
0.556817 0 0
0.582742 0 0
0.608133 0 0
0.633387 0 0
0.658366 0 0
0.68307 0 0
0.7075 0 0
0.731929 0 0
0.755871 0 0
0.779599 0 0
0.803128 0 0
0 0.029221 0.0265965
0 0.0262608 0.0232853
0 0.0212863 0.0184482
0 0.0106508 0.00724804
0 0 0
0.0055848 0 0
0.056199 0 0
0.0990616 0 0
0.138643 0 0
0.175647 0 0
0.210925 0 0
0.244663 0 0
0.277378 0 0
0.308873 0 0
0.339437 0 0
0.369192 0 0
0.398444 0 0
0.426917 0 0
0.455009 0 0
0.482414 0 0
0.509544 0 0
0.536278 0 0
0.562585 0 0
0.58854 0 0
0.614145 0 0
0.639429 0 0
0.664393 0 0
0.689067 0 0
0.713512 0 0
0.738048 0.000198367 0
0.762142 0.00288396 3.0518e-05
0.786114 0.00538643 0.00282292
0.809552 0.00805676 0.0053254
0 0.0603799 0.0309911
0 0.0574502 0.0276646
0 0.0525826 0.0223697
0 0.0420844 0.0107576
0 0.023743 0
0.00170901 0.016083 0
0.0584573 0.00923171 0
0.103182 0.00593576 0
0.143267 0.00402838 0
0.180789 0.00282292 0
0.216114 0.00222782 0
0.250065 0.00207523 0
0.282872 0.00242618 0
0.314443 0.00292973 0
0.345052 0.00366217 0
0.375036 0.00453193 0
0.404334 0.00561532 0
0.432792 0.0069276 0
0.460883 0.00833143 0
0.488319 0.00993362 0
0.515511 0.0117647 0
0.542473 0.013611 0
0.568612 0.0155489 0
0.594461 0.0175784 0
0.62005 0.0196689 0
0.645457 0.0218051 0
0.670405 0.0240787 0
0.695064 0.0264286 0
0.719738 0.0288701 0.000198367
0.744045 0.0315404 0.00294499
0.767956 0.0340887 0.00535592
0.791684 0.0366522 0.00813306
0.815229 0.0392767 0.0109865
0 0.0915541 0.0355535
0 0.0881056 0.0315862
0 0.0833906 0.0261082
0 0.0731823 0.0141299
0 0.0555123 0
0.00309758 0.0486915 0
0.0595407 0.0421912 0
0.106142 0.0382696 0
0.147082 0.0360418 0
0.184939 0.034699 0
0.220752 0.0339361 0
0.254841 0.033875 0
0.287724 0.0340734 0
0.319387 0.0344854 0
0.35021 0.0351263 0
0.380163 0.0360113 0
0.409522 0.0370642 0
0.438224 0.0382849 0
0.466178 0.0397345 0
0.493889 0.0413519 0
0.521004 0.0432288 0
0.54789 0.0449531 0
0.574197 0.0468452 0
0.600153 0.0488441 0
0.625528 0.0509804 0
0.65098 0.0531014 0
0.67599 0.0553902 0.00047303
0.700664 0.0577249 0.00296025
0.725383 0.0603037 0.00556954
0.74966 0.0627909 0.00830091
0.773556 0.0653239 0.010956
0.797253 0.0679332 0.0134432
0.82089 0.0705119 0.0164034
0 0.122362 0.0398566
0 0.119478 0.0363012
0 0.114931 0.0307469
0 0.104723 0.0185855
0 0.087068 0
0.00653086 0.0806287 0
0.0608225 0.0749371 0
0.108614 0.0706951 0
0.150301 0.0682231 0
0.188861 0.0666361 0
0.224933 0.0657664 0
0.259586 0.0656443 0
0.292546 0.0656748 0
0.324361 0.0660258 0
0.355184 0.0666514 0
0.385168 0.0675212 0
0.414603 0.0685588 0
0.443397 0.0697337 0
0.471504 0.0711223 0
0.499062 0.0726635 0
0.526513 0.0745556 0
0.553094 0.0763714 0
0.579599 0.0781872 0
0.60557 0.0801709 0
0.63122 0.0822766 0.000900282
0.65658 0.0844129 0.00334173
0.681636 0.086656 0.00567636
0.706203 0.0890211 0.00822461
0.730694 0.0914778 0.0108644
0.75523 0.0940719 0.0136263
0.779156 0.0965896 0.0163119
0.802853 0.0991684 0.0190585
0.826612 0.101732 0.0217746
0 0.153674 0.0447852
0 0.15079 0.0413672
0 0.146151 0.035523
0 0.136126 0.0230106
0 0.118532 0
0.0110018 0.11223 0
0.0634165 0.107149 0
0.110979 0.103075 0
0.153475 0.100374 0
0.192477 0.0986496 0
0.229084 0.097612 0
0.263737 0.0973373 0
0.297017 0.0973678 0
0.329 0.097673 0
0.35996 0.0982528 0
0.390265 0.0990158 0
0.419608 0.100053 0
0.448386 0.101228 0
0.476722 0.102541 0
0.504356 0.104189 0
0.531762 0.105974 0
0.558556 0.107713 0
0.585077 0.10956 0.00169375
0.610956 0.111559 0.00396735
0.636622 0.113634 0.00605783
0.661952 0.11577 0.0084535
0.687144 0.117937 0.0111086
0.711894 0.120287 0.0134279
0.736538 0.12285 0.0162203
0.760952 0.125277 0.0191043
0.784909 0.12781 0.0215915
0.808621 0.130388 0.0243687
0.83212 0.133013 0.0271916
0 0.184939 0.0500343
0 0.182101 0.0462959
0 0.177569 0.0404364
0 0.167437 0.0276951
0 0.149874 0.00450141
0.0156558 0.143725 0
0.0669261 0.138979 0
0.113909 0.135164 0
0.156573 0.132448 0
0.196048 0.130602 0
0.232944 0.12961 0
0.26807 0.129168 0
0.301503 0.12903 0
0.333684 0.129259 0
0.364797 0.129778 0
0.39501 0.130556 0
0.424445 0.131563 0
0.453407 0.132692 0
0.481788 0.134035 0
0.509804 0.135714 0.000289921
0.536934 0.137392 0.00241093
0.563775 0.139116 0.00440986
0.590234 0.140948 0.0065156
0.616434 0.14284 0.0089723
0.641917 0.14493 0.0113832
0.667292 0.147082 0.0135805
0.692485 0.149248 0.0162356
0.717418 0.15169 0.0189975
0.742016 0.154177 0.0215
0.766247 0.156619 0.0242161
0.790387 0.15906 0.0271153
0.81413 0.161639 0.0296788
0.837644 0.164263 0.0325322
0 0.216159 0.0551308
0 0.213397 0.0515297
0 0.208988 0.0455329
0 0.198734 0.0327459
0 0.181216 0.00968948
0.0206455 0.175189 0.000549325
0.0709087 0.170703 0
0.117189 0.167147 0
0.159823 0.164492 0
0.199466 0.1626 0
0.236973 0.161608 0
0.272038 0.161013 0
0.305699 0.1608 0
0.338064 0.160967 0
0.369345 0.16144 0
0.399695 0.162158 0
0.42945 0.163058 0
0.458335 0.164263 0.00106813
0.486839 0.165499 0.00303655
0.51487 0.167208 0.00520333
0.542229 0.16878 0.00729381
0.568933 0.170535 0.00952163
0.595407 0.172351 0.0117647
0.621698 0.174228 0.0140536
0.647425 0.176257 0.0164492
0.672755 0.178393 0.0189364
0.697704 0.180652 0.0212863
0.722698 0.182895 0.0241093
0.747433 0.185489 0.0269932
0.771695 0.18793 0.0294804
0.79585 0.190356 0.0324254
0.819623 0.19292 0.0352483
0.843229 0.195544 0.0378729
0 0.247395 0.0603189
0 0.244633 0.0565042
0 0.240208 0.0508431
0 0.230015 0.0377203
0 0.212543 0.0148775
0.0259709 0.2065 0.00613413
0.0755627 0.202243 0.000274662
0.121172 0.198886 0
0.163516 0.196338 0
0.203189 0.194476 0
0.240558 0.193378 0
0.276158 0.192798 0
0.310018 0.192523 0
0.342504 0.192645 0
0.374029 0.193088 0.000732433
0.404517 0.193759 0.00239567
0.43418 0.194675 0.0041352
0.46334 0.195758 0.00581369
0.491707 0.197101 0.0078584
0.520012 0.198611 0.0102693
0.547265 0.200244 0.0123598
0.574228 0.201923 0.0144656
0.600671 0.203754 0.0167849
0.62678 0.205661 0.0192569
0.652674 0.20763 0.021561
0.678096 0.209735 0.0240787
0.703212 0.211933 0.0266575
0.728374 0.214313 0.0293889
0.753002 0.216754 0.0321813
0.777279 0.219165 0.0349279
0.80145 0.221622 0.0376135
0.825269 0.224155 0.0405127
0.848829 0.226764 0.0434119
0 0.278584 0.0658122
0 0.275929 0.061799
0 0.271443 0.0560159
0 0.26128 0.0430152
0 0.243778 0.0203098
0.0310979 0.237858 0.0119326
0.080293 0.233722 0.00613413
0.125338 0.230549 0.00280766
0.167376 0.228168 0.000823987
0.207004 0.226413 0.000335698
0.244694 0.22533 0.000762951
0.280125 0.224643 0.0016022
0.314153 0.224323 0.00273136
0.346838 0.224369 0.00410468
0.378424 0.22475 0.00543221
0.409049 0.225406 0.00715648
0.438987 0.226215 0.00892653
0.468055 0.227298 0.0108797
0.496666 0.228763 0.0128786
0.524819 0.230182 0.0151064
0.552438 0.231662 0.0173953
0.579263 0.233371 0.0196994
0.605859 0.235157 0.0218051
0.632044 0.237049 0.0242161
0.657847 0.239017 0.0269169
0.683345 0.241123 0.0292363
0.708598 0.243412 0.0319524
0.733639 0.245792 0.0348058
0.758358 0.248096 0.0374151
0.78265 0.250507 0.0401923
0.806699 0.252995 0.0430152
0.830701 0.255467 0.0458381
0.854292 0.258076 0.0487678
0 0.309804 0.0711376
0 0.307225 0.0674601
0 0.302632 0.0613107
0 0.29247 0.0483101
0 0.274983 0.0260929
0.0365301 0.269139 0.0176699
0.0852216 0.26511 0.012192
0.12987 0.262104 0.00846876
0.171695 0.259785 0.00639353
0.211276 0.258244 0.00576791
0.248631 0.257115 0.00590524
0.284306 0.256352 0.00653086
0.318334 0.256046 0.00761425
0.35108 0.256092 0.00895705
0.382834 0.256413 0.0104982
0.413703 0.256977 0.0120851
0.44361 0.257832 0.0137942
0.472755 0.258869 0.0157778
0.501701 0.260304 0.0180514
0.52961 0.261723 0.0200961
0.557366 0.263157 0.0224002
0.584451 0.26479 0.0246891
0.610895 0.26659 0.0271153
0.637156 0.268482 0.0293126
0.663142 0.270405 0.0319524
0.688716 0.272465 0.0345922
0.713848 0.274662 0.0370031
0.738872 0.277195 0.0399786
0.763638 0.279438 0.0429084
0.787991 0.281849 0.0454719
0.81207 0.284321 0.0483253
0.836088 0.286778 0.0514076
0.859709 0.289387 0.0541085
0 0.341024 0.0763867
0 0.33846 0.0729076
0 0.333867 0.0667277
0 0.323659 0.0537118
0 0.306188 0.0317235
0.0420691 0.300374 0.0234836
0.0905165 0.296391 0.0181888
0.134569 0.293584 0.0143893
0.176074 0.291356 0.0122683
0.21532 0.289754 0.0114748
0.252903 0.288762 0.0114748
0.288396 0.28806 0.0119783
0.322606 0.287724 0.012665
0.35552 0.287724 0.0139162
0.38732 0.288045 0.0154421
0.418158 0.288609 0.0171359
0.448142 0.289418 0.0189975
0.477607 0.29041 0.0207065
0.506355 0.291798 0.0229801
0.5346 0.293187 0.0251926
0.562127 0.294697 0.0275578
0.589395 0.296269 0.0297551
0.616098 0.298009 0.0321508
0.642191 0.299901 0.0346838
0.668132 0.301885 0.0369879
0.693858 0.303868 0.039765
0.719203 0.306127 0.0425422
0.744289 0.308522 0.0451667
0.769085 0.310765 0.0480964
0.793469 0.313146 0.0509346
0.817594 0.315618 0.0535744
0.84155 0.318105 0.0565805
0.865278 0.320638 0.0596323
0 0.372183 0.0820935
0 0.369574 0.0783093
0 0.365026 0.0721904
0 0.354803 0.0594339
0 0.337362 0.0374151
0.0475776 0.331594 0.0293431
0.0957351 0.327688 0.0241703
0.139666 0.32491 0.020325
0.180865 0.322789 0.0182803
0.22002 0.321401 0.0172732
0.25716 0.320378 0.0170138
0.29279 0.319661 0.017319
0.326955 0.319341 0.0181277
0.359777 0.319371 0.0193332
0.39173 0.319661 0.0205234
0.422782 0.320165 0.0221561
0.452873 0.320958 0.0240024
0.482322 0.322087 0.0261082
0.511299 0.323354 0.0281071
0.539361 0.324712 0.0302739
0.567071 0.326162 0.032517
0.594263 0.327733 0.0350958
0.621057 0.329473 0.0372931
0.647395 0.331304 0.0397803
0.673182 0.333288 0.0423743
0.699031 0.335332 0.0450141
0.724483 0.337652 0.0478828
0.749462 0.339879 0.0506294
0.774151 0.342199 0.0532082
0.798733 0.344503 0.0562295
0.822873 0.346944 0.0591135
0.846784 0.349462 0.0618296
0.870634 0.351965 0.0649882
0 0.403433 0.0877394
0 0.400732 0.0840009
0 0.39617 0.0776989
0 0.385946 0.0650034
0 0.368521 0.0434119
0.0531472 0.362783 0.0355077
0.101061 0.358984 0.030045
0.144701 0.356237 0.0266117
0.185809 0.354345 0.0244144
0.224659 0.352972 0.023209
0.261784 0.351888 0.0226902
0.297169 0.351278 0.0229038
0.33135 0.350958 0.0235599
0.36434 0.350942 0.0246128
0.396262 0.351232 0.0259861
0.427237 0.351766 0.0275578
0.457404 0.35256 0.0291752
0.487251 0.353735 0.0313268
0.515969 0.354894 0.0334325
0.544152 0.356207 0.0356298
0.571878 0.357671 0.0376745
0.599252 0.359213 0.040116
0.625971 0.360922 0.0426947
0.652384 0.362753 0.0449683
0.678386 0.364675 0.0475471
0.704097 0.36669 0.0502327
0.729747 0.369039 0.0531167
0.75462 0.371283 0.0559091
0.779339 0.373556 0.0587167
0.803967 0.375875 0.0615396
0.828138 0.378302 0.0644541
0.852064 0.380804 0.0674144
0.875959 0.383307 0.0703593
0 0.434669 0.0934157
0 0.431861 0.0896773
0 0.427283 0.0835279
0 0.417075 0.0706493
0.00349432 0.399741 0.0493172
0.0589761 0.393927 0.041413
0.106508 0.390204 0.0362249
0.149905 0.387564 0.0327001
0.190631 0.385611 0.0303349
0.229618 0.384375 0.0291295
0.266407 0.383413 0.0285496
0.301793 0.382803 0.0284886
0.335683 0.382574 0.0290379
0.368673 0.382589 0.0299992
0.400671 0.382834 0.0313268
0.431785 0.383337 0.0329137
0.46215 0.38407 0.034638
0.491737 0.385168 0.0366217
0.520714 0.386419 0.0386358
0.549035 0.387701 0.0408179
0.576654 0.389166 0.0431373
0.604013 0.390738 0.0452583
0.631067 0.392355 0.0478828
0.657404 0.394186 0.0504311
0.683391 0.396124 0.0527962
0.709163 0.398199 0.0555276
0.734874 0.400412 0.0585946
0.759945 0.402625 0.0611429
0.784695 0.404898 0.0639811
0.809262 0.407202 0.0669566
0.833555 0.409613 0.0697337
0.857527 0.4121 0.0727092
0.881285 0.414633 0.0757763
0 0.46566 0.0991684
0 0.463035 0.09514
0 0.458396 0.0891585
0 0.448188 0.0764782
0.00910964 0.430945 0.0549783
0.0646372 0.425086 0.0473793
0.111986 0.421424 0.0423133
0.155383 0.418769 0.0387427
0.196017 0.416999 0.0366369
0.234485 0.415747 0.0353857
0.270985 0.414878 0.0345922
0.306294 0.414313 0.0344396
0.340368 0.414054 0.0348669
0.373312 0.414084 0.0357214
0.405264 0.414389 0.0367285
0.436408 0.414893 0.0382391
0.466804 0.415702 0.040116
0.496513 0.4168 0.0421607
0.52549 0.417899 0.0441596
0.55375 0.419211 0.0461128
0.581643 0.420615 0.0483711
0.60882 0.422217 0.0507668
0.635874 0.42385 0.0530861
0.66244 0.425605 0.0556802
0.688563 0.427512 0.0582895
0.714351 0.429755 0.0609445
0.739879 0.431861 0.063859
0.765026 0.434012 0.0667124
0.789822 0.436286 0.0693217
0.814343 0.438636 0.072221
0.838758 0.44097 0.0753338
0.86276 0.443458 0.0780957
0.886503 0.446006 0.0811322
0 0.49688 0.104952
0 0.494148 0.100832
0 0.489509 0.0948653
0 0.479316 0.0822614
0.0149538 0.462089 0.060914
0.0703136 0.45626 0.0533761
0.11754 0.452613 0.0484016
0.160845 0.450111 0.0449683
0.201328 0.448417 0.0429694
0.239384 0.44715 0.0413519
0.276005 0.446265 0.0404974
0.311055 0.445777 0.0403601
0.345052 0.445533 0.0406958
0.377951 0.445579 0.0414435
0.409873 0.445899 0.0425574
0.440909 0.446433 0.0439612
0.471626 0.447349 0.0456397
0.501335 0.448295 0.0475776
0.530205 0.449424 0.0495918
0.558679 0.45066 0.0516976
0.586419 0.45211 0.0537423
0.613855 0.453635 0.0560769
0.640696 0.455329 0.0585489
0.667369 0.457069 0.0610361
0.693523 0.458946 0.0636301
0.719554 0.461189 0.0665446
0.745007 0.463279 0.0691081
0.770153 0.465415 0.0720684
0.794934 0.467674 0.0749371
0.819486 0.470024 0.0776074
0.843946 0.472343 0.0807355
0.867964 0.474815 0.0837415
0.891768 0.477363 0.0865492
0 0.527993 0.110613
0 0.525246 0.106752
0 0.520607 0.10074
0 0.510475 0.087953
0.020798 0.493187 0.0670787
0.0760967 0.487404 0.0594492
0.123354 0.483757 0.0544747
0.166186 0.481224 0.0512703
0.206546 0.479713 0.049073
0.244663 0.478447 0.0473793
0.28101 0.477638 0.0465705
0.316136 0.477119 0.0463111
0.350042 0.476936 0.0465705
0.382757 0.477043 0.0472725
0.41471 0.477348 0.0482643
0.445808 0.477897 0.0495918
0.476143 0.478737 0.0512398
0.506004 0.47982 0.0531014
0.535149 0.480873 0.0550546
0.563439 0.482155 0.0571756
0.591409 0.483528 0.0593729
0.618692 0.48513 0.0615244
0.645701 0.486763 0.0639353
0.672435 0.488472 0.0665904
0.698497 0.49041 0.0691081
0.724483 0.492561 0.0719005
0.750027 0.494682 0.0746929
0.775387 0.496788 0.0774395
0.800244 0.499031 0.080293
0.824811 0.501335 0.0832074
0.849195 0.503716 0.0859998
0.873365 0.506127 0.089128
0.897169 0.508659 0.0921035
0 0.559136 0.11632
0 0.556329 0.11252
0 0.551766 0.106447
0 0.541573 0.0937972
0.0268711 0.524254 0.0730144
0.0818647 0.518547 0.065507
0.129 0.514931 0.0606088
0.172 0.512474 0.0574807
0.211994 0.510948 0.0550851
0.249897 0.509743 0.0535439
0.286152 0.508965 0.0526894
0.321126 0.508492 0.0524605
0.354955 0.508339 0.0525826
0.387717 0.508446 0.0531472
0.419577 0.508797 0.0541085
0.450599 0.509392 0.0553902
0.481025 0.510338 0.057084
0.510811 0.511284 0.0588083
0.53991 0.512352 0.0606699
0.568368 0.513603 0.0626993
0.596246 0.515023 0.0649119
0.623728 0.516518 0.0672007
0.650599 0.518242 0.0694285
0.677211 0.519982 0.0719158
0.703761 0.52192 0.0748302
0.729686 0.524025 0.0773785
0.755062 0.526116 0.0801556
0.780301 0.528237 0.0830091
0.805341 0.530434 0.0857557
0.829938 0.532738 0.0886702
0.854276 0.535119 0.0916304
0.878553 0.537514 0.0945907
0.902464 0.540108 0.097734
0 0.590204 0.122255
0 0.587427 0.118318
0 0.582849 0.112276
0 0.572656 0.0999161
0.0327764 0.555367 0.0790265
0.0876783 0.549676 0.0716106
0.134707 0.54609 0.0670176
0.177554 0.543847 0.0636606
0.217441 0.542184 0.0612955
0.255192 0.540993 0.0599374
0.291478 0.5402 0.0590524
0.32639 0.539773 0.0586862
0.35993 0.539681 0.058854
0.39263 0.539834 0.0593881
0.424445 0.540215 0.0601205
0.455741 0.540902 0.061326
0.486076 0.541772 0.0628519
0.515633 0.542748 0.0645457
0.544594 0.543847 0.066453
0.573251 0.545037 0.068574
0.601099 0.546471 0.0705272
0.628611 0.547982 0.0727855
0.65568 0.549615 0.0751659
0.682139 0.551431 0.0774548
0.708827 0.55346 0.0804608
0.734707 0.555413 0.0831159
0.760281 0.557473 0.0856031
0.785489 0.559609 0.0883955
0.810575 0.561776 0.0914321
0.83505 0.564141 0.0941634
0.859403 0.566506 0.0971237
0.883696 0.568872 0.100328
0.907652 0.571374 0.103136
0 0.621286 0.128084
0 0.618494 0.124254
0 0.613931 0.118135
0 0.603738 0.105837
0.0386816 0.586465 0.0850538
0.093492 0.580789 0.0777142
0.140597 0.577157 0.0730907
0.183154 0.575067 0.0698405
0.222919 0.573373 0.0677348
0.260761 0.572183 0.0661479
0.296742 0.571481 0.0652323
0.331563 0.571069 0.0648356
0.365209 0.570977 0.0648966
0.397848 0.571145 0.0653697
0.429572 0.571527 0.0661936
0.460548 0.572168 0.0673533
0.490974 0.57319 0.0688945
0.520592 0.574151 0.0703288
0.549599 0.57525 0.0721141
0.578088 0.576486 0.0742504
0.606149 0.577844 0.0763867
0.633509 0.579416 0.0784314
0.660594 0.581048 0.0807813
0.687266 0.582788 0.083238
0.713726 0.584787 0.0857404
0.739712 0.586831 0.0886702
0.76527 0.588876 0.0913863
0.790539 0.591012 0.0939345
0.815641 0.593164 0.0969406
0.84033 0.595453 0.0998856
0.864729 0.597833 0.102602
0.888899 0.600244 0.105653
0.913024 0.602777 0.108873
0 0.652338 0.133928
0 0.649546 0.130266
0 0.644984 0.124163
0 0.634791 0.111757
0.0446021 0.617517 0.0912642
0.0995041 0.611826 0.0840009
0.146258 0.608347 0.0791791
0.188907 0.606119 0.0762036
0.228656 0.604486 0.0738994
0.266194 0.603387 0.0723583
0.302266 0.60267 0.071397
0.336797 0.60235 0.0710155
0.370352 0.602274 0.071046
0.40293 0.602457 0.071458
0.434592 0.602869 0.072221
0.465644 0.603677 0.0734722
0.496025 0.604532 0.0748455
0.525597 0.605493 0.0764019
0.554513 0.606653 0.0779431
0.583047 0.607889 0.0798352
0.611063 0.609262 0.0821393
0.638605 0.610758 0.0842756
0.665522 0.612451 0.0864576
0.692317 0.614298 0.0889754
0.718761 0.616281 0.0916609
0.7449 0.618173 0.0942245
0.770291 0.620264 0.0969863
0.795575 0.622385 0.0997635
0.820554 0.624613 0.102358
0.845426 0.626841 0.105455
0.869841 0.629191 0.108431
0.894041 0.631662 0.111223
0.918318 0.634256 0.114641
0 0.683391 0.140063
0 0.68069 0.135988
0 0.676036 0.130175
0 0.665873 0.117739
0.0505379 0.64863 0.0971695
0.105379 0.642924 0.090135
0.152087 0.639628 0.08542
0.194659 0.637293 0.0824445
0.234257 0.63566 0.0801404
0.271702 0.634577 0.0785992
0.307683 0.63389 0.0776379
0.342306 0.633555 0.0771801
0.375601 0.633555 0.0772259
0.408087 0.633768 0.0776074
0.439826 0.634318 0.0784314
0.470985 0.63505 0.0795453
0.501106 0.635874 0.0808423
0.530587 0.636881 0.0823529
0.55967 0.63798 0.0840162
0.588022 0.639292 0.0856947
0.616129 0.64065 0.0877852
0.643565 0.642161 0.0901045
0.670695 0.643809 0.0922713
0.697536 0.645792 0.0948043
0.723766 0.647684 0.0973526
0.749798 0.649607 0.100038
0.77554 0.651621 0.102602
0.800824 0.653727 0.105348
0.825818 0.655924 0.108186
0.85069 0.658167 0.11104
0.87512 0.660533 0.114
0.899168 0.662989 0.116869
0.923568 0.66566 0.120256
0 0.714458 0.145968
0 0.711757 0.141924
0 0.707103 0.136126
0 0.696971 0.123842
0.0565042 0.679713 0.103273
0.111254 0.674022 0.0962997
0.157977 0.670817 0.0919356
0.200381 0.668421 0.0886702
0.239887 0.666819 0.0863966
0.277455 0.665721 0.0848554
0.313024 0.665125 0.0840162
0.347524 0.664836 0.0834974
0.380926 0.664805 0.0834669
0.413397 0.665034 0.0838636
0.44506 0.665461 0.0845197
0.476112 0.666377 0.0856489
0.506203 0.667216 0.0868849
0.535836 0.668177 0.088304
0.564706 0.669352 0.0899825
0.593057 0.670649 0.0918441
0.621057 0.672068 0.0935988
0.648783 0.673503 0.0958877
0.675685 0.675181 0.0981918
0.702495 0.677028 0.100664
0.728985 0.679026 0.103059
0.754757 0.681025 0.105699
0.780575 0.682994 0.108537
0.805905 0.685115 0.111055
0.830915 0.687312 0.113863
0.855741 0.68957 0.116732
0.880308 0.69189 0.119646
0.904524 0.694331 0.122683
0.928679 0.697002 0.125673
0 0.745571 0.151781
0 0.742794 0.148104
0 0.738155 0.142107
0 0.728054 0.129824
0.0624704 0.710796 0.109392
0.117067 0.70515 0.102358
0.163928 0.701793 0.098024
0.20618 0.69955 0.0949111
0.245716 0.697932 0.092668
0.282856 0.696956 0.0911421
0.318486 0.696361 0.0902113
0.352941 0.696071 0.0897231
0.386282 0.696071 0.0896773
0.418631 0.69633 0.0899977
0.450248 0.696925 0.0907607
0.481224 0.697688 0.0919509
0.511528 0.698512 0.0929427
0.540963 0.699519 0.0943618
0.569787 0.700694 0.0959945
0.598291 0.701961 0.0977798
0.626093 0.70341 0.0997635
0.653681 0.704936 0.101656
0.680995 0.706554 0.104067
0.707668 0.708522 0.10663
0.734035 0.710399 0.10901
0.760021 0.712352 0.111437
0.785809 0.714321 0.114214
0.811048 0.716472 0.116884
0.836027 0.718685 0.1196
0.860777 0.720958 0.122469
0.885451 0.723247 0.125353
0.909819 0.725811 0.128496
0.933883 0.728389 0.131655
0 0.776638 0.157702
0 0.773846 0.154086
0 0.769253 0.148226
0 0.759121 0.135882
0.0685893 0.741802 0.115709
0.123201 0.736309 0.108705
0.169848 0.732967 0.104326
0.212116 0.730617 0.101259
0.251286 0.729107 0.0989395
0.288487 0.728099 0.0974136
0.324224 0.727489 0.096437
0.358633 0.727214 0.095964
0.391714 0.727291 0.0959335
0.424048 0.727642 0.0962997
0.455833 0.728267 0.0970474
0.486549 0.728969 0.0979629
0.516655 0.729809 0.0992294
0.546105 0.730816 0.100694
0.575128 0.731975 0.102007
0.603403 0.733303 0.103807
0.631388 0.734707 0.105699
0.658717 0.736278 0.107805
0.686198 0.738048 0.110109
0.712978 0.739864 0.112505
0.739116 0.741756 0.114977
0.765118 0.743725 0.117266
0.790768 0.745739 0.11989
0.816281 0.747784 0.122774
0.841337 0.749996 0.125322
0.866087 0.75227 0.128191
0.89073 0.754543 0.131289
0.915251 0.757214 0.134279
0.939269 0.759686 0.137316
0 0.807675 0.163928
0 0.804883 0.160098
0 0.800336 0.154208
0 0.790173 0.141955
0.0746166 0.772854 0.121859
0.129259 0.767514 0.115084
0.175723 0.764065 0.110552
0.217777 0.761776 0.107469
0.257023 0.760235 0.105211
0.294347 0.759197 0.103655
0.329839 0.758648 0.102739
0.364172 0.758404 0.102251
0.39736 0.75845 0.102159
0.429603 0.758755 0.102434
0.461234 0.759518 0.103288
0.491859 0.760235 0.104158
0.521813 0.761135 0.105303
0.551461 0.762097 0.106722
0.580301 0.763272 0.108354
0.608637 0.764599 0.10985
0.63653 0.766033 0.111742
0.664057 0.767575 0.113756
0.691005 0.769314 0.11603
0.71809 0.771206 0.118441
0.744427 0.773053 0.120836
0.770214 0.775051 0.123384
0.795895 0.777096 0.12575
0.821408 0.779141 0.128618
0.846464 0.781323 0.13138
0.871244 0.783612 0.133974
0.895781 0.785946 0.136919
0.920333 0.788449 0.1402
0.944457 0.791028 0.143084
0 0.838697 0.169924
0 0.83592 0.16611
0 0.831357 0.160235
0 0.82118 0.148257
0.0805982 0.803906 0.128008
0.135058 0.798444 0.121157
0.181643 0.795102 0.116899
0.223545 0.792874 0.11368
0.262791 0.791333 0.111467
