luts/Old days (Moody Blue)_V1 By Nahin.cube
LUT_3D_SIZE 16
-0.065360 -0.065273 0.169901
0.008556 -0.065273 0.169901
0.073591 -0.065273 0.169901
0.133650 -0.065273 0.169901
0.193927 -0.065274 0.169901
0.253140 -0.065274 0.169900
0.310908 -0.065275 0.169900
0.369603 -0.065277 0.169900
0.432227 -0.065279 0.169899
0.502363 -0.065281 0.169899
0.581517 -0.065280 0.169898
0.665255 -0.065285 0.169897
0.747420 -0.065288 0.169896
0.823465 -0.065292 0.169895
0.892835 -0.065297 0.169884
0.948634 -0.065301 0.169883
-0.065360 0.010383 0.169901
0.008555 0.010383 0.169901
0.073591 -0.045698 0.169901
0.133650 -0.047066 0.169901
0.193927 -0.046324 0.169901
0.253140 -0.045069 0.169900
0.310908 -0.043685 0.169900
0.369603 -0.042269 0.169900
0.432227 -0.040899 0.169899
0.502363 -0.039614 0.169899
0.581517 -0.038518 0.169898
0.665255 -0.037691 0.169897
0.747420 -0.037092 0.169896
0.823465 -0.036719 0.169895
0.892835 -0.036557 0.169884
0.948634 -0.036688 0.169883
-0.065360 0.075074 0.169901
-0.045764 0.075074 0.169901
0.073592 0.075064 0.169901
0.133650 0.071400 0.169901
0.193926 0.071926 0.169901
0.253140 0.072908 0.169900
0.310908 0.073640 0.169900
0.369603 0.074569 0.169900
0.432227 0.076136 0.169899
0.502363 0.078665 0.169899
0.581517 0.082120 0.169898
0.665254 0.085571 0.169897
0.747419 0.088259 0.169896
0.823465 0.089727 0.169895
0.892835 0.090213 0.169884
0.948634 0.089930 0.169883
-0.065361 0.129801 0.169901
-0.047131 0.129801 0.169901
0.069695 0.129801 0.169900
0.133649 0.129794 0.169900
0.193926 0.130015 0.169900
0.253147 0.130721 0.169900
0.310908 0.131001 0.169900
0.369603 0.131768 0.169899
0.432227 0.133742 0.169899
0.502363 0.137455 0.169898
0.581517 0.142802 0.169897
0.665254 0.148229 0.169897
0.747420 0.152442 0.169896
0.823465 0.154745 0.169895
0.892835 0.155451 0.169884
0.948634 0.155033 0.169882
-0.065363 0.183948 0.169900
-0.046391 0.183948 0.169900
0.070258 0.183948 0.169900
0.133912 0.183948 0.169900
0.193925 0.183939 0.169900
0.253147 0.184601 0.169900
0.310907 0.184693 0.169899
0.369602 0.185508 0.169899
0.432227 0.187960 0.169898
0.502363 0.192865 0.169898
0.581517 0.200020 0.169897
0.665254 0.207297 0.169896
0.747419 0.212969 0.169895
0.823464 0.216054 0.169884
0.892835 0.217032 0.169883
0.948634 0.216444 0.169882
-0.065365 0.237183 0.169899
-0.045133 0.237183 0.169899
0.071314 0.237183 0.169899
0.134691 0.237183 0.169899
0.194679 0.237183 0.169899
0.253147 0.237144 0.169899
0.310907 0.237131 0.169899
0.369601 0.238017 0.169898
0.432226 0.241031 0.169898
0.502363 0.247108 0.169897
0.581516 0.256060 0.169896
0.665254 0.265222 0.169895
0.747419 0.272343 0.169884
0.823464 0.276195 0.169883
0.892835 0.277396 0.169882
0.948634 0.276675 0.169881
-0.065369 0.289058 0.169898
-0.043747 0.289058 0.169898
0.072080 0.289058 0.169898
0.135004 0.289058 0.169898
0.194765 0.289058 0.169898
0.253148 0.289058 0.169898
0.310906 0.289033 0.169898
0.369600 0.290018 0.169897
0.432225 0.293598 0.169897
0.502362 0.300855 0.169896
0.581516 0.311594 0.169895
0.665254 0.322612 0.169884
0.747419 0.331163 0.169883
0.823464 0.335803 0.169882
0.892835 0.337301 0.169881
0.948634 0.336378 0.169880
-0.065370 0.341812 0.169897
-0.042343 0.341812 0.169897
0.073070 0.341812 0.169897
0.135868 0.341812 0.169897
0.195662 0.341812 0.169897
0.254146 0.341811 0.169897
0.312057 0.341811 0.169896
0.369599 0.341789 0.169896
0.432224 0.345889 0.169896
0.502361 0.354418 0.169895
0.581515 0.366911 0.169884
0.665254 0.379814 0.169883
0.747418 0.389683 0.169882
0.823463 0.395164 0.169881
0.892834 0.396850 0.169880
0.948633 0.395838 0.169879
-0.065377 0.398073 0.169896
-0.040977 0.398073 0.169896
0.074736 0.398073 0.169896
0.138032 0.398072 0.169896
0.198425 0.398072 0.169895
0.257469 0.398072 0.169895
0.315960 0.398072 0.169895
0.374102 0.398072 0.169884
0.432223 0.398083 0.169884
0.502361 0.407694 0.169883
0.581515 0.422048 0.169882
0.665253 0.436766 0.169882
0.747418 0.448202 0.169881
0.823463 0.454379 0.169879
0.892834 0.456341 0.169878
0.948633 0.455196 0.169877
-0.065384 0.460954 0.169884
-0.039698 0.460954 0.169884
0.077417 0.460954 0.169884
0.142136 0.460954 0.169883
0.203794 0.460954 0.169883
0.264194 0.460954 0.169883
0.324006 0.460953 0.169883
0.383521 0.460953 0.169882
0.442993 0.460953 0.169882
0.502360 0.461024 0.169881
0.581514 0.477130 0.169881
0.665253 0.493682 0.169880
0.747417 0.506567 0.169879
0.823463 0.513500 0.169878
0.892833 0.515718 0.169877
0.948633 0.514442 0.169875
-0.065388 0.531981 0.169881
-0.038615 0.531981 0.169881
0.081111 0.531981 0.169881
0.148071 0.531981 0.169881
0.211726 0.531981 0.169881
0.274105 0.531981 0.169881
0.335935 0.531981 0.169880
0.397421 0.531980 0.169880
0.458844 0.531980 0.169880
0.520126 0.531980 0.169879
0.581514 0.532072 0.169878
0.665252 0.550455 0.169878
0.747416 0.564799 0.169877
0.823462 0.572513 0.169875
0.892833 0.574990 0.169874
0.948632 0.573533 0.169873
-0.065398 0.607162 0.169879
-0.037801 0.607162 0.169879
0.084821 0.607162 0.169879
0.154092 0.607162 0.169878
0.219832 0.607162 0.169878
0.284273 0.607162 0.169878
0.348173 0.607162 0.169878
0.411708 0.607162 0.169877
0.475169 0.607162 0.169877
0.538529 0.607162 0.169876
0.601702 0.607161 0.169876
0.665252 0.607364 0.169875
0.747415 0.623033 0.169874
0.823462 0.631556 0.169873
0.892832 0.634312 0.169872
0.948632 0.632685 0.169871
-0.065407 0.681053 0.169876
-0.037215 0.681053 0.169876
0.087723 0.681053 0.169876
0.158783 0.681053 0.169875
0.226163 0.681053 0.169875
0.292239 0.681053 0.169875
0.357679 0.681052 0.169875
0.422866 0.681052 0.169874
0.487901 0.681052 0.169874
0.552830 0.681052 0.169873
0.617702 0.681052 0.169873
0.682597 0.681052 0.169872
0.747414 0.681220 0.169871
0.823461 0.690474 0.169870
0.892831 0.693491 0.169869
0.948631 0.691667 0.169868
-0.065420 0.749418 0.169872
-0.036862 0.749418 0.169872
0.089346 0.749418 0.169872
0.161351 0.749418 0.169872
0.229600 0.749418 0.169872
0.296536 0.749418 0.169872
0.362894 0.749418 0.169871
0.429042 0.749418 0.169871
0.494894 0.749418 0.169871
0.560725 0.749418 0.169870
0.626430 0.749418 0.169869
0.692153 0.749417 0.169869
0.757745 0.749417 0.169868
0.823460 0.749477 0.169867
0.892831 0.752660 0.169866
0.948630 0.750745 0.169864
-0.065430 0.811811 0.169869
-0.036719 0.811811 0.169869
0.089876 0.811811 0.169868
0.162218 0.811811 0.169868
0.230742 0.811811 0.169868
0.297975 0.811810 0.169868
0.364646 0.811810 0.169868
0.430953 0.811810 0.169867
0.497154 0.811810 0.169867
0.563297 0.811810 0.169866
0.629213 0.811810 0.169866
0.695235 0.811810 0.169865
0.761096 0.811810 0.169864
0.827092 0.811809 0.169863
0.892829 0.811738 0.169862
0.948630 0.809702 0.169861
-0.065446 0.868742 0.169864
-0.036866 0.868742 0.169864
0.089536 0.868742 0.169864
0.161716 0.868742 0.169864
0.230105 0.868742 0.169864
0.297120 0.868742 0.169864
0.363628 0.868742 0.169864
0.429829 0.868742 0.169863
0.495821 0.868742 0.169863
0.561755 0.868742 0.169862
0.627568 0.868742 0.169861
0.693406 0.868742 0.169861
0.759087 0.868741 0.169860
0.825040 0.868741 0.169859
0.890539 0.868741 0.169858
0.948629 0.868778 0.169857
-0.065360 -0.065273 0.189982
0.008556 -0.065273 0.189979
0.073591 -0.065273 0.173910
0.133650 -0.065273 0.173695
0.193927 -0.065274 0.173817
0.253140 -0.065274 0.174021
0.310908 -0.065275 0.174212
0.369603 -0.065277 0.174414
0.432227 -0.065279 0.174595
0.502363 -0.065281 0.174763
0.581517 -0.065280 0.174895
0.665255 -0.065285 0.174988
0.747420 -0.065288 0.175054
0.823465 -0.065292 0.175101
0.892835 -0.065297 0.175108
0.948634 -0.065301 0.175106
-0.065360 0.010383 0.189978
0.008557 0.010383 0.189979
0.075123 0.005837 0.184743
0.134571 0.004884 0.183582
0.194511 0.004885 0.183585
0.253488 0.005242 0.184042
0.311122 0.005851 0.184773
0.369747 0.006608 0.185688
0.432380 0.007464 0.186676
0.502409 0.008414 0.187771
0.581491 0.009376 0.188865
0.665259 0.009760 0.189293
0.747426 0.009702 0.189217
0.823468 0.009624 0.189145
0.892839 0.009550 0.189053
0.948636 0.009464 0.188967
-0.065360 0.075074 0.173910
0.003819 0.075241 0.183627
0.073646 0.075112 0.183566
0.133952 0.076988 0.183634
0.194233 0.078319 0.183923
0.253373 0.079028 0.184399
0.311071 0.079199 0.185098
0.369761 0.079630 0.185999
0.432322 0.080783 0.187002
0.502377 0.083011 0.188029
0.581474 0.086330 0.189087
0.665259 0.089667 0.189288
0.747426 0.092231 0.189214
0.823468 0.093651 0.189140
0.892839 0.094101 0.189049
0.948636 0.093831 0.188964
-0.065361 0.129801 0.173695
0.004038 0.129893 0.183952
0.075539 0.129870 0.184057
0.133676 0.129814 0.184231
0.194014 0.132124 0.184639
0.253250 0.133308 0.185105
0.311013 0.133602 0.185805
0.369699 0.134242 0.186623
0.432315 0.136070 0.187550
0.502368 0.139662 0.188568
0.581524 0.144956 0.189343
0.665259 0.150309 0.189289
0.747426 0.154487 0.189204
0.823468 0.156719 0.189130
0.892839 0.157479 0.189039
0.948636 0.157041 0.188954
-0.065363 0.183948 0.173816
0.004819 0.184023 0.185076
0.077032 0.184002 0.185170
0.136192 0.183983 0.185391
0.193953 0.183927 0.185682
0.253183 0.185582 0.186170
0.310958 0.186007 0.186764
0.369641 0.186903 0.187537
0.432313 0.189348 0.188410
0.502378 0.194206 0.189340
0.581524 0.201323 0.189332
0.665259 0.208586 0.189273
0.747426 0.214224 0.189189
0.823468 0.217305 0.189115
0.892838 0.218293 0.189031
0.948636 0.217698 0.188949
-0.065365 0.237183 0.174020
0.005874 0.237217 0.186540
0.077872 0.237215 0.186598
0.137560 0.237209 0.186775
0.195785 0.237202 0.187059
0.253147 0.237156 0.187380
0.310899 0.237679 0.187967
0.369556 0.238758 0.188709
0.432245 0.241885 0.189437
0.502374 0.247985 0.189376
0.581524 0.256918 0.189331
0.665258 0.266085 0.189257
0.747426 0.273192 0.189195
0.823468 0.277052 0.189111
0.892838 0.278284 0.189036
0.948636 0.277579 0.188927
-0.065369 0.289058 0.174210
0.007146 0.289095 0.188220
0.078202 0.289094 0.188267
0.137959 0.289082 0.188428
0.196270 0.289079 0.188651
0.253796 0.289076 0.188944
0.310917 0.289048 0.189325
0.369608 0.290374 0.189461
0.432244 0.294080 0.189416
0.502374 0.301433 0.189363
0.581524 0.312222 0.189315
0.665258 0.323216 0.189229
0.747425 0.331790 0.189172
0.823467 0.336419 0.189081
0.892838 0.337920 0.189010
0.948635 0.337079 0.188906
-0.065370 0.341812 0.174412
0.008124 0.341830 0.189456
0.078725 0.341830 0.189456
0.138696 0.341830 0.189456
0.197271 0.341830 0.189452
0.255020 0.341829 0.189453
0.312413 0.341829 0.189445
0.369607 0.341802 0.189436
0.432243 0.346077 0.189385
0.502373 0.354715 0.189346
0.581523 0.367290 0.189273
0.665258 0.380158 0.189200
0.747425 0.390161 0.189142
0.823467 0.395672 0.189057
0.892837 0.397363 0.188992
0.948635 0.396372 0.188889
-0.065377 0.398073 0.174592
0.008077 0.398059 0.189388
0.079882 0.398059 0.189388
0.140696 0.398058 0.189385
0.199949 0.398058 0.189383
0.258414 0.398058 0.189378
0.316568 0.398058 0.189373
0.374454 0.398057 0.189367
0.432242 0.398069 0.189353
0.502372 0.407889 0.189313
0.581522 0.422313 0.189241
0.665257 0.437026 0.189195
0.747424 0.448517 0.189116
0.823467 0.454712 0.189030
0.892837 0.456717 0.188949
0.948635 0.455576 0.188860
-0.065384 0.460954 0.174758
0.008018 0.460964 0.189316
0.082228 0.460964 0.189315
0.144650 0.460963 0.189321
0.205297 0.460963 0.189321
0.265163 0.460963 0.189315
0.324641 0.460963 0.189301
0.383933 0.460963 0.189292
0.443136 0.460963 0.189280
0.502371 0.461034 0.189267
0.581522 0.477247 0.189196
0.665257 0.493829 0.189149
0.747423 0.506751 0.189064
0.823466 0.513714 0.189005
0.892837 0.515996 0.188919
0.948634 0.514737 0.188822
-0.065388 0.531981 0.174887
0.007948 0.531946 0.189219
0.085681 0.531946 0.189219
0.150464 0.531946 0.189216
0.213180 0.531946 0.189211
0.275082 0.531946 0.189206
0.336567 0.531990 0.189193
0.397935 0.531990 0.189187
0.459122 0.531989 0.189175
0.520243 0.531989 0.189192
0.581521 0.532081 0.189176
0.665257 0.550563 0.189104
0.747423 0.564928 0.189023
0.823465 0.572686 0.188964
0.892836 0.575183 0.188887
0.948634 0.573750 0.188787
-0.065398 0.607162 0.174980
0.007867 0.607165 0.189125
0.089246 0.607165 0.189124
0.156403 0.607165 0.189121
0.221293 0.607165 0.189116
0.285254 0.607165 0.189118
0.348816 0.607165 0.189111
0.412216 0.607165 0.189095
0.475500 0.607165 0.189083
0.538669 0.607165 0.189078
0.601806 0.607165 0.189061
0.665256 0.607367 0.189047
0.747421 0.623080 0.188997
0.823465 0.631679 0.188909
0.892835 0.634438 0.188811
0.948634 0.632838 0.188724
-0.065407 0.681053 0.175043
0.007778 0.681019 0.189033
0.092050 0.681019 0.189032
0.161074 0.681019 0.189029
0.227562 0.681019 0.189025
0.293204 0.681019 0.189019
0.358370 0.681019 0.189011
0.423438 0.681019 0.189006
0.488270 0.681019 0.188990
0.553154 0.681019 0.188977
0.617843 0.681019 0.188967
0.682589 0.681018 0.188948
0.747420 0.681224 0.188924
0.823464 0.690488 0.188852
0.892834 0.693565 0.188745
0.948633 0.691787 0.188671
-0.065420 0.749418 0.175078
0.007688 0.749421 0.188892
0.093608 0.749421 0.188892
0.163601 0.749421 0.188888
0.231050 0.749421 0.188884
0.297515 0.749421 0.188878
0.363625 0.749421 0.188886
0.429523 0.749421 0.188867
0.495275 0.749421 0.188863
0.561003 0.749420 0.188852
0.626589 0.749420 0.188834
0.692240 0.749420 0.188824
0.757834 0.749420 0.188798
0.823463 0.749479 0.188780
0.892833 0.752727 0.188715
0.948632 0.750855 0.188590
-0.065431 0.811811 0.175109
0.007582 0.811770 0.188748
0.094102 0.811770 0.188747
0.164449 0.811770 0.188743
0.232200 0.811770 0.188740
0.298958 0.811770 0.188731
0.365352 0.811770 0.188723
0.431479 0.811813 0.188722
0.497579 0.811813 0.188736
0.563572 0.811813 0.188725
0.629436 0.811813 0.188705
0.695404 0.811812 0.188694
0.761115 0.811812 0.188668
0.827173 0.811812 0.188646
0.892832 0.811741 0.188612
0.948631 0.809731 0.188528
-0.065446 0.868742 0.175077
0.007465 0.868744 0.188597
0.093792 0.868744 0.188595
0.163949 0.868744 0.188592
0.231488 0.868744 0.188586
0.298145 0.868744 0.188585
0.364321 0.868744 0.188576
0.430312 0.868744 0.188564
0.496271 0.868744 0.188576
0.562104 0.868744 0.188581
0.627813 0.868744 0.188560
0.693547 0.868743 0.188537
0.759206 0.868743 0.188516
0.825006 0.868743 0.188495
0.890620 0.868743 0.188462
0.948630 0.868779 0.188442
-0.065360 -0.065273 0.249798
-0.045763 -0.065273 0.249798
0.073591 -0.065273 0.249796
0.133650 -0.065273 0.246763
0.193927 -0.065274 0.247195
0.253140 -0.065274 0.248011
0.310908 -0.065276 0.248610
0.369603 -0.065277 0.249379
0.432227 -0.065279 0.250673
0.502363 -0.065281 0.252739
0.581517 -0.065280 0.255545
0.665255 -0.065285 0.258311
0.747420 -0.065289 0.260463
0.823465 -0.065292 0.261611
0.892835 -0.065297 0.261997
0.948635 -0.065301 0.261758
-0.065360 -0.045698 0.249798
0.006077 0.007569 0.252549
0.074697 0.005471 0.250639
0.134455 0.004827 0.251596
0.194438 0.004881 0.252519
0.253479 0.005246 0.253041
0.311110 0.005859 0.253179
0.369781 0.006618 0.253505
0.432375 0.007476 0.254441
0.502406 0.008422 0.256250
0.581490 0.009387 0.258902
0.665259 0.009762 0.261556
0.747426 0.009695 0.263599
0.823468 0.009623 0.264686
0.892839 0.009542 0.265046
0.948636 0.009463 0.264844
-0.065360 0.075074 0.249801
0.003750 0.075196 0.249899
0.073612 0.075076 0.249787
0.137594 0.073036 0.248106
0.201205 0.068330 0.244171
0.262957 0.060384 0.237409
0.321117 0.053158 0.231118
0.379551 0.047503 0.226091
0.441997 0.043181 0.222173
0.512160 0.039971 0.219212
0.591192 0.037622 0.217025
0.674063 0.035926 0.215418
0.754958 0.034683 0.214232
0.829866 0.033795 0.213388
0.898233 0.033164 0.212780
0.951967 0.032712 0.212343
-0.065361 0.129801 0.246765
0.004017 0.129886 0.251286
0.065074 0.131518 0.243040
0.134402 0.130446 0.240758
0.198895 0.129228 0.236577
0.260081 0.126811 0.231582
0.318461 0.124129 0.227147
0.377375 0.122427 0.223482
0.440290 0.122276 0.220510
0.510724 0.124029 0.218133
0.589941 0.127421 0.216339
0.673238 0.131061 0.214978
0.754294 0.133808 0.213976
0.829315 0.135153 0.213240
0.897931 0.135378 0.212698
0.951751 0.134722 0.212330
-0.065363 0.183948 0.247202
0.004800 0.184017 0.252429
0.051675 0.186306 0.231978
0.129325 0.185630 0.230736
0.194741 0.184658 0.228993
0.256634 0.183786 0.225960
0.315596 0.182131 0.223077
0.374997 0.181371 0.220651
0.438299 0.182577 0.218560
0.508997 0.186244 0.216847
0.588516 0.192164 0.215480
0.672042 0.198215 0.214430
0.753480 0.202744 0.213622
0.828722 0.205056 0.213037
0.897428 0.205515 0.212600
0.951589 0.204682 0.212294
-0.065365 0.237183 0.248023
0.005863 0.237217 0.253074
0.042439 0.239193 0.223920
0.125088 0.238849 0.223364
0.191771 0.238358 0.222510
0.253802 0.237718 0.221478
0.313168 0.236514 0.219669
0.372837 0.236304 0.218151
0.436414 0.238405 0.216760
0.507176 0.243660 0.215593
0.586982 0.251737 0.214637
0.670629 0.259940 0.213879
0.752474 0.266125 0.213292
0.827965 0.269292 0.212854
0.896825 0.270038 0.212518
0.951174 0.268999 0.212291
-0.065369 0.289058 0.248615
0.007139 0.289095 0.253312
0.036931 0.290686 0.218940
0.122148 0.290477 0.218676
0.189131 0.290209 0.218253
0.251261 0.289881 0.217726
0.311373 0.289452 0.217121
0.371296 0.289618 0.216192
0.434879 0.292456 0.215318
0.505677 0.299131 0.214549
0.585439 0.309244 0.213935
0.669479 0.319484 0.213429
0.751467 0.327244 0.213024
0.827174 0.331299 0.212719
0.896270 0.332322 0.212515
0.950972 0.331148 0.212339
-0.065371 0.341812 0.249385
0.008131 0.341830 0.253710
0.033794 0.343152 0.216034
0.120862 0.342950 0.215894
0.188118 0.342906 0.215693
0.250420 0.342629 0.215442
0.310716 0.342397 0.215146
0.369998 0.342089 0.214827
0.433495 0.345660 0.214283
0.504411 0.353583 0.213839
0.584254 0.365678 0.213442
0.668398 0.377942 0.213130
0.750627 0.387359 0.212880
0.826397 0.392143 0.212706
0.895658 0.393515 0.212563
0.950533 0.392138 0.212487
-0.065377 0.398073 0.250661
0.008081 0.398059 0.254582
0.032000 0.399252 0.214339
0.121403 0.399235 0.214276
0.189501 0.399093 0.214171
0.252449 0.398908 0.214070
0.313384 0.398761 0.213955
0.373224 0.398560 0.213794
0.432644 0.398364 0.213672
0.503445 0.407613 0.213415
0.583175 0.421573 0.213188
0.667319 0.435787 0.213030
0.749686 0.446677 0.212901
0.825721 0.452407 0.212806
0.895115 0.454004 0.212744
0.950281 0.452567 0.212715
-0.065384 0.460954 0.252720
0.008021 0.460963 0.256341
0.031100 0.462047 0.213444
0.123990 0.462005 0.213441
0.193722 0.461971 0.213420
0.258106 0.461813 0.213384
0.320410 0.461668 0.213355
0.381591 0.461532 0.213307
0.442299 0.461375 0.213284
0.502655 0.461309 0.213268
0.582478 0.477107 0.213191
0.666583 0.493275 0.213119
0.749102 0.505714 0.213071
0.825216 0.512278 0.213076
0.894579 0.514142 0.213069
0.949828 0.512567 0.213075
-0.065388 0.531981 0.255504
0.007948 0.531946 0.258900
0.030809 0.532972 0.213164
0.128393 0.532975 0.213164
0.200513 0.532948 0.213171
0.267049 0.532851 0.213183
0.331423 0.532737 0.213181
0.394718 0.532572 0.213216
0.457401 0.532456 0.213256
0.519616 0.532347 0.213315
0.581783 0.532306 0.213402
0.665948 0.550459 0.213414
0.748541 0.564406 0.213430
0.824792 0.571814 0.213460
0.894230 0.573989 0.213491
0.949647 0.572216 0.213510
-0.065398 0.607162 0.258282
0.007864 0.607165 0.261528
0.030931 0.608091 0.213249
0.133110 0.608010 0.213249
0.207676 0.608006 0.213283
0.276432 0.607981 0.213309
0.342931 0.607927 0.213352
0.408228 0.607808 0.213424
0.473069 0.607707 0.213496
0.537363 0.607613 0.213597
0.601365 0.607536 0.213723
0.665446 0.607585 0.213857
0.747895 0.622937 0.213921
0.824337 0.631206 0.213977
0.893728 0.633644 0.214044
0.949350 0.631840 0.214104
-0.065407 0.681053 0.260412
0.007773 0.681019 0.263548
0.031308 0.681774 0.213599
0.136844 0.681851 0.213609
0.213257 0.681805 0.213643
0.283723 0.681742 0.213689
0.351821 0.681670 0.213755
0.418834 0.681568 0.213839
0.485196 0.681572 0.213938
0.551069 0.681417 0.214052
0.616751 0.681421 0.214195
0.682188 0.681392 0.214365
0.747535 0.681397 0.214541
0.823960 0.690339 0.214639
0.893421 0.693112 0.214717
0.949158 0.691036 0.214764
-0.065420 0.749418 0.261593
0.007681 0.749421 0.264685
0.031883 0.749985 0.214132
0.138903 0.750075 0.214163
0.216275 0.750040 0.214182
0.287620 0.750026 0.214237
0.356581 0.750076 0.214316
0.424480 0.750013 0.214389
0.491634 0.749923 0.214515
0.558432 0.749822 0.214645
0.624999 0.749909 0.214802
0.691362 0.749790 0.214989
0.757342 0.749666 0.215194
0.823589 0.749621 0.215434
0.893136 0.752571 0.215499
0.948964 0.750564 0.215542
-0.065431 0.811811 0.261975
0.007576 0.811770 0.265027
0.032564 0.812411 0.214773
0.139648 0.812391 0.214819
0.217283 0.812360 0.214843
0.288795 0.812317 0.214899
0.358027 0.812261 0.214989
0.426145 0.812249 0.215085
0.493627 0.812223 0.215197
0.560643 0.812202 0.215317
0.627413 0.812130 0.215480
0.694116 0.812064 0.215669
0.760399 0.812108 0.215880
0.826886 0.811987 0.216129
0.892910 0.811871 0.216376
0.948856 0.809621 0.216410
-0.065446 0.868742 0.261735
0.007473 0.868744 0.264813
0.033328 0.869241 0.215510
0.139378 0.869223 0.215546
0.216686 0.869250 0.215586
0.287955 0.869215 0.215628
0.356960 0.869261 0.215715
0.424887 0.869209 0.215821
0.492116 0.869190 0.215934
0.558930 0.869183 0.216067
0.625509 0.869088 0.216224
0.691926 0.869073 0.216417
0.758134 0.869052 0.216614
0.824348 0.869074 0.216846
0.890419 0.868954 0.217123
0.948644 0.868913 0.217388
-0.065360 -0.065273 0.292035
-0.047128 -0.065273 0.292035
0.069700 -0.065273 0.292035
0.133650 -0.065273 0.292024
0.193927 -0.065274 0.292197
0.253140 -0.065275 0.292719
0.310908 -0.065276 0.292919
0.369603 -0.065277 0.293493
0.432227 -0.065279 0.294922
0.502363 -0.065281 0.297628
0.581517 -0.065281 0.301450
0.665255 -0.065285 0.305332
0.747420 -0.065289 0.308270
0.823465 -0.065292 0.309893
0.892835 -0.065297 0.310408
0.948634 -0.065301 0.310107
-0.065360 -0.047065 0.292035
0.004443 0.005661 0.293935
0.076355 0.005047 0.293017
0.134277 0.004802 0.292461
0.194372 0.004935 0.293885
0.253452 0.005298 0.294641
0.311081 0.005913 0.294832
0.369751 0.006668 0.295292
0.432366 0.007530 0.296615
0.502400 0.008475 0.299204
0.581487 0.009427 0.302997
0.665259 0.009761 0.306811
0.747426 0.009694 0.309732
0.823468 0.009623 0.311322
0.892839 0.009542 0.311804
0.948636 0.009463 0.311504
-0.065360 0.071401 0.292035
0.003700 0.077149 0.292408
0.072269 0.073801 0.295141
0.137390 0.071979 0.294470
0.201184 0.067153 0.294044
0.262709 0.059488 0.291965
0.320825 0.052569 0.289349
0.379285 0.047105 0.287567
0.441831 0.042891 0.287095
0.512009 0.039726 0.288167
0.590960 0.037393 0.290541
0.673941 0.035691 0.293089
0.754974 0.034452 0.295038
0.829808 0.033556 0.295967
0.898271 0.032916 0.296070
0.951942 0.032477 0.295614
-0.065361 0.129801 0.292029
0.004056 0.129870 0.292108
0.064107 0.131167 0.293032
0.133670 0.129808 0.292032
0.198429 0.127878 0.290598
0.260783 0.124057 0.287785
0.321544 0.118250 0.283466
0.384093 0.110164 0.277349
0.450120 0.101594 0.270778
0.523354 0.093649 0.264607
0.604143 0.086780 0.259133
0.687364 0.080993 0.254439
0.767522 0.076177 0.250475
0.841023 0.072157 0.247129
0.908049 0.068801 0.244328
0.958140 0.066029 0.241967
-0.065363 0.183948 0.292224
0.004856 0.184003 0.293731
0.051078 0.186097 0.289478
0.125451 0.186251 0.286544
0.195452 0.185279 0.284917
0.258988 0.182455 0.281754
0.320206 0.178372 0.276459
0.381749 0.174750 0.271011
0.447130 0.172500 0.265635
0.519940 0.172490 0.260582
0.600974 0.174424 0.256083
0.684648 0.176710 0.252144
0.765349 0.178147 0.248743
0.839260 0.178155 0.245832
0.906857 0.177088 0.243328
0.957490 0.175340 0.241218
-0.065365 0.237183 0.292737
0.005901 0.237215 0.294611
0.042031 0.239085 0.286435
0.109726 0.240920 0.275836
0.187210 0.240056 0.274101
0.255063 0.238829 0.271776
0.316590 0.235256 0.268302
0.378014 0.233020 0.264258
0.443255 0.233164 0.260130
0.516005 0.236347 0.256224
0.597156 0.242121 0.252670
0.681275 0.247883 0.249503
0.762661 0.251870 0.246705
0.837266 0.253317 0.244259
0.905283 0.252859 0.242122
0.956626 0.251054 0.240280
-0.065369 0.289058 0.292942
0.007174 0.289094 0.294858
0.036587 0.290631 0.284366
0.094432 0.292921 0.265066
0.178177 0.292236 0.263903
0.247719 0.291451 0.262370
0.312473 0.290419 0.260520
0.374148 0.288658 0.257787
0.439530 0.290032 0.254944
0.512106 0.295334 0.251996
0.593320 0.303887 0.249268
0.677988 0.312378 0.246801
0.759908 0.318449 0.244576
0.835114 0.321039 0.242576
0.903468 0.321012 0.240801
0.955731 0.319085 0.239253
-0.065371 0.341812 0.293524
0.008130 0.341830 0.295357
