luts/Old days (Moody Blue)_V1 By Nahin.cube
LUT_3D_SIZE 6
-0.065360 -0.065273 0.169901
0.133650 -0.065273 0.169901
0.310908 -0.065275 0.169900
0.502363 -0.065281 0.169899
0.747420 -0.065288 0.169896
0.948634 -0.065301 0.169883
-0.065361 0.129801 0.169901
0.133649 0.129794 0.169900
0.310908 0.131001 0.169900
0.502363 0.137455 0.169898
0.747420 0.152442 0.169896
0.948634 0.155033 0.169882
-0.065369 0.289058 0.169898
0.135004 0.289058 0.169898
0.310906 0.289033 0.169898
0.502362 0.300855 0.169896
0.747419 0.331163 0.169883
0.948634 0.336378 0.169880
-0.065384 0.460954 0.169884
0.142136 0.460954 0.169883
0.324006 0.460953 0.169883
0.502360 0.461024 0.169881
0.747417 0.506567 0.169879
0.948633 0.514442 0.169875
-0.065407 0.681053 0.169876
0.158783 0.681053 0.169875
0.357679 0.681052 0.169875
0.552830 0.681052 0.169873
0.747414 0.681220 0.169871
0.948631 0.691667 0.169868
-0.065446 0.868742 0.169864
0.161716 0.868742 0.169864
0.363628 0.868742 0.169864
0.561755 0.868742 0.169862
0.759087 0.868741 0.169860
0.948629 0.868778 0.169857
-0.065360 -0.065273 0.292035
0.133650 -0.065273 0.292024
0.310908 -0.065276 0.292919
0.502363 -0.065281 0.297628
0.747420 -0.065289 0.308270
0.948634 -0.065301 0.310107
-0.065361 0.129801 0.292029
0.133670 0.129808 0.292032
0.321544 0.118250 0.283466
0.523354 0.093649 0.264607
0.767522 0.076177 0.250475
0.958140 0.066029 0.241967
-0.065369 0.289058 0.292942
0.094432 0.292921 0.265066
0.312473 0.290419 0.260520
0.512106 0.295334 0.251996
0.759908 0.318449 0.244576
0.955731 0.319085 0.239253
-0.065384 0.460954 0.297585
0.068343 0.464261 0.245285
0.312281 0.463334 0.244155
0.503328 0.461874 0.242289
0.752747 0.503838 0.239082
0.952733 0.508338 0.236341
-0.065407 0.681053 0.308273
0.058666 0.683578 0.237289
0.337863 0.683188 0.237025
0.547050 0.682482 0.236573
0.747990 0.681758 0.236012
0.950484 0.689891 0.234621
-0.065446 0.868742 0.310078
0.055240 0.870338 0.234388
0.340604 0.870235 0.234358
0.552292 0.869961 0.234331
0.755778 0.869522 0.234314
0.948869 0.869092 0.234392
-0.065361 -0.065274 0.390571
0.135031 -0.065274 0.390571
0.310908 -0.065276 0.390507
0.502363 -0.065283 0.396700
0.747419 -0.065290 0.412201
0.948634 -0.065302 0.414788
-0.065362 0.131040 0.390571
0.125641 0.122586 0.396079
0.321469 0.112676 0.395473
0.521794 0.091149 0.397495
0.766607 0.074987 0.407488
0.957926 0.065321 0.406717
-0.065370 0.289058 0.390515
0.092009 0.292028 0.392077
0.310927 0.289056 0.390532
0.518797 0.281219 0.386327
0.776969 0.265765 0.377929
0.971009 0.241861 0.364522
-0.065385 0.460954 0.396673
0.067410 0.463953 0.391323
0.278492 0.469631 0.374688
0.507706 0.465730 0.370095
0.769026 0.491314 0.362543
0.966064 0.482635 0.351752
-0.065408 0.681053 0.412117
0.057814 0.683397 0.403052
0.233570 0.691666 0.351195
0.522015 0.688782 0.348243
0.751328 0.684678 0.344062
0.958089 0.682601 0.337807
-0.065442 0.868742 0.414774
0.054356 0.870226 0.404240
0.199604 0.876597 0.332042
0.507777 0.875276 0.330453
0.741088 0.873177 0.328140
0.950270 0.870709 0.325182
-0.065362 -0.065275 0.477933
0.142110 -0.065276 0.477933
0.323948 -0.065279 0.477933
0.502363 -0.065280 0.478016
0.747420 -0.065291 0.503247
0.948634 -0.065299 0.507794
-0.065364 0.137401 0.477933
0.116162 0.114035 0.491085
0.331423 0.102024 0.490477
0.519020 0.086879 0.486094
0.764689 0.073220 0.506485
0.957348 0.064559 0.506445
-0.065373 0.300762 0.477932
0.084606 0.299324 0.485436
0.299857 0.278992 0.487965
0.519150 0.273773 0.486131
0.776959 0.261434 0.500182
0.970748 0.238643 0.494583
-0.065387 0.460954 0.477975
0.066457 0.463322 0.479237
0.275325 0.468379 0.481919
0.502462 0.460929 0.477884
0.766137 0.452702 0.473410
0.966884 0.434889 0.464110
-0.065410 0.681052 0.503180
0.057592 0.683197 0.500406
0.231029 0.690677 0.488383
0.467586 0.691027 0.461226
0.754256 0.687023 0.457720
0.960730 0.665674 0.453233
-0.065444 0.868742 0.507769
0.054332 0.870252 0.502922
0.197581 0.876119 0.480737
0.419871 0.879643 0.439418
0.713841 0.876741 0.435903
0.951757 0.872571 0.431271
-0.065366 -0.065279 0.612686
0.158786 -0.065279 0.612686
0.357630 -0.065283 0.612686
0.552785 -0.065286 0.612686
0.747419 -0.065294 0.612865
0.948634 -0.065302 0.619775
-0.065368 0.152366 0.612686
0.099075 0.098483 0.636242
0.356627 0.090148 0.632614
0.564269 0.079642 0.626870
0.762250 0.070851 0.621590
0.956415 0.063491 0.622745
-0.065373 0.331048 0.612685
0.077304 0.323776 0.626113
0.292649 0.272459 0.632015
0.549091 0.266977 0.630408
0.776750 0.254454 0.630104
0.969987 0.234010 0.624824
-0.065392 0.506318 0.612685
0.063444 0.506029 0.617884
0.265588 0.496895 0.628993
0.486179 0.446099 0.626912
0.767392 0.440598 0.624397
0.966194 0.428878 0.608837
-0.065412 0.681052 0.612727
0.057271 0.682754 0.613925
0.228114 0.689090 0.618033
0.464797 0.689758 0.618319
0.747648 0.681036 0.612514
0.958756 0.672674 0.607221
-0.065447 0.868742 0.619818
0.054307 0.869990 0.618058
0.196113 0.875348 0.610271
0.416445 0.878579 0.594202
0.710031 0.875621 0.590393
0.951516 0.872222 0.586332
-0.065370 -0.065280 0.733603
0.161759 -0.065280 0.733603
0.363697 -0.065285 0.733603
0.561829 -0.065290 0.733603
0.759136 -0.065299 0.733603
0.948634 -0.065306 0.733602
-0.065372 0.155034 0.733603
0.084294 0.084796 0.752834
0.354039 0.079895 0.750045
0.565484 0.073151 0.746119
0.767520 0.066914 0.742176
0.955484 0.062228 0.739063
-0.065378 0.336427 0.733603
0.070750 0.323997 0.745622
0.281091 0.262032 0.756744
0.544580 0.255379 0.755635
0.771514 0.244211 0.753894
0.968822 0.227867 0.750999
-0.065391 0.514441 0.733657
0.060646 0.510989 0.739479
0.254681 0.491614 0.753169
0.472360 0.433668 0.752477
0.742963 0.427692 0.750539
0.965409 0.419673 0.747546
-0.065417 0.691769 0.733655
0.055720 0.691354 0.736159
0.220646 0.688483 0.745284
0.451662 0.668492 0.745888
0.729850 0.665099 0.744109
0.958956 0.659482 0.741674
-0.065451 0.868742 0.733569
0.054280 0.869889 0.734245
0.194092 0.874416 0.737056
0.412687 0.877298 0.738756
0.707903 0.874575 0.737008
0.948705 0.868823 0.733494
