luts/Onitsuka_LUT04.cube
TITLE "Generated by Resolve"
LUT_3D_SIZE 9
0.00886549 0.0174716 0.0238499
0.0103761 0.0201114 0.0263981
0.0231479 0.0277867 0.0365606
0.0819867 0.0445106 0.0476539
0.141543 0.0389258 0.0443275
0.270268 0.0423285 0.0504616
0.403601 0.0317845 0.0433204
0.506447 0.0184482 0.0325933
0.561868 0.0104829 0.0260014
0.0170443 0.0352941 0.0383612
0.0172885 0.0343633 0.038468
0.0345769 0.0450446 0.0496529
0.114961 0.0666209 0.0607309
0.2869 0.0638285 0.0468757
0.318135 0.0391699 0.0485542
0.480308 0.0221714 0.0356603
0.592187 0.00604257 0.0222782
0.646448 0 0.0156863
0.0235447 0.0718547 0.0606699
0.0222477 0.0669871 0.058381
0.053315 0.0893721 0.0664988
0.201022 0.113375 0.0381933
0.589319 0.0979171 0
0.822568 0.0935378 0
0.945876 0.0861067 0
1 0.0970169 0
1 0.124727 0
0 0.161212 0.0724041
0.00613413 0.150332 0.0771344
0 0.175143 0.0580606
0.280888 0.253193 0
0.728985 0.29865 0
0.974807 0.35317 0
1 0.378332 0
1 0.409125 0
1 0.441962 0
0 0.349203 0
0 0.335119 0
0 0.39295 0
0.250736 0.546365 0
0.745052 0.617853 0
0.95375 0.648844 0
1 0.664988 0
1 0.683146 0
1 0.70454 0
0 0.548501 0
0 0.546517 0
0 0.637964 0
0.261418 0.784512 0
0.758144 0.804593 0
0.95494 0.832166 0
1 0.84889 0
1 0.864027 0
1 0.878859 0
0 0.655329 0
0 0.675654 0
0 0.78088 0
0.282963 0.886885 0
0.774136 0.900923 0
0.963973 0.9299 0
1 0.945693 0
1 0.9523 0
1 0.954147 0
0 0.699794 0
0 0.743877 0
0 0.855055 0
0.356466 0.922744 0
0.799695 0.941604 0
0.974609 0.96997 0
1 0.985672 0
1 0.985809 0
1 0.985962 0
0 0.754833 0
0 0.839307 0
0 0.939529 0
0.539849 0.941085 0
0.846952 0.967254 0
0.995651 0.992905 0
1 1 0
1 1 0
1 1 0
0.00918593 0.0163729 0.024979
0.0108949 0.0205539 0.0286259
0.0272068 0.0285649 0.0406348
0.0913252 0.0467842 0.0524605
0.159579 0.0403601 0.046067
0.310002 0.0397498 0.0489357
0.460395 0.024918 0.0378882
0.573022 0.00889601 0.0246891
0.629953 0.000579843 0.0177005
0.0164187 0.0360723 0.0399329
0.0187076 0.036286 0.0409705
0.039292 0.0488441 0.0548257
0.130251 0.0707866 0.0655528
0.29836 0.057847 0.0465705
0.365484 0.0353246 0.0459144
0.556069 0.0113832 0.0267643
0.666316 0 0.0133822
0.715587 0 0.00769055
0.0253758 0.0776837 0.067689
0.0239719 0.0723278 0.0636149
0.0576944 0.0973373 0.0727245
0.246143 0.117372 0.0397955
0.647425 0.102449 0
0.879225 0.0996109 0
0.994507 0.0906386 0
1 0.0952316 0
1 0.12108 0
0 0.18909 0.0735027
0 0.172641 0.0769818
0 0.206699 0.0522316
0.334173 0.285496 0
0.784665 0.349157 0
1 0.400336 0
1 0.420233 0
1 0.446571 0
1 0.472938 0
0 0.411261 0
0 0.396979 0
0 0.468132 0
0.319753 0.629084 0
0.790799 0.680156 0
0.987747 0.704799 0
1 0.718227 0
1 0.731609 0
1 0.748638 0
0 0.616876 0
0 0.623606 0
0 0.725567 0
0.323354 0.84329 0
0.806256 0.862333 0
0.988663 0.889525 0
1 0.901961 0
1 0.904372 0
1 0.908553 0
0 0.718334 0
0 0.734493 0
0 0.842939 0
0.325719 0.925719 0
0.820951 0.939941 0
0.99556 0.967163 0
1 0.977249 0
1 0.974273 0
1 0.974563 0
0 0.772747 0.0283513
0 0.8065 0
0 0.894545 0
0.336538 0.954009 0
0.825986 0.963623 0
0.99707 0.9906 0
1 0.999695 0
1 0.99678 0
1 0.99588 0
0 0.845273 0.307637
0 0.906874 0.29337
0 0.976287 0.240696
0.402762 0.971756 0.0577249
0.814374 0.966598 0
0.98146 0.988479 0
1 1 0
1 0.998932 0
1 0.996551 0
0.00704967 0.0123903 0.0273594
0.000610361 0.00302129 0.0115053
0.0311894 0.030518 0.0547189
0.0983597 0.0457313 0.0747692
0.195911 0.0433509 0.0767071
0.384771 0.0316167 0.0876936
0.585428 0.00277714 0.090074
0.698207 0 0.0981918
0.758358 0 0.117937
0.0159762 0.0372778 0.0542153
0.018204 0.0379034 0.0536202
0.0470893 0.052842 0.0780346
0.154406 0.0735027 0.0992142
0.247364 0.0462043 0.079942
0.444617 0.0247807 0.0799878
0.663325 0 0.0724498
0.776471 0 0.0819409
0.823896 0 0.103578
0.0314946 0.0918441 0.107027
0.0299535 0.0851453 0.0958724
0.0565347 0.109346 0.120958
0.304479 0.124315 0.11342
0.686671 0.0973678 0.064683
0.861799 0.0572061 0.0268559
0.883757 0 0.0174411
0.910185 0 0.0380407
1 0.0193484 0.0780804
0 0.244968 0.165255
0 0.225406 0.147738
0 0.261479 0.139498
0.347478 0.332128 0.0534371
0.81117 0.361563 0.0024567
1 0.381399 0
1 0.385 0
1 0.406455 0
1 0.436454 0.0160372
0 0.515373 0.125963
0 0.49807 0.107088
0 0.563241 0.0825208
0.270176 0.68452 0
0.789944 0.694362 0
0.989837 0.711086 0
1 0.721248 0
1 0.728771 0
1 0.739101 0
0 0.730083 0.196139
0 0.729381 0.16141
0 0.807187 0.142367
0.181277 0.888457 0
0.788357 0.872709 0
0.98378 0.897948 0
1 0.909087 0
1 0.912001 0
1 0.91281 0
0 0.809659 0.330312
0 0.826108 0.288106
0 0.902052 0.272099
0.0685283 0.977615 0.115434
0.783886 0.942443 0
0.978576 0.96347 0
1 0.976425 0
1 0.973892 0
1 0.972473 0
0 0.839704 0.494591
0 0.869154 0.481056
0 0.942184 0.46006
0.0130159 1 0.324575
0.770123 0.960891 0.141253
0.964828 0.977508 0.0523232
1 0.989502 0.000640879
1 0.988693 0.012314
1 0.985275 0.101518
0 0.879927 0.716945
0 0.932555 0.721584
0 0.994415 0.710567
0.199222 1 0.617044
0.74728 0.968322 0.483192
0.934905 0.975341 0.450568
1 0.983795 0.451942
1 0.984405 0.466377
1 0.983825 0.518135
0.00427253 0.00802625 0.0304112
0.00347906 0.00715648 0.0269627
0.0215763 0.0178378 0.0548562
0.0874495 0.0360571 0.105104
0.240177 0.0412451 0.145144
0.480262 0.0112306 0.200763
0.694438 0 0.255222
0.794812 0 0.308431
0.831983 0 0.360967
0.004654 0.0084535 0.032166
0.0071107 0.0126345 0.0385443
0.0448463 0.0442969 0.101518
0.147311 0.0654459 0.169268
0.279194 0.0378119 0.154116
0.566934 0 0.217197
0.781247 0 0.266255
0.855512 0 0.320851
0.885298 0 0.373816
0.0373388 0.0941482 0.191913
0.0377813 0.0898604 0.169223
0.0308385 0.109773 0.209735
0.310124 0.128161 0.39176
0.731456 0.0997024 0.344518
0.920073 0.0585336 0.327382
0.949737 0 0.316121
0.991348 0 0.362844
1 0.0247959 0.457282
0 0.285374 0.492058
0 0.269993 0.450278
0 0.307759 0.465446
0.273793 0.394003 0.479942
0.827878 0.412268 0.40473
1 0.420874 0.396841
1 0.419455 0.410956
1 0.43682 0.471763
1 0.462684 0.524956
0 0.608209 0.575036
0 0.589487 0.54406
0 0.655634 0.558053
0.0996109 0.755291 0.520729
0.753689 0.723278 0.374762
0.96939 0.722972 0.34052
1 0.726146 0.341131
1 0.734585 0.401541
1 0.748119 0.466987
0 0.80116 0.692302
0 0.80264 0.672068
0 0.866011 0.679332
0 0.943511 0.623423
0.719188 0.893721 0.441566
0.940856 0.896086 0.403281
1 0.900282 0.401053
1 0.904204 0.445899
1 0.908797 0.508186
0 0.860243 0.776699
0 0.873838 0.763378
0 0.937926 0.768292
0 1 0.724483
0.695872 0.954681 0.546075
0.926925 0.956786 0.512139
1 0.962737 0.508339
1 0.964736 0.535058
1 0.965118 0.570291
0 0.879957 0.846113
0 0.905821 0.844221
0 0.971984 0.850782
0 1 0.814832
0.682246 0.973892 0.645853
0.914824 0.97467 0.612482
0.99939 0.981033 0.612207
1 0.98294 0.626703
1 0.983505 0.653193
0 0.908278 0.940032
0 0.95819 0.952331
0 1 0.954299
0 1 0.918944
0.68278 0.985504 0.776089
0.898146 0.986252 0.735958
0.984817 0.991882 0.741146
1 0.994659 0.754513
1 0.995682 0.776471
0.010071 0.0144961 0.0630045
0.00947585 0.0138094 0.0591897
0.01149 0.0154421 0.065568
0.0949874 0.0425727 0.173785
0.289082 0.0314031 0.284688
0.574929 0 0.438468
0.770993 0 0.536919
0.843091 0 0.591226
0.871458 0 0.627604
0.0110933 0.0156558 0.0696574
0.0103151 0.0147707 0.0644846
0.0209659 0.0214542 0.0886244
0.109621 0.0446021 0.193545
0.33724 0.0240177 0.322286
0.660258 0 0.493538
0.834272 0 0.577371
0.89572 0 0.633524
0.91986 0 0.671443
0.0327153 0.0526131 0.172457
0.0303502 0.0480354 0.156603
0.0348211 0.097261 0.307591
0.283009 0.119799 0.695552
0.726955 0.0809949 0.717342
0.900023 0.0162051 0.694499
0.889097 0 0.636393
0.935821 0 0.67921
1 0 0.799481
0 0.301076 0.7738
0 0.276967 0.744167
0 0.325765 0.773205
0.21651 0.434531 0.836591
0.803174 0.438209 0.829129
1 0.436362 0.828153
1 0.433005 0.846387
1 0.450828 0.870893
1 0.480003 0.885878
0 0.669642 0.872267
0 0.65597 0.860014
0 0.717937 0.886015
0 0.800198 0.880858
0.685145 0.748241 0.797345
0.958358 0.734203 0.754376
1 0.737285 0.758572
1 0.749111 0.788235
1 0.763577 0.812497
0 0.844923 0.955535
0 0.84979 0.951339
0 0.904311 0.96025
0 0.97995 0.942443
0.641733 0.92015 0.801633
0.905837 0.912871 0.751995
0.999268 0.911879 0.758236
1 0.915908 0.780743
1 0.921599 0.806714
0 0.894179 0.999924
0 0.905516 0.996155
0 0.966552 1
0 1 0.992782
0.629877 0.97525 0.854032
0.883207 0.97464 0.798947
0.983551 0.976104 0.798489
1 0.978714 0.814206
1 0.980804 0.831983
0 0.907332 1
0 0.930983 1
0 0.994415 1
0 1 1
0.627985 0.989593 0.899672
0.870115 0.992706 0.848051
0.973816 0.996414 0.844816
1 0.998138 0.852018
1 0.99939 0.865293
0 0.927794 1
0 0.975143 1
0 1 1
0 1 1
0.65005 0.996399 0.949844
0.860761 1 0.912261
0.96083 1 0.896757
0.998444 1 0.905104
1 1 0.914351
0.0142977 0.0193484 0.0895094
0.0138857 0.0188907 0.087129
0.0147097 0.0198367 0.0920424
0.0985428 0.0464027 0.218418
0.32549 0.0234836 0.390478
0.647196 0 0.613138
0.814847 0 0.704631
0.88011 0 0.750439
0.908888 0 0.782498
0.0161135 0.0214694 0.100603
0.0155337 0.020798 0.0970321
0.0164034 0.0218051 0.102327
0.118242 0.0488594 0.249714
0.397711 0.00781262 0.467582
0.729824 0 0.687907
0.873487 0 0.759899
0.934096 0 0.809171
0.957855 0 0.840375
0.0187533 0.0245212 0.11693
0.0182193 0.0238956 0.113741
0.0382086 0.0614023 0.22739
0.269871 0.102373 0.825788
0.706523 0.0495003 0.87306
0.866255 0 0.843183
0.919676 0 0.828305
0.970733 0 0.869749
0.988113 0 0.895766
0 0.296483 0.91754
0 0.259129 0.886046
0 0.321981 0.93402
0.152697 0.463478 1
0.778439 0.45803 1
1 0.451133 1
1 0.449332 1
1 0.466743 1
1 0.495705 1
0 0.700221 1
0 0.681102 1
0 0.742535 1
0 0.824598 1
0.657816 0.765103 0.986175
0.933013 0.753826 0.977401
1 0.754971 0.972061
1 0.766247 0.9832
1 0.779736 0.990921
0 0.863294 1
0 0.868742 1
0 0.92369 1
0 0.998428 1
0.60882 0.934096 0.977264
0.868116 0.929442 0.963027
0.998016 0.920806 0.952163
1 0.925322 0.959838
1 0.930144 0.970245
0 0.908171 1
0 0.92282 1
0 0.980072 1
0 1 1
0.595026 0.987442 0.994888
0.852415 0.988357 0.966613
0.954696 0.994141 0.944945
1 0.991791 0.948791
1 0.992859 0.960021
0 0.91809 1
0 0.944823 1
0 1 1
0 1 1
0.597833 0.999847 1
0.849928 1 0.985229
0.943206 1 0.973114
0.984924 1 0.964843
0.992264 1 0.971618
0 0.933715 1
0 0.981537 1
0 1 1
0 1 1
0.628824 1 1
0.852186 1 1
0.939269 1 1
0.97322 1 1
0.980789 1 1
0.0165103 0.0219272 0.103258
0.0163882 0.0217899 0.102388
0.0171969 0.0227207 0.107652
0.0988632 0.0482643 0.239185
0.349218 0.0169528 0.456535
0.68191 0 0.706188
0.839094 0 0.793027
0.901122 0 0.833295
0.931487 0 0.861845
0.018677 0.0244297 0.116793
0.0183566 0.0240635 0.11487
0.0193942 0.0252537 0.121294
0.119677 0.0508125 0.277577
0.433692 0 0.560098
0.757839 0 0.785489
0.899153 0 0.859281
0.958862 0 0.903227
0.97937 0 0.924117
0.0213169 0.0274968 0.134081
0.02121 0.0273594 0.133303
0.0218051 0.0280613 0.137682
0.25214 0.0844739 0.859403
0.678752 0.018967 0.915312
0.804883 0 0.855787
0.943358 0 0.927016
0.993133 0 0.961196
1 0 0.978668
0 0.268666 0.959762
0 0.22855 0.928054
0 0.307881 0.997726
0.0850538 0.472648 1
0.765454 0.468681 1
1 0.461875 1
1 0.458625 1
1 0.473747 1
1 0.506706 1
0 0.709895 1
0 0.693446 1
0 0.753445 1
0 0.833844 1
0.639841 0.77734 1
0.914961 0.767681 1
1 0.767544 1
1 0.776562 1
1 0.790478 1
0 0.871839 1
0 0.875257 1
0 0.929213 1
0 1 1
0.587808 0.942428 1
0.863554 0.935714 1
0.977157 0.931304 1
1 0.933349 1
1 0.937758 1
0 0.91194 1
0 0.92459 1
0 0.984985 1
0 1 1
0.573739 0.993881 1
0.848356 0.99234 1
0.948272 0.997574 1
0.988693 0.997284 1
0.998474 0.99826 1
0 0.922316 1
0 0.947677 1
0 1 1
0 1 1
0.579004 1 1
0.846052 1 1
0.941604 1 1
0.976898 1 1
0.986236 1 1
0 0.936599 1
0 0.981643 1
0 1 1
0 1 1
0.613672 1 1
0.848081 1 1
0.938842 1 1
0.973999 1 1
0.983459 1 1
0.0173342 0.0228885 0.108507
0.017319 0.022858 0.10837
0.0183413 0.024033 0.114717
0.0978103 0.0489509 0.247211
0.356939 0.0144961 0.485191
0.692653 0 0.744656
0.847593 0 0.829908
0.913176 0 0.869886
0.937392 0 0.889937
0.0198062 0.025742 0.12401
0.0197452 0.0256809 0.123735
0.0207675 0.0268559 0.130282
0.118395 0.0514992 0.287907
0.445518 0 0.598138
0.769085 0 0.827558
0.911559 0 0.901839
0.971618 0 0.941726
0.990738 0 0.958892
0.0222934 0.0286259 0.140887
0.0222629 0.0285954 0.140764
0.0231632 0.029633 0.146731
0.244968 0.0875563 0.891295
0.681025 0.0215915 0.952377
0.812329 0 0.892912
0.952743 0 0.96611
1 0 0.997665
1 0 1
0 0.266484 0.977462
0 0.232609 0.953521
0 0.309697 1
0.0261997 0.479713 1
0.752239 0.479362 1
1 0.470832 1
1 0.46894 1
1 0.481621 1
1 0.516762 1
0 0.708171 1
0 0.698466 1
0 0.754299 1
0 0.838499 1
0.62594 0.783642 1
0.906294 0.774716 1
1 0.774701 1
1 0.782956 1
1 0.798276 1
0 0.874815 1
0 0.877928 1
0 0.930404 1
0 1 1
0.572152 0.946563 1
0.858595 0.939574 1
0.970275 0.936065 1
1 0.938201 1
1 0.942092 1
0 0.917082 1
0 0.928893 1
0 0.982971 1
0 1 1
0.555871 0.997177 1
0.84477 0.994171 1
0.947051 0.999329 1
0.986023 0.999847 1
0.995407 1 1
0 0.92163 1
0 0.946395 1
0 1 1
0 1 1
0.567086 1 1
0.842756 1 1
0.940475 1 1
0.977249 1 1
0.986145 1 1
0 0.937362 1
0 0.98114 1
0 1 1
0 1 1
0.60177 1 1
0.844205 1 1
0.937911 1 1
0.97409 1 1
0.983902 1 1
0.017792 0.0234073 0.111345
0.0178683 0.0234989 0.111803
0.0188449 0.0246281 0.117906
0.0962539 0.0490883 0.24892
0.359838 0.013489 0.497642
0.700511 0 0.763882
0.856367 0 0.84831
0.92134 0 0.887739
0.946532 0 0.907637
0.0204776 0.0265202 0.12845
0.0204929 0.0265354 0.128466
0.0214084 0.0275883 0.134676
0.117876 0.0519112 0.294316
0.451698 0 0.619211
0.775723 0 0.848081
0.922057 0 0.92578
0.978103 0 0.961242
1 0 0.982116
0.0227817 0.0291905 0.144198
0.0228122 0.0292363 0.144472
0.0237278 0.0302892 0.150561
0.240787 0.110933 0.940337
0.708751 0.0537423 1
0.898299 0 1
0.956374 0 0.982544
1 0 1
1 0.00787366 1
0 0.293889 1
0 0.257221 0.981079
0 0.319875 1
0 0.498772 1
0.736812 0.495689 1
0.995209 0.489525 1
1 0.484657 1
1 0.499687 1
1 0.53077 1
0 0.715328 1
0 0.700114 1
0 0.761395 1
0 0.843992 1
0.612985 0.790402 1
0.898878 0.782254 1
1 0.782528 1
1 0.789746 1
1 0.803723 1
0 0.875853 1
0 0.878828 1
0 0.931517 1
0 1 1
0.557733 0.949752 1
0.85304 0.941726 1
0.966705 0.939345 1
1 0.940826 1
1 0.945251 1
0 0.91545 1
0 0.928817 1
0 0.982849 1
0 1 1
0.546151 0.998795 1
0.84123 0.994736 1
0.945449 1 1
0.984878 1 1
0.9944 1 1
0 0.922316 1
0 0.945602 1
0 1 1
0 1 1
0.551888 1 1
0.838727 1 1
0.939422 1 1
0.976654 1 1
0.986191 1 1
0 0.937514 1
0 0.981247 1
0 1 1
0 1 1
0.592187 1 1
0.840925 1 1
0.936568 1 1
0.973892 1 1
0.98407 1 1
