luts/Onitsuka_LUT04.cube
TITLE "Generated by Resolve"
LUT_3D_SIZE 5
0.00886549 0.0174716 0.0238499
0.0231479 0.0277867 0.0365606
0.141543 0.0389258 0.0443275
0.403601 0.0317845 0.0433204
0.561868 0.0104829 0.0260014
0.0235447 0.0718547 0.0606699
0.053315 0.0893721 0.0664988
0.589319 0.0979171 0
0.945876 0.0861067 0
1 0.124727 0
0 0.349203 0
0 0.39295 0
0.745052 0.617853 0
1 0.664988 0
1 0.70454 0
0 0.655329 0
0 0.78088 0
0.774136 0.900923 0
1 0.945693 0
1 0.954147 0
0 0.754833 0
0 0.939529 0
0.846952 0.967254 0
1 1 0
1 1 0
0.00704967 0.0123903 0.0273594
0.0311894 0.030518 0.0547189
0.195911 0.0433509 0.0767071
0.585428 0.00277714 0.090074
0.758358 0 0.117937
0.0314946 0.0918441 0.107027
0.0565347 0.109346 0.120958
0.686671 0.0973678 0.064683
0.883757 0 0.0174411
1 0.0193484 0.0780804
0 0.515373 0.125963
0 0.563241 0.0825208
0.789944 0.694362 0
1 0.721248 0
1 0.739101 0
0 0.809659 0.330312
0 0.902052 0.272099
0.783886 0.942443 0
1 0.976425 0
1 0.972473 0
0 0.879927 0.716945
0 0.994415 0.710567
0.74728 0.968322 0.483192
1 0.983795 0.451942
1 0.983825 0.518135
0.010071 0.0144961 0.0630045
0.01149 0.0154421 0.065568
0.289082 0.0314031 0.284688
0.770993 0 0.536919
0.871458 0 0.627604
0.0327153 0.0526131 0.172457
0.0348211 0.097261 0.307591
0.726955 0.0809949 0.717342
0.889097 0 0.636393
1 0 0.799481
0 0.669642 0.872267
0 0.717937 0.886015
0.685145 0.748241 0.797345
1 0.737285 0.758572
1 0.763577 0.812497
0 0.894179 0.999924
0 0.966552 1
0.629877 0.97525 0.854032
0.983551 0.976104 0.798489
1 0.980804 0.831983
0 0.927794 1
0 1 1
0.65005 0.996399 0.949844
0.96083 1 0.896757
1 1 0.914351
0.0165103 0.0219272 0.103258
0.0171969 0.0227207 0.107652
0.349218 0.0169528 0.456535
0.839094 0 0.793027
0.931487 0 0.861845
0.0213169 0.0274968 0.134081
0.0218051 0.0280613 0.137682
0.678752 0.018967 0.915312
0.943358 0 0.927016
1 0 0.978668
0 0.709895 1
0 0.753445 1
0.639841 0.77734 1
1 0.767544 1
1 0.790478 1
0 0.91194 1
0 0.984985 1
0.573739 0.993881 1
0.948272 0.997574 1
0.998474 0.99826 1
0 0.936599 1
0 1 1
0.613672 1 1
0.938842 1 1
0.983459 1 1
0.017792 0.0234073 0.111345
0.0188449 0.0246281 0.117906
0.359838 0.013489 0.497642
0.856367 0 0.84831
0.946532 0 0.907637
0.0227817 0.0291905 0.144198
0.0237278 0.0302892 0.150561
0.708751 0.0537423 1
0.956374 0 0.982544
1 0.00787366 1
0 0.715328 1
0 0.761395 1
0.612985 0.790402 1
1 0.782528 1
1 0.803723 1
0 0.91545 1
0 0.982849 1
0.546151 0.998795 1
0.945449 1 1
0.9944 1 1
0 0.937514 1
0 1 1
0.592187 1 1
0.936568 1 1
0.98407 1 1
