luts/Onitsuka_LUT04.cube
TITLE "Generated by Resolve"
LUT_3D_SIZE 33
0.00886549 0.0174716 0.0238499
0.0091249 0.0180514 0.0243839
0.00924697 0.0185245 0.0247807
0.00981155 0.019379 0.0256352
0.0103761 0.0201114 0.0263981
0.00852979 0.0194247 0.0250553
0.00863661 0.0199283 0.0254215
0.0163424 0.0242466 0.0316472
0.0231479 0.0277867 0.0365606
0.0307622 0.031693 0.0415503
0.0507362 0.0355993 0.0429541
0.0664683 0.0401923 0.0445563
0.0819867 0.0445106 0.0476539
0.0969558 0.0468147 0.0475929
0.109575 0.0450446 0.0447547
0.111635 0.0352331 0.0401617
0.141543 0.0389258 0.0443275
0.171572 0.0411841 0.0471199
0.200931 0.0427253 0.0492256
0.232013 0.0435798 0.0507362
0.270268 0.0423285 0.0504616
0.307668 0.0399176 0.0490272
0.341009 0.0373999 0.0473793
0.3729 0.0346227 0.0453956
0.403601 0.0317845 0.0433204
0.430716 0.0288701 0.041062
0.459922 0.024979 0.0379492
0.486 0.0213626 0.0350042
0.506447 0.0184482 0.0325933
0.525032 0.0158083 0.0304265
0.538918 0.0137942 0.0287633
0.55021 0.0121614 0.0273899
0.561868 0.0104829 0.0260014
0.0109407 0.0216678 0.0276188
0.0108644 0.0216068 0.0276341
0.0106966 0.0214847 0.0275425
0.0109865 0.0217136 0.0278935
0.0115053 0.0222477 0.0285344
0.0102693 0.0218662 0.0277256
0.0108186 0.0225986 0.0284428
0.0181888 0.0265202 0.0341192
0.0254063 0.029984 0.0390631
0.0338598 0.0345006 0.0446326
0.0542763 0.0383612 0.0451362
0.0713359 0.0438087 0.0473487
0.0891585 0.0493477 0.0509346
0.105837 0.0518807 0.0505379
0.122988 0.0515755 0.048661
0.141146 0.0484474 0.0489357
0.1467 0.0393072 0.0448005
0.177966 0.0415198 0.0475776
0.208347 0.0430152 0.0496529
0.241642 0.0434272 0.0508125
0.281559 0.0415503 0.0499886
0.31986 0.0390021 0.0484321
0.355367 0.0362097 0.0465553
0.388251 0.0332341 0.0443885
0.419074 0.0302129 0.0421302
0.451164 0.0261997 0.038941
0.481392 0.0220188 0.0355383
0.50518 0.0186465 0.0327611
0.52755 0.0154574 0.0301366
0.546258 0.0127565 0.0278935
0.560006 0.0107729 0.0262608
0.570291 0.00929274 0.0250095
0.581018 0.00769055 0.0236667
0.0121157 0.0235294 0.0295872
0.0119173 0.0233463 0.0294804
0.0116732 0.0230869 0.0292821
0.0118868 0.023209 0.0295415
0.0124514 0.023682 0.0301366
0.0115053 0.0234073 0.0295567
0.0124971 0.0243381 0.0306096
0.0197147 0.0278172 0.0359045
0.0276341 0.0318151 0.0413977
0.0370031 0.036408 0.0471351
0.0571145 0.040238 0.0467842
0.0755016 0.0466468 0.0498054
0.094667 0.0525978 0.0532998
0.113405 0.0559243 0.0525063
0.134188 0.0564736 0.0513619
0.159091 0.0549935 0.0524758
0.168841 0.0461585 0.0493477
0.184634 0.0419165 0.0480964
0.215915 0.0432898 0.0500954
0.251774 0.0430915 0.0507515
0.293263 0.0408637 0.0496071
0.332525 0.038056 0.0478065
0.368368 0.0350347 0.0456855
0.403494 0.0317998 0.0433356
0.436774 0.0281224 0.0404669
0.472572 0.0232242 0.0365148
0.500618 0.0192721 0.0332799
0.526253 0.0156558 0.0302892
0.548424 0.0124514 0.0276493
0.566842 0.00981155 0.025452
0.57847 0.00810254 0.0240024
0.590616 0.00624094 0.0224613
0.602747 0.00445563 0.0209506
0.0143282 0.028397 0.0334936
0.0140078 0.0280156 0.0332189
0.0135348 0.0275273 0.0328374
0.0136873 0.0274357 0.0329595
0.0142824 0.0278019 0.0335088
0.0134279 0.0276036 0.0331121
0.0145876 0.0285344 0.034226
0.0222019 0.032105 0.0393835
0.0306706 0.0366979 0.0451667
0.0408789 0.0415198 0.0509041
0.0625772 0.0457008 0.0497597
0.0821698 0.0523079 0.0531472
0.102892 0.0581979 0.0566415
0.124224 0.0620127 0.0549783
0.152117 0.0644846 0.0547951
0.190387 0.0635386 0.054902
0.220447 0.0576181 0.0531319
0.231067 0.0504921 0.0518502
0.223301 0.0435492 0.0505074
0.262806 0.0426642 0.0506142
0.305287 0.0400702 0.049134
0.345693 0.0370489 0.0471351
0.382803 0.0337377 0.0447547
0.418494 0.0302892 0.0421912
0.457328 0.0253605 0.0382544
0.493462 0.020325 0.0341497
0.522499 0.0162051 0.0307469
0.548241 0.0124819 0.0276646
0.569146 0.00947585 0.0251621
0.586252 0.00694286 0.0230411
0.600534 0.00480659 0.0212558
0.612192 0.00309758 0.0198215
0.623941 0.00141909 0.0184024
0.0170443 0.0352941 0.0383612
0.0167086 0.0347143 0.0380713
0.0162203 0.0340124 0.037644
0.0164645 0.0338903 0.0377813
0.0172885 0.0343633 0.038468
0.0162509 0.0339666 0.037995
0.0175326 0.0350652 0.0391546
0.0257115 0.0396277 0.0444343
0.0345769 0.0450446 0.0496529
0.0433814 0.0499886 0.0530861
0.0695354 0.0539559 0.0528725
0.0911727 0.0604715 0.0569619
0.114961 0.0666209 0.0607309
0.140566 0.0706798 0.0574044
0.180102 0.0724346 0.0550546
0.234012 0.0704356 0.0517739
0.2869 0.0638285 0.0468757
0.330953 0.0565805 0.0428016
0.341894 0.0493477 0.0434272
0.273228 0.0421302 0.0503395
0.318135 0.0391699 0.0485542
0.360632 0.0357519 0.0462196
0.398779 0.0322423 0.0436713
0.437034 0.0280919 0.0404517
0.480308 0.0221714 0.0356603
0.515862 0.0171206 0.0315099
0.546914 0.012665 0.0278172
0.571023 0.00920119 0.0249332
0.592187 0.00604257 0.0222782
0.610529 0.00337224 0.0200351
0.624033 0.00141909 0.0184024
0.635538 0 0.0169833
0.646448 0 0.0156863
0.018967 0.0403906 0.0419776
0.0188907 0.0398413 0.0418097
0.0185702 0.0391546 0.0414588
0.018967 0.0390021 0.0416571
0.0198672 0.0394446 0.0423133
0.0188296 0.0390021 0.0419013
0.0203555 0.0403143 0.0432593
0.0288396 0.0453193 0.0484779
0.0376593 0.0510872 0.0526894
0.0474098 0.057435 0.0534066
0.0756695 0.0612345 0.0553292
0.100328 0.0681773 0.0604715
0.12871 0.0748608 0.0638285
0.161883 0.0779583 0.0572061
0.211597 0.0787976 0.052079
0.275853 0.0745708 0.0453651
0.35317 0.0648356 0.0334783
0.420676 0.0540322 0.0237736
0.463203 0.0448463 0.0196536
0.461051 0.0384833 0.0257877
0.337942 0.0380407 0.0475166
0.377722 0.0342718 0.045182
0.416693 0.0304875 0.0423438
0.461387 0.0247654 0.0377813
0.504021 0.0187991 0.0328985
0.54287 0.0132448 0.0283055
0.57258 0.0089723 0.0247349
0.598413 0.00512703 0.0215152
0.620081 0.00196841 0.0188602
0.638117 0 0.0166629
0.6495 0 0.0153353
0.659083 0 0.0141909
0.669993 0 0.0129244
0.0181277 0.0460059 0.0451362
0.0187381 0.0456855 0.0451667
0.0188449 0.0449683 0.044892
0.0204318 0.0453803 0.0456092
0.0226139 0.0464027 0.0468299
0.0201572 0.0453346 0.0458381
0.0222477 0.0469673 0.047425
0.0321508 0.0531472 0.052903
0.0421912 0.0601358 0.0561532
0.0536049 0.0670176 0.0547036
0.0827344 0.0715801 0.0576638
0.111574 0.0784009 0.0636301
0.147066 0.083711 0.0646982
0.186954 0.0857252 0.0532998
0.25095 0.0852522 0.0445106
0.340047 0.0768139 0.0287785
0.432258 0.0644999 0.0122225
0.515404 0.0532998 0
0.581231 0.0435798 0
0.623423 0.0341344 0
0.636255 0.0249027 0
0.547906 0.0218662 0.0180819
0.52845 0.0200046 0.0254673
0.565179 0.0139773 0.0214389
0.598184 0.00851453 0.0178378
0.62005 0.00448615 0.0161288
0.638956 0.00128176 0.0144503
0.660502 0 0.0120394
0.68574 0 0.00866712
0.713069 0 0.00447089
0.741527 0 0
0.7635 0 0
0.783383 0 0
0.0189059 0.0565347 0.0512245
0.0186465 0.0555581 0.0508125
0.0182803 0.0543374 0.0502022
0.0188907 0.0540627 0.0501411
0.0211795 0.0552224 0.051194
0.0186923 0.0542306 0.05066
0.0217441 0.0567788 0.0527199
0.0366217 0.0663157 0.0589914
0.0481117 0.0741894 0.0610056
0.0604562 0.0813001 0.0596323
0.0901503 0.0874647 0.0603189
0.126894 0.0930953 0.0631418
0.171359 0.0975204 0.0583505
0.23032 0.0987106 0.0399481
0.321752 0.0941329 0.0201267
0.425742 0.083299 0
0.52874 0.073518 0
0.606821 0.0677958 0
0.664866 0.063859 0
0.711559 0.0592203 0
0.75024 0.0522164 0
0.783673 0.0467231 0
0.809262 0.0403601 0
0.829602 0.0336614 0
0.846647 0.0280461 0
0.858885 0.0226596 0
0.871443 0.0200809 0
0.885969 0.0204166 0
0.902449 0.0233005 0
0.921706 0.0291295 0
0.940536 0.0369573 0
0.956481 0.0441901 0
0.972763 0.052018 0
0.0235447 0.0718547 0.0606699
0.0231174 0.0702068 0.0599069
0.0226444 0.0684215 0.0590677
0.0222934 0.0671397 0.0584268
0.0222477 0.0669871 0.058381
0.0225528 0.0679332 0.0592355
0.0229648 0.0694591 0.06009
0.0350195 0.0781415 0.0646525
0.053315 0.0893721 0.0664988
0.0672465 0.0977493 0.0643168
0.0971847 0.10518 0.060029
0.143099 0.110536 0.0580606
0.201022 0.113375 0.0381933
0.283223 0.113176 0.0138247
0.389639 0.10811 0
0.494835 0.101671 0
0.589319 0.0979171 0
0.664836 0.0972152 0
0.72462 0.0974594 0
0.776638 0.0961013 0
0.822568 0.0935378 0
0.861158 0.0903334 0
0.893874 0.0882277 0
0.921843 0.0868696 0
0.945876 0.0861067 0
0.966613 0.0866865 0
0.984894 0.0890211 0
1 0.0928511 0
1 0.0970169 0
1 0.102632 0
1 0.109773 0
1 0.117479 0
1 0.124727 0
0.0269017 0.0870222 0.0686809
0.0265049 0.0849928 0.0678721
0.0261845 0.082948 0.0672007
0.0259098 0.0813916 0.0666209
0.0258793 0.081239 0.0665904
0.026154 0.0825208 0.0674907
0.0263981 0.0842756 0.0681468
0.0362707 0.0919814 0.0708171
0.0548867 0.105409 0.0711223
0.0699779 0.115023 0.0656596
0.103059 0.123934 0.0567788
0.15848 0.129213 0.0419776
0.233646 0.131563 0.0126802
0.331029 0.13283 0
0.436316 0.130785 0
0.542138 0.128618 0
0.638041 0.129473 0
0.714443 0.133074 0
0.776562 0.136675 0
0.832029 0.138506 0
0.882292 0.139193 0
0.9252 0.139864 0
0.958511 0.140673 0
0.985962 0.141115 0
1 0.142199 0
1 0.144945 0
1 0.149401 0
1 0.155917 0
1 0.162951 0
1 0.17055 0
1 0.179538 0
1 0.189029 0
1 0.198718 0
0.0274052 0.105486 0.0756085
0.0278935 0.103166 0.0754253
0.0281529 0.100465 0.0749218
0.0281224 0.0984207 0.0742962
0.0281224 0.0982986 0.0742962
0.0281682 0.100145 0.0753185
0.0279545 0.102876 0.0762036
0.0315251 0.10927 0.0762188
0.0483558 0.124315 0.0726787
0.0675975 0.137423 0.0618906
0.103639 0.149157 0.0408484
0.169848 0.15494 0.00907912
0.260502 0.160159 0
0.362646 0.164446 0
0.475334 0.16611 0
0.585672 0.167117 0
0.680903 0.172503 0
0.757305 0.180224 0
0.819287 0.188235 0
0.874357 0.194919 0
0.924498 0.199557 0
0.96698 0.203555 0
1 0.207279 0
1 0.210483 0
1 0.213031 0
1 0.217517 0
1 0.223484 0
1 0.230793 0
1 0.238895 0
1 0.247684 0
1 0.258274 0
1 0.268971 0
1 0.279728 0
0.0178378 0.130816 0.0784314
0.0193179 0.127672 0.0787823
0.0207523 0.124651 0.0791791
0.0217136 0.122377 0.0792554
0.0216831 0.122408 0.0792859
0.0207523 0.124575 0.0796368
0.0192111 0.12784 0.079469
0.0171664 0.132113 0.0777752
0.0285649 0.14789 0.0686351
0.0495918 0.168215 0.044358
0.092958 0.183322 0.00436408
0.171649 0.19382 0
0.27483 0.20267 0
0.388449 0.209979 0
0.507469 0.214466 0
0.619165 0.219638 0
0.712077 0.230716 0
0.785122 0.244297 0
0.84596 0.256458 0
0.903883 0.266911 0
0.956909 0.274327 0
1 0.281086 0
1 0.286732 0
1 0.290761 0
1 0.295201 0
1 0.300206 0
1 0.308125 0
1 0.316899 0
1 0.325948 0
1 0.334844 0
1 0.344778 0
1 0.35462 0
1 0.363821 0
0 0.161212 0.0724041
0.000396735 0.157259 0.0745861
0.00404364 0.153017 0.0763256
0.0062562 0.15021 0.0772869
0.00613413 0.150332 0.0771344
0.0039826 0.153033 0.0764782
0 0.157641 0.0743725
0 0.163867 0.0685893
0 0.175143 0.0580606
0.0205997 0.203449 0.0047303
0.0760815 0.224918 0
0.167056 0.241413 0
0.280888 0.253193 0
0.405737 0.263005 0
0.5299 0.270863 0
0.639872 0.28217 0
0.728985 0.29865 0
0.803204 0.316411 0
0.865553 0.332082 0
0.922805 0.343771 0
0.974807 0.35317 0
1 0.36144 0
1 0.368368 0
1 0.373007 0
1 0.378332 0
1 0.384192 0
1 0.392309 0
1 0.400824 0
1 0.409125 0
1 0.417258 0
1 0.425238 0
1 0.433982 0
1 0.441962 0
0 0.199527 0.0518044
0 0.19469 0.0557717
0 0.18938 0.0598917
0 0.186084 0.0622873
0 0.186343 0.0615549
0 0.18967 0.0590066
0 0.195727 0.0534524
0 0.20383 0.0438697
0 0.214191 0.0174105
0 0.246555 0
0.0546883 0.273976 0
0.155459 0.295598 0
0.281147 0.311513 0
0.415946 0.324468 0
0.542809 0.337438 0
0.651637 0.354376 0
0.739345 0.374716 0
0.811337 0.395285 0
0.871489 0.412467 0
0.926848 0.42414 0
0.976394 0.433524 0
1 0.441566 0
1 0.448234 0
1 0.452995 0
1 0.458167 0
1 0.463783 0
1 0.471122 0
1 0.479377 0
1 0.487144 0
1 0.494362 0
1 0.501045 0
1 0.507836 0
1 0.513985 0
0 0.245411 0.0165408
0 0.240406 0.0213169
0 0.234241 0.0276646
0 0.23032 0.0309606
0 0.230961 0.0293431
0 0.235416 0.0243534
0 0.242878 0.0153506
0 0.251484 0
0 0.268467 0
0 0.290761 0
0.0250706 0.33196 0
0.134401 0.359701 0
0.271946 0.381231 0
0.416968 0.398932 0
0.549218 0.416709 0
0.656245 0.437171 0
0.741588 0.459709 0
0.810941 0.479011 0
0.869215 0.494865 0
0.92221 0.504509 0
0.968811 0.51281 0
1 0.519539 0
1 0.525429 0
1 0.529839 0
1 0.534401 0
1 0.540139 0
1 0.546334 0
1 0.553201 0
1 0.559762 0
1 0.565469 0
1 0.571191 0
1 0.576699 0
1 0.582422 0
0 0.292317 0
0 0.287633 0
0 0.28275 0
0 0.279225 0
0 0.280446 0
0 0.284779 0
0 0.292302 0
0 0.306645 0
0 0.327382 0
0 0.353689 0
0 0.39939 0
0.105562 0.434928 0
0.258488 0.462333 0
0.416114 0.484245 0
0.553567 0.504051 0
0.658625 0.524208 0
0.741619 0.543954 0
0.809308 0.560327 0
0.865507 0.572274 0
0.915816 0.579995 0
0.958724 0.586023 0
0.99263 0.591348 0
1 0.596277 0
1 0.600244 0
1 0.604623 0
1 0.609094 0
1 0.614176 0
1 0.62002 0
1 0.625345 0
1 0.630732 0
1 0.636194 0
1 0.641413 0
1 0.646616 0
0 0.349203 0
0 0.343542 0
0 0.336767 0
0 0.332906 0
0 0.335119 0
0 0.341482 0
0 0.352148 0
0 0.368658 0
0 0.39295 0
0 0.42388 0
0 0.468589 0
0.0811017 0.515038 0
0.250736 0.546365 0
0.421759 0.5682 0
0.56109 0.586038 0
0.663813 0.602228 0
0.745052 0.617853 0
0.810788 0.630106 0
0.865232 0.638666 0
0.912612 0.644251 0
0.95375 0.648844 0
0.986084 0.652979 0
1 0.657343 0
1 0.661082 0
1 0.664988 0
1 0.669078 0
1 0.673564 0
1 0.678431 0
1 0.683146 0
1 0.688396 0
1 0.693736 0
1 0.699306 0
1 0.70454 0
0 0.406897 0
0 0.400839 0
0 0.393713 0
0 0.390494 0
0 0.393103 0
0 0.400763 0
0 0.413352 0
0 0.432471 0
0 0.459678 0
0 0.493935 0
0 0.532601 0
0.0657511 0.591119 0
0.251164 0.621729 0
0.43238 0.639033 0
0.572305 0.652415 0
0.670817 0.664805 0
0.749447 0.676829 0
0.813977 0.686 0
0.867765 0.692943 0
0.913497 0.698024 0
0.952468 0.701823 0
0.984054 0.705516 0
1 0.709773 0
1 0.713527 0
1 0.717266 0
1 0.721233 0
1 0.725597 0
1 0.729824 0
1 0.73434 0
1 0.739467 0
1 0.74493 0
1 0.750805 0
1 0.756207 0
0 0.458183 0
0 0.45275 0
0 0.446174 0
0 0.443168 0
0 0.447425 0
0 0.456504 0
0 0.470634 0
0 0.491875 0
0 0.521599 0
0 0.556603 0
0 0.597772 0
0.0534829 0.65771 0
0.256321 0.684398 0
0.442206 0.695384 0
0.580758 0.7037 0
0.676463 0.713909 0
0.753384 0.723827 0
0.818189 0.73196 0
0.870634 0.738552 0
0.915434 0.743832 0
0.953689 0.747753 0
0.984237 0.751797 0
1 0.756176 0
1 0.760082 0
1 0.763836 0
1 0.767758 0
1 0.771954 0
1 0.776287 0
1 0.780667 0
1 0.785443 0
1 0.790997 0
1 0.796292 0
1 0.801434 0
0 0.506127 0
0 0.501701 0
0 0.495903 0
0 0.493935 0
0 0.49958 0
0 0.510033 0
0 0.525963 0
0 0.548241 0
0 0.580896 0
0 0.619989 0
0 0.662959 0
0.044831 0.718837 0
0.259739 0.738689 0
0.44744 0.74313 0
0.584543 0.748211 0
0.679316 0.756985 0
0.756436 0.766262 0
0.82089 0.774365 0
0.873198 0.781079 0
0.917144 0.786892 0
0.954498 0.791699 0
0.984344 0.796201 0
1 0.800809 0
1 0.804746 0
1 0.808515 0
1 0.812589 0
1 0.8168 0
1 0.820981 0
1 0.825086 0
1 0.829648 0
1 0.834073 0
1 0.838758 0
1 0.843244 0
0 0.548501 0
0 0.545235 0
0 0.540398 0
0 0.539635 0
0 0.546517 0
0 0.558938 0
0 0.577096 0
0 0.602991 0
0 0.637964 0
0 0.679545 0
0 0.722484 0
0.0356603 0.771786 0
0.261418 0.784512 0
0.450675 0.78381 0
0.587152 0.787152 0
0.681025 0.795331 0
0.758144 0.804593 0
0.823209 0.812787 0
0.874937 0.820386 0
0.918135 0.826719 0
0.95494 0.832166 0
0.984222 0.837125 0
1 0.841962 0
1 0.845548 0
1 0.84889 0
1 0.852338 0
1 0.856229 0
1 0.860227 0
1 0.864027 0
1 0.867674 0
1 0.871595 0
1 0.875212 0
1 0.878859 0
0 0.585412 0
0 0.582559 0
0 0.578622 0
0 0.579126 0
0 0.588205 0
0 0.602274 0
0 0.622385 0
0 0.649973 0
0 0.686397 0
0 0.728649 0
0 0.770672 0
0.0294499 0.814221 0
0.264256 0.820554 0
0.454627 0.816846 0
0.589548 0.81912 0
0.683085 0.827222 0
0.75993 0.836332 0
0.825849 0.845014 0
0.877363 0.852796 0
0.920546 0.859617 0
0.956924 0.865217 0
0.985702 0.87039 0
1 0.874708 0
1 0.87808 0
1 0.88098 0
1 0.88423 0
1 0.887846 0
1 0.891524 0
1 0.894987 0
1 0.898268 0
1 0.901106 0
1 0.903258 0
1 0.905028 0
0 0.613931 0
0 0.61268 0
0 0.610162 0
0 0.6121 0
0 0.622034 0
0 0.637415 0
0 0.658991 0
0 0.687114 0
0 0.724376 0
0 0.765942 0
0 0.807599 0
0.026276 0.845197 0
0.269215 0.847318 0
0.460609 0.842054 0
0.59353 0.844373 0
0.685802 0.852644 0
0.763836 0.861982 0
0.830121 0.870481 0
0.880873 0.878614 0
0.923369 0.885252 0
0.959457 0.890929 0
0.987701 0.895979 0
1 0.900282 0
1 0.90367 0
1 0.906462 0
1 0.909438 0
1 0.912703 0
1 0.915969 0
1 0.919249 0
1 0.920836 0
1 0.921782 0
1 0.922988 0
1 0.924117 0
0 0.636439 0
0 0.636591 0
0 0.635889 0
0 0.639185 0
0 0.650904 0
0 0.667201 0
0 0.689113 0
0 0.718318 0
0 0.755169 0
0 0.796643 0
0 0.836515 0
0.0258946 0.870115 0
0.275105 0.869245 0
0.467216 0.862852 0
0.597787 0.865538 0
0.690562 0.873991 0
0.768795 0.88333 0
0.834409 0.891814 0
0.884535 0.899809 0
0.926467 0.906691 0
0.961593 0.912184 0
0.989761 0.917449 0
1 0.921706 0
1 0.925063 0
1 0.927901 0
1 0.93077 0
1 0.93373 0
1 0.936751 0
1 0.937591 0
1 0.938048 0
1 0.938796 0
1 0.939712 0
1 0.940581 0
0 0.655329 0
0 0.657206 0
0 0.658061 0
0 0.662699 0
0 0.675654 0
0 0.692988 0
0 0.715709 0
0 0.744274 0
0 0.78088 0
0 0.821714 0
0 0.861112 0
0.0336004 0.889632 0
0.282963 0.886885 0
0.47567 0.879942 0
0.604456 0.883146 0
0.696345 0.891783 0
0.774136 0.900923 0
0.838773 0.909361 0
0.887984 0.917479 0
0.929213 0.924041 0
0.963973 0.9299 0
0.991577 0.935027 0
1 0.939559 0
1 0.942901 0
1 0.945693 0
1 0.948425 0
1 0.951324 0
1 0.952056 0
1 0.9523 0
1 0.952575 0
1 0.953033 0
1 0.953582 0
1 0.954147 0
0 0.670558 0
0 0.674067 0
0 0.676661 0
0 0.682902 0
0 0.697353 0
0 0.715831 0
0 0.738903 0
0 0.767514 0
0 0.803845 0
0 0.843183 0
0 0.881071 0
0.049897 0.905592 0
0.297154 0.900298 0
0.487388 0.893584 0
0.61268 0.897475 0
0.703136 0.906096 0
0.780285 0.915373 0
0.843687 0.923491 0
0.892012 0.931304 0
0.932326 0.938048 0
0.966537 0.943938 0
0.993881 0.949126 0
1 0.953643 0
1 0.95697 0
1 0.959808 0
1 0.96257 0
1 0.963897 0
1 0.963897 0
1 0.964065 0
1 0.964248 0
1 0.964553 0
1 0.96492 0
1 0.965225 0
0 0.681682 0
0 0.686702 0
0 0.690669 0
0 0.698878 0
0 0.714168 0
0 0.733776 0
0 0.757885 0
0 0.786877 0
0 0.822385 0
0 0.860609 0
0 0.896345 0
0.0683757 0.916793 0
0.311528 0.910185 0
0.49926 0.903685 0
0.621164 0.908171 0
0.710079 0.917128 0
0.78613 0.925887 0
0.8486 0.934066 0
0.895659 0.941833 0
0.935347 0.948653 0
0.969162 0.954665 0
0.996124 0.959838 0
1 0.964263 0
1 0.967681 0
1 0.970367 0
1 0.972747 0
1 0.972976 0
1 0.972839 0
1 0.972976 0
1 0.973068 0
1 0.973236 0
1 0.973465 0
1 0.973678 0
0 0.690364 0
0 0.696925 0
0 0.701793 0
0 0.71133 0
0 0.727932 0
0 0.748989 0
0 0.774212 0
0 0.8038 0
0 0.83798 0
