luts/Only Red and Blue.cube
TITLE "Generated by Resolve"
LUT_3D_SIZE 9
0 0 0
0.124987 0 0
0.249989 0 0
0.37499 0 0
0.499992 0 0
0.624994 0 0
0.749996 0 0
0.874998 0 0
1 0 0
0.0891432 0.0894942 0.0891432
0.124071 0.124071 0.0117647
0.249516 0.125063 0.00062562
0.374746 0.125032 0.000198367
0.499855 0.125017 9.15541e-05
0.624887 0.125017 6.10361e-05
0.74992 0.125002 4.57771e-05
0.874937 0.125002 3.0518e-05
0.999954 0.125002 1.5259e-05
0.178302 0.178988 0.178302
0.198474 0.209186 0.187747
0.248157 0.248157 0.0235142
0.373968 0.250065 0.00225834
0.499046 0.250141 0.0012665
0.624308 0.250126 0.000671397
0.749508 0.250095 0.000396735
0.874632 0.250065 0.000259403
0.99971 0.25005 0.000183108
0.26746 0.268482 0.26746
0.294514 0.294881 0.294331
0.296483 0.340032 0.209369
0.372244 0.372244 0.0352789
0.498634 0.37499 0.00402838
0.623423 0.375174 0.00282292
0.748577 0.375219 0.00189212
0.873838 0.375204 0.00125124
0.999084 0.375174 0.000839246
0.356619 0.357977 0.356619
0.384161 0.384176 0.384161
0.396948 0.418402 0.375509
0.404318 0.470497 0.205768
0.49633 0.49633 0.0470436
0.623209 0.49987 0.00653086
0.747951 0.500145 0.00451667
0.872923 0.500267 0.00340276
0.998093 0.500298 0.00251774
0.445777 0.447486 0.445777
0.473518 0.473594 0.473487
0.495689 0.502373 0.491234
0.493217 0.548424 0.410407
0.51957 0.598672 0.203143
0.620417 0.620417 0.0588083
0.74728 0.624643 0.0114595
0.872587 0.625071 0.00628672
0.997391 0.625254 0.005066
0.534936 0.53698 0.534936
0.562829 0.563027 0.562799
0.589044 0.589776 0.588663
0.595422 0.627604 0.563256
0.592966 0.680079 0.418753
0.638498 0.725368 0.204211
0.744503 0.744503 0.070573
0.871153 0.749294 0.0182345
0.997299 0.749981 0.00807202
0.624094 0.626474 0.624094
0.652125 0.652476 0.652064
0.67895 0.67895 0.67895
0.695186 0.710826 0.683452
0.691524 0.757076 0.604105
0.698314 0.811185 0.416144
0.75935 0.851194 0.20827
0.868589 0.868589 0.0823224
0.994965 0.873854 0.0261082
0.713252 0.715969 0.713252
0.74139 0.741924 0.741314
0.768338 0.768353 0.768322
0.790982 0.796841 0.787472
0.793912 0.83682 0.751003
0.788998 0.888304 0.623484
0.808652 0.941024 0.411536
0.881254 0.97644 0.214969
0.992676 0.992676 0.0940871
0 0 0.127062
0.0400854 0.033814 0.0400854
0.0935225 0.0517891 0.0726482
0.259571 0.0357824 0.110369
0.421988 0.0233921 0.123033
0.567514 0.0168765 0.127001
0.704723 0.0131228 0.128374
0.837659 0.0107118 0.128832
0.9682 0.0090486 0.128939
0.00411994 0.123873 0.123873
0.124987 0.124987 0.124987
0.249989 0.124987 0.124987
0.37499 0.124987 0.124987
0.499962 0.125002 0.125002
0.624949 0.125002 0.125002
0.74995 0.125002 0.125002
0.874998 0.124987 0.124987
0.999939 0.125002 0.125002
0.175814 0.191791 0.183795
0.214145 0.214481 0.214145
0.249073 0.249073 0.136751
0.374517 0.250065 0.125612
0.499748 0.250034 0.125185
0.624857 0.250019 0.125078
0.749889 0.250019 0.125048
0.874922 0.250004 0.125032
0.999939 0.250004 0.125017
0.269688 0.279866 0.273091
0.303304 0.30399 0.303304
0.323461 0.334188 0.312734
0.373159 0.373159 0.148516
0.49897 0.375067 0.127245
0.624048 0.375143 0.126253
0.74931 0.375128 0.125673
0.87451 0.375097 0.125383
0.999634 0.375067 0.125246
0.359808 0.3691 0.362127
0.392462 0.393484 0.392462
0.419516 0.419883 0.419333
0.421485 0.465034 0.334371
0.497246 0.497246 0.160266
0.623636 0.499992 0.12903
0.748425 0.500175 0.12781
0.873579 0.500221 0.126879
0.99884 0.500206 0.126238
0.449638 0.458381 0.451392
0.481621 0.482979 0.481621
0.509163 0.509178 0.509148
0.52195 0.543404 0.500496
0.52932 0.595499 0.330755
0.621332 0.621332 0.17203
0.748211 0.624872 0.131518
0.872953 0.625147 0.129503
0.997925 0.625269 0.128405
0.5393 0.547723 0.540703
0.570779 0.572473 0.570779
0.59852 0.598596 0.598489
0.620691 0.627375 0.616236
0.618219 0.673426 0.535409
0.644556 0.723674 0.32813
0.745418 0.745418 0.183795
0.872282 0.749645 0.136446
0.997589 0.750072 0.131273
0.628824 0.637095 0.629999
0.659937 0.661982 0.659937
0.687831 0.688029 0.6878
0.714046 0.714778 0.713664
0.720424 0.752605 0.688243
0.717968 0.805081 0.543755
0.7635 0.85037 0.329198
0.869505 0.869505 0.19556
0.996155 0.874296 0.143221
0.718242 0.726497 0.71928
0.749096 0.751476 0.749096
0.777127 0.777478 0.777066
0.803952 0.803952 0.803952
0.820172 0.835828 0.808438
0.816526 0.882078 0.729107
0.823316 0.936187 0.541146
0.884352 0.976196 0.333257
0.993591 0.993591 0.207309
0 0 0.254139
0.126162 0 0.25301
0.0801556 0.067628 0.0801556
0.106737 0.0946059 0.102693
0.18703 0.103593 0.145312
0.34284 0.0898299 0.191028
0.519142 0.0715801 0.220752
0.687831 0.0569314 0.237186
0.843961 0.0467842 0.246067
0 0.125307 0.252644
0.124819 0.124819 0.252064
0.165072 0.158801 0.165072
0.218509 0.176791 0.19765
0.384543 0.160784 0.23537
0.546975 0.148379 0.24802
0.6925 0.141878 0.252003
0.829709 0.138109 0.253376
0.962661 0.135698 0.253834
0.00825513 0.247761 0.247761
0.129107 0.248875 0.248875
0.249989 0.249989 0.249989
0.374975 0.249989 0.249989
0.499992 0.249989 0.249989
0.624964 0.250004 0.250004
0.74995 0.250004 0.250004
0.874952 0.250004 0.250004
1 0.249989 0.249989
0.19855 0.313436 0.275135
0.300816 0.316793 0.308797
0.339147 0.339483 0.339147
0.374075 0.374075 0.261753
0.499519 0.375067 0.250614
0.62475 0.375036 0.250187
0.749859 0.375021 0.25008
0.874891 0.375021 0.25005
0.999924 0.375006 0.250034
0.351644 0.383581 0.36762
0.39469 0.404868 0.398077
0.428305 0.428992 0.428305
0.448463 0.45919 0.437736
0.498161 0.498161 0.273518
0.623972 0.500069 0.252247
0.74905 0.500145 0.251255
0.874311 0.50013 0.250675
0.999512 0.500099 0.250385
0.449027 0.470558 0.457633
0.48481 0.494102 0.487129
0.517464 0.518486 0.517464
0.544518 0.544884 0.544335
0.546487 0.590036 0.459373
0.622248 0.622248 0.285267
0.748638 0.624994 0.254032
0.873426 0.625177 0.252811
0.998581 0.625223 0.251881
0.539391 0.559762 0.546181
0.574639 0.583383 0.576394
0.606622 0.60798 0.606622
0.634165 0.63418 0.63415
0.646952 0.668406 0.625498
0.654322 0.7205 0.455756
0.746334 0.746334 0.297032
0.873213 0.749874 0.256519
0.997955 0.750149 0.254505
0.629587 0.648966 0.635126
0.664302 0.672709 0.665705
0.695781 0.697475 0.695781
0.723522 0.723598 0.723491
0.745693 0.752377 0.741238
0.743221 0.798428 0.66041
0.769558 0.848676 0.453132
0.87042 0.87042 0.308797
0.997284 0.874647 0.261448
0.719631 0.738201 0.724269
0.753811 0.762097 0.755001
0.784939 0.786984 0.784939
0.812833 0.813031 0.812802
0.839048 0.83978 0.838666
0.845426 0.877607 0.813245
0.842969 0.930083 0.668757
0.888502 0.975372 0.4542
0.994507 0.994507 0.320562
0 0 0.381216
0.126162 0 0.380301
0.227588 0.0105898 0.33608
0.120241 0.101442 0.120241
0.140459 0.1308 0.138048
0.184405 0.151537 0.171252
0.280537 0.155398 0.217975
0.429129 0.143557 0.265934
0.602243 0.125383 0.304204
0 0.125139 0.379767
0.124666 0.124666 0.379141
0.251164 0.124331 0.378012
0.205158 0.192615 0.205158
0.231724 0.219608 0.22768
0.312016 0.228595 0.270298
0.467796 0.214832 0.316014
0.644114 0.196567 0.345754
0.812833 0.181918 0.362173
0 0.250813 0.378149
0.122988 0.250309 0.377646
0.249821 0.249821 0.377066
0.290074 0.283803 0.290074
0.343511 0.301793 0.322652
0.509544 0.285786 0.360372
0.671977 0.273381 0.373022
0.817502 0.26688 0.377005
0.954711 0.263111 0.378378
0.0123751 0.371649 0.371649
0.133242 0.372763 0.372763
0.254108 0.373877 0.373877
0.37499 0.37499 0.37499
0.499977 0.37499 0.37499
0.624994 0.37499 0.37499
0.749966 0.375006 0.375006
0.874952 0.375006 0.375006
0.999954 0.375006 0.375006
0.185031 0.444526 0.379644
0.323522 0.438437 0.400137
0.425818 0.441794 0.433799
0.464149 0.464485 0.464149
0.499077 0.499077 0.386755
0.624521 0.500069 0.375616
0.749752 0.500038 0.375189
0.874861 0.500023 0.375082
0.999893 0.500023 0.375051
0.390951 0.500526 0.456703
0.476631 0.508583 0.492607
0.519692 0.52987 0.523079
0.553307 0.553994 0.553307
0.573465 0.584192 0.562737
0.623163 0.623163 0.39852
0.748974 0.625071 0.377249
0.874052 0.625147 0.376257
0.999313 0.625132 0.375677
0.527474 0.575387 0.551431
0.574029 0.595544 0.582635
0.609812 0.619104 0.612131
0.642466 0.643488 0.642466
0.66952 0.669886 0.669337
0.671489 0.715038 0.584375
0.74725 0.74725 0.410269
0.87364 0.749996 0.379034
0.998428 0.750179 0.377813
0.628336 0.661219 0.64242
0.664393 0.684749 0.671183
0.699641 0.708385 0.701396
0.731624 0.732982 0.731624
0.759167 0.759182 0.759152
0.771954 0.793408 0.7505
0.779324 0.845502 0.580758
0.871336 0.871336 0.422034
0.998215 0.874876 0.381521
0.718746 0.750439 0.730632
0.754589 0.773968 0.760128
0.789303 0.797711 0.790707
0.820783 0.822477 0.820783
0.848524 0.8486 0.848493
0.870695 0.877379 0.866239
0.868223 0.92343 0.785412
0.89456 0.973678 0.578134
0.995422 0.995422 0.433799
0 0 0.508293
0.126055 0 0.507439
0.252354 0 0.506035
0.268544 0.0475624 0.342214
0.160327 0.135256 0.160327
0.176272 0.166262 0.174273
0.213489 0.189227 0.205402
0.269825 0.20589 0.24242
0.37406 0.207202 0.290623
0 0.124971 0.506874
0.124498 0.124498 0.506218
0.251164 0.124102 0.505302
0.35259 0.135576 0.461082
0.245228 0.226429 0.245228
0.265446 0.255787 0.263035
0.309392 0.276524 0.296239
0.405539 0.2804 0.342962
0.554086 0.268559 0.390921
0 0.250645 0.505302
0.122835 0.250141 0.504768
0.249668 0.249668 0.504143
0.376165 0.249332 0.503014
0.330159 0.317617 0.330159
0.356725 0.34461 0.352682
0.437018 0.353597 0.3953
0.592798 0.339834 0.441016
0.769116 0.321569 0.470756
0 0.376318 0.503655
0.121141 0.375814 0.503151
0.24799 0.375311 0.502647
0.374823 0.374823 0.502068
0.415076 0.408804 0.415076
0.468513 0.426795 0.447654
0.634546 0.410788 0.485374
0.796979 0.398383 0.498024
0.942504 0.391882 0.502007
0.016495 0.495537 0.495537
0.137362 0.496651 0.496651
0.258244 0.497765 0.497765
0.37911 0.498878 0.498878
0.499992 0.499992 0.499992
0.624994 0.499992 0.499992
0.749981 0.499992 0.499992
0.874998 0.499992 0.499992
1 0.499992 0.499992
0.170367 0.57496 0.494026
0.310018 0.569528 0.504646
0.448524 0.563439 0.525139
0.55082 0.566796 0.558801
0.589151 0.589487 0.589151
0.624079 0.624079 0.511757
0.749523 0.625071 0.500618
0.874754 0.62504 0.500191
0.999863 0.625025 0.500084
0.39707 0.626886 0.550286
0.515938 0.625528 0.581689
0.601633 0.633585 0.617609
0.644694 0.654871 0.648081
0.678309 0.678996 0.678309
0.698466 0.709194 0.687739
0.748165 0.748165 0.523522
0.873976 0.750072 0.502251
0.999054 0.750149 0.501259
0.573663 0.690303 0.640314
0.652461 0.700389 0.676432
0.699031 0.720546 0.707637
0.734813 0.744106 0.737133
0.767468 0.76849 0.767468
0.794522 0.794888 0.794339
0.79649 0.84004 0.709377
0.872251 0.872251 0.535271
0.998642 0.874998 0.504036
0.703288 0.767193 0.735241
0.753323 0.786221 0.767422
0.789395 0.80975 0.796185
0.824643 0.833387 0.826398
0.856626 0.857984 0.856626
0.884169 0.884184 0.884153
0.896956 0.91841 0.875502
0.904326 0.970504 0.70576
0.996338 0.996338 0.547036
0 0 0.63537
0.125902 0 0.634546
0.252415 0 0.633417
0.375372 0 0.625742
0.299763 0.0869917 0.352956
0.200412 0.16907 0.200412
0.212909 0.20145 0.211002
0.246601 0.225605 0.240604
0.288472 0.247044 0.272938
0 0.124819 0.633967
0.124346 0.124346 0.633295
0.251057 0.123919 0.632441
0.377356 0.123674 0.631037
0.393545 0.172564 0.467216
0.285313 0.260243 0.285313
0.301274 0.291264 0.29926
0.338476 0.314214 0.330388
0.394797 0.330892 0.367407
0 0.250477 0.632441
0.122683 0.249973 0.631876
0.2495 0.2495 0.63122
0.376165 0.249104 0.630304
0.477592 0.260578 0.586084
0.37023 0.351431 0.37023
0.390448 0.380789 0.388037
0.434394 0.401526 0.421241
0.530541 0.405402 0.467964
0 0.37615 0.630823
0.120989 0.375647 0.630304
0.247837 0.375143 0.62977
0.37467 0.37467 0.629145
0.501167 0.374334 0.628016
0.455161 0.442618 0.455161
0.481727 0.469612 0.477684
0.56202 0.478599 0.520302
0.7178 0.464836 0.566018
0 0.501808 0.62916
0.119295 0.50132 0.628656
0.246143 0.500816 0.628153
0.372992 0.500313 0.627649
0.499825 0.499825 0.62707
0.540078 0.533806 0.540078
0.593515 0.551797 0.572656
0.759548 0.53579 0.610376
0.921981 0.523384 0.623026
0.0206149 0.619425 0.619425
0.141482 0.620539 0.620539
0.262364 0.621653 0.621653
0.383246 0.622766 0.622766
0.504112 0.62388 0.62388
0.624994 0.624994 0.624994
0.749996 0.624994 0.624994
0.874998 0.624994 0.624994
1 0.624994 0.624994
0.160204 0.703578 0.613016
0.295323 0.699962 0.619028
0.435019 0.69453 0.629648
0.573526 0.688441 0.650141
0.675822 0.691798 0.683803
0.714153 0.714488 0.714153
0.749081 0.749081 0.636759
0.874525 0.750072 0.62562
0.999756 0.750042 0.625193
0.386053 0.757565 0.651423
0.522072 0.751888 0.675273
0.64094 0.75053 0.706691
0.726635 0.758587 0.742611
0.769696 0.779873 0.773083
0.803311 0.803998 0.803311
0.823468 0.834195 0.812741
0.873167 0.873167 0.648524
0.998978 0.875074 0.627253
0.593973 0.812757 0.730709
0.698665 0.815305 0.765316
0.777462 0.825391 0.801434
0.824033 0.845548 0.832639
0.859815 0.869108 0.862135
0.89247 0.893492 0.89247
0.919524 0.91989 0.919341
0.921492 0.965042 0.834379
0.997253 0.997253 0.660273
0 0 0.762448
0.125765 0 0.761654
0.252354 0 0.760616
0.378531 0 0.75906
0.455177 0.0211795 0.67219
0.331075 0.125521 0.372183
0.240497 0.202884 0.240497
0.249744 0.236561 0.247868
0.280919 0.261585 0.276097
0 0.124651 0.761059
0.124178 0.124178 0.760372
0.250904 0.123751 0.759548
0.377417 0.123415 0.758419
0.500374 0.124804 0.750744
0.42475 0.211978 0.477943
0.325399 0.294072 0.325399
0.337896 0.326436 0.335988
0.371603 0.350591 0.365591
0 0.250309 0.759548
0.12253 0.249821 0.758968
0.249348 0.249348 0.758297
0.376059 0.24892 0.757443
0.502358 0.248676 0.756039
0.518547 0.297566 0.592218
0.410315 0.385245 0.410315
0.426276 0.416266 0.424262
0.463478 0.439216 0.45539
0 0.375967 0.757961
0.120836 0.375479 0.757443
0.247684 0.374975 0.756878
0.374502 0.374502 0.756222
0.501167 0.374105 0.755306
0.602594 0.38558 0.711086
0.495232 0.476432 0.495232
0.51545 0.505791 0.513039
0.559396 0.526528 0.546242
0 0.50164 0.756329
0.119127 0.501152 0.755825
0.245991 0.500648 0.755306
0.372839 0.500145 0.754772
0.499672 0.499672 0.754147
0.626169 0.499336 0.753017
0.580163 0.56762 0.580163
0.606729 0.594614 0.602686
0.687022 0.603601 0.645304
0 0.627314 0.75465
0.117449 0.62681 0.754162
0.244297 0.626322 0.753658
0.371145 0.625818 0.753155
0.497993 0.625315 0.752651
0.624826 0.624826 0.752071
0.66508 0.658808 0.66508
0.718517 0.676799 0.697658
0.88455 0.660792 0.735378
0.0247501 0.743313 0.743313
0.145602 0.744427 0.744427
0.266484 0.745541 0.745541
0.387366 0.746654 0.746654
0.508247 0.747768 0.747768
0.629114 0.748882 0.748882
0.749996 0.749996 0.749996
0.874983 0.749996 0.749996
0.999985 0.749996 0.749996
0.153887 0.830854 0.734142
0.285191 0.82858 0.738018
0.420325 0.824964 0.74403
0.560021 0.819532 0.75465
0.698543 0.813443 0.775143
0.800824 0.8168 0.808804
0.839155 0.83949 0.839155
0.874083 0.874083 0.761761
0.999527 0.875074 0.750622
0.370062 0.889052 0.759304
0.51104 0.882567 0.776425
0.647074 0.87689 0.800275
0.765942 0.875532 0.831693
0.851637 0.883589 0.867613
0.894697 0.904875 0.898085
0.928313 0.929 0.928313
0.94847 0.959197 0.937743
0.998169 0.998169 0.773526
0 0 0.889525
0.125597 0 0.888731
0.252232 0 0.88777
0.378637 0 0.886473
0.504219 0 0.884031
0.502617 0.0559396 0.6813
0.36405 0.162921 0.397559
0.280568 0.236713 0.280568
0.286641 0.271641 0.284764
0 0.124483 0.888136
0.12401 0.12401 0.887449
0.250767 0.123583 0.886656
0.377356 0.123217 0.885618
0.503532 0.123018 0.884062
0.580179 0.146166 0.797192
0.456062 0.250507 0.497169
0.365484 0.327886 0.365484
0.374731 0.361547 0.372854
0 0.250141 0.886656
0.122362 0.249653 0.886061
0.24918 0.24918 0.885374
0.375906 0.248753 0.88455
0.502419 0.248417 0.883421
0.625376 0.249805 0.875746
0.549752 0.33698 0.602945
0.450401 0.419074 0.450401
0.462898 0.451438 0.46099
0 0.375799 0.8851
0.120684 0.375311 0.88455
0.247532 0.374823 0.88397
0.37435 0.37435 0.883299
0.50106 0.373922 0.882445
0.627359 0.373678 0.881041
0.643549 0.422568 0.71722
0.535317 0.510246 0.535317
0.551278 0.541268 0.549264
0 0.501472 0.883482
0.118975 0.500969 0.882963
0.245838 0.500481 0.882445
0.372686 0.499977 0.88188
0.499504 0.499504 0.881224
0.626169 0.499107 0.880308
0.727596 0.510582 0.836088
0.620233 0.601434 0.620233
0.640452 0.630793 0.638041
0 0.627146 0.881819
0.117281 0.626642 0.881331
0.244129 0.626154 0.880827
0.370993 0.62565 0.880308
0.497841 0.625147 0.879774
0.624674 0.624674 0.879149
0.751171 0.624338 0.878019
0.705165 0.692622 0.705165
0.731731 0.719615 0.727687
0 0.752682 0.879911
0.115602 0.752316 0.879652
0.242451 0.751812 0.879164
0.369299 0.751324 0.87866
0.496147 0.75082 0.878157
0.622995 0.750317 0.877653
0.749828 0.749828 0.877073
0.790082 0.78381 0.790082
0.843519 0.801801 0.82266
0.0288701 0.867201 0.867201
0.149737 0.868315 0.868315
0.270604 0.869429 0.869429
0.391485 0.870542 0.870542
0.512367 0.871656 0.871656
0.633249 0.87277 0.87277
0.754116 0.873884 0.873884
0.874998 0.874998 0.874998
1 0.874998 0.874998
0.151369 0.956893 0.856214
0.278874 0.955856 0.859144
0.410193 0.953582 0.86302
0.545327 0.949966 0.869032
0.685023 0.944533 0.879652
0.823529 0.938445 0.900145
0.925826 0.941802 0.933806
0.964157 0.964492 0.964157
0.999084 0.999084 0.886763
0 0 1
0.125444 0 1
0.25211 0 1
0.378607 0 1
0.504723 0 1
0.611002 0.00683604 0.97351
0.537118 0.09514 0.684443
0.398474 0.199512 0.426902
0.320653 0.270527 0.320653
0 0.124315 1
0.123857 0.123857 1
0.250599 0.123415 1
0.377249 0.123033 1
0.503639 0.122744 1
0.629221 0.12282 1
0.627619 0.180926 0.806287
0.489036 0.287922 0.52256
0.40557 0.3617 0.40557
0 0.249973 1
0.12221 0.249485 1
0.249012 0.249012 1
0.375769 0.248585 1
0.502358 0.248219 1
0.628534 0.24802 1
0.70518 0.271168 0.922194
0.581064 0.375509 0.622171
0.490486 0.452888 0.490486
0 0.375631 1
0.120531 0.375143 1
0.247364 0.374655 1
0.374182 0.374182 1
0.500908 0.373754 1
0.62742 0.373419 1
0.750378 0.374807 1
0.674754 0.461982 0.727947
0.575402 0.544076 0.575402
0 0.501305 1
0.118837 0.500801 1
0.245686 0.500313 1
0.372534 0.499825 1
0.499352 0.499352 1
0.626062 0.498924 1
0.752361 0.49868 1
0.768551 0.54757 0.842222
0.660319 0.635248 0.660319
0 0.626978 1
0.117128 0.626474 1
0.243977 0.625971 1
0.37084 0.625483 1
0.497688 0.624979 1
0.624506 0.624506 1
0.751171 0.624109 1
0.852598 0.635584 0.961089
0.745235 0.726436 0.745235
0 0.752651 1
0.115434 0.752148 1
0.242283 0.751644 1
0.369131 0.751156 1
0.495995 0.750652 1
0.622843 0.750149 1
0.749676 0.749676 1
0.876173 0.74934 1
0.830167 0.817624 0.830167
0 0.87776 1
0.11429 0.877684 1
0.240604 0.877317 1
0.367453 0.876814 1
0.494301 0.876326 1
0.621149 0.875822 1
0.747997 0.875319 1
0.87483 0.87483 1
0.915084 0.908812 0.915084
0.03299 0.991089 0.991089
0.153857 0.992203 0.992203
0.274739 0.993317 0.993317
0.395605 0.99443 0.99443
0.516487 0.995544 0.995544
0.637369 0.996658 0.996658
0.758251 0.997772 0.997772
0.879118 0.998886 0.998886
1 1 1
