luts/Only Red and Blue.cube
TITLE "Generated by Resolve"
LUT_3D_SIZE 33
0 0 0
0.0312352 0 0
0.0624857 0 0
0.0937362 0 0
0.124987 0 0
0.156237 0 0
0.187488 0 0
0.218738 0 0
0.249989 0 0
0.281239 0 0
0.31249 0 0
0.34374 0 0
0.37499 0 0
0.406241 0 0
0.437491 0 0
0.468742 0 0
0.499992 0 0
0.531243 0 0
0.562493 0 0
0.593744 0 0
0.624994 0 0
0.656245 0 0
0.687495 0 0
0.718746 0 0
0.749996 0 0
0.781247 0 0
0.812497 0 0
0.843748 0 0
0.874998 0 0
0.906249 0 0
0.937499 0 0
0.96875 0 0
1 0 0
0.0222782 0.0223697 0.0222782
0.0310063 0.0310063 0.00294499
0.0623636 0.0312505 0.00015259
0.0936751 0.0312505 4.57771e-05
0.124956 0.0312505 3.0518e-05
0.156207 0.0312352 1.5259e-05
0.187472 0.0312352 1.5259e-05
0.218723 0.0312352 0
0.249973 0.0312352 0
0.281224 0.0312352 0
0.312474 0.0312352 0
0.343725 0.0312352 0
0.374975 0.0312352 0
0.406241 0.0312352 0
0.437491 0.0312352 0
0.468742 0.0312352 0
0.499992 0.0312352 0
0.531243 0.0312352 0
0.562493 0.0312352 0
0.593744 0.0312352 0
0.624994 0.0312352 0
0.656245 0.0312352 0
0.687495 0.0312352 0
0.718746 0.0312352 0
0.749996 0.0312352 0
0.781247 0.0312352 0
0.812497 0.0312352 0
0.843748 0.0312352 0
0.874998 0.0312352 0
0.906249 0.0312352 0
0.937499 0.0312352 0
0.96875 0.0312352 0
1 0.0312352 0
0.0445716 0.0447395 0.0445716
0.0496071 0.0522927 0.0469368
0.0620279 0.0620279 0.00587472
0.0934768 0.062501 0.000564584
0.124743 0.0625315 0.000320439
0.156069 0.0625162 0.000167849
0.187366 0.0625162 0.000106813
0.218647 0.062501 6.10361e-05
0.249912 0.062501 4.57771e-05
0.281178 0.062501 3.0518e-05
0.312444 0.062501 3.0518e-05
0.343694 0.062501 1.5259e-05
0.374945 0.062501 1.5259e-05
0.40621 0.062501 1.5259e-05
0.437461 0.062501 1.5259e-05
0.468711 0.0624857 1.5259e-05
0.499962 0.0624857 1.5259e-05
0.531212 0.0624857 1.5259e-05
0.562478 0.0624857 1.5259e-05
0.593729 0.0624857 1.5259e-05
0.624979 0.0624857 1.5259e-05
0.656229 0.0624857 0
0.68748 0.0624857 0
0.71873 0.0624857 0
0.749981 0.0624857 0
0.781231 0.0624857 0
0.812482 0.0624857 0
0.843732 0.0624857 0
0.874983 0.0624857 0
0.906233 0.0624857 0
0.937484 0.0624857 0
0.968734 0.0624857 0
0.999985 0.0624857 0
0.066865 0.0671092 0.066865
0.0736248 0.0737163 0.073579
0.0741131 0.0849928 0.0523384
0.0930495 0.0930495 0.00881971
0.124651 0.0937362 0.0010071
0.15584 0.0937819 0.000701915
0.187137 0.0937972 0.00047303
0.218448 0.0937972 0.00030518
0.24976 0.0937819 0.000213626
0.281056 0.0937819 0.00015259
0.312337 0.0937667 0.000106813
0.343618 0.0937667 9.15541e-05
0.374884 0.0937667 7.62951e-05
0.406149 0.0937514 6.10361e-05
0.4374 0.0937514 4.57771e-05
0.468666 0.0937514 4.57771e-05
0.499916 0.0937514 3.0518e-05
0.531182 0.0937514 3.0518e-05
0.562432 0.0937514 3.0518e-05
0.593698 0.0937514 3.0518e-05
0.624949 0.0937514 3.0518e-05
0.656199 0.0937514 1.5259e-05
0.687449 0.0937514 1.5259e-05
0.7187 0.0937514 1.5259e-05
0.74995 0.0937514 1.5259e-05
0.781216 0.0937514 1.5259e-05
0.812467 0.0937514 1.5259e-05
0.843717 0.0937514 1.5259e-05
0.874968 0.0937514 1.5259e-05
0.906218 0.0937514 1.5259e-05
0.937469 0.0937362 1.5259e-05
0.968719 0.0937362 1.5259e-05
0.999969 0.0937362 1.5259e-05
0.0891432 0.0894942 0.0891432
0.096025 0.096025 0.096025
0.0992294 0.104585 0.0938735
0.101076 0.117617 0.0514382
0.124071 0.124071 0.0117647
0.155795 0.124956 0.00163272
0.186984 0.125017 0.00112917
0.218219 0.125048 0.000854505
0.249516 0.125063 0.00062562
0.280827 0.125063 0.000457771
0.312154 0.125048 0.000335698
0.34345 0.125048 0.000259403
0.374746 0.125032 0.000198367
0.406027 0.125032 0.00015259
0.437308 0.125032 0.000137331
0.468574 0.125017 0.000106813
0.499855 0.125017 9.15541e-05
0.531106 0.125017 7.62951e-05
0.562371 0.125017 7.62951e-05
0.593637 0.125017 6.10361e-05
0.624887 0.125017 6.10361e-05
0.656153 0.125002 4.57771e-05
0.687404 0.125002 4.57771e-05
0.718669 0.125002 4.57771e-05
0.74992 0.125002 4.57771e-05
0.78117 0.125002 3.0518e-05
0.812421 0.125002 3.0518e-05
0.843687 0.125002 3.0518e-05
0.874937 0.125002 3.0518e-05
0.906188 0.125002 3.0518e-05
0.937438 0.125002 3.0518e-05
0.968688 0.125002 3.0518e-05
0.999954 0.125002 1.5259e-05
0.111437 0.111864 0.111437
0.118364 0.118395 0.118364
0.123919 0.125582 0.122805
0.123293 0.137087 0.102602
0.129885 0.14966 0.050782
0.155093 0.155093 0.0146944
0.186816 0.156146 0.0028687
0.218143 0.156252 0.00157168
0.249332 0.156298 0.0012665
0.280598 0.156329 0.0010071
0.311894 0.156329 0.000793469
0.343221 0.156329 0.000610361
0.374533 0.156329 0.00047303
0.405844 0.156313 0.000381476
0.43714 0.156313 0.00030518
0.468437 0.156298 0.000244144
0.499718 0.156298 0.000213626
0.530999 0.156298 0.000183108
0.56228 0.156283 0.00015259
0.593545 0.156283 0.000137331
0.624811 0.156283 0.000122072
0.656077 0.156283 0.000106813
0.687343 0.156268 9.15541e-05
0.718608 0.156268 9.15541e-05
0.749859 0.156268 7.62951e-05
0.781125 0.156268 7.62951e-05
0.812375 0.156268 6.10361e-05
0.843641 0.156268 6.10361e-05
0.874891 0.156268 6.10361e-05
0.906142 0.156268 4.57771e-05
0.937407 0.156268 4.57771e-05
0.968658 0.156252 4.57771e-05
0.999908 0.156252 4.57771e-05
0.13373 0.134234 0.13373
0.140703 0.140749 0.140688
0.14725 0.147433 0.147158
0.148852 0.156893 0.14081
0.148241 0.170016 0.104692
0.159609 0.181323 0.0510414
0.186114 0.186114 0.0176394
0.217777 0.18732 0.00456245
0.249317 0.187488 0.00201419
0.280476 0.187549 0.00169375
0.311696 0.187579 0.00140383
0.342977 0.187594 0.00115969
0.374273 0.18761 0.000946059
0.4056 0.18761 0.000762951
0.436912 0.187594 0.00062562
0.468223 0.187594 0.000503548
0.499535 0.187579 0.000427253
0.530831 0.187579 0.000350958
0.562127 0.187564 0.00030518
0.593423 0.187564 0.000259403
0.624689 0.187549 0.000228885
0.65597 0.187549 0.000198367
0.687236 0.187549 0.000167849
0.718517 0.187549 0.00015259
0.749783 0.187533 0.000137331
0.781048 0.187533 0.000122072
0.812314 0.187533 0.000122072
0.843565 0.187533 0.000106813
0.87483 0.187533 9.15541e-05
0.906096 0.187533 9.15541e-05
0.937346 0.187518 9.15541e-05
0.968612 0.187518 7.62951e-05
0.999863 0.187518 7.62951e-05
0.156008 0.156619 0.156008
0.163027 0.163104 0.163012
0.169726 0.169726 0.169726
0.173785 0.177691 0.170855
0.172869 0.189258 0.151019
0.174563 0.202792 0.104036
0.189822 0.212787 0.0520638
0.217136 0.217136 0.0205844
0.248737 0.218448 0.00653086
0.280491 0.218708 0.00248722
0.311635 0.218784 0.00213626
0.342824 0.21883 0.00183108
0.374075 0.21886 0.00155642
0.405356 0.218875 0.00131228
0.436667 0.218875 0.00109865
0.467979 0.218875 0.000915541
0.49929 0.21886 0.000762951
0.530617 0.21886 0.000640879
0.561929 0.218845 0.000549325
0.593225 0.218845 0.00047303
0.624521 0.21883 0.000396735
0.655818 0.21883 0.000350958
0.687114 0.21883 0.00030518
0.718395 0.218814 0.000274662
0.74966 0.218814 0.000244144
0.780941 0.218814 0.000213626
0.812207 0.218799 0.000198367
0.843473 0.218799 0.000183108
0.874739 0.218799 0.000167849
0.906004 0.218799 0.00015259
0.93727 0.218784 0.000137331
0.968536 0.218784 0.000122072
0.999802 0.218784 0.000122072
0.178302 0.178988 0.178302
0.185336 0.185473 0.185321
0.192065 0.192081 0.192065
0.197742 0.199207 0.196857
0.198474 0.209186 0.187747
0.197238 0.222065 0.155856
0.202152 0.235248 0.102876
0.22031 0.244099 0.0537423
0.248157 0.248157 0.0235142
0.279683 0.249577 0.00869764
0.311589 0.249928 0.00326543
0.342794 0.250004 0.00257877
0.373968 0.250065 0.00225834
0.405188 0.250095 0.00196841
0.436454 0.250126 0.00170901
0.467735 0.250141 0.00146487
0.499046 0.250141 0.0012665
0.530358 0.250141 0.00108339
0.561685 0.250141 0.000915541
0.592996 0.250126 0.000793469
0.624308 0.250126 0.000671397
0.655619 0.250111 0.000595102
0.686915 0.250111 0.000518807
0.718227 0.250095 0.000457771
0.749508 0.250095 0.000396735
0.780804 0.25008 0.000350958
0.812085 0.25008 0.000320439
0.843351 0.25008 0.000289921
0.874632 0.250065 0.000259403
0.905898 0.250065 0.000244144
0.937179 0.250065 0.000213626
0.968444 0.250065 0.000198367
0.99971 0.25005 0.000183108
0.200595 0.201358 0.200595
0.207645 0.207843 0.20763
0.21442 0.214435 0.214405
0.220874 0.221164 0.220737
0.223529 0.229892 0.218448
0.222492 0.241474 0.198779
0.222354 0.255024 0.157046
0.23064 0.267399 0.101991
0.250935 0.275349 0.0556039
0.279179 0.279179 0.0264591
0.310643 0.280674 0.0110018
0.342626 0.281132 0.00436408
0.373983 0.281239 0.00302129
0.405127 0.2813 0.00270085
0.436332 0.281346 0.00239567
0.467567 0.281376 0.002121
0.498833 0.281392 0.0018616
0.530114 0.281407 0.00161746
0.561425 0.281407 0.00141909
0.592737 0.281407 0.00123598
0.624063 0.281407 0.00106813
0.655375 0.281407 0.0009308
0.686702 0.281392 0.000808728
0.718013 0.281392 0.000717174
0.74931 0.281376 0.00062562
0.780621 0.281376 0.000564584
0.811917 0.281361 0.000503548
0.843198 0.281361 0.000442512
0.874495 0.281346 0.000396735
0.905776 0.281346 0.000366217
0.937057 0.281346 0.000335698
0.968322 0.281331 0.00030518
0.999603 0.281331 0.000289921
0.222889 0.223728 0.222889
0.229953 0.230198 0.229938
0.236744 0.236789 0.236744
0.243427 0.243427 0.243427
0.247837 0.251179 0.245609
0.248096 0.261494 0.234684
0.246601 0.274205 0.205203
0.248463 0.287846 0.156573
0.25977 0.299321 0.101564
0.281651 0.306538 0.0576944
0.310201 0.310201 0.0294041
0.341604 0.311772 0.0134279
0.373632 0.312322 0.00572213
0.405158 0.312459 0.00347906
0.436286 0.312535 0.00314336
0.467475 0.312581 0.00282292
0.49868 0.312627 0.002533
0.529931 0.312657 0.00225834
0.561212 0.312673 0.00201419
0.592508 0.312673 0.00178531
0.623804 0.312688 0.00157168
0.655131 0.312688 0.00138857
0.686442 0.312673 0.00122072
0.717769 0.312673 0.00108339
0.749081 0.312673 0.000961318
0.780392 0.312657 0.000854505
0.811704 0.312642 0.000762951
0.843 0.312642 0.000671397
0.874311 0.312627 0.000610361
0.905608 0.312627 0.000549325
0.936889 0.312627 0.000503548
0.968185 0.312612 0.000457771
0.999466 0.312612 0.000411994
0.245167 0.246113 0.245167
0.252262 0.252567 0.252232
0.259083 0.259144 0.259068
0.265766 0.265766 0.265766
0.271473 0.272877 0.27068
0.273228 0.282124 0.265812
0.272129 0.293721 0.246235
0.271244 0.307088 0.20853
0.275456 0.320485 0.155367
0.289357 0.331075 0.101625
0.312444 0.337697 0.0599527
0.341222 0.341222 0.0323491
0.37258 0.342855 0.0159304
0.404608 0.343481 0.00735485
0.436316 0.343679 0.0040589
0.46746 0.343755 0.00358587
0.498619 0.343816 0.00326543
0.529824 0.343862 0.00296025
0.561044 0.343893 0.00267033
0.592309 0.343923 0.00241093
0.62359 0.343938 0.00216678
0.654887 0.343954 0.0019379
0.686183 0.343954 0.00173953
0.71751 0.343954 0.00154116
0.748821 0.343954 0.00137331
0.780148 0.343938 0.00123598
0.81146 0.343938 0.00109865
0.842771 0.343923 0.000991836
0.874083 0.343923 0.000885023
0.905394 0.343908 0.000793469
0.936706 0.343908 0.000717174
0.968002 0.343893 0.000656138
0.999298 0.343893 0.000595102
0.26746 0.268482 0.26746
0.274571 0.274937 0.27454
0.281407 0.281514 0.281392
0.288121 0.288121 0.288106
0.294514 0.294881 0.294331
0.297765 0.303258 0.293828
0.297704 0.313802 0.281621
0.296147 0.326345 0.253864
0.296483 0.340032 0.209369
0.303227 0.35288 0.15433
0.319249 0.362676 0.102098
0.343282 0.368826 0.0623484
0.372244 0.372244 0.0352789
0.40354 0.373922 0.0184939
0.435569 0.37464 0.0091249
0.467399 0.374899 0.00489815
0.498634 0.37499 0.00402838
0.529778 0.375051 0.00370794
0.560967 0.375097 0.0033875
0.592172 0.375143 0.00309758
0.623423 0.375174 0.00282292
0.654688 0.375189 0.00256352
0.685969 0.375204 0.00231937
0.717266 0.375219 0.00209049
0.748577 0.375219 0.00189212
0.779889 0.375219 0.00170901
0.8112 0.375219 0.0015259
0.842527 0.375219 0.00137331
0.873838 0.375204 0.00125124
0.905165 0.375204 0.00112917
0.936477 0.375189 0.00102235
0.967788 0.375189 0.0009308
0.999084 0.375174 0.000839246
0.289754 0.290852 0.289754
0.296864 0.297307 0.296834
0.303731 0.303868 0.303716
0.31046 0.310475 0.310445
0.317113 0.317113 0.317113
0.321706 0.324773 0.319799
0.322896 0.334386 0.313054
0.321767 0.345983 0.293523
0.32047 0.359197 0.258503
0.322469 0.372885 0.209033
0.331609 0.385077 0.153368
0.349371 0.394171 0.102922
0.374166 0.399939 0.0648203
0.403265 0.403265 0.0382239
0.434516 0.40499 0.0211185
0.466529 0.405783 0.011017
0.498451 0.406104 0.00595102
0.529824 0.40621 0.00448615
0.560952 0.406287 0.00415045
0.592111 0.406332 0.00383001
0.623316 0.406378 0.00352483
0.654536 0.406424 0.00323491
0.685786 0.406455 0.00296025
0.717067 0.40647 0.00271611
0.748348 0.406485 0.00247196
0.779644 0.406485 0.00224308
0.810956 0.4065 0.00204471
0.842268 0.4065 0.0018616
0.873594 0.406485 0.00167849
0.904906 0.406485 0.0015259
0.936233 0.406485 0.00138857
0.967544 0.40647 0.0012665
0.998856 0.40647 0.00115969
0.312047 0.313237 0.312047
0.319173 0.319677 0.319127
0.326055 0.326223 0.326024
0.332799 0.33283 0.332784
0.339467 0.339467 0.339467
0.345159 0.346563 0.344381
0.347585 0.355398 0.341711
0.347326 0.366094 0.328557
0.345754 0.378531 0.302052
0.345296 0.392096 0.261051
0.349157 0.405585 0.208072
0.360449 0.417105 0.152712
0.37966 0.425589 0.104128
0.405066 0.431037 0.0673533
0.434287 0.434287 0.0411688
0.465507 0.436057 0.0237888
0.497475 0.436927 0.0130465
0.529458 0.437293 0.007187
0.560998 0.43743 0.0049897
0.592126 0.437507 0.00459297
0.623285 0.437568 0.00427253
0.654459 0.437629 0.00395209
0.685679 0.437659 0.00366217
0.716915 0.43769 0.00337224
0.748165 0.43772 0.00311284
0.779446 0.437736 0.00285344
0.810727 0.437751 0.00262455
0.842039 0.437766 0.00241093
0.873335 0.437766 0.00221256
0.904646 0.437766 0.00201419
0.935973 0.437766 0.00184634
0.967285 0.437751 0.00167849
0.998611 0.437751 0.00154116
0.334325 0.335607 0.334325
0.341466 0.342061 0.341421
0.348379 0.348592 0.348333
0.355138 0.355184 0.355123
0.361807 0.361822 0.361807
0.368139 0.368612 0.36791
0.371771 0.376776 0.368429
0.372549 0.386648 0.36022
0.371405 0.39826 0.340719
0.369909 0.411307 0.307805
0.370596 0.42504 0.261723
0.376425 0.438163 0.206622
0.38967 0.448997 0.152361
0.410101 0.456916 0.105852
0.435981 0.462135 0.0699474
0.465309 0.465309 0.0440986
0.496483 0.467109 0.0264744
0.528435 0.46804 0.0151827
0.560464 0.468482 0.00859083
0.592126 0.46865 0.0056611
0.623301 0.468742 0.00505074
0.654444 0.468803 0.00471504
0.685618 0.468864 0.0043946
0.716808 0.46891 0.00408942
0.748043 0.46894 0.0037995
0.779278 0.468971 0.00352483
0.810544 0.469001 0.00326543
0.841825 0.469017 0.00300603
0.873106 0.469017 0.00277714
0.904418 0.469032 0.00256352
0.935714 0.469032 0.00236515
0.967041 0.469032 0.00216678
0.998352 0.469032 0.00199893
0.356619 0.357977 0.356619
0.363775 0.364431 0.363729
0.370687 0.370962 0.370657
0.377462 0.377554 0.377447
0.384161 0.384176 0.384161
0.390784 0.390829 0.390768
0.395483 0.398413 0.393729
0.397345 0.407584 0.38938
0.396948 0.418402 0.375509
0.395377 0.430747 0.349905
0.394491 0.444144 0.311742
0.396521 0.457908 0.261448
0.404318 0.470497 0.205768
0.419181 0.480766 0.152331
0.44062 0.488212 0.107485
0.466911 0.493202 0.0725872
0.49633 0.49633 0.0470436
0.527474 0.498161 0.0292058
0.55938 0.499168 0.01738
0.591424 0.499657 0.010193
0.623209 0.49987 0.00653086
0.65449 0.499962 0.00549325
0.685618 0.500038 0.00515755
0.716777 0.500084 0.00483711
0.747951 0.500145 0.00451667
0.779171 0.500191 0.00422675
0.810407 0.500221 0.00393683
0.841657 0.500252 0.00366217
0.872923 0.500267 0.00340276
0.904204 0.500282 0.00315862
0.9355 0.500298 0.00292973
0.966796 0.500298 0.00271611
0.998093 0.500298 0.00251774
0.378912 0.380362 0.378912
0.386069 0.386801 0.386023
0.392996 0.393317 0.392966
0.399802 0.399908 0.399771
0.4065 0.406531 0.4065
0.413153 0.413169 0.413153
0.41883 0.420279 0.418036
0.421714 0.42884 0.416709
0.422202 0.438926 0.40734
0.421042 0.450538 0.387854
0.41944 0.463447 0.356573
0.419364 0.477119 0.313497
0.422995 0.490654 0.260624
0.432624 0.502724 0.204776
0.448936 0.512428 0.152621
0.471214 0.519478 0.1093
0.497871 0.524269 0.0752728
0.527352 0.527352 0.0499886
0.558465 0.529213 0.0319371
0.590341 0.530266 0.0196689
0.6224 0.530816 0.0118868
0.654246 0.531075 0.00756847
0.685664 0.531182 0.00595102
0.716793 0.531258 0.00560006
0.747936 0.531319 0.00527962
0.77911 0.53138 0.00495918
0.810315 0.531426 0.004654
0.841535 0.531456 0.00436408
0.87277 0.531487 0.00408942
0.904021 0.531518 0.00381476
0.935302 0.531533 0.00355535
0.966583 0.531548 0.00332647
0.997879 0.531563 0.00309758
0.401205 0.402731 0.401205
0.408362 0.409171 0.408316
0.41532 0.415686 0.415274
0.422126 0.422263 0.422095
0.42884 0.428885 0.428824
0.435508 0.435508 0.435508
0.441779 0.442329 0.441505
0.445655 0.450355 0.442664
0.447074 0.4598 0.436912
0.446571 0.470695 0.422446
0.445014 0.482963 0.397559
0.443748 0.4963 0.361166
0.444724 0.510063 0.314061
0.450019 0.523278 0.259525
0.461311 0.534829 0.203998
0.478874 0.544015 0.153155
0.501869 0.550713 0.111223
0.528817 0.555337 0.0779889
0.558373 0.558373 0.0529183
0.589456 0.560265 0.0347143
0.621302 0.561364 0.0220188
0.653361 0.561975 0.0136721
0.685283 0.562264 0.00874342
0.716823 0.562402 0.00654612
0.747967 0.562478 0.00605783
0.779095 0.562554 0.00572213
0.810269 0.562615 0.00540169
0.841459 0.562661 0.00508125
0.872663 0.562707 0.00479133
0.903899 0.562737 0.00450141
0.935134 0.562768 0.00422675
0.9664 0.562799 0.00396735
0.997681 0.562814 0.00370794
0.423484 0.425101 0.423484
0.430655 0.43154 0.43061
0.437629 0.438056 0.437568
0.44445 0.444633 0.444419
0.451179 0.45124 0.451164
0.457862 0.457862 0.457847
0.464439 0.46453 0.464393
0.46923 0.472084 0.467567
0.471565 0.480964 0.464744
0.471839 0.491218 0.454398
0.470665 0.502815 0.434928
0.469032 0.515618 0.404974
0.468482 0.529168 0.364462
0.470588 0.542931 0.313848
0.477501 0.555764 0.25835
0.490303 0.566796 0.203449
0.508965 0.57554 0.153918
0.532586 0.581918 0.113268
0.559792 0.586404 0.0807202
0.589395 0.589395 0.0558633
0.620462 0.591302 0.0374914
0.652262 0.592462 0.0243992
0.684306 0.593118 0.0155642
0.716289 0.593454 0.0100404
0.747921 0.593622 0.00727855
0.779156 0.593713 0.00650034
0.810269 0.593774 0.00616464
0.841428 0.593851 0.00584421
0.872602 0.593896 0.00552377
0.903807 0.593942 0.00521859
0.935027 0.593988 0.00492866
0.966262 0.594018 0.00463874
0.997513 0.594049 0.00437934
0.445777 0.447486 0.445777
0.452949 0.45391 0.452903
0.459937 0.460426 0.459876
0.466773 0.466987 0.466728
0.473518 0.473594 0.473487
0.480201 0.480217 0.480201
0.486854 0.486854 0.486854
0.49247 0.493996 0.491661
0.495689 0.502373 0.491234
0.496788 0.512032 0.484321
0.496193 0.523003 0.469383
0.494636 0.53521 0.44506
0.493217 0.548424 0.410407
0.493446 0.562127 0.365911
0.496941 0.575708 0.313115
0.505394 0.588129 0.257206
0.51957 0.598672 0.203143
0.539178 0.607004 0.154879
0.563333 0.613092 0.115404
0.590753 0.617456 0.0834821
0.620417 0.620417 0.0588083
0.651453 0.622354 0.0402838
0.683223 0.62356 0.0268559
0.715267 0.624262 0.0175326
0.74728 0.624643 0.0114595
0.779004 0.624842 0.00816358
0.81033 0.624933 0.00694286
0.841459 0.62501 0.00662242
0.872587 0.625071 0.00628672
0.903761 0.625132 0.00596628
0.934951 0.625177 0.0056611
0.966155 0.625223 0.00535592
0.997391 0.625254 0.005066
0.468071 0.469856 0.468071
0.475242 0.47628 0.475196
0.482246 0.482795 0.482185
0.489097 0.489357 0.489052
0.495842 0.495949 0.495827
0.502541 0.502571 0.502541
0.509209 0.509209 0.509209
0.515404 0.51606 0.515084
0.519463 0.52398 0.516686
0.521385 0.53312 0.512581
0.521477 0.543496 0.501457
0.520302 0.555108 0.482017
0.518639 0.567803 0.453071
0.517754 0.581247 0.414603
0.518853 0.595071 0.366415
0.523735 0.608392 0.312108
0.533669 0.620371 0.256214
0.54905 0.630457 0.203098
0.569512 0.638392 0.156207
0.59411 0.644266 0.117632
0.621729 0.648508 0.086244
0.651438 0.651438 0.061738
0.68246 0.653391 0.0431067
0.714183 0.654643 0.0293431
0.746227 0.65539 0.0195773
0.778256 0.655818 0.0130465
0.810056 0.656046 0.00918593
0.841505 0.656153 0.00747692
0.872633 0.656229 0.00706493
0.903761 0.656306 0.00672923
0.93492 0.656367 0.00640879
0.96611 0.656413 0.00608835
0.997299 0.656458 0.00578317
0.490364 0.492226 0.490364
0.497536 0.498665 0.49749
0.50454 0.505165 0.504479
0.511406 0.511711 0.51136
0.518181 0.518303 0.518151
0.52488 0.524926 0.52488
0.531548 0.531563 0.531548
0.538094 0.538247 0.538018
0.542962 0.545754 0.541375
0.545647 0.554437 0.539559
0.546471 0.564279 0.53164
0.545815 0.575311 0.51632
0.544289 0.587457 0.49247
0.542748 0.600565 0.459236
0.542489 0.614176 0.417044
0.544671 0.627955 0.366232
0.550912 0.640986 0.31075
0.562234 0.652506 0.25536
0.578714 0.66215 0.20325
0.599924 0.669703 0.158022
0.624918 0.67541 0.119921
0.65272 0.679561 0.0890364
0.68246 0.68246 0.064683
0.713451 0.684428 0.0459297
0.745159 0.68571 0.0318608
0.777173 0.686519 0.0216831
0.809216 0.686992 0.0147097
0.841093 0.687236 0.0103151
0.872633 0.687373 0.0081178
0.903807 0.687465 0.00750744
0.934936 0.687526 0.00717174
0.966094 0.687602 0.0068513
0.997253 0.687648 0.00653086
0.512642 0.514611 0.512642
0.519829 0.521035 0.519783
0.526848 0.527535 0.526787
0.53373 0.534081 0.533669
0.540505 0.540673 0.540475
0.547219 0.54728 0.547204
0.553903 0.553918 0.553903
0.560555 0.560555 0.56054
0.566125 0.567712 0.565286
0.569589 0.575936 0.565499
0.57116 0.58529 0.560281
0.571115 0.595789 0.548486
0.569909 0.607401 0.52903
0.568246 0.62002 0.500969
0.567041 0.633417 0.463813
0.567544 0.64715 0.418296
0.570916 0.660761 0.365591
0.578546 0.673411 0.309789
0.591089 0.684535 0.254688
0.608545 0.693782 0.203632
0.630396 0.70103 0.159579
0.655741 0.706554 0.122271
0.683696 0.710597 0.0918593
0.713481 0.713481 0.067628
0.744457 0.715465 0.0487526
0.776135 0.716793 0.0344244
0.808133 0.717632 0.0238499
0.840192 0.718151 0.016434
0.872114 0.718441 0.0115511
0.903731 0.718593 0.00889601
0.934997 0.718685 0.00796521
0.96611 0.718761 0.00762951
0.997253 0.718822 0.00729381
0.534936 0.53698 0.534936
0.542123 0.543404 0.542077
0.549157 0.549905 0.549081
0.556039 0.556451 0.555978
0.562829 0.563027 0.562799
0.569558 0.569635 0.569543
0.576242 0.576257 0.576242
0.582895 0.582895 0.582895
0.589044 0.589776 0.588663
0.59324 0.597635 0.5906
0.595529 0.606531 0.587671
0.596139 0.616526 0.578897
0.595422 0.627604 0.563256
0.593912 0.639719 0.539788
0.592309 0.65272 0.507759
0.591745 0.666224 0.467613
0.592966 0.680079 0.418753
0.597574 0.693462 0.364675
0.606485 0.70576 0.308659
0.620172 0.716472 0.254231
0.638498 0.725368 0.204211
0.660929 0.732326 0.161227
0.686595 0.737682 0.124681
0.714687 0.74165 0.094667
0.744503 0.744503 0.070573
0.775464 0.746502 0.0515908
0.807111 0.74786 0.0369879
0.839078 0.748745 0.0260777
0.871153 0.749294 0.0182345
0.90312 0.74963 0.0128939
0.934813 0.749813 0.00979629
0.966171 0.749905 0.00843824
0.997299 0.749981 0.00807202
0.557229 0.55935 0.557229
0.564416 0.565774 0.56437
0.57145 0.572274 0.571389
0.578363 0.578805 0.578286
0.585153 0.585382 0.585122
0.591897 0.591989 0.591867
0.598581 0.598611 0.598581
0.605249 0.605249 0.605249
0.611734 0.611963 0.611627
0.616648 0.619455 0.615076
0.619608 0.627955 0.614054
0.620905 0.637491 0.607858
0.620737 0.648081 0.595514
0.619547 0.659693 0.576059
0.617884 0.672236 0.548714
0.616526 0.685527 0.513008
0.616541 0.699199 0.469596
0.618769 0.712963 0.418616
0.624582 0.726085 0.363561
0.634714 0.738018 0.307637
0.649454 0.748333 0.253925
0.668574 0.756893 0.204944
0.691524 0.763592 0.163012
0.717464 0.768795 0.127123
0.745678 0.772686 0.0974899
0.775525 0.775525 0.0735027
0.80647 0.777539 0.0544442
0.838087 0.778927 0.0395972
0.870039 0.779858 0.0283513
0.902098 0.780453 0.0201114
0.934112 0.780804 0.014313
0.965866 0.781018 0.0108034
0.99733 0.781125 0.00901808
0.579522 0.581735 0.579522
0.586709 0.588159 0.586648
0.593759 0.594644 0.593683
0.600671 0.601175 0.600595
0.607477 0.607752 0.607431
0.614237 0.614343 0.614206
0.620935 0.620966 0.62092
0.627604 0.627604 0.627588
0.634241 0.634256 0.634226
0.639765 0.641428 0.638895
0.643427 0.649561 0.639597
0.64538 0.658671 0.63563
0.645808 0.668788 0.626108
0.645045 0.679911 0.610193
0.643549 0.691981 0.587045
0.641901 0.70489 0.556023
0.64094 0.71841 0.517006
0.641657 0.732158 0.470695
0.644953 0.745785 0.418067
0.65182 0.758724 0.361624
0.663218 0.770169 0.306737
0.67892 0.780133 0.253849
0.698756 0.788373 0.205829
0.722148 0.794842 0.164889
0.748348 0.799908 0.129625
