luts/Only Red and Blue.cube
TITLE "Generated by Resolve"
LUT_3D_SIZE 5
0 0 0
0.249989 0 0
0.499992 0 0
0.749996 0 0
1 0 0
0.178302 0.178988 0.178302
0.248157 0.248157 0.0235142
0.499046 0.250141 0.0012665
0.749508 0.250095 0.000396735
0.99971 0.25005 0.000183108
0.356619 0.357977 0.356619
0.396948 0.418402 0.375509
0.49633 0.49633 0.0470436
0.747951 0.500145 0.00451667
0.998093 0.500298 0.00251774
0.534936 0.53698 0.534936
0.589044 0.589776 0.588663
0.592966 0.680079 0.418753
0.744503 0.744503 0.070573
0.997299 0.749981 0.00807202
0.713252 0.715969 0.713252
0.768338 0.768353 0.768322
0.793912 0.83682 0.751003
0.808652 0.941024 0.411536
0.992676 0.992676 0.0940871
0 0 0.254139
0.0801556 0.067628 0.0801556
0.18703 0.103593 0.145312
0.519142 0.0715801 0.220752
0.843961 0.0467842 0.246067
0.00825513 0.247761 0.247761
0.249989 0.249989 0.249989
0.499992 0.249989 0.249989
0.74995 0.250004 0.250004
1 0.249989 0.249989
0.351644 0.383581 0.36762
0.428305 0.428992 0.428305
0.498161 0.498161 0.273518
0.74905 0.500145 0.251255
0.999512 0.500099 0.250385
0.539391 0.559762 0.546181
0.606622 0.60798 0.606622
0.646952 0.668406 0.625498
0.746334 0.746334 0.297032
0.997955 0.750149 0.254505
0.719631 0.738201 0.724269
0.784939 0.786984 0.784939
0.839048 0.83978 0.838666
0.842969 0.930083 0.668757
0.994507 0.994507 0.320562
0 0 0.508293
0.252354 0 0.506035
0.160327 0.135256 0.160327
0.213489 0.189227 0.205402
0.37406 0.207202 0.290623
0 0.250645 0.505302
0.249668 0.249668 0.504143
0.330159 0.317617 0.330159
0.437018 0.353597 0.3953
0.769116 0.321569 0.470756
0.016495 0.495537 0.495537
0.258244 0.497765 0.497765
0.499992 0.499992 0.499992
0.749981 0.499992 0.499992
1 0.499992 0.499992
0.39707 0.626886 0.550286
0.601633 0.633585 0.617609
0.678309 0.678996 0.678309
0.748165 0.748165 0.523522
0.999054 0.750149 0.501259
0.703288 0.767193 0.735241
0.789395 0.80975 0.796185
0.856626 0.857984 0.856626
0.896956 0.91841 0.875502
0.996338 0.996338 0.547036
0 0 0.762448
0.252354 0 0.760616
0.455177 0.0211795 0.67219
0.240497 0.202884 0.240497
0.280919 0.261585 0.276097
0 0.250309 0.759548
0.249348 0.249348 0.758297
0.502358 0.248676 0.756039
0.410315 0.385245 0.410315
0.463478 0.439216 0.45539
0 0.50164 0.756329
0.245991 0.500648 0.755306
0.499672 0.499672 0.754147
0.580163 0.56762 0.580163
0.687022 0.603601 0.645304
0.0247501 0.743313 0.743313
0.266484 0.745541 0.745541
0.508247 0.747768 0.747768
0.749996 0.749996 0.749996
0.999985 0.749996 0.749996
0.370062 0.889052 0.759304
0.647074 0.87689 0.800275
0.851637 0.883589 0.867613
0.928313 0.929 0.928313
0.998169 0.998169 0.773526
0 0 1
0.25211 0 1
0.504723 0 1
0.537118 0.09514 0.684443
0.320653 0.270527 0.320653
0 0.249973 1
0.249012 0.249012 1
0.502358 0.248219 1
0.70518 0.271168 0.922194
0.490486 0.452888 0.490486
0 0.501305 1
0.245686 0.500313 1
0.499352 0.499352 1
0.752361 0.49868 1
0.660319 0.635248 0.660319
0 0.752651 1
0.242283 0.751644 1
0.495995 0.750652 1
0.749676 0.749676 1
0.830167 0.817624 0.830167
0.03299 0.991089 0.991089
0.274739 0.993317 0.993317
0.516487 0.995544 0.995544
0.758251 0.997772 0.997772
1 1 1
