luts/Orange Teal by Adnan.cube
TITLE "Generated by Resolve"
LUT_3D_SIZE 5
0.041886 0.114412 0.116854
0.159319 0.131487 0.08925
0.423499 0.177646 0.0917372
0.670802 0.250172 0.121386
0.848783 0.363302 0.124102
0.0458228 0.185534 0.101122
0.158068 0.163806 0.0918441
0.473976 0.212512 0.0878462
0.708202 0.28188 0.114626
0.857832 0.39321 0.112749
0.0703136 0.298405 0.0867323
0.177325 0.298573 0.11429
0.518334 0.2654 0.0867781
0.778714 0.34667 0.0962387
0.869825 0.448478 0.104906
0.153185 0.419516 0.116136
0.245167 0.425254 0.145602
0.532952 0.489464 0.108919
0.782589 0.428229 0.097322
0.87602 0.513283 0.101488
0.315282 0.57937 0.198459
0.402487 0.602136 0.220157
0.536492 0.646372 0.25658
0.737697 0.705806 0.286915
0.827604 0.625116 0.383688
0.0255436 0.170718 0.235859
0.193042 0.20766 0.280476
0.455741 0.198581 0.201724
0.707027 0.293935 0.130571
0.862837 0.399634 0.116426
0.0319219 0.247211 0.24567
0.162737 0.288502 0.260578
0.508659 0.270893 0.156268
0.747219 0.323445 0.111849
0.867262 0.422904 0.110903
0.0439307 0.343221 0.155444
0.192767 0.363836 0.182773
0.541863 0.302525 0.104555
0.802594 0.372274 0.0871748
0.873426 0.469764 0.111559
0.172442 0.446998 0.139269
0.288396 0.458808 0.162692
0.548516 0.518883 0.109377
0.783368 0.442206 0.106371
0.87631 0.52433 0.105959
0.339712 0.59147 0.211002
0.416236 0.612894 0.228092
0.540246 0.654307 0.267948
0.734157 0.71873 0.299535
0.824369 0.632685 0.403067
0.0160067 0.242908 0.362524
0.0464637 0.286 0.435828
0.434882 0.357244 0.481376
0.658061 0.408423 0.495827
0.786816 0.541985 0.54052
0.0169528 0.280842 0.369894
0.0483711 0.342428 0.450065
0.424781 0.420539 0.529335
0.650004 0.473594 0.524742
0.795911 0.583703 0.518166
0.033753 0.401984 0.430045
0.0534218 0.456794 0.48513
0.406989 0.552468 0.561837
0.701274 0.547417 0.469184
0.838941 0.54609 0.338216
0.0458991 0.538277 0.431983
0.0930037 0.537713 0.393622
0.434226 0.590951 0.415076
0.71548 0.56878 0.417716
0.86949 0.550591 0.163439
0.173877 0.610178 0.337575
0.352422 0.638636 0.33695
0.516014 0.666316 0.346059
0.717723 0.739406 0.340444
0.816983 0.650614 0.446693
0.0163119 0.338781 0.498054
0.0251316 0.350744 0.521553
0.190082 0.430747 0.64947
0.612146 0.526955 0.742092
0.749737 0.66154 0.779416
0.0164034 0.366934 0.507698
0.0319066 0.393851 0.545373
0.173571 0.467109 0.662791
0.603723 0.575204 0.757626
0.74638 0.684855 0.78085
0.0165866 0.418967 0.529137
0.0396887 0.46743 0.588617
0.133837 0.521904 0.670115
0.605478 0.653056 0.773632
0.745251 0.717433 0.776547
0.034699 0.55407 0.620295
0.0511482 0.589136 0.658503
0.133532 0.641993 0.719554
0.604898 0.737118 0.775937
0.76376 0.742229 0.73312
0.0474403 0.698604 0.69865
0.0597238 0.723445 0.709163
0.152056 0.738384 0.694148
0.578134 0.736934 0.64918
0.766247 0.756985 0.70106
0.0172885 0.459266 0.658366
0.0191501 0.460838 0.66305
0.0952316 0.5458 0.7729
0.468788 0.630243 0.863691
0.723918 0.71519 0.893141
0.0173648 0.47422 0.661677
0.0173495 0.471275 0.661646
0.0716564 0.555611 0.771344
0.462257 0.643351 0.86125
0.725444 0.730114 0.892256
0.0180362 0.516503 0.685145
0.0179141 0.510597 0.682399
0.0570535 0.566186 0.759564
0.436973 0.659098 0.853269
0.729809 0.758144 0.893126
0.0200656 0.586419 0.73138
0.027451 0.599344 0.747662
0.057557 0.62916 0.788052
0.282734 0.65243 0.825788
0.736446 0.798001 0.893446
0.0387579 0.698924 0.810925
0.0506294 0.708553 0.818616
0.0687114 0.722164 0.830457
0.301396 0.751369 0.851377
0.734508 0.845853 0.886137
