luts/ORANGE.TIL.cube
TITLE "Generated by Resolve"
LUT_3D_SIZE 9
0.0495766 0.0720531 0.145113
0.115953 0.0654154 0.139284
0.227741 0.0533761 0.127489
0.379034 0.0446326 0.121294
0.52311 0.0415656 0.115038
0.663096 0.0399329 0.109453
0.789487 0.0413672 0.105043
0.85391 0.0600443 0.108141
0.903136 0.0745251 0.112902
0.0460517 0.191714 0.14435
0.11252 0.185016 0.138659
0.229404 0.172519 0.124971
0.377981 0.164279 0.120439
0.522896 0.157336 0.114458
0.663188 0.151461 0.109224
0.797711 0.147021 0.105013
0.885573 0.155566 0.110155
0.935668 0.165911 0.117479
0.0420539 0.311849 0.142596
0.108507 0.30515 0.136995
0.22858 0.291981 0.127047
0.376043 0.284291 0.120668
0.521355 0.277317 0.112657
0.661585 0.271595 0.107347
0.798642 0.266438 0.102693
0.912413 0.267338 0.106477
0.975616 0.272877 0.115679
0.0379187 0.432197 0.140139
0.104372 0.425513 0.134615
0.224598 0.412863 0.12401
0.375479 0.404227 0.11696
0.519356 0.39762 0.110353
0.659464 0.391821 0.104982
0.796597 0.386664 0.100252
0.923033 0.38407 0.101488
0.998718 0.385336 0.109285
0.0337682 0.552254 0.137362
0.100221 0.545708 0.131807
0.221897 0.533257 0.121096
0.372976 0.524651 0.11371
0.516991 0.517968 0.107622
0.656992 0.5122 0.102251
0.794095 0.507088 0.0975052
0.925139 0.503243 0.0974746
1 0.502159 0.103532
0.0297704 0.670909 0.134417
0.0961929 0.6645 0.128847
0.21912 0.652354 0.118074
0.37023 0.643992 0.110597
0.514366 0.637415 0.104555
0.654353 0.631785 0.0992447
0.791424 0.626749 0.0945449
0.92369 0.622644 0.0949416
1 0.620493 0.100496
0.0322118 0.786954 0.135286
0.0970474 0.781109 0.128786
0.216251 0.770687 0.114961
0.367361 0.76228 0.107454
0.511543 0.755718 0.101427
0.651499 0.750134 0.0961776
0.788571 0.745144 0.0915236
0.920714 0.74078 0.0950027
0.999985 0.738201 0.101656
0.0671855 0.891188 0.158038
0.12781 0.886824 0.149172
0.220447 0.886259 0.118074
0.364446 0.880659 0.104326
0.508522 0.874159 0.098146
0.648493 0.868513 0.0929427
0.785473 0.86331 0.0903182
0.917006 0.858442 0.100908
0.999542 0.855467 0.110201
0.109041 0.973571 0.187655
0.176928 0.972671 0.184482
0.255009 0.987976 0.148638
0.371252 0.994736 0.113817
0.508125 0.991241 0.100282
0.646891 0.985946 0.0953231
0.78349 0.980255 0.0986954
0.914153 0.974533 0.120119
0.997208 0.971176 0.132372
0.0494545 0.0740215 0.240131
0.11577 0.0673533 0.234607
0.230182 0.0549325 0.223987
0.380957 0.0463722 0.216785
0.525093 0.041474 0.21088
0.665034 0.0398108 0.205432
0.794232 0.0405127 0.200259
0.866407 0.0574655 0.197498
0.915846 0.0717479 0.198352
0.0454871 0.193729 0.239063
0.111849 0.18703 0.233631
0.230426 0.174578 0.221012
0.379705 0.166278 0.215473
0.524712 0.159197 0.21004
0.664973 0.153384 0.204974
0.801083 0.14847 0.200427
0.899794 0.154314 0.200504
0.953185 0.163546 0.203647
0.0415198 0.313863 0.237171
0.107958 0.307149 0.231769
0.229892 0.294118 0.221149
0.376287 0.286671 0.215488
0.523125 0.27924 0.208179
0.663355 0.273396 0.203021
0.800504 0.268238 0.198413
0.923018 0.267018 0.197833
0.993225 0.270451 0.201923
0.0374304 0.43418 0.234699
0.103868 0.427482 0.229343
0.22649 0.414771 0.219028
0.378119 0.405661 0.214237
0.521111 0.399481 0.205936
0.661219 0.393652 0.20061
0.798383 0.38851 0.196002
0.929824 0.384726 0.193683
1 0.384253 0.196201
0.0332952 0.554208 0.231846
0.0997177 0.547646 0.226566
0.223789 0.535134 0.216144
0.374929 0.526452 0.20911
0.518837 0.519814 0.203174
0.658763 0.514076 0.197833
0.795895 0.508949 0.19321
0.929763 0.504494 0.189914
1 0.502251 0.19089
0.0292821 0.672816 0.22887
0.0957046 0.666392 0.223575
0.220996 0.654154 0.213153
0.372137 0.645716 0.205905
0.516243 0.6392 0.200076
0.656138 0.633585 0.194873
0.79321 0.62855 0.190219
0.927901 0.623987 0.186725
1 0.621286 0.18706
0.030808 0.789258 0.22858
0.0956893 0.783352 0.222492
0.218112 0.772503 0.209979
0.369253 0.764035 0.202655
0.513436 0.757488 0.196887
0.65333 0.751888 0.191714
0.790387 0.746899 0.187091
0.925139 0.742382 0.184344
1 0.739483 0.185153
0.0624704 0.895003 0.246021
0.123033 0.890593 0.23772
0.219333 0.889296 0.209979
0.366201 0.882506 0.199313
0.510384 0.875914 0.193515
0.650294 0.870298 0.188418
0.787381 0.865309 0.183856
0.921614 0.860624 0.184298
1 0.857572 0.186725
0.100816 0.977325 0.269963
0.168215 0.976608 0.266361
0.244938 0.993057 0.229847
0.368002 0.997986 0.201709
0.50779 0.994003 0.191119
0.647349 0.988632 0.185748
0.784482 0.983307 0.183627
0.918166 0.978058 0.191608
0.999649 0.974777 0.196841
0.0495155 0.0760052 0.334951
0.115831 0.0693065 0.329641
0.23212 0.0568093 0.319356
0.38291 0.048188 0.31223
0.527092 0.0415961 0.306584
0.666972 0.0399329 0.30135
0.797803 0.040177 0.29575
0.876493 0.0556497 0.28835
0.927337 0.0694133 0.285512
0.0454566 0.195712 0.33373
0.111803 0.188983 0.328481
0.2318 0.17644 0.317906
0.382071 0.168002 0.310704
0.526589 0.161059 0.305455
0.666773 0.155184 0.300572
0.803571 0.150118 0.296101
0.910689 0.153719 0.292912
0.96878 0.161486 0.292378
0.0411688 0.315862 0.331701
0.10753 0.309087 0.326513
0.230701 0.296315 0.31606
0.378027 0.288945 0.307057
0.52488 0.281163 0.303487
0.66511 0.275288 0.298543
0.802289 0.270085 0.294072
0.930236 0.267414 0.291386
1 0.269001 0.291951
0.0369421 0.436194 0.329198
0.10338 0.42948 0.324025
0.228321 0.416663 0.313909
0.381598 0.407004 0.310079
0.522683 0.401434 0.301427
0.662974 0.395575 0.296086
0.800168 0.390387 0.291569
0.932387 0.385916 0.287938
1 0.384192 0.28748
0.0328374 0.556161 0.326375
0.0992752 0.549584 0.321172
0.225711 0.536995 0.31104
0.376944 0.528252 0.30428
0.520699 0.521675 0.298589
0.660533 0.515938 0.293309
0.797696 0.510796 0.288762
0.931807 0.506096 0.284688
1 0.503197 0.28304
0.0288396 0.674708 0.323384
0.0952621 0.668269 0.318181
0.222904 0.655985 0.308034
0.374105 0.647486 0.301045
0.518151 0.64094 0.295415
0.657938 0.63534 0.290288
0.79501 0.630365 0.28574
0.929915 0.625742 0.281636
1 0.622675 0.279423
0.0301061 0.791318 0.322423
0.0949569 0.785397 0.316564
0.219989 0.774304 0.304845
0.371145 0.765866 0.297734
0.515343 0.759304 0.292119
0.655161 0.753674 0.287114
0.792187 0.748669 0.282582
0.927443 0.744121 0.278508
1 0.741039 0.276402
0.0597848 0.898024 0.335821
0.120256 0.893614 0.328054
0.219425 0.891814 0.303181
0.368078 0.884306 0.294362
0.512261 0.877729 0.288716
0.65214 0.872099 0.283726
0.789197 0.867094 0.279271
0.924422 0.862486 0.275593
1 0.859434 0.274327
0.0947738 0.980224 0.354833
0.161669 0.979721 0.350851
0.238239 0.996597 0.315572
0.366964 0.999298 0.293065
0.509087 0.995804 0.285237
0.648951 0.990555 0.280247
0.786053 0.985489 0.275914
0.921035 0.980697 0.275578
0.999969 0.977539 0.276036
0.0496681 0.0779583 0.429053
0.115953 0.0712749 0.424323
0.234058 0.0587015 0.414511
0.384878 0.0501106 0.407462
0.529015 0.0432746 0.401923
0.668925 0.0400854 0.396933
0.800504 0.040177 0.391043
0.88397 0.0546273 0.379873
0.936996 0.0675212 0.373938
0.0455787 0.197726 0.427512
0.11191 0.190997 0.422843
0.233616 0.178317 0.413077
0.384253 0.169787 0.406012
0.52845 0.162936 0.400687
0.668605 0.157046 0.395911
0.805631 0.151934 0.391562
0.918883 0.153918 0.386389
0.981674 0.160082 0.383124
0.0412757 0.317891 0.425269
0.107652 0.311147 0.420645
0.232242 0.29839 0.410971
0.381338 0.290578 0.400641
0.526711 0.283085 0.398566
0.666911 0.27718 0.393774
0.804135 0.271962 0.389456
0.933013 0.268406 0.385885
1 0.268498 0.384405
0.0368505 0.438209 0.422721
0.103197 0.431479 0.418006
0.230167 0.418601 0.408576
0.384268 0.409018 0.401877
0.523339 0.403647 0.396826
0.664729 0.397452 0.391302
0.801984 0.392264 0.386892
0.933272 0.387549 0.382956
1 0.385031 0.381064
0.0324102 0.558145 0.419867
0.0988327 0.551553 0.415045
0.227558 0.538903 0.405737
0.379217 0.530022 0.399298
0.522484 0.523445 0.395026
0.662318 0.517845 0.388556
0.799496 0.512703 0.384039
0.932921 0.507897 0.380026
1 0.504707 0.377478
0.0284276 0.676646 0.416831
0.0948501 0.670176 0.411933
0.224826 0.657816 0.40267
0.376043 0.649256 0.395911
0.520104 0.64271 0.39057
0.65977 0.637156 0.385611
0.796826 0.632151 0.381033
0.931029 0.627573 0.376928
1 0.62443 0.37438
0.0300755 0.793164 0.415442
0.0947738 0.787259 0.409949
0.221897 0.776165 0.39942
0.373098 0.767651 0.392599
0.517281 0.761044 0.387213
0.656992 0.755474 0.382391
0.794034 0.750439 0.377874
0.928939 0.745892 0.3738
1 0.742824 0.371252
0.0591592 0.900359 0.426047
0.119402 0.895964 0.418769
0.220371 0.894026 0.396902
0.369985 0.886137 0.389181
0.514199 0.879484 0.383703
0.654002 0.873884 0.378927
0.791043 0.868849 0.374517
0.926314 0.864286 0.370489
1 0.86125 0.367971
0.0912795 0.982269 0.441123
0.157687 0.981918 0.436851
0.234257 0.99855 0.404242
0.367437 1 0.386297
0.510964 0.997055 0.380163
0.650797 0.99234 0.375372
0.787854 0.987305 0.371054
0.923232 0.982742 0.367224
1 0.979721 0.365301
0.0498512 0.0798657 0.528191
0.116152 0.0732128 0.521569
0.235966 0.0605478 0.509316
0.386831 0.051957 0.501671
0.530983 0.0451362 0.496208
0.670939 0.0403906 0.491615
0.802487 0.0404974 0.485557
0.88893 0.0543984 0.471305
0.944183 0.066392 0.462959
0.0457008 0.19968 0.527504
0.112047 0.192966 0.520867
0.235447 0.180285 0.508339
0.386252 0.171649 0.500237
0.530388 0.164874 0.494743
0.670481 0.158968 0.490242
0.807538 0.153796 0.486198
0.924727 0.154711 0.479973
0.991394 0.159411 0.475074
0.0414282 0.319814 0.525841
0.107774 0.313115 0.519173
0.234028 0.300328 0.506554
0.384466 0.291936 0.496956
0.528634 0.285008 0.492561
0.668772 0.279026 0.487922
0.805982 0.273869 0.483894
0.93373 0.269825 0.480171
1 0.268894 0.477836
0.0369879 0.440192 0.52372
0.103334 0.433448 0.516991
0.231983 0.420539 0.504417
0.385122 0.411505 0.494102
0.524025 0.406058 0.489799
0.666545 0.39939 0.485374
0.80383 0.394171 0.481178
0.933913 0.389441 0.47744
1 0.386419 0.475181
0.032517 0.560037 0.521233
0.0988785 0.553475 0.514412
0.229435 0.540764 0.501884
0.381338 0.531929 0.493782
0.524285 0.52517 0.491203
0.664057 0.519753 0.482673
0.801297 0.514595 0.478187
0.933242 0.509865 0.474434
1 0.506645 0.472099
0.0281834 0.678462 0.518547
0.0944686 0.672068 0.511696
0.226673 0.659617 0.499107
0.377997 0.651118 0.490822
0.522225 0.64445 0.485145
0.661585 0.638987 0.479759
0.798627 0.634012 0.475212
0.932052 0.629389 0.471275
1 0.626322 0.468956
0.0310521 0.794614 0.517067
0.0953841 0.788861 0.509773
0.223789 0.777981 0.496117
0.375036 0.769512 0.487739
0.519249 0.76286 0.481651
0.658915 0.757259 0.476478
0.795895 0.752316 0.472053
0.930312 0.747677 0.468025
1 0.744671 0.465766
0.0606088 0.901991 0.524697
0.120424 0.897688 0.516167
0.221775 0.896056 0.49337
0.371908 0.887999 0.484489
0.516136 0.881315 0.478187
0.655909 0.8757 0.473075
0.79292 0.87068 0.46865
0.928115 0.866102 0.464698
1 0.863081 0.462379
0.090074 0.983597 0.535897
0.155856 0.983444 0.529854
0.232059 0.999603 0.497444
0.368933 1 0.481346
0.512901 0.998199 0.474632
0.652689 0.994171 0.469535
0.789746 0.989151 0.465064
0.925109 0.984558 0.461189
1 0.981567 0.458869
0.0500191 0.0818189 0.635615
0.116335 0.0750744 0.62771
0.237827 0.0624247 0.613504
0.388769 0.0537881 0.60441
0.532891 0.047013 0.597467
0.672816 0.0411994 0.591684
0.803616 0.0411231 0.583703
0.891676 0.0549172 0.564981
0.949081 0.0660258 0.553918
0.0458839 0.201587 0.635645
0.112215 0.194873 0.627497
0.237278 0.182147 0.61294
0.388205 0.17351 0.603738
0.532326 0.166659 0.596841
0.672297 0.160845 0.591058
0.809369 0.155642 0.585962
0.929229 0.155917 0.577737
0.997726 0.159457 0.570672
0.0415503 0.321736 0.63447
0.107897 0.315007 0.626154
0.235782 0.302205 0.611521
0.386664 0.293599 0.601953
0.530587 0.28687 0.595117
0.670619 0.280964 0.589349
0.807813 0.275715 0.584268
0.934005 0.271366 0.579492
1 0.269734 0.57583
0.0371252 0.4421 0.6327
0.103502 0.435355 0.624353
0.233722 0.422431 0.609552
0.385077 0.413748 0.599359
0.526802 0.407767 0.591287
0.66833 0.401312 0.587198
0.805631 0.396033 0.58204
0.934127 0.391318 0.577386
1 0.388083 0.574197
0.0327001 0.561883 0.630503
0.0990463 0.555322 0.622095
0.23122 0.542641 0.607172
0.382742 0.533898 0.597604
0.526497 0.527245 0.59115
0.665553 0.521706 0.584924
0.803052 0.516426 0.579492
0.933455 0.511711 0.574792
1 0.508553 0.571649
0.0290837 0.680079 0.62797
0.0949111 0.673808 0.619562
0.228519 0.661433 0.604593
0.379889 0.652873 0.595178
0.525521 0.645701 0.589807
0.663127 0.640772 0.582986
0.800397 0.635798 0.576837
0.932982 0.631189 0.571984
1 0.628153 0.568872
0.0348363 0.795392 0.626062
0.0981155 0.789837 0.617487
0.225635 0.779751 0.601755
0.376898 0.771298 0.592294
0.521202 0.764584 0.585351
0.660777 0.759014 0.579522
0.797681 0.75404 0.574014
0.931579 0.749493 0.569055
1 0.746471 0.565927
0.0670176 0.902174 0.630838
0.125566 0.898146 0.621439
0.223423 0.897917 0.598947
0.373754 0.889738 0.589181
0.518029 0.88304 0.582055
0.657801 0.877409 0.576196
0.794751 0.872435 0.570871
0.929808 0.867857 0.565942
1 0.864912 0.562799
0.094255 0.983368 0.63856
0.15874 0.983581 0.630884
0.231327 0.999954 0.600641
0.370855 1 0.586191
0.514763 0.999146 0.578653
0.654551 0.995514 0.572732
0.791592 0.99089 0.567422
0.926696 0.986328 0.562631
1 0.983398 0.559518
0.050309 0.0836805 0.755444
0.116564 0.0769513 0.745571
0.239643 0.0642405 0.726818
0.390631 0.0555734 0.715328
0.534768 0.0487984 0.707057
0.674571 0.0429999 0.700145
0.80296 0.0424201 0.689128
0.890837 0.0567636 0.664927
0.950881 0.0668498 0.651453
0.0460517 0.203433 0.75671
0.112383 0.19675 0.746593
0.239063 0.183993 0.727459
0.390082 0.17528 0.715541
0.534203 0.168429 0.707179
0.674113 0.162631 0.700282
0.811124 0.157504 0.694255
0.931563 0.157595 0.683726
0.999451 0.160281 0.674815
0.0417182 0.323598 0.756008
0.108049 0.316869 0.745968
0.237507 0.304067 0.726879
0.38854 0.295354 0.714626
0.532555 0.288579 0.705867
0.672419 0.282719 0.699092
0.809613 0.277485 0.693126
0.934127 0.27303 0.687541
1 0.270924 0.682963
0.0373388 0.443931 0.754513
0.10367 0.437201 0.744564
0.235386 0.424338 0.725536
0.386557 0.415595 0.712963
0.530327 0.408957 0.703807
0.670146 0.403082 0.69723
0.807385 0.397879 0.691249
0.934127 0.393149 0.685878
1 0.389929 0.682063
0.0335546 0.563516 0.75227
0.0993973 0.557046 0.74258
0.232929 0.544411 0.723644
0.384253 0.53579 0.71107
0.528511 0.529381 0.698863
0.66659 0.523796 0.694682
0.804761 0.518288 0.689021
0.93373 0.513527 0.683574
1 0.510414 0.679805
0.0337377 0.680674 0.748943
0.0979782 0.674769 0.739666
0.230259 0.663127 0.721477
0.381628 0.654658 0.709041
0.528222 0.647349 0.700069
0.662913 0.642939 0.695079
0.802045 0.637552 0.686671
0.933745 0.632944 0.681086
1 0.629923 0.677333
0.0460517 0.794141 0.745495
0.106844 0.789258 0.7364
0.22742 0.781521 0.71902
0.378683 0.773022 0.706661
0.523125 0.766278 0.697551
0.663218 0.760372 0.692164
0.799374 0.755795 0.684169
0.932448 0.751263 0.678416
1 0.748302 0.674647
0.0834363 0.899794 0.746456
0.139788 0.896284 0.737072
0.225711 0.899489 0.716442
0.37557 0.891463 0.703883
0.519905 0.884764 0.694606
0.659709 0.879103 0.687556
0.796536 0.874144 0.681178
0.930968 0.869612 0.675502
1 0.866697 0.671748
0.108202 0.980621 0.750835
0.170779 0.981308 0.742458
0.233265 0.999908 0.716854
0.372778 1 0.701274
0.516609 0.999741 0.6916
0.656428 0.996582 0.684215
0.793423 0.992599 0.677913
0.928176 0.988083 0.672297
1 0.985183 0.668589
0.0536049 0.0865187 0.859937
0.118929 0.0796063 0.854643
0.241337 0.0661784 0.849683
0.392401 0.0573434 0.839033
0.536522 0.0504921 0.829786
0.674723 0.0454108 0.820142
0.797147 0.0457618 0.802487
0.882429 0.0615854 0.770291
0.945754 0.0704051 0.754818
0.0494087 0.20531 0.870542
0.114656 0.198611 0.863645
0.240803 0.185718 0.851743
0.391882 0.177005 0.83975
0.536019 0.170245 0.830472
0.675883 0.16437 0.822736
0.812329 0.159457 0.815381
0.930724 0.160555 0.800473
0.999557 0.162844 0.788998
0.0451209 0.325093 0.873442
0.110201 0.318502 0.865797
0.239231 0.305867 0.850965
0.390326 0.297108 0.838956
0.534401 0.290349 0.829602
0.674205 0.284474 0.821942
0.811353 0.279286 0.815198
0.934127 0.274861 0.808637
1 0.272618 0.802945
0.041886 0.445045 0.872557
0.106493 0.438621 0.86479
0.23711 0.426108 0.849454
0.388251 0.417411 0.837415
0.532296 0.410651 0.828
0.671992 0.404837 0.820325
0.809125 0.399619 0.813657
0.934127 0.394873 0.807568
1 0.39173 0.803037
0.0415961 0.563577 0.869261
0.105028 0.557702 0.861708
0.234638 0.546212 0.847471
0.38587 0.537606 0.835386
0.529976 0.530907 0.82591
0.669322 0.525277 0.818051
0.806485 0.520043 0.811582
0.933974 0.515312 0.805615
1 0.5122 0.801175
0.0483558 0.679011 0.864027
0.109377 0.673838 0.85687
0.231983 0.664897 0.845212
0.383261 0.656397 0.833158
0.527642 0.649775 0.823728
0.665217 0.64509 0.812451
0.803525 0.639323 0.809293
0.93402 0.634638 0.803311
1 0.631647 0.798978
0.0694896 0.790097 0.858183
0.126757 0.786023 0.851255
0.229236 0.783215 0.842664
0.380438 0.774731 0.830671
0.524865 0.768032 0.8215
0.667689 0.761379 0.81471
0.799374 0.757885 0.808209
0.932906 0.752956 0.800855
1 0.750027 0.796521
0.109667 0.895186 0.85626
0.164675 0.891875 0.848814
0.230152 0.90045 0.839612
0.377356 0.893172 0.827878
0.521721 0.886442 0.818784
0.661845 0.88069 0.81146
0.798367 0.875669 0.805768
0.931777 0.87129 0.798215
1 0.868406 0.793866
0.130678 0.975998 0.858686
0.191943 0.976944 0.851484
0.239918 0.999435 0.838712
0.374685 1 0.825483
0.518532 0.99968 0.815885
0.658274 0.997528 0.808179
0.79527 0.994064 0.80148
0.929641 0.989715 0.795193
1 0.986862 0.790906
0.0639963 0.0920729 0.916884
0.127657 0.0850996 0.91722
0.242664 0.0707561 0.947143
0.392142 0.0606088 0.954345
0.53518 0.0539254 0.947097
0.668788 0.0505226 0.93341
0.782528 0.0542458 0.907347
0.864668 0.0703746 0.868925
0.931746 0.0775769 0.854368
0.0633249 0.207874 0.94609
0.126513 0.201236 0.945327
0.243534 0.18819 0.966415
0.393652 0.178866 0.963012
0.537865 0.172 0.954192
0.677455 0.166247 0.946258
0.81091 0.162463 0.936126
0.923568 0.166064 0.914687
0.99382 0.168582 0.901335
0.0612192 0.325689 0.962158
0.123613 0.319387 0.960342
0.241627 0.307698 0.972045
0.392111 0.29897 0.962509
0.536263 0.292103 0.953384
0.676051 0.286275 0.945647
0.813123 0.281117 0.938979
0.934127 0.277119 0.931563
1 0.27509 0.925292
0.0603799 0.44416 0.967956
0.122271 0.438163 0.965438
0.239185 0.427924 0.972168
0.390036 0.419211 0.960906
0.534142 0.412421 0.951751
0.673884 0.406592 0.944015
0.810956 0.401404 0.937392
0.934127 0.396674 0.931411
1 0.393545 0.927077
0.0637369 0.561196 0.96614
0.125505 0.555581 0.964187
0.236683 0.547951 0.970428
0.38761 0.539376 0.958816
0.531762 0.532662 0.94963
0.671321 0.526925 0.941863
0.808347 0.521798 0.93521
0.934127 0.517052 0.92932
1 0.514 0.925063
0.0759442 0.674769 0.960555
0.136934 0.669612 0.959258
0.234485 0.666453 0.96791
0.384985 0.658152 0.956497
0.529213 0.65153 0.947326
0.668711 0.64593 0.939254
0.805478 0.641001 0.932723
0.933989 0.636378 0.926925
1 0.633433 0.922713
0.10074 0.78471 0.954726
0.160693 0.77995 0.953552
0.23418 0.784115 0.96437
0.382193 0.776486 0.953979
0.526467 0.769833 0.944808
0.66688 0.76405 0.935943
0.800107 0.760311 0.928038
0.93341 0.754757 0.924392
1 0.751827 0.920211
0.137057 0.890837 0.95317
0.196185 0.886366 0.95108
0.240131 0.900099 0.959915
0.379141 0.894911 0.951171
0.523445 0.888212 0.942061
0.663615 0.882399 0.934447
0.801556 0.876921 0.929946
0.932097 0.873198 0.922148
1 0.870237 0.917708
0.153201 0.97174 0.954421
0.217548 0.971923 0.952636
0.254017 0.998642 0.957534
0.376608 1 0.948852
0.520439 0.99968 0.939284
0.660121 0.998489 0.931563
0.797925 0.995087 0.925841
0.931105 0.991379 0.919524
1 0.988602 0.914992
