luts/Orange Teal by Adnan.cube
TITLE "Generated by Resolve"
LUT_3D_SIZE 33
0.041886 0.114412 0.116854
0.0514382 0.113725 0.113954
0.0601968 0.115038 0.110369
0.070161 0.117144 0.108705
0.0814374 0.120165 0.107057
0.0942397 0.123537 0.104875
0.110048 0.126635 0.101122
0.132525 0.129061 0.0955215
0.159319 0.131487 0.08925
0.189517 0.134386 0.082948
0.221607 0.138811 0.0790265
0.25452 0.143923 0.0783398
0.288716 0.149432 0.0791333
0.323491 0.155749 0.0804303
0.356573 0.162783 0.0833753
0.389212 0.170397 0.0866712
0.423499 0.177646 0.0917372
0.456687 0.184573 0.0972305
0.489342 0.191592 0.102907
0.520882 0.199527 0.107805
0.552697 0.208698 0.111757
0.584131 0.218128 0.115404
0.614252 0.228214 0.118166
0.643305 0.239033 0.120012
0.670802 0.250172 0.121386
0.698421 0.260716 0.123751
0.724132 0.271855 0.125277
0.747753 0.284596 0.125368
0.770809 0.297475 0.125566
0.793423 0.311696 0.125856
0.813901 0.327779 0.12517
0.832471 0.345037 0.122606
0.848783 0.363302 0.124102
0.0404822 0.1187 0.110811
0.0483864 0.113252 0.109758
0.0594797 0.114443 0.105257
0.0701305 0.116915 0.103716
0.0815747 0.12018 0.102708
0.0943313 0.124331 0.10132
0.110338 0.127962 0.0982071
0.132784 0.130739 0.0932021
0.159258 0.133577 0.0876478
0.189425 0.136873 0.0816358
0.221546 0.141299 0.0784161
0.25478 0.14638 0.0776532
0.28954 0.151873 0.078172
0.324468 0.158297 0.07953
0.35761 0.165225 0.0823835
0.390692 0.172946 0.0855879
0.42533 0.180117 0.0908827
0.458473 0.186847 0.0965286
0.491463 0.194293 0.102007
0.522774 0.20206 0.106935
0.554726 0.211154 0.110964
0.586343 0.220645 0.114626
0.616083 0.230564 0.117311
0.644862 0.241276 0.119127
0.672694 0.252232 0.12079
0.700008 0.262699 0.123079
0.725551 0.273976 0.124407
0.749035 0.286702 0.124453
0.771878 0.29926 0.124865
0.794446 0.31368 0.124956
0.814603 0.329732 0.124056
0.832883 0.346471 0.12166
0.849226 0.365026 0.123003
0.0405585 0.126207 0.109117
0.0473182 0.123705 0.109255
0.0576791 0.1178 0.104784
0.0691234 0.118059 0.101839
0.08159 0.121538 0.100008
0.0952316 0.125933 0.0977951
0.11162 0.130129 0.0951247
0.134157 0.133196 0.0908827
0.160739 0.136339 0.0859083
0.191012 0.140124 0.0800946
0.223148 0.144717 0.0774243
0.256916 0.149676 0.0766308
0.291752 0.155138 0.0769665
0.326711 0.161425 0.0784772
0.360525 0.168673 0.0812543
0.393622 0.176211 0.0845045
0.428382 0.183078 0.0901808
0.461509 0.189792 0.0958114
0.494255 0.197162 0.101289
0.525841 0.205524 0.105806
0.558068 0.213993 0.110399
0.589319 0.223438 0.113939
0.618906 0.233494 0.116381
0.647562 0.24448 0.117968
0.675669 0.254887 0.120226
0.70277 0.265476 0.122301
0.72781 0.276707 0.123445
0.751278 0.289189 0.123751
0.773983 0.301976 0.123888
0.796155 0.316304 0.12398
0.816175 0.332601 0.122805
0.834119 0.349035 0.120272
0.850172 0.367819 0.121675
0.041062 0.133837 0.108049
0.0470436 0.133455 0.109117
0.0556802 0.129046 0.106035
0.0669413 0.122652 0.102098
0.0807355 0.123842 0.099321
0.0956893 0.128237 0.0962844
0.113039 0.132891 0.0928511
0.136217 0.136278 0.0886549
0.163439 0.1402 0.0839094
0.193851 0.14432 0.0784619
0.22649 0.148608 0.0759136
0.260945 0.153445 0.0751659
0.295857 0.159182 0.0755932
0.331106 0.165637 0.0771344
0.364645 0.172671 0.0801099
0.398337 0.17998 0.0837568
0.432746 0.186526 0.0895552
0.466041 0.193515 0.0950637
0.498711 0.201068 0.100359
0.53019 0.20911 0.105058
0.562661 0.217533 0.109834
0.593515 0.227008 0.11313
0.622843 0.237247 0.115297
0.651789 0.247822 0.117342
0.679545 0.258091 0.119539
0.706279 0.26891 0.121324
0.73109 0.28043 0.122194
0.754208 0.292332 0.122866
0.776669 0.305135 0.12285
0.79852 0.319753 0.122744
0.817884 0.335515 0.121538
0.835615 0.352117 0.118624
0.851255 0.370916 0.120241
0.0417945 0.142092 0.107332
0.0471351 0.142138 0.108919
0.0548562 0.140993 0.106905
0.0633249 0.133303 0.103716
0.0789807 0.127001 0.100282
0.0946212 0.131319 0.0976425
0.113191 0.13611 0.0931411
0.13753 0.14023 0.087602
0.166659 0.144778 0.0815595
0.198001 0.148745 0.0767376
0.231495 0.152926 0.0737926
0.266117 0.158129 0.0732738
0.300755 0.163867 0.073991
0.33611 0.170489 0.0755322
0.370306 0.177523 0.0787671
0.40441 0.184283 0.0830549
0.438453 0.190845 0.088777
0.471534 0.198016 0.0941482
0.503578 0.205539 0.0992599
0.536294 0.21326 0.104662
0.568124 0.221866 0.10901
0.598718 0.231571 0.112001
0.62771 0.241886 0.11397
0.656703 0.251637 0.11667
0.684337 0.262058 0.118624
0.710246 0.272786 0.120195
0.734768 0.284138 0.121141
0.757687 0.295979 0.121828
0.779706 0.30898 0.121492
0.801205 0.323857 0.121126
0.820172 0.339162 0.120012
0.837247 0.355596 0.116686
0.852522 0.374502 0.118364
0.0424201 0.151598 0.106035
0.0471962 0.151431 0.107607
0.0548409 0.152529 0.106157
0.0657511 0.149874 0.103929
0.0767071 0.136034 0.100984
0.0924239 0.135348 0.0993362
0.112169 0.139635 0.0952926
0.13669 0.144457 0.0893568
0.167971 0.148836 0.0816968
0.202487 0.15314 0.0750134
0.237263 0.157916 0.0713817
0.271992 0.163363 0.071046
0.306798 0.169467 0.0719768
0.342458 0.175647 0.0738689
0.376791 0.182208 0.0777142
0.411063 0.189014 0.0823224
0.444724 0.195651 0.0879225
0.477455 0.203067 0.0930495
0.510414 0.209827 0.0991379
0.542931 0.217807 0.104158
0.57409 0.226612 0.108095
0.604059 0.236362 0.110735
0.633097 0.245853 0.11339
0.661982 0.255818 0.115877
0.689403 0.266392 0.117678
0.714794 0.277333 0.118837
0.738979 0.288121 0.120165
0.761669 0.300267 0.120562
0.782925 0.313008 0.120073
0.803891 0.327779 0.119738
0.822461 0.343084 0.118227
0.839109 0.359442 0.114488
0.853819 0.378653 0.116396
0.0432593 0.16173 0.104799
0.0477455 0.161303 0.106538
0.0545968 0.162448 0.106203
0.0662547 0.163409 0.105135
0.0761883 0.154589 0.104173
0.0902724 0.145098 0.101488
0.109117 0.143923 0.0982986
0.135668 0.14876 0.0918441
0.167514 0.153277 0.0836805
0.205219 0.157671 0.074815
0.242832 0.163119 0.0692149
0.278767 0.169162 0.0685893
0.314351 0.174899 0.0699931
0.350286 0.180896 0.072282
0.384314 0.187427 0.0766155
0.418082 0.194186 0.0814374
0.451637 0.201022 0.0869154
0.485588 0.20795 0.0930495
0.518441 0.214801 0.0989853
0.550164 0.222843 0.103578
0.580713 0.231815 0.106996
0.610758 0.241245 0.109941
0.639673 0.25066 0.112703
0.66807 0.260624 0.115007
0.694881 0.271183 0.116548
0.719936 0.281865 0.117952
0.743816 0.292836 0.119036
0.766079 0.304936 0.119188
0.786908 0.317968 0.118303
0.807065 0.332448 0.118029
0.825086 0.347539 0.116243
0.841382 0.364126 0.111788
0.855009 0.382864 0.115373
0.0442054 0.173068 0.103243
0.0486152 0.171862 0.105379
0.0545205 0.172534 0.106035
0.0657206 0.174685 0.105623
0.0788586 0.172961 0.105715
0.0916915 0.160998 0.102876
0.102632 0.150195 0.102174
0.132647 0.153094 0.0953841
0.16585 0.158328 0.0870375
0.205112 0.162982 0.0774548
0.245777 0.168673 0.0697337
0.287922 0.174777 0.0662394
0.324102 0.180713 0.0679179
0.35964 0.187015 0.0707103
0.393912 0.193668 0.0754253
0.427787 0.200214 0.0808728
0.462684 0.206653 0.0874037
0.496101 0.213458 0.0934005
0.528237 0.2206 0.0988022
0.559258 0.228977 0.102846
0.589212 0.23769 0.106233
0.61941 0.24683 0.109422
0.647761 0.256291 0.11191
0.675441 0.266285 0.113939
0.701396 0.276524 0.115541
0.725917 0.286961 0.11696
0.749432 0.298085 0.117784
0.771267 0.310369 0.117586
0.791318 0.323323 0.116793
0.810651 0.33756 0.116152
0.828214 0.352789 0.113771
0.843732 0.369253 0.10988
0.856474 0.387961 0.114122
0.0458228 0.185534 0.101122
0.0498817 0.184268 0.103441
0.0547494 0.183749 0.10486
0.0653391 0.185519 0.105776
0.0796063 0.186969 0.107042
0.0955367 0.182513 0.104677
0.108217 0.17026 0.102312
0.125841 0.160311 0.0991989
0.158068 0.163806 0.0918441
0.202731 0.168215 0.0810254
0.246311 0.173861 0.0722667
0.290394 0.179904 0.0671397
0.331151 0.186496 0.0667887
0.36875 0.193362 0.0693217
0.40415 0.199588 0.0750744
0.438819 0.205798 0.0814527
0.473976 0.212512 0.0878462
0.506569 0.219211 0.0935683
0.538155 0.226856 0.0983749
0.568353 0.234897 0.102342
0.598245 0.243534 0.105715
0.627665 0.252476 0.108736
0.655589 0.262028 0.11104
0.68275 0.271962 0.112917
0.708202 0.28188 0.114626
0.732036 0.292393 0.115801
0.755123 0.30367 0.116335
0.77612 0.315816 0.115923
0.795575 0.32874 0.115099
0.814343 0.343023 0.113985
0.831464 0.358404 0.111009
0.845731 0.374655 0.108583
0.857832 0.39321 0.112749
0.0476234 0.197665 0.0989853
0.0514382 0.196826 0.10135
0.0556039 0.195422 0.103838
0.0654307 0.19678 0.106523
0.0790875 0.199313 0.108202
0.0969863 0.198993 0.108217
0.116182 0.192752 0.103716
0.128435 0.176608 0.101839
0.153811 0.172305 0.096025
0.196735 0.173602 0.0858015
0.245655 0.179278 0.0751354
0.291005 0.18529 0.0688792
0.335271 0.192096 0.0666514
0.377447 0.199023 0.0695659
0.415976 0.205554 0.0757153
0.451209 0.211933 0.0821088
0.485252 0.218463 0.0881971
0.517769 0.225528 0.0936294
0.547951 0.232898 0.098085
0.578027 0.24097 0.10193
0.607187 0.2495 0.105104
0.636393 0.258534 0.107897
0.663249 0.267842 0.110033
0.689708 0.27744 0.111986
0.714992 0.287587 0.113497
0.738399 0.298146 0.114443
0.760479 0.30927 0.114702
0.78056 0.321233 0.114137
0.799802 0.334264 0.113191
0.817945 0.348501 0.11162
0.833936 0.363607 0.108431
0.847639 0.380118 0.10692
0.859297 0.398611 0.110903
0.0495766 0.210819 0.096376
0.0531167 0.209949 0.0989853
0.0576028 0.208453 0.102617
0.0661173 0.209262 0.105928
0.0782483 0.21117 0.108492
0.0961166 0.21181 0.112444
0.121813 0.213321 0.106661
0.138628 0.203281 0.102144
0.155535 0.18735 0.0983597
0.182055 0.179965 0.0947585
0.240406 0.184665 0.080415
0.290776 0.191165 0.0714275
0.337728 0.19794 0.0678874
0.381811 0.20473 0.0703136
0.425879 0.211841 0.0766155
0.465309 0.218875 0.0830243
0.50074 0.225971 0.0887465
0.532204 0.232898 0.0938888
0.561715 0.240345 0.0980087
0.591119 0.24831 0.10164
0.619516 0.256901 0.104524
0.647349 0.265812 0.106996
0.67393 0.275013 0.109117
0.69955 0.28452 0.110933
0.723964 0.294438 0.112322
0.746288 0.305135 0.112795
0.767407 0.316442 0.112657
0.786786 0.328084 0.112032
0.805295 0.341192 0.110918
0.822324 0.355383 0.108659
0.837293 0.370291 0.105379
0.850111 0.386603 0.105196
0.860945 0.404807 0.109117
0.051667 0.224567 0.0941024
0.0555581 0.224048 0.0970169
0.0608225 0.222797 0.101076
0.0675975 0.222553 0.10486
0.0781567 0.223377 0.108934
0.095201 0.224506 0.116243
0.119966 0.226703 0.111177
0.145663 0.223743 0.105043
0.167208 0.211139 0.0992447
0.186938 0.197696 0.0957046
0.226413 0.192294 0.0886854
0.281529 0.196765 0.0778515
0.336812 0.203616 0.0707103
0.384817 0.210803 0.071397
0.431128 0.218006 0.0773632
0.474617 0.225757 0.0835279
0.514183 0.233555 0.0892195
0.548409 0.241123 0.0941176
0.576989 0.248539 0.0978408
0.605112 0.256474 0.100999
0.632456 0.264851 0.103655
0.659007 0.273442 0.10602
0.685359 0.282612 0.10811
0.710124 0.292042 0.109819
0.73312 0.302022 0.110613
0.754421 0.312642 0.110826
0.774517 0.323705 0.110582
0.793591 0.335439 0.109789
0.810834 0.348669 0.10808
0.826398 0.36257 0.105486
0.840742 0.377234 0.10219
0.852796 0.393729 0.10309
0.862608 0.411597 0.108156
0.0541695 0.239033 0.0920119
0.0588693 0.238468 0.095552
0.0639811 0.237568 0.0993668
0.0698558 0.237049 0.103182
0.0792706 0.236027 0.108812
0.0953078 0.236881 0.116091
0.118868 0.239521 0.114336
0.147311 0.24062 0.11017
0.175769 0.235187 0.104082
0.198383 0.222797 0.0975204
0.226001 0.205692 0.0903944
0.271107 0.203754 0.0832532
0.329778 0.208637 0.0742046
0.385473 0.21677 0.0728313
0.433295 0.224323 0.0779278
0.480125 0.232349 0.0840009
0.524117 0.24065 0.0897231
0.562097 0.249134 0.0940108
0.591745 0.25716 0.0970779
0.619547 0.265049 0.100069
0.646159 0.273228 0.102663
0.671916 0.281682 0.104936
0.697246 0.290745 0.106813
0.720302 0.300237 0.107881
0.742473 0.310201 0.108522
0.762905 0.320485 0.108721
0.782452 0.331746 0.108232
0.800107 0.343236 0.106996
0.815747 0.356313 0.10486
0.830808 0.370321 0.101991
0.844511 0.384771 0.0987106
0.855283 0.401282 0.101747
0.864256 0.418784 0.10753
0.0577554 0.253529 0.0907759
0.0622568 0.25304 0.0939651
0.0672313 0.252613 0.0973526
0.0728923 0.251637 0.101396
0.0818799 0.249516 0.108232
0.0959029 0.24918 0.115785
0.118135 0.251881 0.116747
0.146075 0.2542 0.114763
0.178668 0.254383 0.107225
0.210849 0.24889 0.101808
0.233722 0.231617 0.0946822
0.266468 0.217365 0.087892
0.310094 0.212696 0.0834974
0.378378 0.221378 0.0742351
0.432334 0.230243 0.0779278
0.481025 0.238682 0.0840314
0.525322 0.246906 0.0894331
0.566369 0.255955 0.0934768
0.602625 0.265064 0.0963302
0.633951 0.273762 0.0989242
0.659312 0.281636 0.101335
0.683864 0.290333 0.10312
0.707866 0.299123 0.104707
0.730037 0.308476 0.105669
0.751293 0.318273 0.106294
0.771206 0.328695 0.106294
0.788525 0.339467 0.105272
0.805432 0.35111 0.103731
0.820645 0.364141 0.101396
0.834852 0.37789 0.0983902
0.84744 0.392142 0.0961166
0.857084 0.408194 0.101076
0.865736 0.425666 0.106493
0.0614939 0.267933 0.089601
0.0657816 0.267613 0.0922713
0.0707713 0.267308 0.0953689
0.0779736 0.265217 0.101228
0.0862745 0.26302 0.107881
0.0972915 0.261662 0.115145
0.118166 0.263645 0.1178
0.145113 0.266056 0.117174
0.177417 0.270359 0.108995
0.212924 0.268894 0.107988
0.245441 0.258183 0.101427
0.278141 0.24123 0.0910506
0.309483 0.22742 0.0852064
0.362936 0.227024 0.0799725
0.421958 0.234409 0.077821
0.478767 0.244663 0.0832227
0.526787 0.25388 0.0890669
0.568429 0.262745 0.09308
0.607553 0.272068 0.095964
0.642847 0.28188 0.0977188
0.67245 0.290913 0.0994125
0.696269 0.299474 0.100969
0.719203 0.308186 0.102342
0.740673 0.317281 0.103334
0.760067 0.326925 0.103517
0.778454 0.337209 0.103014
0.795087 0.348058 0.101823
0.811246 0.35964 0.100145
0.825818 0.372427 0.097673
0.838499 0.385687 0.0953994
0.849958 0.399939 0.0951247
0.859236 0.41593 0.10013
0.867308 0.432776 0.105241
0.0657054 0.282887 0.0883192
0.0699779 0.28275 0.0906539
0.0763714 0.281209 0.0954452
0.08365 0.27921 0.101137
0.0919203 0.277226 0.107408
0.101762 0.275578 0.113878
0.119966 0.276173 0.118578
0.144656 0.278553 0.119966
0.176715 0.285679 0.111528
0.212894 0.28687 0.112139
0.252659 0.282872 0.106966
0.28748 0.270451 0.10016
0.315541 0.253376 0.0902724
0.357488 0.239139 0.0826429
0.411093 0.241047 0.0798657
0.472358 0.250019 0.0825818
0.52604 0.260319 0.0884565
0.56965 0.269566 0.0927443
0.609705 0.279362 0.0951553
0.647425 0.289342 0.0968032
0.682963 0.299916 0.097673
0.708797 0.308888 0.0988022
0.730755 0.317739 0.0995956
0.750774 0.326802 0.10013
0.768872 0.336324 0.100069
0.786419 0.346212 0.0996109
0.802167 0.357076 0.0982071
0.817136 0.368475 0.0963607
0.830365 0.381125 0.0941482
0.8421 0.394186 0.0927443
0.852781 0.408392 0.0941634
0.861585 0.424002 0.0990768
0.868681 0.440391 0.104158
0.0703136 0.298405 0.0867323
0.0759289 0.296651 0.0908827
0.0826123 0.295232 0.0957046
0.0899519 0.293614 0.100969
0.0979324 0.291676 0.107073
0.108232 0.290181 0.113008
0.123217 0.289082 0.119585
0.144778 0.291005 0.122118
0.177325 0.298573 0.11429
0.212055 0.303166 0.11342
0.255406 0.305409 0.110399
0.301839 0.301854 0.104875
0.3337 0.285924 0.0945296
0.364172 0.263615 0.0833906
0.404273 0.253727 0.0793469
0.455604 0.253925 0.0823224
0.518334 0.2654 0.0867781
0.568368 0.276677 0.0912947
0.611597 0.287236 0.0942702
0.649744 0.297093 0.0960861
0.685008 0.307408 0.0967727
0.715343 0.317937 0.0965286
0.741268 0.327962 0.096376
0.761822 0.337179 0.0965896
0.778714 0.34667 0.0962387
0.794858 0.356435 0.0955215
0.809384 0.367025 0.0938888
0.822873 0.378485 0.0920882
0.835279 0.390707 0.0906233
0.846174 0.403632 0.0900893
0.855924 0.417685 0.0930648
0.863676 0.432715 0.0983902
0.869825 0.448478 0.104906
0.0769665 0.312444 0.0872969
0.0826886 0.311192 0.0912184
0.08925 0.310079 0.0956741
0.0964523 0.308843 0.100877
0.105333 0.306981 0.106661
0.115633 0.304768 0.113329
0.127687 0.302815 0.120745
0.145663 0.30367 0.123507
0.177829 0.311192 0.117144
0.211414 0.317876 0.115038
0.250553 0.321782 0.113741
0.297398 0.322774 0.111086
0.346303 0.315938 0.100069
0.378531 0.296712 0.090425
0.411017 0.27892 0.0796368
0.446448 0.267048 0.0796674
0.503807 0.271366 0.0833448
0.559213 0.281621 0.0893873
0.609033 0.293553 0.0930953
0.65037 0.304921 0.094667
0.685695 0.315511 0.0950484
0.717891 0.326177 0.0947738
0.746471 0.336812 0.0940414
0.769482 0.346944 0.0932174
0.786892 0.356847 0.0920272
0.802502 0.366857 0.0907912
0.816037 0.376989 0.0894026
0.828595 0.388495 0.0878462
0.840116 0.400351 0.0871901
0.849775 0.413016 0.0883803
0.858183 0.426688 0.0927596
0.865476 0.441108 0.0975357
0.870954 0.456764 0.105165
0.0845502 0.327337 0.0879988
0.090135 0.32639 0.0916457
0.0964828 0.325551 0.096025
0.103868 0.324132 0.101213
0.113176 0.322087 0.107607
0.123598 0.319615 0.114931
0.134813 0.317494 0.122728
0.151919 0.318807 0.122835
0.180346 0.324727 0.119799
0.212085 0.331487 0.117601
0.250126 0.337469 0.114809
0.2925 0.343084 0.115526
0.347387 0.341817 0.107774
0.390814 0.330953 0.0955367
0.424216 0.31249 0.0852369
0.448386 0.290455 0.0824903
0.495872 0.282856 0.0831769
0.548058 0.287678 0.0872358
0.602686 0.299077 0.0914778
0.648722 0.312261 0.0927901
0.685557 0.323476 0.0932326
0.71841 0.334173 0.0931258
0.747173 0.345144 0.0915999
0.773404 0.356085 0.0898299
0.793378 0.366751 0.0878767
0.809689 0.377035 0.0861372
0.822889 0.387304 0.0847334
0.833692 0.398184 0.0844739
0.843915 0.409979 0.0855726
0.85272 0.421988 0.0877089
0.86041 0.435538 0.0921492
0.867262 0.449561 0.0962997
0.871977 0.464973 0.105089
0.0930037 0.34226 0.090135
0.0982834 0.341436 0.0937209
0.105028 0.340337 0.0982528
0.113268 0.338689 0.103853
0.122606 0.336934 0.110155
0.132891 0.334752 0.117357
0.146242 0.334585 0.121172
0.161669 0.334951 0.123537
0.18323 0.337301 0.126467
0.214176 0.344335 0.12137
0.251682 0.35317 0.116365
0.289738 0.363546 0.11902
0.342367 0.363653 0.114046
0.397589 0.360861 0.101503
0.442588 0.350393 0.0911421
0.467842 0.33022 0.0873274
0.497154 0.308583 0.0819562
0.538079 0.300969 0.0833906
0.590143 0.305653 0.0882429
0.642786 0.319219 0.0901045
0.684627 0.331502 0.0910658
0.718517 0.343572 0.0901808
0.747906 0.35407 0.0890669
0.774121 0.364981 0.0871443
0.795987 0.375998 0.0847181
0.81387 0.38732 0.0826276
0.828443 0.398093 0.0815442
0.838773 0.409079 0.0822919
0.847913 0.420249 0.0843519
0.856046 0.431983 0.0871901
0.862928 0.445151 0.0912337
0.868818 0.458656 0.0955978
0.87277 0.473152 0.105516
0.101808 0.357809 0.0925154
0.107897 0.356909 0.0964828
0.115068 0.355612 0.101274
0.123354 0.354345 0.106737
0.132708 0.352499 0.113069
0.144121 0.351583 0.118593
0.157839 0.351507 0.122896
0.172076 0.351003 0.12813
0.188602 0.351415 0.132387
0.218326 0.358633 0.125322
0.254246 0.368582 0.120424
0.291936 0.378622 0.118029
0.338933 0.384146 0.118441
0.395529 0.385245 0.109407
0.449485 0.381003 0.0982071
0.485801 0.368139 0.0897688
0.512123 0.347341 0.0847334
0.543389 0.328252 0.0822614
0.580926 0.319875 0.0842451
0.634256 0.32726 0.0870069
0.678843 0.339925 0.0883192
0.716365 0.352483 0.0875868
0.747677 0.363546 0.0864729
0.773693 0.374517 0.0847791
0.79527 0.38587 0.0832532
0.814649 0.397086 0.0815442
0.830732 0.408438 0.0804761
0.842542 0.419562 0.081117
0.851789 0.430655 0.0832685
0.859083 0.441978 0.0867475
0.864836 0.454643 0.0909438
0.870069 0.467582 0.0952621
0.87364 0.481773 0.105196
0.112947 0.372549 0.0977951
0.119036 0.371618 0.10161
0.126024 0.370382 0.10602
0.134432 0.369299 0.11136
0.144549 0.368322 0.116945
0.15639 0.367803 0.121782
0.169253 0.36701 0.127642
0.182742 0.36611 0.134661
0.199863 0.368383 0.134218
0.225132 0.374136 0.13022
0.256336 0.382116 0.12636
0.295109 0.393088 0.117922
0.337911 0.403723 0.121813
0.391318 0.407065 0.114565
0.447166 0.409964 0.105165
0.495232 0.403952 0.0935683
0.526238 0.388968 0.0884108
0.552956 0.368093 0.0867628
0.577142 0.347173 0.0899367
0.625528 0.342336 0.0885176
0.670695 0.349004 0.088014
0.712993 0.360647 0.0863966
0.745632 0.372961 0.0851911
0.770703 0.384543 0.084596
0.793286 0.395453 0.0837873
0.813428 0.406516 0.0827649
0.830457 0.417975 0.0818952
0.843778 0.429603 0.0817884
0.854673 0.440818 0.0826276
0.861631 0.451835 0.086244
0.866773 0.463844 0.0904707
0.87129 0.476539 0.0951705
0.87451 0.490181 0.104265
0.12462 0.387457 0.103059
0.130755 0.386648 0.106706
0.138018 0.385916 0.111131
0.146502 0.384955 0.115984
0.157153 0.384085 0.121294
0.168917 0.383444 0.127504
0.181125 0.382513 0.134371
0.196536 0.383993 0.136416
0.214542 0.387106 0.135256
0.234775 0.39118 0.134737
0.259525 0.396338 0.132189
0.299275 0.407691 0.120378
0.33994 0.418616 0.122118
0.387579 0.426307 0.11751
0.439109 0.43386 0.113725
0.497139 0.435172 0.0977493
0.536706 0.428183 0.0946975
0.566903 0.411048 0.0925307
0.588205 0.390799 0.0939345
0.620462 0.369406 0.0918746
0.660807 0.363027 0.0897841
0.70486 0.368948 0.0893568
0.73843 0.382513 0.0882277
0.766125 0.393637 0.0872969
0.790188 0.403922 0.0865187
0.810254 0.414939 0.085771
0.826551 0.426749 0.0853132
0.840833 0.438102 0.0850233
0.853162 0.44921 0.0851453
0.862669 0.460594 0.0864118
0.868193 0.472251 0.0898299
0.87216 0.484443 0.0950027
0.875059 0.497398 0.103548
0.138064 0.40267 0.109377
0.144274 0.402228 0.112917
0.151812 0.401617 0.11696
0.160693 0.400977 0.121508
0.171237 0.40032 0.127138
0.182589 0.399695 0.133532
0.196231 0.400336 0.137743
0.212696 0.403311 0.137438
0.229831 0.406149 0.138521
0.247883 0.409018 0.140093
0.269444 0.412894 0.136965
0.306127 0.423438 0.126635
0.343633 0.434455 0.123766
0.387366 0.445335 0.120394
0.43534 0.454505 0.118273
0.487572 0.460517 0.108721
0.536904 0.461158 0.103059
0.577295 0.454932 0.0989242
0.601022 0.436255 0.0971695
0.626978 0.412909 0.0948959
0.657053 0.3953 0.0928206
0.692134 0.387411 0.0944533
0.730678 0.394705 0.0923476
0.762005 0.40415 0.0915999
0.786419 0.415183 0.0907149
0.806073 0.425757 0.0899519
0.822736 0.436851 0.0893721
0.837766 0.447623 0.0889601
0.85069 0.458732 0.0888075
0.861173 0.469718 0.0890059
0.868132 0.480934 0.0909743
0.872648 0.49247 0.0956283
0.875593 0.505287 0.102464
0.153185 0.419516 0.116136
0.159716 0.418982 0.119417
0.167391 0.418494 0.123445
0.176303 0.418173 0.128206
0.186526 0.417868 0.133761
0.198734 0.418311 0.138369
0.213367 0.420661 0.139605
0.228992 0.42327 0.141909
0.245167 0.425254 0.145602
0.264439 0.428748 0.142824
0.284504 0.432303 0.14023
0.313802 0.440665 0.13547
0.348699 0.450523 0.129137
0.391165 0.462577 0.123949
0.434318 0.474052 0.121386
0.480446 0.485069 0.118441
0.532952 0.489464 0.108919
0.580209 0.494499 0.101854
0.61091 0.481193 0.0991836
0.634913 0.461234 0.100008
0.658595 0.439292 0.107668
0.682979 0.417365 0.117342
0.723125 0.412726 0.109316
0.756039 0.418524 0.102708
0.782589 0.428229 0.097322
0.802304 0.437339 0.0949569
0.819501 0.447425 0.0935836
0.834287 0.458259 0.0933089
0.847196 0.468833 0.093431
0.858106 0.479316 0.0942397
0.866484 0.490166 0.0951553
0.872892 0.501472 0.0965896
0.87602 0.513283 0.101488
0.169833 0.43621 0.123583
0.176638 0.436118 0.127016
0.184298 0.436118 0.130724
0.193103 0.435752 0.135286
0.203952 0.436347 0.139269
0.216892 0.438071 0.141695
0.230854 0.440024 0.1449
0.245472 0.441886 0.149401
0.263478 0.445029 0.148287
0.282856 0.449287 0.145708
0.302678 0.453925 0.144808
0.322484 0.45774 0.144976
0.355138 0.466972 0.137011
0.39559 0.479622 0.129381
0.43592 0.492805 0.125307
0.479545 0.505425 0.122194
0.526574 0.514473 0.112505
0.573877 0.522759 0.106676
0.615167 0.522927 0.107713
0.643107 0.509728 0.111849
0.665629 0.488533 0.117449
0.685054 0.466056 0.125689
0.714199 0.445716 0.130022
0.747173 0.438758 0.121172
0.778805 0.442008 0.108888
0.798871 0.451301 0.104021
0.814908 0.460792 0.102358
0.829541 0.469932 0.101579
0.842939 0.479484 0.10164
0.854154 0.489677 0.101915
0.862867 0.500114 0.102205
0.869886 0.510704 0.102617
0.874434 0.522164 0.108232
0.18764 0.453849 0.131472
0.194339 0.454002 0.134661
0.201892 0.453895 0.138308
0.211246 0.454841 0.141192
0.222461 0.456214 0.144411
0.234852 0.457542 0.148226
0.247974 0.458915 0.152987
0.264118 0.461997 0.153674
0.282582 0.466651 0.151736
0.301244 0.471168 0.151141
0.320455 0.475471 0.150622
0.340383 0.479072 0.148348
0.3682 0.48661 0.142992
0.400107 0.496498 0.139681
0.441321 0.510567 0.129366
0.480522 0.526558 0.125414
0.523018 0.537545 0.123018
0.56733 0.547539 0.121355
0.61001 0.555489 0.119753
0.646067 0.550469 0.118975
0.671595 0.537881 0.120409
