luts/ORANGE.TIL.cube
TITLE "Generated by Resolve"
LUT_3D_SIZE 5
0.0495766 0.0720531 0.145113
0.227741 0.0533761 0.127489
0.52311 0.0415656 0.115038
0.789487 0.0413672 0.105043
0.903136 0.0745251 0.112902
0.0420539 0.311849 0.142596
0.22858 0.291981 0.127047
0.521355 0.277317 0.112657
0.798642 0.266438 0.102693
0.975616 0.272877 0.115679
0.0337682 0.552254 0.137362
0.221897 0.533257 0.121096
0.516991 0.517968 0.107622
0.794095 0.507088 0.0975052
1 0.502159 0.103532
0.0322118 0.786954 0.135286
0.216251 0.770687 0.114961
0.511543 0.755718 0.101427
0.788571 0.745144 0.0915236
0.999985 0.738201 0.101656
0.109041 0.973571 0.187655
0.255009 0.987976 0.148638
0.508125 0.991241 0.100282
0.78349 0.980255 0.0986954
0.997208 0.971176 0.132372
0.0495155 0.0760052 0.334951
0.23212 0.0568093 0.319356
0.527092 0.0415961 0.306584
0.797803 0.040177 0.29575
0.927337 0.0694133 0.285512
0.0411688 0.315862 0.331701
0.230701 0.296315 0.31606
0.52488 0.281163 0.303487
0.802289 0.270085 0.294072
1 0.269001 0.291951
0.0328374 0.556161 0.326375
0.225711 0.536995 0.31104
0.520699 0.521675 0.298589
0.797696 0.510796 0.288762
1 0.503197 0.28304
0.0301061 0.791318 0.322423
0.219989 0.774304 0.304845
0.515343 0.759304 0.292119
0.792187 0.748669 0.282582
1 0.741039 0.276402
0.0947738 0.980224 0.354833
0.238239 0.996597 0.315572
0.509087 0.995804 0.285237
0.786053 0.985489 0.275914
0.999969 0.977539 0.276036
0.0498512 0.0798657 0.528191
0.235966 0.0605478 0.509316
0.530983 0.0451362 0.496208
0.802487 0.0404974 0.485557
0.944183 0.066392 0.462959
0.0414282 0.319814 0.525841
0.234028 0.300328 0.506554
0.528634 0.285008 0.492561
0.805982 0.273869 0.483894
1 0.268894 0.477836
0.032517 0.560037 0.521233
0.229435 0.540764 0.501884
0.524285 0.52517 0.491203
0.801297 0.514595 0.478187
1 0.506645 0.472099
0.0310521 0.794614 0.517067
0.223789 0.777981 0.496117
0.519249 0.76286 0.481651
0.795895 0.752316 0.472053
1 0.744671 0.465766
0.090074 0.983597 0.535897
0.232059 0.999603 0.497444
0.512901 0.998199 0.474632
0.789746 0.989151 0.465064
1 0.981567 0.458869
0.050309 0.0836805 0.755444
0.239643 0.0642405 0.726818
0.534768 0.0487984 0.707057
0.80296 0.0424201 0.689128
0.950881 0.0668498 0.651453
0.0417182 0.323598 0.756008
0.237507 0.304067 0.726879
0.532555 0.288579 0.705867
0.809613 0.277485 0.693126
1 0.270924 0.682963
0.0335546 0.563516 0.75227
0.232929 0.544411 0.723644
0.528511 0.529381 0.698863
0.804761 0.518288 0.689021
1 0.510414 0.679805
0.0460517 0.794141 0.745495
0.22742 0.781521 0.71902
0.523125 0.766278 0.697551
0.799374 0.755795 0.684169
1 0.748302 0.674647
0.108202 0.980621 0.750835
0.233265 0.999908 0.716854
0.516609 0.999741 0.6916
0.793423 0.992599 0.677913
1 0.985183 0.668589
0.0639963 0.0920729 0.916884
0.242664 0.0707561 0.947143
0.53518 0.0539254 0.947097
0.782528 0.0542458 0.907347
0.931746 0.0775769 0.854368
0.0612192 0.325689 0.962158
0.241627 0.307698 0.972045
0.536263 0.292103 0.953384
0.813123 0.281117 0.938979
1 0.27509 0.925292
0.0637369 0.561196 0.96614
0.236683 0.547951 0.970428
0.531762 0.532662 0.94963
0.808347 0.521798 0.93521
1 0.514 0.925063
0.10074 0.78471 0.954726
0.23418 0.784115 0.96437
0.526467 0.769833 0.944808
0.800107 0.760311 0.928038
1 0.751827 0.920211
0.153201 0.97174 0.954421
0.254017 0.998642 0.957534
0.520439 0.99968 0.939284
0.797925 0.995087 0.925841
1 0.988602 0.914992
