luts/ORANGE.TIL.cube
TITLE "Generated by Resolve"
LUT_3D_SIZE 33
0.0495766 0.0720531 0.145113
0.0661631 0.0705882 0.143832
0.0827497 0.0690318 0.142473
0.0993362 0.0673381 0.140978
0.115953 0.0654154 0.139284
0.132586 0.0631723 0.137331
0.149279 0.0602121 0.134783
0.187945 0.0560616 0.13019
0.227741 0.0533761 0.127489
0.266499 0.0508888 0.125994
0.304723 0.0485542 0.124575
0.342153 0.0465095 0.122896
0.379034 0.0446326 0.121294
0.415579 0.0428321 0.119707
0.451698 0.0424048 0.11809
0.487511 0.0419776 0.116548
0.52311 0.0415656 0.115038
0.55848 0.0411536 0.113603
0.593606 0.0407416 0.112169
0.628428 0.0403296 0.110796
0.663096 0.0399329 0.109453
0.697414 0.0395514 0.108141
0.730694 0.0394446 0.10692
0.761669 0.0399634 0.105837
0.789487 0.0413672 0.105043
0.812833 0.0440223 0.104738
0.831128 0.0480964 0.105104
0.844114 0.0536507 0.106279
0.85391 0.0600443 0.108141
0.862638 0.0666972 0.11043
0.872068 0.0730907 0.113024
0.886931 0.074464 0.113283
0.903136 0.0745251 0.112902
0.0487526 0.1019 0.145068
0.0653391 0.10045 0.143771
0.0819409 0.0988785 0.142382
0.098558 0.0971542 0.140856
0.11519 0.0952316 0.139162
0.131838 0.0929885 0.137194
0.148547 0.090013 0.134585
0.188205 0.0859083 0.129473
0.227481 0.0834363 0.126299
0.265797 0.0810407 0.125002
0.304311 0.0785229 0.124163
0.342123 0.0762951 0.12282
0.379095 0.0743725 0.121248
0.415625 0.0725414 0.119661
0.45185 0.0707866 0.118166
0.487785 0.0691234 0.116701
0.523491 0.0674907 0.115282
0.558953 0.06598 0.113909
0.59411 0.0645304 0.112612
0.629038 0.0630808 0.111315
0.663737 0.061738 0.110033
0.698146 0.060441 0.108782
0.731609 0.0594034 0.107591
0.762798 0.0590372 0.106569
0.79057 0.0596628 0.105867
0.813794 0.0615702 0.105608
0.831617 0.0650339 0.10602
0.844221 0.0703441 0.107164
0.853925 0.0767681 0.108965
0.862654 0.0834363 0.111254
0.872099 0.0898146 0.113787
0.887327 0.090837 0.113863
0.903532 0.090898 0.113466
0.0478981 0.131792 0.144869
0.0644846 0.130343 0.143603
0.0811017 0.128771 0.142214
0.097734 0.127047 0.140688
0.114382 0.125124 0.13901
0.131075 0.122881 0.137026
0.147829 0.11989 0.134401
0.188632 0.115663 0.128893
0.227512 0.113344 0.125078
0.264927 0.111254 0.12372
0.303273 0.108736 0.123384
0.341665 0.106325 0.122515
0.378943 0.104265 0.121035
0.415534 0.102419 0.119493
0.451728 0.100725 0.117968
0.487678 0.0990158 0.116503
0.523369 0.0974441 0.115084
0.558846 0.0958877 0.11371
0.594018 0.0944381 0.112398
0.628946 0.0929885 0.111101
0.663645 0.0916457 0.109865
0.698085 0.0902724 0.108614
0.732128 0.0890364 0.107469
0.764477 0.0883192 0.106416
0.793896 0.0884413 0.105776
0.819379 0.089662 0.105623
0.839719 0.0923171 0.106233
0.854337 0.0966049 0.107683
0.864668 0.102083 0.109926
0.872999 0.108141 0.112673
0.881605 0.114092 0.115648
0.896544 0.11429 0.115526
0.912154 0.113893 0.115068
0.0469978 0.16173 0.144656
0.0635843 0.160266 0.143404
0.0802014 0.158694 0.142046
0.096849 0.15697 0.140536
0.113497 0.155047 0.138857
0.130205 0.152789 0.136889
0.14699 0.149798 0.134295
0.189151 0.145373 0.128725
0.228214 0.143053 0.124544
0.264515 0.141314 0.12285
0.301976 0.139071 0.122606
0.340719 0.136461 0.122042
0.378637 0.134218 0.120745
0.41529 0.132372 0.119203
0.45153 0.130632 0.117693
0.48748 0.128939 0.116243
0.523186 0.127398 0.114794
0.558648 0.125826 0.113436
0.59382 0.124346 0.112123
0.628763 0.122927 0.110826
0.663462 0.121538 0.10959
0.697917 0.12018 0.10837
0.732189 0.118929 0.107164
0.765438 0.117906 0.106111
0.796216 0.117647 0.10547
0.823636 0.118273 0.105333
0.846342 0.120241 0.10602
0.863569 0.123735 0.107668
0.875715 0.128649 0.110277
0.884764 0.134401 0.113619
0.893217 0.140307 0.11722
0.908431 0.140215 0.116991
0.924041 0.139834 0.116579
0.0460517 0.191714 0.14435
0.0626383 0.190249 0.14313
0.0792401 0.188663 0.141787
0.0958724 0.186938 0.140322
0.11252 0.185016 0.138659
0.129213 0.182757 0.136721
0.146014 0.179751 0.134157
0.189487 0.175128 0.128985
0.229404 0.172519 0.124971
0.265126 0.170993 0.123049
0.301122 0.169223 0.122438
0.339513 0.16672 0.121767
0.377981 0.164279 0.120439
0.414984 0.162341 0.118898
0.451255 0.160586 0.117342
0.487175 0.158923 0.115908
0.522896 0.157336 0.114458
0.558358 0.155764 0.1131
0.593561 0.154299 0.111757
0.628489 0.152865 0.110475
0.663188 0.151461 0.109224
0.697658 0.150103 0.108003
0.731991 0.148852 0.106828
0.765805 0.147646 0.10573
0.797711 0.147021 0.105013
0.826749 0.147219 0.104799
0.85156 0.148547 0.105501
0.871336 0.151308 0.10724
0.885573 0.155566 0.110155
0.895872 0.160922 0.113985
0.90454 0.16669 0.118257
0.920073 0.166308 0.117861
0.935668 0.165911 0.117479
0.0450752 0.221729 0.143984
0.0616617 0.220264 0.142763
0.0782788 0.218692 0.141436
0.0948959 0.216953 0.139986
0.111543 0.21503 0.138308
0.128206 0.212772 0.136416
0.144961 0.209781 0.133883
0.189303 0.20502 0.129381
0.230457 0.201968 0.12604
0.266529 0.20029 0.124117
0.30135 0.198917 0.123201
0.338521 0.196872 0.121981
0.377111 0.194415 0.120256
0.414603 0.192309 0.118547
0.450904 0.190555 0.116976
0.486854 0.188907 0.115526
0.522576 0.187304 0.114076
0.558022 0.185779 0.112703
0.59324 0.184283 0.111376
0.628138 0.182879 0.110063
0.662867 0.18146 0.108812
0.697337 0.180163 0.107591
0.73167 0.178805 0.106447
0.765759 0.177554 0.105303
0.798566 0.176669 0.104448
0.828885 0.176501 0.104204
0.855573 0.177295 0.104784
0.877653 0.179294 0.106538
0.894194 0.18291 0.109606
0.906081 0.187732 0.113832
0.915663 0.193027 0.118547
0.931228 0.192599 0.118151
0.946838 0.192203 0.117784
0.0440833 0.251743 0.143572
0.0606699 0.250278 0.142367
0.0772869 0.248707 0.141054
0.093904 0.246967 0.139574
0.110552 0.245045 0.137926
0.127214 0.242786 0.136004
0.143954 0.239796 0.133486
0.188571 0.235035 0.129549
0.230762 0.231617 0.127062
0.268055 0.229511 0.125689
0.30248 0.228321 0.124559
0.338323 0.226719 0.122728
0.376394 0.224491 0.120302
0.414069 0.22237 0.118212
0.450507 0.220584 0.116579
0.486488 0.218921 0.115084
0.52221 0.217319 0.113649
0.557656 0.215778 0.11223
0.592828 0.214298 0.110903
0.627771 0.212879 0.109606
0.662455 0.21149 0.108354
0.696941 0.210117 0.107149
0.731273 0.20882 0.105974
0.765484 0.207584 0.104814
0.798901 0.206485 0.103853
0.830289 0.206027 0.103502
0.858549 0.206348 0.10399
0.882704 0.207797 0.105638
0.901518 0.210666 0.108766
0.915297 0.214893 0.113268
0.926085 0.219593 0.118227
0.941711 0.219181 0.117876
0.957305 0.218753 0.11751
0.0430762 0.281758 0.143099
0.0596628 0.280324 0.141878
0.0762646 0.278752 0.140581
0.0928969 0.277012 0.139147
0.109529 0.27509 0.137499
0.126207 0.272831 0.135576
0.142931 0.269856 0.133043
0.187579 0.265202 0.12932
0.230045 0.261631 0.127413
0.268788 0.259098 0.126589
0.303899 0.257649 0.125704
0.338933 0.256245 0.123583
0.375998 0.254429 0.120562
0.413565 0.25243 0.117937
0.450111 0.250614 0.116136
0.486061 0.24892 0.114611
0.521767 0.247333 0.113161
0.557229 0.245808 0.111772
0.592432 0.244282 0.110414
0.627344 0.242893 0.109133
0.662058 0.24152 0.107851
0.696529 0.240177 0.106645
0.730877 0.238865 0.10547
0.765057 0.237598 0.104341
0.798917 0.236393 0.103288
0.831098 0.235676 0.10277
0.860685 0.23566 0.10309
0.886549 0.236576 0.104616
0.907561 0.238819 0.107683
0.923415 0.24242 0.112337
0.935699 0.246525 0.117464
0.951339 0.246082 0.117113
0.96701 0.245655 0.116793
0.0420539 0.311849 0.142596
0.0586557 0.310384 0.14139
0.0752575 0.308812 0.140093
0.0918746 0.307073 0.138643
0.108507 0.30515 0.136995
0.125185 0.302907 0.135073
0.141909 0.299916 0.13254
0.186603 0.295369 0.128862
0.22858 0.291981 0.127047
0.268421 0.289036 0.126497
0.304784 0.287175 0.125933
0.339803 0.285817 0.123934
0.376043 0.284291 0.120668
0.413138 0.282368 0.117678
0.449683 0.280629 0.115709
0.485634 0.27895 0.114122
0.521355 0.277317 0.112657
0.556802 0.275837 0.111254
0.591974 0.274357 0.109926
0.626902 0.272953 0.108614
0.661585 0.271595 0.107347
0.696056 0.270207 0.106126
0.730404 0.268894 0.104936
0.764614 0.267613 0.103777
0.798642 0.266438 0.102693
0.831495 0.265492 0.102037
0.862119 0.265171 0.10222
0.889464 0.265644 0.103578
0.912413 0.267338 0.106477
0.930373 0.270298 0.111131
0.944198 0.273762 0.116304
0.959899 0.27332 0.115984
0.975616 0.272877 0.115679
0.0410315 0.341924 0.142
0.0576181 0.340459 0.140795
0.0742351 0.338888 0.139498
0.0908522 0.337133 0.138064
0.107485 0.33521 0.136431
0.124147 0.332967 0.134524
0.140887 0.329976 0.131991
0.185931 0.325505 0.128283
0.227085 0.322332 0.126223
0.267094 0.319417 0.125429
0.304677 0.317143 0.124971
0.340368 0.315587 0.123339
0.376211 0.314046 0.120317
0.412833 0.312383 0.117311
0.449226 0.310643 0.115221
0.485161 0.308995 0.113603
0.520851 0.307454 0.112139
0.556298 0.305928 0.110719
0.59147 0.304402 0.109377
0.626413 0.302953 0.108049
0.661082 0.30161 0.106798
0.695552 0.300237 0.105562
0.7299 0.298955 0.104387
0.764126 0.297658 0.103212
0.798199 0.296422 0.102098
0.831556 0.295384 0.101289
0.863035 0.29485 0.101305
0.891585 0.294972 0.10248
0.916274 0.296178 0.105241
0.936187 0.298573 0.109804
0.951614 0.301411 0.114885
0.967391 0.300938 0.11458
0.983185 0.300481 0.11429
0.0399939 0.372015 0.141405
0.0565805 0.37055 0.1402
0.0731975 0.368978 0.138903
0.0898146 0.367239 0.137484
0.106447 0.365316 0.135866
0.12311 0.363058 0.133944
0.140169 0.360067 0.131411
0.185336 0.355596 0.127687
0.225956 0.352636 0.125399
0.265522 0.349889 0.12401
0.303716 0.347494 0.123232
0.340261 0.345632 0.121874
0.376272 0.34406 0.119402
0.412558 0.342367 0.116701
0.448798 0.340734 0.114672
0.484703 0.339071 0.113069
0.520394 0.337499 0.111574
0.55581 0.335927 0.110155
0.590967 0.334478 0.108797
0.62591 0.333059 0.107485
0.660578 0.331655 0.106203
0.695048 0.330312 0.104982
0.729381 0.329015 0.103777
0.763622 0.327703 0.102632
0.797711 0.326452 0.101518
0.831388 0.325353 0.100587
0.863508 0.324651 0.10042
0.893095 0.324529 0.101427
0.919234 0.325277 0.10396
0.940902 0.327169 0.108431
0.957839 0.329381 0.113252
0.973678 0.328908 0.112947
0.989532 0.328405 0.112673
0.0389563 0.402106 0.140764
0.0555428 0.400641 0.13959
0.0721599 0.399069 0.138293
0.088777 0.39733 0.136858
0.105409 0.395392 0.135256
0.122072 0.393149 0.133349
0.13959 0.390112 0.130816
0.184726 0.385718 0.127077
0.225238 0.382788 0.124681
0.264286 0.380209 0.12282
0.302525 0.377844 0.121523
0.33962 0.37583 0.120134
0.375998 0.374105 0.118166
0.412222 0.372457 0.115938
0.448341 0.370748 0.114076
0.484215 0.3691 0.11249
0.51986 0.367559 0.110979
0.555291 0.366018 0.10956
0.590433 0.364569 0.108171
0.62536 0.363104 0.106889
0.660044 0.361715 0.105592
0.694514 0.360372 0.104387
0.728847 0.35906 0.103166
0.763043 0.357839 0.102022
0.797177 0.356558 0.100908
0.831006 0.355383 0.0999008
0.863645 0.354513 0.0995499
0.894057 0.354177 0.100374
0.921431 0.354604 0.102693
0.944671 0.356039 0.107042
0.962982 0.357748 0.111559
0.978897 0.357229 0.111269
0.994827 0.356725 0.110979
0.0379187 0.432197 0.140139
0.0545052 0.430762 0.138933
0.0711223 0.42916 0.137636
0.0877394 0.427451 0.136202
0.104372 0.425513 0.134615
0.121035 0.42327 0.132708
0.138949 0.420249 0.130159
0.1841 0.415778 0.126406
0.224598 0.412863 0.12401
0.263493 0.410376 0.121996
0.301503 0.408133 0.120241
0.338811 0.406073 0.118669
0.375479 0.404227 0.11696
0.411765 0.402472 0.115129
0.447852 0.400809 0.113436
0.483696 0.399176 0.111879
0.519356 0.39762 0.110353
0.554757 0.396078 0.108949
0.589883 0.394629 0.107561
0.624796 0.393194 0.106264
0.659464 0.391821 0.104982
0.693935 0.390494 0.103746
0.728267 0.389197 0.102541
0.762509 0.3879 0.101381
0.796597 0.386664 0.100252
0.830518 0.385473 0.0992142
0.863523 0.384512 0.0987259
0.894606 0.383948 0.099382
0.923033 0.38407 0.101488
0.94757 0.385183 0.105669
0.966415 0.386404 0.109865
0.982574 0.385855 0.109575
0.998718 0.385336 0.109285
0.0368811 0.462333 0.139452
0.0534676 0.460853 0.138247
0.0700694 0.459281 0.13695
0.0866865 0.457542 0.135515
0.103334 0.455619 0.133928
0.119997 0.453361 0.132021
0.138277 0.45034 0.129473
0.183459 0.445914 0.125704
0.223926 0.443 0.123293
0.262852 0.440482 0.121263
0.300801 0.438239 0.119417
0.338094 0.43621 0.117708
0.374868 0.434318 0.116014
0.411261 0.432563 0.114382
0.447303 0.430823 0.112749
0.483146 0.429191 0.111208
0.518791 0.42768 0.109712
0.554177 0.426169 0.108309
0.589303 0.424704 0.10692
0.624216 0.423239 0.105608
0.658869 0.421897 0.104311
0.693339 0.420523 0.10309
0.727672 0.419303 0.101884
0.761913 0.41796 0.10074
0.796002 0.416739 0.0995804
0.829984 0.415534 0.0985122
0.863249 0.414511 0.0979019
0.89485 0.41384 0.0984207
0.924132 0.413733 0.100359
0.949264 0.41445 0.104372
0.96701 0.41532 0.108278
0.983429 0.414771 0.107973
0.999847 0.414237 0.107683
0.0358282 0.492424 0.138766
0.0524147 0.490959 0.137545
0.0690318 0.489403 0.136248
0.0856489 0.487663 0.134829
0.102281 0.48574 0.133242
0.118944 0.483497 0.13135
0.137591 0.480491 0.128786
0.182788 0.47602 0.125017
0.22327 0.473091 0.122591
0.262165 0.470634 0.120531
0.300145 0.468376 0.118669
0.337438 0.466331 0.116915
0.374258 0.464424 0.115251
0.410681 0.462669 0.113634
0.446738 0.460945 0.112047
0.482582 0.459373 0.110506
0.518212 0.457816 0.109041
0.553597 0.456245 0.107607
0.588708 0.454795 0.106249
0.623621 0.453361 0.104906
0.658274 0.451972 0.103655
0.692729 0.450614 0.102403
0.727077 0.449378 0.101228
0.761303 0.448096 0.100038
0.795392 0.446799 0.0989242
0.829389 0.445624 0.0978256
0.862837 0.444541 0.0971389
0.89485 0.443778 0.0975052
0.924758 0.443503 0.099321
0.949981 0.4439 0.103151
0.967056 0.444465 0.106767
0.983536 0.4439 0.106462
1 0.443351 0.106157
0.0347906 0.522393 0.138048
0.0513771 0.520943 0.136843
0.0679942 0.519387 0.135546
0.0846113 0.517678 0.134142
0.101244 0.51577 0.132525
0.117906 0.513542 0.130632
0.136858 0.510582 0.128069
0.182132 0.506142 0.124285
0.222583 0.503243 0.121843
0.261494 0.50074 0.119783
0.299458 0.498543 0.117906
0.336812 0.496513 0.116136
0.373617 0.49456 0.114504
0.410071 0.492775 0.112871
0.446159 0.491096 0.111315
0.481987 0.489418 0.109773
0.517617 0.487877 0.108339
0.552987 0.486366 0.106905
0.588098 0.484871 0.105577
0.622995 0.483467 0.104204
0.657664 0.482094 0.102953
0.692134 0.480751 0.101701
0.726467 0.479438 0.100526
0.760662 0.478202 0.0993515
0.794766 0.476936 0.0982223
0.828763 0.4757 0.0971237
0.862318 0.474647 0.0963607
0.894652 0.473762 0.0966354
0.925063 0.47332 0.0983444
0.950301 0.473518 0.102037
0.967056 0.473793 0.105379
0.983536 0.473213 0.105074
1 0.472648 0.104768
0.0337682 0.552254 0.137362
0.0503548 0.550851 0.136126
0.0669566 0.549279 0.134829
0.0835737 0.547601 0.133394
0.100221 0.545708 0.131807
0.116884 0.543511 0.129931
0.136141 0.540551 0.127352
0.18143 0.536095 0.123568
0.221897 0.533257 0.121096
0.260822 0.530755 0.119036
0.298787 0.528603 0.117159
0.336126 0.526558 0.115389
0.372976 0.524651 0.11371
0.40943 0.522835 0.112123
0.445518 0.521141 0.110567
0.481361 0.519539 0.109056
0.516991 0.517968 0.107622
0.552377 0.516457 0.106172
0.587472 0.514992 0.104845
0.62237 0.513603 0.103502
0.656992 0.5122 0.102251
0.691463 0.510887 0.100984
0.725795 0.509575 0.0998093
0.760021 0.508324 0.0986343
0.794095 0.507088 0.0975052
0.828107 0.505867 0.0964065
0.861753 0.504738 0.095613
0.894316 0.503777 0.0957961
0.925139 0.503243 0.0974746
0.950408 0.503243 0.101061
0.967056 0.503349 0.104143
0.983536 0.502739 0.103822
1 0.502159 0.103532
0.0327611 0.582086 0.136599
0.0493477 0.580667 0.135378
0.0659495 0.579126 0.134081
0.0825666 0.577417 0.132677
0.0991836 0.575555 0.13106
0.115846 0.573358 0.129183
0.135393 0.570367 0.126635
0.180758 0.566049 0.122805
0.22121 0.563134 0.120333
0.260121 0.560708 0.118273
0.2981 0.558511 0.116365
0.33547 0.556466 0.114611
0.372305 0.554574 0.112963
0.408759 0.55285 0.111345
0.444892 0.551141 0.109804
0.48072 0.549523 0.108293
0.51635 0.547997 0.106874
0.551736 0.546441 0.10547
0.586816 0.545052 0.104097
0.621698 0.543633 0.10277
0.656352 0.542245 0.101503
0.690822 0.540917 0.100267
0.725155 0.539666 0.0990921
0.759335 0.538354 0.0979171
0.793454 0.537133 0.0967575
0.827436 0.535943 0.0956893
0.861112 0.534783 0.0948653
0.893843 0.533852 0.0950332
0.924987 0.533227 0.0966659
0.950408 0.533028 0.100206
0.967056 0.533028 0.10309
0.983536 0.532418 0.102739
1 0.531823 0.102434
0.031754 0.611795 0.135882
0.0483253 0.610407 0.134646
0.0649271 0.608881 0.133349
0.0815442 0.607202 0.131914
0.0981765 0.605341 0.130312
0.114839 0.603159 0.12845
0.13463 0.600198 0.125887
0.180041 0.595911 0.122087
0.220523 0.592981 0.119585
0.259434 0.590555 0.117525
0.297414 0.588418 0.115587
0.334737 0.586389 0.113848
0.371618 0.584482 0.112154
0.408103 0.582696 0.110582
0.444221 0.581048 0.109026
0.480079 0.579416 0.107546
0.515709 0.577859 0.106111
0.55108 0.576379 0.104692
0.58616 0.574899 0.103349
0.621057 0.573526 0.102037
0.65568 0.572213 0.100755
0.690135 0.570855 0.0995346
0.724468 0.569528 0.0983444
0.758679 0.568322 0.0971695
0.792767 0.567086 0.0960403
0.826764 0.565896 0.0949569
0.860471 0.564797 0.0941482
0.893294 0.563806 0.094316
0.924681 0.563073 0.0959793
0.950378 0.562799 0.0995193
0.967056 0.562585 0.102251
0.983536 0.561975 0.1019
1 0.561379 0.101564
0.0307469 0.641337 0.135149
0.0473335 0.639933 0.133928
0.0639353 0.638422 0.132616
0.0805524 0.636774 0.131197
0.0971847 0.634928 0.12961
0.113848 0.632792 0.127733
0.133852 0.629877 0.12517
0.17937 0.625574 0.121324
0.219837 0.622751 0.118822
0.258732 0.620325 0.116747
0.296681 0.618189 0.114809
0.334066 0.616159 0.113085
0.370916 0.614282 0.111391
0.407416 0.612512 0.109804
0.443549 0.610864 0.108232
0.479393 0.609262 0.106783
0.515038 0.607691 0.105318
0.550393 0.606195 0.10396
0.585519 0.604761 0.102571
0.620386 0.603372 0.101289
0.655024 0.602045 0.100008
0.689494 0.600702 0.0987869
0.723796 0.599405 0.0975967
0.757992 0.598169 0.0964523
0.792111 0.596963 0.0953078
0.826078 0.595758 0.0942245
0.859785 0.594629 0.0934462
0.892683 0.593591 0.0936751
0.924239 0.592859 0.0953994
0.950347 0.592493 0.0989853
0.967056 0.592172 0.101595
0.983536 0.591562 0.101244
1 0.590967 0.100908
0.0297704 0.670909 0.134417
0.0463417 0.66952 0.133196
0.0629435 0.668009 0.131884
0.0795605 0.666346 0.130465
0.0961929 0.6645 0.128847
0.11284 0.662348 0.126986
0.133059 0.659449 0.124422
0.178683 0.6551 0.120562
0.21912 0.652354 0.118074
0.25803 0.649943 0.115969
0.295995 0.647791 0.114046
0.333379 0.645792 0.112306
0.37023 0.643992 0.110597
0.406714 0.642191 0.109026
0.442832 0.640543 0.107469
0.478721 0.638972 0.105989
0.514366 0.637415 0.104555
0.549722 0.635966 0.103197
0.584817 0.634531 0.101823
0.619715 0.633143 0.100526
0.654353 0.631785 0.0992447
0.688762 0.630503 0.0980392
0.72311 0.629221 0.096849
0.757305 0.627985 0.0956893
0.791424 0.626749 0.0945449
0.825391 0.625574 0.0934615
0.859068 0.624475 0.0927749
0.891997 0.623438 0.0931106
0.92369 0.622644 0.0949416
0.950301 0.622141 0.0986496
0.967056 0.621714 0.101167
0.983536 0.621088 0.100832
1 0.620493 0.100496
0.0288701 0.700465 0.133745
0.0454261 0.699077 0.132494
0.0620127 0.697566 0.131167
0.0785992 0.695903 0.129717
0.0952163 0.694072 0.128115
0.111849 0.69192 0.126238
0.13228 0.689006 0.12369
0.177951 0.684718 0.119814
0.218433 0.68191 0.117327
0.257298 0.679561 0.115175
0.295308 0.677363 0.113283
0.332662 0.67538 0.111498
0.369543 0.673518 0.109834
0.406012 0.671778 0.108217
0.442161 0.670115 0.106706
0.47805 0.668498 0.105226
0.513695 0.667002 0.103777
0.549065 0.665507 0.102419
0.584161 0.664057 0.101076
0.619043 0.662699 0.0997787
0.653651 0.661372 0.0985122
0.68809 0.66009 0.0972763
0.722423 0.658854 0.0960861
0.756634 0.657588 0.0949264
0.790722 0.656382 0.0938125
0.824674 0.655253 0.0927443
0.858335 0.654139 0.0921798
0.891264 0.653101 0.0926528
0.923033 0.652277 0.0946365
0.950301 0.651713 0.0985275
0.967056 0.65127 0.100984
0.983536 0.65066 0.100649
1 0.650065 0.100313
0.028687 0.729747 0.133455
0.0451514 0.728389 0.132158
0.0616617 0.726909 0.1308
0.078172 0.725307 0.12929
0.0946822 0.723507 0.127626
0.111223 0.721386 0.125704
0.131609 0.718547 0.123018
0.177249 0.714275 0.119066
0.2177 0.711498 0.116548
0.25658 0.709102 0.114397
0.294591 0.70695 0.112505
0.33193 0.704952 0.110719
0.368826 0.70312 0.109056
0.405295 0.70135 0.107424
0.441459 0.699672 0.105913
0.477348 0.698131 0.104417
0.512993 0.696574 0.103014
0.548363 0.695094 0.10161
0.583459 0.693629 0.100298
0.618341 0.692271 0.0990005
0.652949 0.690944 0.0977493
0.687388 0.689677 0.0965133
0.721721 0.68838 0.0953231
0.755932 0.68716 0.0941634
0.790021 0.686 0.0930495
0.824002 0.684779 0.0920272
0.857572 0.68368 0.0916457
0.890501 0.682612 0.0923323
0.922347 0.681788 0.0945144
0.950378 0.681178 0.0986496
0.967056 0.680629 0.101076
0.983536 0.680003 0.10074
1 0.679408 0.10042
0.0296788 0.758633 0.133867
0.0460365 0.757321 0.13254
0.0624247 0.755886 0.131075
0.0787976 0.754314 0.129519
0.0951705 0.75256 0.127779
0.111559 0.7505 0.125765
0.13167 0.747784 0.12285
0.176547 0.743877 0.118273
0.216983 0.741085 0.115755
0.255863 0.738705 0.113619
0.293873 0.736538 0.111742
0.331212 0.734554 0.109911
0.368078 0.732677 0.108263
0.404593 0.730938 0.106645
0.440742 0.72929 0.105104
0.4766 0.727687 0.103639
0.512261 0.726162 0.102205
0.547631 0.724651 0.100832
0.582757 0.723247 0.0994888
0.617639 0.721874 0.0982071
0.652232 0.720562 0.0969558
0.686687 0.719249 0.0957351
0.721019 0.717998 0.0945602
0.755215 0.716731 0.0934005
0.789319 0.715541 0.0923018
0.82324 0.714382 0.091371
0.856794 0.713237 0.0911879
0.889647 0.712215 0.092134
0.921553 0.711254 0.0946365
0.950484 0.710582 0.0990616
0.967056 0.710033 0.101488
0.98352 0.709438 0.101167
1 0.708812 0.100862
0.0322118 0.786954 0.135286
0.0484321 0.785702 0.133852
0.0646677 0.784329 0.132326
0.0808728 0.782803 0.130648
0.0970474 0.781109 0.128786
0.113237 0.779126 0.126665
0.132921 0.776623 0.12343
0.176104 0.773373 0.117739
0.216251 0.770687 0.114961
0.255116 0.768307 0.11281
0.293111 0.76614 0.110903
0.330465 0.764141 0.109133
0.367361 0.76228 0.107454
0.403815 0.760571 0.105821
0.439994 0.758877 0.104311
0.475883 0.75729 0.102831
0.511543 0.755718 0.101427
0.546929 0.754238 0.100023
0.582025 0.75288 0.0987106
0.616907 0.751492 0.0974136
0.651499 0.750134 0.0961776
0.685954 0.748867 0.0949416
0.720287 0.747555 0.0937667
0.754498 0.746365 0.092607
0.788571 0.745144 0.0915236
0.822477 0.743954 0.0908064
0.85594 0.742794 0.0908827
0.888823 0.74168 0.0921798
0.920714 0.74078 0.0950027
0.950347 0.740017 0.0998245
0.967056 0.739422 0.102266
0.98352 0.738796 0.101961
0.999985 0.738201 0.101656
0.0367895 0.814542 0.138048
0.0528267 0.813352 0.136507
0.068864 0.812024 0.13489
0.0848554 0.810605 0.133074
0.100786 0.809003 0.131075
0.116716 0.807111 0.128801
0.135744 0.804913 0.125124
0.176593 0.802472 0.117876
0.215717 0.800198 0.114351
0.254383 0.797879 0.112016
0.292363 0.795743 0.110079
0.329717 0.793713 0.108339
0.366598 0.791897 0.10663
0.403082 0.790112 0.105028
0.439261 0.788449 0.103502
0.475151 0.786892 0.102007
0.510811 0.785367 0.100618
0.546181 0.783871 0.0992142
0.581292 0.782406 0.0979324
0.616175 0.781064 0.0966049
0.650767 0.779721 0.0953841
0.685222 0.778454 0.0941482
0.719554 0.777157 0.092958
0.753765 0.775921 0.0918288
0.787823 0.774716 0.090837
0.821683 0.773526 0.0904097
0.855085 0.772305 0.0908064
0.887922 0.771267 0.0924849
0.919814 0.77026 0.0957198
0.949767 0.769451 0.101015
0.967025 0.768811 0.103487
0.98349 0.768185 0.103197
0.999954 0.767575 0.102922
0.0439002 0.841184 0.14255
0.0597238 0.840085 0.140932
0.0755169 0.838834 0.139132
0.091249 0.837522 0.137194
0.106874 0.836027 0.135012
0.122499 0.834241 0.132555
0.140673 0.83238 0.128283
0.178363 0.831128 0.11902
0.215961 0.829404 0.114382
0.253834 0.82742 0.111406
0.2916 0.82533 0.10927
0.328969 0.823331 0.107485
0.36582 0.8215 0.105821
0.402335 0.819745 0.104219
0.438499 0.818021 0.102663
0.474388 0.816449 0.101213
0.510048 0.814969 0.0997635
0.545419 0.813458 0.0984207
0.580545 0.812039 0.0970626
0.615427 0.810697 0.0958114
0.650034 0.809308 0.0945449
0.684489 0.808072 0.0933547
0.718807 0.806745 0.0921645
0.752987 0.805524 0.0911116
0.78706 0.804334 0.0903487
0.820829 0.803128 0.0902724
0.854231 0.801877 0.0910201
0.886992 0.800763 0.0931411
0.918868 0.799725 0.0968643
0.948943 0.79884 0.102724
