luts/Orange Teal by Adnan.cube
TITLE "Generated by Resolve"
LUT_3D_SIZE 9
0.041886 0.114412 0.116854
0.0814374 0.120165 0.107057
0.159319 0.131487 0.08925
0.288716 0.149432 0.0791333
0.423499 0.177646 0.0917372
0.552697 0.208698 0.111757
0.670802 0.250172 0.121386
0.770809 0.297475 0.125566
0.848783 0.363302 0.124102
0.0417945 0.142092 0.107332
0.0789807 0.127001 0.100282
0.166659 0.144778 0.0815595
0.300755 0.163867 0.073991
0.438453 0.190845 0.088777
0.568124 0.221866 0.10901
0.684337 0.262058 0.118624
0.779706 0.30898 0.121492
0.852522 0.374502 0.118364
0.0458228 0.185534 0.101122
0.0796063 0.186969 0.107042
0.158068 0.163806 0.0918441
0.331151 0.186496 0.0667887
0.473976 0.212512 0.0878462
0.598245 0.243534 0.105715
0.708202 0.28188 0.114626
0.795575 0.32874 0.115099
0.857832 0.39321 0.112749
0.0541695 0.239033 0.0920119
0.0792706 0.236027 0.108812
0.175769 0.235187 0.104082
0.329778 0.208637 0.0742046
0.524117 0.24065 0.0897231
0.646159 0.273228 0.102663
0.742473 0.310201 0.108522
0.815747 0.356313 0.10486
0.864256 0.418784 0.10753
0.0703136 0.298405 0.0867323
0.0979324 0.291676 0.107073
0.177325 0.298573 0.11429
0.3337 0.285924 0.0945296
0.518334 0.2654 0.0867781
0.685008 0.307408 0.0967727
0.778714 0.34667 0.0962387
0.835279 0.390707 0.0906233
0.869825 0.448478 0.104906
0.101808 0.357809 0.0925154
0.132708 0.352499 0.113069
0.188602 0.351415 0.132387
0.338933 0.384146 0.118441
0.512123 0.347341 0.0847334
0.678843 0.339925 0.0883192
0.79527 0.38587 0.0832532
0.851789 0.430655 0.0832685
0.87364 0.481773 0.105196
0.153185 0.419516 0.116136
0.186526 0.417868 0.133761
0.245167 0.425254 0.145602
0.348699 0.450523 0.129137
0.532952 0.489464 0.108919
0.658595 0.439292 0.107668
0.782589 0.428229 0.097322
0.847196 0.468833 0.093431
0.87602 0.513283 0.101488
0.227146 0.493294 0.149279
0.261173 0.496651 0.162509
0.3196 0.510292 0.170413
0.397421 0.530175 0.165759
0.523461 0.577661 0.153048
0.672358 0.61503 0.144045
0.744869 0.542672 0.209888
0.826505 0.52372 0.181476
0.858549 0.556374 0.197177
0.315282 0.57937 0.198459
0.348638 0.586892 0.20827
0.402487 0.602136 0.220157
0.467765 0.623377 0.232853
0.536492 0.646372 0.25658
0.645914 0.693156 0.266835
0.737697 0.705806 0.286915
0.781582 0.63505 0.391012
0.827604 0.625116 0.383688
0.034638 0.140764 0.176776
0.0868238 0.153811 0.190021
0.167102 0.159335 0.14876
0.304936 0.17319 0.115923
0.449165 0.193515 0.103029
0.586664 0.231327 0.110857
0.704051 0.273457 0.117906
0.792355 0.319783 0.119646
0.85742 0.383566 0.118227
0.0345464 0.173404 0.170031
0.0784466 0.18616 0.173709
0.179843 0.179995 0.133028
0.326009 0.186969 0.100603
0.47071 0.209827 0.0958877
0.603754 0.243793 0.108141
0.714168 0.282765 0.115801
0.798901 0.32929 0.116258
0.859266 0.392477 0.115328
0.0357671 0.218662 0.131273
0.0753643 0.225483 0.143969
0.175006 0.191577 0.121614
0.354513 0.200443 0.0754559
0.508202 0.227634 0.0916152
0.631037 0.260822 0.105608
0.732937 0.298955 0.112428
0.810803 0.345632 0.110277
0.862913 0.408225 0.110445
0.0476387 0.271962 0.108263
0.088777 0.268589 0.127077
0.19324 0.26157 0.119921
0.345418 0.218662 0.0782635
0.537377 0.249592 0.0905928
0.669566 0.286183 0.101488
0.759777 0.323903 0.105547
0.82594 0.370153 0.0994888
0.867536 0.430503 0.107332
0.0751812 0.316426 0.0942855
0.115541 0.311482 0.119158
0.197543 0.314397 0.119631
0.357214 0.300877 0.09514
0.526452 0.272099 0.0866712
0.691493 0.315099 0.0955673
0.789395 0.357382 0.0923323
0.841443 0.401511 0.0875563
0.871489 0.458 0.107927
0.116091 0.363577 0.100984
0.155337 0.360906 0.121965
0.212345 0.364569 0.130159
0.35668 0.399115 0.121599
0.52636 0.363668 0.0857557
0.681147 0.345754 0.0876631
0.796796 0.392355 0.0831464
0.853956 0.437812 0.0836652
0.87454 0.48809 0.105806
0.169284 0.424323 0.124071
0.209354 0.426825 0.13959
0.264775 0.435203 0.144793
0.366384 0.46157 0.127138
0.540505 0.500832 0.108675
0.664698 0.452918 0.112169
0.782757 0.433661 0.101259
0.846647 0.474113 0.096788
0.876173 0.517678 0.102296
0.24181 0.499107 0.15523
0.278294 0.505074 0.165728
0.334096 0.518547 0.170611
0.406683 0.537469 0.168856
0.528481 0.583566 0.156466
0.673106 0.622339 0.148623
0.745464 0.551629 0.212711
0.824765 0.527947 0.193179
0.857008 0.56051 0.21091
0.325307 0.58407 0.203235
0.357626 0.591913 0.211643
0.409079 0.606912 0.223392
0.472038 0.627451 0.236774
0.537926 0.649531 0.26157
0.645563 0.695537 0.272007
0.736355 0.710765 0.291951
0.780407 0.640391 0.394675
0.82649 0.627558 0.39028
0.0255436 0.170718 0.235859
0.0508431 0.188449 0.265476
0.193042 0.20766 0.280476
0.323583 0.211124 0.251331
0.455741 0.198581 0.201724
0.586938 0.258381 0.172503
0.707027 0.293935 0.130571
0.80502 0.338582 0.117235
0.862837 0.399634 0.116426
0.0290379 0.196536 0.240131
0.0495918 0.21442 0.265446
0.185153 0.240726 0.290654
0.318135 0.24448 0.249134
0.46949 0.257282 0.200778
0.606531 0.276524 0.156466
0.722164 0.308537 0.120073
0.813993 0.349416 0.111498
0.864576 0.408301 0.113634
0.0319219 0.247211 0.24567
0.0448157 0.270771 0.262272
0.162737 0.288502 0.260578
0.350851 0.267628 0.199542
0.508659 0.270893 0.156268
0.638102 0.291249 0.11812
0.747219 0.323445 0.111849
0.824567 0.364416 0.103563
0.867262 0.422904 0.110903
0.0355077 0.298009 0.207691
0.0502327 0.315847 0.192508
0.165408 0.32549 0.202075
0.352117 0.27776 0.175387
0.555947 0.276402 0.0980392
0.679881 0.306935 0.103624
0.774975 0.342519 0.101488
0.836133 0.386145 0.0940108
0.870665 0.443915 0.112169
0.0439307 0.343221 0.155444
0.0899367 0.370626 0.149248
0.192767 0.363836 0.182773
0.360082 0.368139 0.167788
0.541863 0.302525 0.104555
0.702663 0.331594 0.0941939
0.802594 0.372274 0.0871748
0.848173 0.415534 0.0865949
0.873426 0.469764 0.111559
0.0911116 0.407507 0.118166
0.149981 0.404425 0.148898
0.230106 0.404242 0.176516
0.359533 0.426596 0.15346
0.541909 0.399191 0.106813
0.685496 0.35697 0.0890974
0.799863 0.401968 0.0840467
0.857313 0.447837 0.0844434
0.875425 0.496513 0.106905
0.172442 0.446998 0.139269
0.219516 0.448676 0.157641
0.288396 0.458808 0.162692
0.38497 0.477913 0.138552
0.548516 0.518883 0.109377
0.670588 0.476387 0.118929
0.783368 0.442206 0.106371
0.846235 0.48217 0.101488
0.87631 0.52433 0.105959
0.257496 0.508125 0.163516
0.295094 0.516335 0.171633
0.354025 0.531746 0.174029
0.421363 0.549493 0.173312
0.53576 0.593393 0.163531
0.672801 0.632898 0.156847
0.746227 0.567376 0.218936
0.821607 0.535027 0.214664
0.854566 0.567224 0.228672
0.339712 0.59147 0.211002
0.369635 0.599664 0.217456
0.416236 0.612894 0.228092
0.476677 0.633082 0.242618
0.540246 0.654307 0.267948
0.644358 0.698802 0.279973
0.734157 0.71873 0.299535
0.779049 0.649775 0.399512
0.824369 0.632685 0.403067
0.0167086 0.201312 0.294911
0.0333715 0.22388 0.330327
0.0963302 0.2533 0.375845
0.32723 0.28275 0.382971
0.474922 0.289464 0.364202
0.583078 0.280461 0.340932
0.672129 0.31313 0.315679
0.773037 0.420066 0.308888
0.844862 0.455543 0.256519
0.0219883 0.225055 0.301991
0.036347 0.250324 0.335897
0.0868086 0.279438 0.384176
0.323308 0.309606 0.39707
0.465171 0.320684 0.377951
0.575784 0.308934 0.341863
0.683268 0.380072 0.325734
0.783703 0.423026 0.284138
0.85304 0.452125 0.216373
0.0274052 0.263539 0.31635
0.0384222 0.287602 0.345647
0.0777142 0.315999 0.387091
0.307897 0.355276 0.420035
0.455848 0.366705 0.389441
0.588113 0.390875 0.350637
0.709285 0.4103 0.303365
0.801907 0.426947 0.242908
0.866148 0.448615 0.151781
0.0328069 0.32607 0.33666
0.0415961 0.348547 0.357168
0.0682383 0.386191 0.389075
0.29308 0.423407 0.398199
0.502297 0.397284 0.33608
0.639567 0.397498 0.287999
0.747341 0.409537 0.238209
0.82652 0.430655 0.169574
0.871534 0.460548 0.127245
0.0370947 0.396078 0.334478
0.044419 0.407141 0.328588
0.0884565 0.425422 0.301549
0.299626 0.45005 0.31313
0.509789 0.406577 0.302907
0.699184 0.39028 0.179706
0.791897 0.413809 0.131106
0.84625 0.442786 0.107317
0.874693 0.481697 0.11519
0.0441901 0.414313 0.268116
0.0609903 0.43331 0.248981
0.174502 0.470619 0.24567
0.326223 0.479774 0.283131
0.507378 0.501305 0.263523
0.664805 0.428748 0.235904
0.795407 0.437995 0.115694
0.85864 0.462959 0.0895857
0.876341 0.50631 0.107744
0.0847028 0.480339 0.204929
0.151415 0.497871 0.204669
0.261036 0.506111 0.24004
0.36611 0.519478 0.25626
0.506447 0.55697 0.233524
0.656886 0.538079 0.212009
0.775387 0.467567 0.163027
0.845991 0.492729 0.106706
0.874876 0.533501 0.120134
0.209033 0.54255 0.205051
0.264561 0.546929 0.221286
0.339239 0.556435 0.239582
0.421973 0.573816 0.238117
0.524453 0.604486 0.217823
0.666346 0.644663 0.179644
0.746273 0.58793 0.227604
0.81709 0.545007 0.240314
0.851408 0.576913 0.253681
0.338048 0.602777 0.235416
0.374029 0.609689 0.238911
0.42472 0.622232 0.241825
0.478676 0.6392 0.250538
0.540658 0.659556 0.276097
0.640162 0.701732 0.290822
0.729793 0.728527 0.311559
0.776928 0.663493 0.404501
0.821073 0.640452 0.421683
0.0160067 0.242908 0.362524
0.0214084 0.25095 0.378759
0.0464637 0.286 0.435828
0.175372 0.313542 0.481132
0.434882 0.357244 0.481376
0.582437 0.378149 0.47657
0.658061 0.408423 0.495827
0.729885 0.435447 0.49839
0.786816 0.541985 0.54052
0.0158846 0.258991 0.364706
0.0296025 0.281895 0.395132
0.0463722 0.30602 0.43769
0.1673 0.341833 0.494057
0.429801 0.381109 0.499641
0.573571 0.409842 0.497871
0.653346 0.43563 0.510719
0.728923 0.459709 0.503578
0.787213 0.577554 0.54667
0.0169528 0.280842 0.369894
0.0339361 0.315923 0.410986
0.0483711 0.342428 0.450065
0.157107 0.37995 0.512779
0.424781 0.420539 0.529335
0.562371 0.457557 0.527413
0.650004 0.473594 0.524742
0.730114 0.537392 0.531563
0.795911 0.583703 0.518166
0.0258335 0.330541 0.396368
0.0370947 0.357687 0.427482
0.0509194 0.386923 0.465736
0.144335 0.422019 0.516274
0.418631 0.480095 0.565881
0.554345 0.5131 0.551766
0.656657 0.54377 0.536522
0.747494 0.565805 0.505821
0.814908 0.567391 0.442664
0.033753 0.401984 0.430045
0.0416266 0.423423 0.450965
0.0534218 0.456794 0.48513
0.12874 0.503212 0.531319
0.406989 0.552468 0.561837
0.58996 0.546471 0.510979
0.701274 0.547417 0.469184
0.781582 0.548363 0.414557
0.838941 0.54609 0.338216
0.0392767 0.478691 0.44448
0.0457465 0.499474 0.456992
0.0567178 0.525795 0.468727
0.153552 0.541283 0.453132
0.405997 0.567452 0.465522
0.591516 0.559014 0.475776
0.751568 0.528176 0.355917
0.817624 0.534142 0.302251
0.857053 0.542992 0.249119
0.0458991 0.538277 0.431983
0.0525673 0.533013 0.414939
0.0930037 0.537713 0.393622
0.261418 0.57557 0.379294
0.434226 0.590951 0.415076
0.603372 0.633417 0.40177
0.71548 0.56878 0.417716
0.814878 0.553674 0.300053
0.86949 0.550591 0.163439
0.0636301 0.552621 0.381491
0.0969711 0.559823 0.360922
0.203876 0.585885 0.337423
0.366155 0.608484 0.360967
0.469551 0.621881 0.374487
0.601846 0.667369 0.361028
0.714656 0.64918 0.355657
0.797711 0.579629 0.338918
0.847181 0.589166 0.286091
0.173877 0.610178 0.337575
0.246815 0.625757 0.327474
0.352422 0.638636 0.33695
0.439353 0.648859 0.351278
0.516014 0.666316 0.346059
0.615076 0.701473 0.34342
0.717723 0.739406 0.340444
0.774151 0.681224 0.409171
0.816983 0.650614 0.446693
0.0159304 0.289326 0.431525
0.0159457 0.289158 0.436866
0.0360571 0.317205 0.479103
0.0926375 0.354116 0.538201
0.304662 0.377172 0.575875
0.530129 0.435523 0.601984
0.648737 0.486122 0.63064
0.706081 0.546441 0.663172
0.752056 0.600763 0.685603
0.0159457 0.302708 0.434272
0.016434 0.302708 0.438346
0.038529 0.340337 0.490242
0.0834516 0.368536 0.541176
0.290791 0.400854 0.592828
0.528511 0.457206 0.622721
0.646937 0.509926 0.644938
0.703487 0.565133 0.668666
0.752026 0.610178 0.68365
0.0160983 0.322332 0.440848
0.023331 0.335302 0.457435
0.0415656 0.369116 0.502739
0.0795148 0.395804 0.549172
0.278614 0.440604 0.61941
0.525475 0.492393 0.651896
0.644495 0.546868 0.663844
0.700603 0.592493 0.676326
0.753246 0.625666 0.681056
0.0162051 0.347433 0.448508
0.0297856 0.375708 0.481086
0.0442512 0.405905 0.520409
0.0759136 0.433524 0.563546
0.265492 0.485863 0.640269
0.51989 0.541543 0.679561
0.639109 0.592538 0.679606
0.699138 0.620752 0.677592
0.756146 0.655421 0.682216
0.0231937 0.395758 0.474708
0.0354772 0.426642 0.509056
0.0474403 0.454429 0.544198
0.0773327 0.486793 0.588479
0.239551 0.527459 0.643091
0.522179 0.603372 0.698085
0.63653 0.635233 0.684367
0.703822 0.657038 0.67509
0.767788 0.675151 0.661936
0.0343786 0.476738 0.524147
0.0415656 0.496056 0.543496
0.0521096 0.523873 0.573312
0.0740215 0.560296 0.615122
0.224643 0.604242 0.660563
0.510597 0.653925 0.686595
0.657374 0.65864 0.651408
0.736263 0.660578 0.625483
0.794812 0.656153 0.576516
0.0410773 0.554253 0.554299
0.0468452 0.570733 0.567437
0.055787 0.596979 0.588876
0.0719158 0.631693 0.614694
0.235492 0.653605 0.619501
0.49427 0.663218 0.613687
0.654124 0.670665 0.63154
0.766018 0.652262 0.548974
0.81857 0.641596 0.481132
0.0471504 0.638666 0.584619
0.0526894 0.651438 0.592935
0.0615854 0.660471 0.594446
0.117144 0.647135 0.561746
0.324605 0.652979 0.53431
0.511147 0.670283 0.549599
0.661753 0.719265 0.550195
0.743084 0.675883 0.582544
0.815381 0.655482 0.480827
0.0587015 0.689219 0.594858
0.0643473 0.675181 0.570809
0.105348 0.657191 0.535409
0.235431 0.657755 0.498344
0.428824 0.682002 0.49366
0.540337 0.694713 0.495537
0.663676 0.746288 0.502281
0.747814 0.733227 0.507866
0.804715 0.676707 0.513649
0.0163119 0.338781 0.498054
0.0163119 0.337469 0.500389
0.0251316 0.350744 0.521553
0.0525826 0.382086 0.571099
0.190082 0.430747 0.64947
0.419593 0.462531 0.694392
0.612146 0.526955 0.742092
0.710369 0.590448 0.761135
0.749737 0.66154 0.779416
0.0163729 0.349584 0.500771
0.0163729 0.348135 0.502297
0.0278172 0.3691 0.531746
0.0525063 0.400519 0.581552
0.180789 0.447715 0.661707
0.410651 0.482719 0.70605
0.607462 0.544701 0.749813
0.707851 0.605356 0.763043
0.747799 0.670558 0.77937
0.0164034 0.366934 0.507698
0.0164187 0.36611 0.509041
0.0319066 0.393851 0.545373
0.0528878 0.426184 0.595178
0.173571 0.467109 0.662791
0.403174 0.515663 0.724041
0.603723 0.575204 0.757626
0.704997 0.629831 0.768109
0.74638 0.684855 0.78085
0.0164645 0.388769 0.515572
0.0166476 0.38941 0.518074
0.0358282 0.425605 0.563806
0.0527962 0.451728 0.603723
0.161944 0.49453 0.667628
0.398245 0.554192 0.739544
0.601785 0.612543 0.765164
0.701717 0.659251 0.7729
0.745312 0.700984 0.780835
0.0165866 0.418967 0.529137
0.0193637 0.423743 0.535561
0.0396887 0.46743 0.588617
0.0543832 0.492393 0.625025
0.133837 0.521904 0.670115
0.388235 0.589914 0.744366
0.605478 0.653056 0.773632
0.699199 0.690761 0.776135
0.745251 0.717433 0.776547
0.0193942 0.463981 0.554421
0.0328069 0.496406 0.590463
0.0446937 0.523079 0.62211
0.0578775 0.547768 0.655711
0.125292 0.572488 0.691371
0.345205 0.61268 0.737087
0.609186 0.691615 0.778485
0.69955 0.719844 0.772763
0.747478 0.74078 0.767636
0.034699 0.55407 0.620295
0.0415351 0.568917 0.63595
0.0511482 0.589136 0.658503
0.0631876 0.613993 0.687282
0.133532 0.641993 0.719554
0.340124 0.677501 0.75108
0.604898 0.737118 0.775937
0.714946 0.740612 0.749691
0.76376 0.742229 0.73312
0.0431067 0.628305 0.66392
0.0482185 0.638148 0.672251
0.0560616 0.65391 0.685893
0.0656748 0.676036 0.703304
0.103227 0.70425 0.719844
0.326024 0.727886 0.724254
0.571557 0.733745 0.714107
0.711391 0.749538 0.730114
0.778378 0.744625 0.69163
0.0474403 0.698604 0.69865
0.0521706 0.707698 0.702251
0.0597238 0.723445 0.709163
0.06981 0.740826 0.714595
0.152056 0.738384 0.694148
0.393194 0.730312 0.649912
0.578134 0.736934 0.64918
0.71725 0.789425 0.664271
0.766247 0.756985 0.70106
0.0167544 0.393729 0.569467
0.0167544 0.391791 0.569879
0.0167697 0.38996 0.571206
0.0474708 0.43711 0.637858
0.121187 0.469429 0.688869
0.319509 0.523934 0.769833
0.515084 0.570596 0.801724
0.667079 0.627375 0.828977
0.752621 0.685695 0.850797
0.0167391 0.402319 0.571893
0.0167544 0.400381 0.572091
0.0171206 0.4 0.575082
0.0474708 0.449683 0.644114
0.115373 0.480415 0.690974
0.314549 0.535729 0.771847
0.514382 0.583734 0.804593
0.666239 0.638636 0.829236
0.751522 0.692912 0.849302
0.0167697 0.41529 0.576043
0.0167697 0.413352 0.576013
0.0195163 0.415717 0.582193
0.0468299 0.464805 0.649577
0.102968 0.498482 0.699245
0.309407 0.553429 0.775128
0.515435 0.60354 0.809018
0.666453 0.654887 0.829847
0.749828 0.704601 0.847913
0.0168765 0.436286 0.58645
0.0168765 0.433814 0.585489
0.018143 0.433509 0.588403
0.0449989 0.480385 0.651972
0.0847486 0.517464 0.705425
0.299977 0.572305 0.774334
0.5196 0.63003 0.815839
0.670939 0.680201 0.834028
0.749538 0.722896 0.848966
0.0170901 0.462455 0.599252
0.0170748 0.461555 0.599619
0.0237583 0.471885 0.614679
0.0442969 0.507042 0.662684
0.0635233 0.531563 0.701442
0.271031 0.585855 0.76733
0.513146 0.650462 0.816602
0.673716 0.703792 0.835584
0.748287 0.741588 0.847532
0.0176547 0.498833 0.621393
0.0176394 0.498527 0.621927
0.033814 0.532311 0.662684
0.0488594 0.555947 0.694148
0.0632792 0.569986 0.719203
0.20354 0.593744 0.754116
0.499504 0.66952 0.814404
0.679591 0.731731 0.839048
0.747784 0.764431 0.846708
0.0187381 0.543847 0.650401
0.0288396 0.566018 0.675029
0.042298 0.59173 0.704356
0.0543221 0.607813 0.724834
0.0684215 0.620966 0.745037
0.193118 0.63624 0.76788
0.444755 0.67599 0.801282
0.682811 0.761303 0.841001
0.747753 0.787274 0.841581
0.0357214 0.627832 0.71574
0.0419013 0.636927 0.724651
0.0504311 0.648417 0.736675
0.0605631 0.661982 0.75169
0.0753796 0.67837 0.770596
0.217609 0.69926 0.790158
0.445502 0.735225 0.811063
0.675593 0.792615 0.835935
0.757321 0.804654 0.822507
0.0447242 0.69543 0.760388
0.0489815 0.700465 0.763622
0.0557717 0.709468 0.770047
0.064271 0.722057 0.77821
0.0746471 0.738796 0.786603
0.175692 0.763607 0.79501
0.415534 0.788907 0.790204
0.636179 0.796338 0.778943
0.755673 0.810208 0.803494
0.0172885 0.459266 0.658366
0.0172732 0.458244 0.658457
0.0191501 0.460838 0.66305
0.0503395 0.515892 0.735439
0.0952316 0.5458 0.7729
0.275776 0.585367 0.824353
0.468788 0.630243 0.863691
0.620813 0.67425 0.876295
0.723918 0.71519 0.893141
0.0172885 0.463478 0.65742
0.0172885 0.462287 0.657435
0.0178836 0.465064 0.662364
0.0487373 0.520394 0.735073
0.0827344 0.550713 0.773159
0.270497 0.589471 0.821866
0.466423 0.636088 0.863142
0.621042 0.680232 0.876616
0.724392 0.720974 0.892607
0.0173648 0.47422 0.661677
0.0173648 0.47245 0.661204
0.0173495 0.471275 0.661646
0.045304 0.52398 0.730846
0.0716564 0.555611 0.771344
0.261082 0.595941 0.818784
0.462257 0.643351 0.86125
0.621881 0.689586 0.877363
0.725444 0.730114 0.892256
0.0175784 0.491875 0.670802
0.0175479 0.488777 0.669276
0.0175021 0.485145 0.667414
0.0394293 0.526818 0.722332
0.0643473 0.561639 0.767987
0.240513 0.603174 0.814923
0.454078 0.651926 0.858396
0.622553 0.701366 0.878508
0.727642 0.743435 0.892912
0.0180362 0.516503 0.685145
0.0179904 0.514549 0.684459
0.0179141 0.510597 0.682399
0.0303044 0.530541 0.711345
0.0570535 0.566186 0.759564
0.185275 0.605081 0.805859
0.436973 0.659098 0.853269
0.620264 0.713939 0.879194
0.729809 0.758144 0.893126
0.0188754 0.549615 0.707485
0.0188144 0.54786 0.706493
0.0187381 0.545007 0.704982
0.0375677 0.57734 0.746471
0.0526284 0.587106 0.764706
0.0915541 0.603693 0.790967
0.396521 0.662226 0.845335
0.612696 0.725017 0.877577
0.733074 0.776577 0.893751
0.0200656 0.586419 0.73138
0.0200351 0.585519 0.731014
0.027451 0.599344 0.747662
0.0450752 0.62327 0.776776
0.057557 0.62916 0.788052
0.0729686 0.632425 0.799405
0.282734 0.65243 0.825788
0.593561 0.734127 0.872938
0.736446 0.798001 0.893446
0.0216068 0.631388 0.762554
0.0289311 0.644343 0.776562
0.0420996 0.662089 0.795468
0.0524605 0.669245 0.804028
0.0631571 0.673228 0.810758
0.0845655 0.677897 0.819379
0.274205 0.689754 0.833768
0.531655 0.733135 0.859937
0.741772 0.823407 0.89514
0.0387579 0.698924 0.810925
0.0436103 0.703105 0.814252
0.0506294 0.708553 0.818616
0.0591897 0.714488 0.823835
0.0687114 0.722164 0.830457
0.110811 0.732662 0.839155
0.301396 0.751369 0.851377
0.526375 0.786099 0.864378
0.734508 0.845853 0.886137
