luts/Our Home_Green Sequence.cube
TITLE "Generated by Resolve"
LUT_3D_SIZE 33
0 0 0
0.0604105 0 0
0.0951095 0 0
0.129473 0 0
0.161318 0 0
0.193698 0 0
0.230442 0 0
0.27219 0 0
0.319875 0 0
0.37705 0 0
0.447227 0 0
0.526146 0 0
0.609064 0 0
0.692164 0 0
0.774517 0 0
0.85594 0 0
0.936156 0 0
1 0 0.00549325
1 0 0.0358434
1 0 0.059144
1 0 0.0785077
1 0 0.0958877
1 0 0.110857
1 0 0.12224
1 0 0.130541
1 0 0.136568
1 0 0.140414
1 0 0.14316
1 0 0.14464
1 0 0.14548
1 0 0.146105
1 0 0.146929
1 0 0.148592
0 0.034287 0
0.0116426 0.0258335 0
0.0675517 0.0126497 0
0.109712 0.00520333 0
0.146487 7.62951e-05 0
0.181933 0 0
0.221286 0 0
0.265263 0 0
0.315007 0 0
0.374304 0 0
0.446113 0 0
0.525292 0 0
0.608469 0 0
0.6916 0 0
0.77409 0 0
0.85565 0 0
0.935912 0 0
1 0 0
1 0 0.0310063
1 0 0.0556039
1 0 0.0755322
1 0 0.0932937
1 0 0.108583
1 0 0.120027
1 0 0.128573
1 0 0.134646
1 0 0.138705
1 0 0.141268
1 0 0.142748
1 0 0.143587
1 0 0.144427
1 0 0.145266
1 0 0.146715
0 0.0576791 0
0 0.0550698 0
0.0231022 0.0460517 0
0.07776 0.0346075 0
0.123445 0.0262913 0
0.164385 0.0199741 0
0.207233 0.0140078 0
0.253697 0.00802625 0
0.305287 0.00120546 0
0.36614 0 0
0.440162 0 0
0.522789 0 0
0.607752 0 0
0.69102 0 0
0.773648 0 0
0.855253 0 0
0.935683 0 0
1 0 0
1 0 0.0256504
1 0 0.0517128
1 0 0.0722667
1 0 0.0904402
1 0 0.106081
1 0 0.1178
1 0 0.126177
1 0 0.132265
1 0 0.136568
1 0 0.139132
1 0 0.140612
1 0 0.141466
1 0 0.142306
1 0 0.143145
1 0 0.14461
0 0.0821393 0
0 0.0813764 0
0 0.0760815 0
0.0364996 0.0677958 0
0.0912947 0.0572976 0
0.140185 0.0485695 0
0.188418 0.0407874 0
0.238712 0.0334783 0
0.293126 0.0256657 0
0.356023 0.0164797 0
0.431739 0.0043946 0
0.515724 0 0
0.603586 0 0
0.69044 0 0
0.773098 0 0
0.854841 0 0
0.935439 0 0
1 0 0
1 0 0.0192111
1 0 0.046891
1 0 0.068452
1 0 0.0870985
1 0 0.103105
1 0 0.1149
1 0 0.123552
1 0 0.129885
1 0 0.133989
1 0 0.136568
1 0 0.138293
1 0 0.139132
1 0 0.139986
1 0 0.140826
1 0 0.14229
0 0.107393 0
0 0.107027 0
0 0.104234 0
0.00175479 0.0987411 0
0.0532235 0.0906386 0
0.109148 0.0806897 0
0.164218 0.0712902 0
0.219562 0.0625315 0
0.277531 0.0538491 0
0.343206 0.044007 0
0.421118 0.0314488 0
0.506905 0.0155032 0
0.596124 0 0
0.684718 0 0
0.772351 0 0
0.854429 0 0
0.935073 0 0
1 0 0
1 0 0.0104219
1 0 0.0410468
1 0 0.0640726
1 0 0.0832227
1 0 0.0993973
1 0 0.111757
1 0 0.12047
1 0 0.126864
1 0 0.131197
1 0 0.133791
1 0 0.135515
1 0 0.13637
1 0 0.137011
1 0 0.138064
1 0 0.139544
0 0.133654 0
0 0.133318 0
0 0.132357 0
0 0.128542 0
0.0155032 0.123323 0
0.0731975 0.114443 0
0.134112 0.104311 0
0.19527 0.0945602 0
0.257877 0.0849775 0
0.327001 0.0749218 0
0.407538 0.0628672 0
0.494911 0.0485542 0
0.585473 0.0306401 0
0.675624 0.00813306 0
0.76434 0 0
0.851957 0 0
0.934493 0 0
1 0 0
1 0 0
1 0 0.0327764
1 0 0.0577249
1 0 0.077821
1 0 0.094728
1 0 0.10724
1 0 0.116258
1 0 0.122896
1 0 0.127062
1 0 0.1299
1 0 0.13164
1 0 0.132494
1 0 0.133349
1 0 0.134203
1 0 0.135927
0 0.163699 0
0 0.16347 0
0 0.163226 0
0 0.161364 0
0 0.157351 0
0.0319219 0.151522 0
0.0961318 0.142199 0
0.163333 0.131746 0
0.231739 0.121263 0
0.305806 0.110414 0
0.390143 0.0984207 0
0.480064 0.0849775 0
0.571862 0.0698405 0
0.662608 0.0518959 0
0.752102 0.0299992 0
0.840879 0.00189212 0
0.928344 0 0
1 0 0
1 0 0
1 0 0.0193179
1 0 0.0475471
1 0 0.0695201
1 0 0.0873274
1 0 0.100557
1 0 0.109957
1 0 0.116701
1 0 0.121141
1 0 0.12401
1 0 0.125765
1 0 0.126848
1 0 0.127504
1 0 0.128588
1 0 0.130098
0 0.198291 0
0 0.198062 0
0 0.197818 0
0 0.197604 0
0 0.1953 0
0 0.190723 0
0.0515908 0.184237 0
0.123079 0.174365 0
0.197589 0.163363 0
0.277913 0.151705 0
0.367514 0.139101 0
0.461112 0.125978 0
0.555398 0.112093 0
0.647288 0.0971237 0
0.737331 0.0799115 0
0.826169 0.0594492 0
0.913481 0.0346075 0
0.999786 0.00257877 0
1 0 0
1 0 0
1 0 0.0312657
1 0 0.0564279
1 0 0.0758373
1 0 0.0899825
1 0 0.100328
1 0 0.107469
1 0 0.112215
1 0 0.115145
1 0 0.11693
1 0 0.118044
1 0 0.118929
1 0 0.119814
1 0 0.121569
0 0.237903 0
0 0.23769 0
0 0.237568 0
0 0.237339 0
0 0.23711 0
0 0.234577 0
0.00224308 0.229175 0
0.0749065 0.221836 0
0.154803 0.211353 0
0.241642 0.199268 0
0.337942 0.185931 0
0.436805 0.172488 0
0.534569 0.159106 0
0.62884 0.145434 0
0.720287 0.130922 0
0.809491 0.114946 0
0.897322 0.0962234 0
0.9832 0.0746624 0
1 0.049073 0
1 0.0172122 0
1 0 0
1 0 0.024979
1 0 0.0572366
1 0 0.0733349
1 0 0.0846723
1 0 0.0925917
1 0 0.0977646
1 0 0.101244
1 0 0.103105
1 0 0.10425
1 0 0.105165
1 0 0.106294
1 0 0.108125
0 0.285573 0
0 0.285451 0
0 0.285344 0
0 0.285237 0
0 0.285008 0
0 0.284779 0
0 0.282124 0
0.0144808 0.276417 0
0.0994125 0.26804 0
0.193545 0.256199 0
0.297749 0.242481 0
0.403555 0.228534 0
0.506554 0.214984 0
0.604456 0.201968 0
0.698329 0.188754 0
0.789181 0.175036 0
0.877607 0.160418 0
0.963989 0.143969 0
1 0.125521 0
1 0.10486 0
1 0.0821393 0
1 0.0612192 0
1 0.0425422 0
1 0.0250401 0
1 0.00877394 0.00340276
1 0 0.0257267
1 0 0.0386358
1 0 0.0466468
1 0 0.051194
1 0 0.0537575
1 0 0.0560159
1 0 0.0585641
1 0 0.0628672
0 0.344503 0
0 0.344396 0
0 0.344289 0
0 0.344167 0
0 0.34406 0
0 0.343847 0
0 0.343633 0
0 0.341222 0
0.0250858 0.334966 0
0.128634 0.325307 0
0.242329 0.311849 0
0.357092 0.297459 0
0.467338 0.283543 0
0.570626 0.27042 0
0.668421 0.257847 0
0.762173 0.24538 0
0.85272 0.232471 0
0.940185 0.219196 0
1 0.205234 0
1 0.190005 0
1 0.173724 0
1 0.160143 0
1 0.149737 0
1 0.140856 0
1 0.133532 0
1 0.127977 0
1 0.123995 0
1 0.121355 0
1 0.119768 0
1 0.118807 0
1 0.11809 0
1 0.117128 0
1 0.115434 0
0 0.410712 0
0 0.410712 0
0 0.410605 0
0 0.410498 0
0 0.410391 0
0 0.410285 0
0 0.410056 0
0 0.409842 0
0 0.407553 0
0.0457465 0.400305 0
0.173159 0.388693 0
0.298253 0.374533 0
0.417288 0.360296 0
0.527428 0.34699 0
0.630335 0.334447 0
0.728252 0.322255 0
0.821714 0.310307 0
0.911589 0.298436 0
0.998093 0.28629 0
1 0.273762 0
1 0.261402 0
1 0.25156 0
1 0.244968 0
1 0.239109 0
1 0.234348 0
1 0.230808 0
1 0.228351 0
1 0.226642 0
1 0.22565 0
1 0.22504 0
1 0.224659 0
1 0.224048 0
1 0.223056 0
0 0.480568 0
0 0.480461 0
0 0.480461 0
0 0.480354 0
0 0.480232 0
0 0.480125 0
0 0.480018 0
0 0.479805 0
0 0.479484 0
0 0.476112 0
0.0890364 0.467658 0
0.229129 0.454765 0
0.358175 0.440711 0
0.476143 0.427176 0
0.58529 0.414466 0
0.688106 0.40235 0
0.78555 0.390677 0
0.878416 0.379294 0
0.96733 0.368048 0
1 0.356847 0
1 0.345876 0
1 0.337362 0
1 0.332708 0
1 0.328847 0
1 0.325872 0
1 0.323552 0
1 0.321996 0
1 0.320897 0
1 0.320348 0
1 0.319905 0
1 0.319677 0
1 0.319234 0
1 0.318578 0
0 0.550423 0
0 0.550317 0
0 0.550317 0
0 0.55021 0
0 0.55021 0
0 0.550103 0
0 0.549996 0
0 0.549783 0
0 0.549569 0
0 0.549142 0
0 0.542931 0
0.149645 0.5337 0
0.292287 0.520485 0
0.419135 0.507088 0
0.535134 0.494209 0
0.64332 0.482033 0
0.745083 0.470405 0
0.841611 0.45922 0
0.933547 0.448341 0
1 0.43769 0
1 0.427558 0
1 0.419318 0
1 0.415778 0
1 0.412787 0
1 0.410468 0
1 0.408682 0
1 0.407477 0
1 0.406699 0
1 0.406149 0
1 0.405921 0
1 0.405692 0
1 0.405356 0
1 0.404913 0
0 0.619638 0
0 0.619638 0
0 0.619532 0
0 0.619532 0
0 0.619425 0
0 0.619425 0
0 0.619318 0
0 0.619104 0
0 0.618906 0
0 0.618585 0
0 0.618067 0
0.0517739 0.61033 0
0.218021 0.598566 0
0.356359 0.585641 0
0.480125 0.572931 0
0.5944 0.560586 0
0.701106 0.548913 0
0.801572 0.537789 0
0.896605 0.527016 0
0.98677 0.516609 0
1 0.506905 0
1 0.498817 0
1 0.495552 0
1 0.493233 0
1 0.491341 0
1 0.489906 0
1 0.488899 0
1 0.488243 0
1 0.487892 0
1 0.487678 0
1 0.487449 0
1 0.487236 0
1 0.4869 0
0 0.688167 0
0 0.688167 0
0 0.688167 0
0 0.68806 0
0 0.68806 0
0 0.687953 0
0 0.687953 0
0 0.687739 0
0 0.687648 0
0 0.687327 0
0 0.686915 0
0 0.684077 0
0.13048 0.674815 0
0.286778 0.662669 0
0.42034 0.650278 0
0.541299 0.63801 0
0.653361 0.626368 0
0.758236 0.615106 0
0.856809 0.604395 0
0.94992 0.594171 0
1 0.584588 0
1 0.576745 0
1 0.573159 0
1 0.571176 0
1 0.569619 0
1 0.568399 0
1 0.56762 0
1 0.567056 0
1 0.566735 0
1 0.566506 0
1 0.5664 0
1 0.566171 0
1 0.565942 0
0 0.755749 0
0 0.755764 0
0 0.755749 0
0 0.755749 0
0 0.755642 0
0 0.755642 0
0 0.755535 0
0 0.755444 0
0 0.75523 0
0 0.755016 0
0 0.754604 0
0 0.754086 0
0.0161746 0.748058 0
0.207019 0.738018 0
0.35465 0.725978 0
0.484138 0.71397 0
0.602258 0.702312 0
0.711742 0.691142 0
0.814328 0.680369 0
0.910613 0.670192 0
0.998688 0.66067 0
1 0.652827 0
1 0.64863 0
1 0.646967 0
1 0.64564 0
1 0.644648 0
1 0.643977 0
1 0.643534 0
1 0.643198 0
1 0.643091 0
1 0.642969 0
1 0.642756 0
1 0.642527 0
0 0.822126 0
0 0.822126 0
0 0.822126 0
0 0.82211 0
0 0.822019 0
0 0.822019 0
0 0.821912 0
0 0.821805 0
0 0.821698 0
0 0.821485 0
0 0.82118 0
0 0.820661 0
0 0.819944 0
0.109911 0.811124 0
0.281285 0.799863 0
0.422156 0.788159 0
0.547539 0.776623 0
0.662394 0.765469 0
0.769223 0.754726 0
0.868955 0.744457 0
0.959838 0.735042 0
1 0.72726 0
1 0.721996 0
1 0.720562 0
1 0.719448 0
1 0.718563 0
1 0.718013 0
1 0.717571 0
1 0.717342 0
1 0.717235 0
1 0.717128 0
1 0.717006 0
1 0.71667 0
0 0.886976 0
0 0.886976 0
0 0.886976 0
0 0.886885 0
0 0.88687 0
0 0.88687 0
0 0.886778 0
0 0.886671 0
0 0.886564 0
0 0.886351 0
0 0.886046 0
0 0.885634 0
0 0.885008 0
0 0.879347 0
0.196414 0.871489 0
0.354238 0.860243 0
0.489006 0.848829 0
0.610285 0.837766 0
0.721782 0.827161 0
0.825284 0.816861 0
0.919188 0.807416 0
0.994659 0.799725 0
1 0.793622 0
1 0.791882 0
1 0.79089 0
1 0.790112 0
1 0.78967 0
1 0.789334 0
1 0.78912 0
1 0.789014 0
1 0.788891 0
1 0.788785 0
1 0.788556 0
0 0.950057 0
0 0.94995 0
0 0.94995 0
0 0.94995 0
0 0.94995 0
0 0.949859 0
0 0.949844 0
0 0.949752 0
0 0.949645 0
0 0.949538 0
0 0.949233 0
0 0.948821 0
0 0.948302 0
0 0.947585 0
0.0909285 0.940444 0
0.27837 0.929915 0
0.426078 0.918807 0
0.555108 0.907912 0
0.672023 0.897307 0
0.779828 0.887037 0
0.877012 0.877607 0
0.954818 0.869841 0
1 0.863798 0
1 0.860792 0
1 0.859907 0
1 0.859251 0
1 0.858701 0
1 0.858473 0
1 0.858259 0
1 0.858137 0
1 0.85803 0
1 0.857908 0
1 0.857801 0
0 1 0
0 1 0
0 1 0
0 1 0
0 1 0
0 1 0
0 1 0
0 1 0
0 1 0
0 1 0
0 1 0
0 1 0
0 1 0
0 1 0
0 1 0
0.193011 0.995117 0
0.359609 0.984298 0
0.498512 0.973419 0
0.621744 0.962966 0
0.73402 0.952819 0
0.834623 0.943343 0
0.914977 0.935653 0
0.977493 0.929595 0
1 0.925078 0
1 0.924208 0
1 0.923659 0
1 0.923217 0
1 0.923003 0
1 0.922774 0
1 0.922667 0
1 0.922667 0
1 0.922545 0
1 0.922332 0
0 1 0
0 1 0
0 1 0
0 1 0
0 1 0
0 1 0
0 1 0
0 1 0
0 1 0
0 1 0
0 1 0
0 1 0
0 1 0
0 1 0
0 1 0
0.105013 1 0
0.297322 1 0
0.447257 1 0
0.576974 1 0
0.693782 1 0
0.797574 0.997589 0
0.880186 0.989914 0
0.94432 0.983764 0
0.993133 0.979141 0
1 0.977142 0
1 0.976593 0
1 0.976165 0
1 0.975937 0
1 0.97583 0
1 0.975723 0
1 0.975616 0
1 0.975601 0
1 0.975387 0
0 1 0
0 1 0
0 1 0
0 1 0
0 1 0
0 1 0
0 1 0
0 1 0
0 1 0
0 1 0
0 1 0
0 1 0
0 1 0
0 1 0
0 1 0
0.0140841 1 0
0.240955 1 0
0.402686 1 0
0.538964 1 0
0.659815 1 0
0.766613 1 0
0.851041 1 0
0.916655 1 0
0.966552 1 0
0.998199 1 0
0.998337 1 0
0.998413 1 0
0.998474 1 0
0.998489 1 0
0.998535 1 0
0.99852 1 0
0.99855 1 0
0.998611 1 0
0 1 0
0 1 0
0 1 0
0 1 0
0 1 0
0 1 0
0 1 0
0 1 0
0 1 0
0 1 0
0 1 0
0 1 0
0 1 0
0 1 0
0 1 0
0 1 0
0.19617 1 0
0.371557 1 0
0.514321 1 0
0.6392 1 0
0.74847 1 0
0.834531 1 0
0.900954 1 0
0.951537 1 0
0.98883 1 0
0.996094 1 0
0.996109 1 0
0.996094 1 0
0.996094 1 0
0.996094 1 0
0.996094 1 0
0.996094 1 0
0.996078 1 0
0 1 0
0 1 0
0 1 0
0 1 0
0 1 0
0 1 0
0 1 0
0 1 0
0 1 0
0 1 0
0 1 0
0 1 0
0 1 0
0 1 0
0 1 0
0 1 0
0.157107 1 0
0.345785 1 0
0.494514 1 0
0.623102 1 0
0.734829 1 0
0.822324 1 0
0.889815 1 0
0.941085 1 0
0.978912 1 0
0.996109 1 0
0.996109 1 0
0.996094 1 0
0.996094 1 0
0.996109 1 0
0.996094 1 0
0.996094 1 0
0.996094 1 0
0 1 0
0 1 0
0 1 0
0 1 0
0 1 0
0 1 0
0 1 0
0 1 0
0 1 0
0 1 0
0 1 0
0 1 0
0 1 0
0 1 0
0 1 0
0 1 0
0.125338 1 0
0.325704 1 0
0.479561 1 0
0.610849 1 0
0.724498 1 0
0.813184 1 0
0.881468 1 0
0.933272 1 0
0.971511 1 0
0.996094 1 0
0.996094 1 0
0.996109 1 0
0.996109 1 0
0.996094 1 0
0.996094 1 0
0.996094 1 0
0.996094 1 0
0 1 0
0 1 0
0 1 0
0 1 0
0 1 0
0 1 0
0 1 0
0 1 0
0 1 0
0 1 0
0 1 0
0 1 0
0 1 0
0 1 0
0 1 0
0 1 0
0.101274 1 0
0.311238 1 0
0.468788 1 0
0.602167 1 0
0.71722 1 0
0.806821 1 0
0.875639 1 0
0.927703 1 0
0.966217 1 0
0.993591 1 0
0.996094 1 0
0.996094 1 0
0.996094 1 0
0.996109 1 0
0.996094 1 0
0.996094 1 0
0.996094 1 0
0 1 0
0 1 0
0 1 0
0 1 0
0 1 0
0 1 0
0 1 0
0 1 0
0 1 0
