luts/Our Home_Green Sequence.cube
TITLE "Generated by Resolve"
LUT_3D_SIZE 5
0 0 0
0.319875 0 0
0.936156 0 0
1 0 0.130541
1 0 0.148592
0 0.237903 0
0.154803 0.211353 0
0.897322 0.0962234 0
1 0 0.0846723
1 0 0.108125
0 0.755749 0
0 0.75523 0
0.602258 0.702312 0
1 0.64564 0
1 0.642527 0
0 1 0
0 1 0
0.157107 1 0
0.978912 1 0
0.996094 1 0
0 1 0
0 1 0
0.045243 1 0
0.955367 1 0
0.996094 1 0
0 0 0.487007
0.291691 0 0.442908
0.932082 0 0.328923
1 0 0.335988
1 0 0.342947
0 0.188083 0.319768
0.130556 0.158999 0.289525
0.904173 0.038117 0.264591
1 0 0.320745
1 0 0.32813
0 0.752026 0
0 0.751492 0
0.601633 0.698375 0
1 0.641337 0
1 0.638224 0
0 1 0
0 1 0
0.153445 1 0
0.977981 1 0
0.996094 1 0
0 1 0
0 1 0
0.0401312 1 0
0.954314 1 0
0.996094 1 0
0 0 1
0.0331731 0 1
0.889281 0 1
1 0 0.962554
1 0 0.963699
0 0 1
0 0 1
0.882353 0 1
1 0 0.959991
1 0 0.961273
0 0.660822 0.845182
0 0.660166 0.845655
0.555184 0.603235 0.805859
1 0.52459 0.764385
1 0.520806 0.767407
0 1 0.63946
0 1 0.639887
0.0236973 1 0.602869
0.934295 1 0.493736
0.969207 1 0.495644
0 1 0.619547
0 1 0.619821
0 1 0.601892
0.907591 1 0.474907
0.969528 1 0.477089
0 0 1
0 0 1
0.803342 0 1
1 0 1
1 0 1
0 0 1
0 0 1
0.795453 0 1
1 0 1
1 0 1
0 0.483391 1
0 0.482506 1
0.545953 0.42678 1
1 0.344259 1
1 0.338704 1
0 1 1
0 1 1
0 1 1
0.908827 0.949874 1
1 0.924147 1
0 1 1
0 1 1
0 1 1
0.796246 1 1
0.960739 0.999084 1
0 0 1
0 0 1
0.794141 0 1
1 0 1
1 0 1
0 0 1
0 0 1
0.78616 0 1
1 0 1
1 0 1
0 0.444053 1
0 0.443061 1
0.546304 0.386816 1
1 0.301411 1
1 0.29514 1
0 1 1
0 1 1
0 1 1
0.911254 0.929824 1
1 0.905989 1
0 1 1
0 1 1
0 1 1
0.789578 1 1
0.954879 0.994354 1
