luts/Our Home_Green Sequence.cube
TITLE "Generated by Resolve"
LUT_3D_SIZE 9
0 0 0
0.161318 0 0
0.319875 0 0
0.609064 0 0
0.936156 0 0
1 0 0.0785077
1 0 0.130541
1 0 0.14464
1 0 0.148592
0 0.107393 0
0.0532235 0.0906386 0
0.277531 0.0538491 0
0.596124 0 0
0.935073 0 0
1 0 0.0640726
1 0 0.12047
1 0 0.135515
1 0 0.139544
0 0.237903 0
0 0.23711 0
0.154803 0.211353 0
0.534569 0.159106 0
0.897322 0.0962234 0
1 0 0
1 0 0.0846723
1 0 0.103105
1 0 0.108125
0 0.480568 0
0 0.480232 0
0 0.479484 0
0.358175 0.440711 0
0.78555 0.390677 0
1 0.345876 0
1 0.325872 0
1 0.320348 0
1 0.318578 0
0 0.755749 0
0 0.755642 0
0 0.75523 0
0.0161746 0.748058 0
0.602258 0.702312 0
0.998688 0.66067 0
1 0.64564 0
1 0.643198 0
1 0.642527 0
0 1 0
0 1 0
0 1 0
0 1 0
0.359609 0.984298 0
0.834623 0.943343 0
1 0.924208 0
1 0.922774 0
1 0.922332 0
0 1 0
0 1 0
0 1 0
0 1 0
0.157107 1 0
0.734829 1 0
0.978912 1 0
0.996094 1 0
0.996094 1 0
0 1 0
0 1 0
0 1 0
0 1 0
0.0744335 1 0
0.709529 1 0
0.9608 1 0
0.996094 1 0
0.996094 1 0
0 1 0
0 1 0
0 1 0
0 1 0
0.045243 1 0
0.701854 1 0
0.955367 1 0
0.996094 1 0
0.996094 1 0
0 0 0.288029
0.142885 0 0.248142
0.314626 0 0.173465
0.604929 0 0.136141
0.932448 0 0.143206
1 0 0.170871
1 0 0.202289
1 0 0.211917
1 0 0.214755
0 0.0737926 0.152728
0.0406806 0.0546883 0.128023
0.285924 0.0191806 0.0903639
0.596719 0 0.10573
0.930953 0 0.131945
1 0 0.162799
1 0 0.195697
1 0 0.205585
1 0 0.208469
0 0.23032 0
0 0.229587 0
0.151568 0.203632 0
0.540413 0.14667 0
0.89958 0.0798199 0
1 0 0.121263
1 0 0.173297
1 0 0.184482
1 0 0.187625
0 0.478676 0
0 0.478355 0
0 0.477501 0
0.358022 0.438636 0
0.78587 0.388571 0
1 0.343404 0
1 0.320684 0
1 0.314275 0
1 0.312215 0
0 0.75494 0
0 0.754726 0
0 0.754406 0
0.0145724 0.747143 0
0.602045 0.701381 0
0.998734 0.659709 0
1 0.644556 0
1 0.642222 0
1 0.641443 0
0 1 0
0 1 0
0 1 0
0 1 0
0.359228 0.983703 0
0.834501 0.942809 0
1 0.923659 0
1 0.92224 0
1 0.921782 0
0 1 0
0 1 0
0 1 0
0 1 0
0.156283 1 0
0.734432 1 0
0.978653 1 0
0.996109 1 0
0.996094 1 0
0 1 0
0 1 0
0 1 0
0 1 0
0.0733196 1 0
0.70927 1 0
0.960525 1 0
0.996094 1 0
0.996094 1 0
0 1 0
0 1 0
0 1 0
0 1 0
0.0440681 1 0
0.701579 1 0
0.955108 1 0
0.996094 1 0
0.996094 1 0
0 0 0.487007
0.0804456 0 0.490745
0.291691 0 0.442908
0.601923 0 0.36347
0.932082 0 0.328923
1 0 0.321126
1 0 0.335988
1 0 0.341436
1 0 0.342947
0 0 0.474662
0.0351568 0 0.482444
0.279393 0 0.438621
0.598871 0 0.358968
0.930541 0 0.324559
1 0 0.317403
1 0 0.332418
1 0 0.337881
1 0 0.339391
0 0.188083 0.319768
0 0.187167 0.321202
0.130556 0.158999 0.289525
0.549813 0.102266 0.251942
0.904173 0.038117 0.264591
1 0 0.305119
1 0 0.320745
1 0 0.326589
1 0 0.32813
0 0.466072 0
0 0.465766 0
0 0.464622 0
0.34992 0.428046 0
0.793271 0.369894 0
1 0.318669 0.0537118
1 0.296071 0.0988785
1 0.289769 0.111223
1 0.287831 0.114961
0 0.752026 0
0 0.751904 0
0 0.751492 0
0.00936904 0.744305 0
0.601633 0.698375 0
0.998871 0.65655 0
1 0.641337 0
1 0.638895 0
1 0.638224 0
0 1 0
0 1 0
0 1 0
0 1 0
0.357687 0.98201 0
0.834241 0.940902 0
1 0.921691 0
1 0.920272 0
1 0.919814 0
0 1 0
0 1 0
0 1 0
0 1 0
0.153445 1 0
0.733501 1 0
0.977981 1 0
0.996094 1 0
0.996094 1 0
0 1 0
0 1 0
0 1 0
0 1 0
0.0696574 1 0
0.708202 1 0
0.959869 1 0
0.996094 1 0
0.996094 1 0
0 1 0
0 1 0
0 1 0
0 1 0
0.0401312 1 0
0.700526 1 0
0.954314 1 0
0.996094 1 0
0.996094 1 0
0 0 0.782589
0 0 0.782712
0.203861 0 0.786252
0.569955 0 0.730983
0.923812 0 0.668208
1 0 0.631739
1 0 0.634073
1 0 0.636118
1 0 0.636683
0 0 0.78146
0 0 0.781598
0.190845 0 0.785809
0.566415 0 0.730251
0.922286 0 0.667109
1 0 0.630549
1 0 0.632776
1 0 0.634806
1 0 0.635386
0 0 0.773419
0 0 0.77409
0.1411 0 0.782895
0.555215 0 0.72813
0.917327 0 0.663417
1 0 0.626535
1 0 0.628534
1 0 0.630579
1 0 0.631159
0 0.40763 0.581643
0 0.407263 0.581964
0 0.406226 0.582925
0.321233 0.364431 0.546517
0.817685 0.30074 0.506203
1 0.259037 0.502525
1 0.236347 0.513039
1 0.229618 0.517449
1 0.227634 0.518868
0 0.717235 0.380972
0 0.717006 0.381369
0 0.716579 0.38204
0 0.712261 0.353475
0.572442 0.664256 0.247852
1 0.610437 0.289525
1 0.593423 0.307408
1 0.590677 0.311299
1 0.589944 0.312383
0 0.985397 0.0993515
0 0.985367 0.0998093
0 0.985016 0.101274
0 0.983566 0.108461
0.317983 0.97055 0
0.820218 0.923903 0
1 0.900145 0
1 0.898009 0
1 0.897337 0
0 1 0
0 1 0
0 1 0
0 1 0
0.135622 1 0
0.724468 1 0
0.972061 1 0
0.993652 1 0
0.993591 1 0
0 1 0
0 1 0
0 1 0
0 1 0
0.0505074 1 0
0.703166 1 0
0.956298 1 0
0.996094 1 0
0.996094 1 0
0 1 0
0 1 0
0 1 0
0 1 0
0.0192874 1 0
0.695369 1 0
0.950744 1 0
0.996094 1 0
0.996109 1 0
0 0 1
0 0 1
0.0331731 0 1
0.498009 0 1
0.889281 0 1
1 0 0.965591
1 0 0.962554
1 0 0.963455
1 0 0.963699
0 0 1
0 0 1
0.00746166 0 1
0.493996 0 1
0.887556 0 1
1 0 0.965225
1 0 0.961929
1 0 0.962829
1 0 0.963073
0 0 1
0 0 1
0 0 1
0.481086 0 1
0.882353 0 1
1 0 0.963745
1 0 0.959991
1 0 0.960891
1 0 0.961273
0 0.271992 0.995026
0 0.271427 0.995178
0 0.269947 0.995819
0.317632 0.2309 1
0.816999 0.165393 0.97293
1 0.106157 0.921889
1 0.06392 0.922881
1 0.0491646 0.926482
1 0.0444648 0.927581
0 0.660822 0.845182
0 0.660594 0.84538
0 0.660166 0.845655
0 0.65774 0.847395
0.555184 0.603235 0.805859
1 0.540154 0.764874
1 0.52459 0.764385
1 0.521737 0.766751
1 0.520806 0.767407
0 0.948333 0.712245
0 0.948226 0.712413
0 0.948013 0.712612
0 0.946624 0.714092
0.229587 0.939467 0.642725
0.79176 0.883391 0.564752
1 0.851408 0.578592
1 0.849714 0.580285
1 0.849226 0.580713
0 1 0.63946
0 1 0.639597
0 1 0.639887
0 1 0.641032
0.0236973 1 0.602869
0.648859 1 0.500679
0.934295 1 0.493736
0.969223 1 0.495384
0.969207 1 0.495644
0 1 0.624201
0 1 0.624186
0 1 0.624475
0 1 0.625788
0 1 0.600381
0.621164 1 0.488457
0.913741 1 0.479255
0.969451 1 0.48101
0.969451 1 0.481422
0 1 0.619547
0 1 0.619532
0 1 0.619821
0 1 0.621134
0 1 0.601892
0.612741 1 0.484855
0.907591 1 0.474907
0.969528 1 0.476677
0.969528 1 0.477089
0 0 1
0 0 1
0 0 1
0.411414 0 1
0.837751 0 1
1 0 1
1 0 1
1 0 1
1 0 1
0 0 1
0 0 1
0 0 1
0.406714 0 1
0.835966 0 1
1 0 1
1 0 1
1 0 1
1 0 1
0 0 1
0 0 1
0 0 1
0.391867 0 1
0.830182 0 1
1 0 1
1 0 1
1 0 1
1 0 1
0 0 1
0 0 1
0 0 1
0.302251 0 1
0.8 0 1
1 0 1
1 0 1
1 0 1
1 0 1
0 0.566995 1
0 0.566873 1
0 0.566217 1
0 0.563241 1
0.550637 0.506996 1
1 0.446052 1
1 0.427161 1
1 0.42388 1
1 0.422812 1
0 0.896056 1
0 0.895949 1
0 0.895628 1
0 0.894224 1
0.197009 0.885237 1
0.780545 0.825528 1
1 0.778744 0.993988
1 0.776883 0.995941
1 0.776257 0.99646
0 1 1
0 1 1
0 1 1
0 1 1
0 1 1
0.570199 1 0.913787
0.912398 0.988769 0.860197
0.978347 0.97818 0.862654
0.978653 0.977661 0.862959
0 1 1
0 1 1
0 1 1
0 1 1
0 1 1
0.539223 1 0.907912
0.873487 1 0.847684
0.964294 1 0.847562
0.964294 1 0.8477
0 1 0.999451
0 1 0.999435
0 1 0.999557
0 1 1
0 1 1
0.530892 1 0.907347
0.86569 1 0.845747
0.96022 1 0.845212
0.96434 1 0.845563
0 0 1
0 0 1
0 0 1
0.347631 0 1
0.803342 0 1
1 0 1
1 0 1
1 0 1
1 0 1
0 0 1
0 0 1
0 0 1
0.342184 0 1
0.801404 0 1
1 0 1
1 0 1
1 0 1
1 0 1
0 0 1
0 0 1
0 0 1
0.324865 0 1
0.795453 0 1
1 0 1
1 0 1
1 0 1
1 0 1
0 0 1
0 0 1
0 0 1
0.213321 0 1
0.763851 0 1
1 0 1
1 0 1
1 0 1
1 0 1
0 0.483391 1
0 0.483162 1
0 0.482506 1
0 0.478798 1
0.545953 0.42678 1
1 0.368231 1
1 0.344259 1
1 0.339971 1
1 0.338704 1
0 0.854505 1
0 0.854383 1
0 0.85417 1
0 0.852552 1
0.18851 0.840253 1
0.779873 0.777417 1
1 0.732296 1
1 0.730404 1
1 0.729854 1
0 1 1
0 1 1
0 1 1
0 1 1
0 1 1
0.560052 0.996841 1
0.908827 0.949874 1
1 0.924758 1
1 0.924147 1
0 1 1
0 1 1
0 1 1
0 1 1
0 1 1
0.517174 1 1
0.804456 1 1
0.943374 1 1
0.963882 0.996063 1
0 1 1
0 1 1
0 1 1
0 1 1
0 1 1
0.509163 1 1
0.796246 1 1
0.929488 1 1
0.960739 0.999084 1
0 0 1
0 0 1
0 0 1
0.327749 0 1
0.796231 0 1
1 0 1
1 0 1
1 0 1
1 0 1
0 0 1
0 0 1
0 0 1
0.322072 0 1
0.794278 0 1
1 0 1
1 0 1
1 0 1
1 0 1
0 0 1
0 0 1
0 0 1
0.303426 0 1
0.788251 0 1
1 0 1
1 0 1
1 0 1
1 0 1
0 0 1
0 0 1
0 0 1
0.179751 0 1
0.755901 0 1
1 0 1
1 0 1
1 0 1
1 0 1
0 0.453437 1
0 0.453208 1
0 0.452445 1
0 0.448417 1
0.545907 0.396536 1
1 0.337499 1
1 0.311971 1
1 0.307149 1
1 0.305791 1
0 0.841154 1
0 0.841031 1
0 0.840711 1
0 0.839094 1
0.183825 0.826322 1
0.77908 0.76434 1
1 0.720897 1
1 0.718486 1
1 0.717922 1
0 1 1
0 1 1
0 1 1
0 1 1
0 1 1
0.565957 0.983368 1
0.91075 0.93315 1
1 0.909224 1
1 0.908858 1
0 1 1
0 1 1
0 1 1
0 1 1
0 1 1
0.518456 1 1
0.803174 1 1
0.944457 0.984512 1
1 0.970977 1
0 1 1
0 1 1
0 1 1
0 1 1
0 1 1
0.508232 1 1
0.787823 1 1
0.88957 1 1
0.958251 0.997192 1
0 0 1
0 0 1
0 0 1
0.321691 0 1
0.794141 0 1
1 0 1
1 0 1
1 0 1
1 0 1
0 0 1
0 0 1
0 0 1
0.31577 0 1
0.792309 0 1
1 0 1
1 0 1
1 0 1
1 0 1
0 0 1
0 0 1
0 0 1
0.296773 0 1
0.78616 0 1
1 0 1
1 0 1
1 0 1
1 0 1
0 0 1
0 0 1
0 0 1
0.168826 0 1
0.753674 0 1
1 0 1
1 0 1
1 0 1
1 0 1
0 0.444053 1
0 0.443824 1
0 0.443061 1
0 0.438911 1
0.546304 0.386816 1
1 0.32755 1
1 0.301411 1
1 0.296605 1
1 0.29514 1
0 0.8374 1
0 0.837293 1
0 0.836957 1
0 0.835355 1
0.181216 0.822614 1
0.779538 0.760266 1
1 0.717006 1
1 0.714565 1
1 0.714015 1
0 1 1
0 1 1
0 1 1
0 1 1
0 1 1
0.567102 0.97966 1
0.911254 0.929824 1
1 0.906386 1
1 0.905989 1
0 1 1
0 1 1
0 1 1
0 1 1
0 1 1
0.519387 1 1
0.808408 1 1
0.946563 0.977111 1
1 0.96466 1
0 1 1
0 1 1
0 1 1
0 1 1
0 1 1
0.508232 1 1
0.789578 1 1
0.88716 1 1
0.954879 0.994354 1
