luts/Perfect Cinematic.cube
LUT_3D_SIZE 16
0.036469 0.036469 0.036469
0.051265 0.038818 0.055399
0.069018 0.051974 0.070599
0.093894 0.061154 0.082651
0.132995 0.066195 0.091413
0.192760 0.066928 0.095900
0.266997 0.067796 0.098644
0.346218 0.071847 0.101685
0.428656 0.080185 0.106841
0.517305 0.093795 0.116644
0.610740 0.111970 0.131530
0.713196 0.134175 0.151300
0.820039 0.158377 0.173915
0.908537 0.178897 0.193550
0.957231 0.191456 0.205681
0.968145 0.194747 0.208860
0.050293 0.057825 0.066743
0.058182 0.058774 0.069642
0.071070 0.058572 0.073263
0.095734 0.066760 0.084242
0.135573 0.073318 0.091749
0.195282 0.076763 0.093978
0.270712 0.080971 0.094400
0.352444 0.088117 0.096583
0.437478 0.099054 0.103208
0.529971 0.115376 0.116470
0.629640 0.136727 0.136010
0.736073 0.160740 0.159524
0.843940 0.185532 0.184510
0.930970 0.205692 0.205340
0.971657 0.216186 0.216772
0.976192 0.216617 0.218076
0.063415 0.082224 0.083101
0.066714 0.083018 0.083965
0.081912 0.085991 0.086917
0.105806 0.090718 0.090505
0.146044 0.098571 0.092532
0.207892 0.107346 0.092496
0.284767 0.117502 0.094119
0.369051 0.127924 0.099349
0.455850 0.139956 0.109500
0.551637 0.156110 0.125624
0.653574 0.176051 0.146656
0.764939 0.200118 0.171837
0.877723 0.224771 0.198375
0.958932 0.242534 0.218931
0.981845 0.247623 0.226491
0.982078 0.243789 0.224085
0.069948 0.112409 0.092588
0.073809 0.113473 0.093243
0.091507 0.116664 0.093326
0.115459 0.119182 0.094752
0.154618 0.129990 0.095827
0.217840 0.141982 0.095136
0.296610 0.155061 0.097201
0.383460 0.166567 0.103564
0.470015 0.179842 0.115828
0.567144 0.197402 0.133320
0.672921 0.220469 0.156532
0.790543 0.247547 0.184407
0.907501 0.273079 0.212591
0.974039 0.284642 0.226636
0.983090 0.281051 0.223626
0.986204 0.277298 0.224215
0.071897 0.148455 0.096562
0.077297 0.148549 0.096649
0.100870 0.153756 0.094648
0.131974 0.157649 0.096643
0.164169 0.162250 0.097011
0.226179 0.178042 0.095229
0.305679 0.193347 0.097886
0.396643 0.205581 0.105709
0.479374 0.222836 0.121849
0.580924 0.244446 0.142423
0.691760 0.271197 0.168787
0.813655 0.300144 0.197749
0.927579 0.321790 0.216438
0.979046 0.329403 0.230909
0.983299 0.322788 0.231128
0.987870 0.319163 0.232629
0.072276 0.200697 0.099532
0.080085 0.200365 0.098563
0.107163 0.201468 0.095168
0.141811 0.199740 0.097602
0.178970 0.203528 0.099319
0.222173 0.211767 0.099271
0.309658 0.236842 0.100798
0.404167 0.251486 0.110695
0.488045 0.270715 0.131241
0.593984 0.295794 0.155393
0.710865 0.325123 0.174611
0.837862 0.355331 0.206169
0.944346 0.375473 0.232389
0.981897 0.376378 0.242729
0.985320 0.367558 0.242092
0.988897 0.361781 0.242536
0.076201 0.259805 0.105663
0.085731 0.263142 0.104029
0.114888 0.269460 0.100536
0.155744 0.269239 0.103593
0.200185 0.264598 0.106453
0.246637 0.262466 0.107001
0.305679 0.279215 0.110806
0.410579 0.303948 0.123410
0.503217 0.326487 0.147380
0.609211 0.352767 0.162404
0.726783 0.383495 0.193186
0.849227 0.411664 0.224100
0.951712 0.428481 0.248325
0.980859 0.423256 0.254484
0.985295 0.413891 0.253736
0.988507 0.405288 0.252998
0.088396 0.321555 0.118392
0.098869 0.325558 0.116410
0.128317 0.333710 0.114966
0.173830 0.338783 0.119249
0.230191 0.336436 0.122615
0.279708 0.327976 0.123412
0.325646 0.327001 0.121719
0.407584 0.357894 0.130946
0.516407 0.388430 0.157865
0.626209 0.417614 0.186489
0.742567 0.447215 0.216546
0.861518 0.471143 0.244695
0.952995 0.480501 0.264030
0.978622 0.470437 0.267211
0.984235 0.460582 0.266336
0.987152 0.449687 0.264462
0.107672 0.387974 0.137422
0.119239 0.391537 0.136573
0.148365 0.400081 0.137678
0.194023 0.405828 0.132059
0.259907 0.408726 0.136441
0.322399 0.407613 0.141047
0.363352 0.391056 0.138220
0.422629 0.409630 0.152117
0.526495 0.456014 0.184301
0.638995 0.485427 0.212792
0.756341 0.510951 0.240803
0.875703 0.531700 0.267038
0.960426 0.536307 0.283089
0.977811 0.520192 0.282107
0.983587 0.507501 0.280051
0.986209 0.494099 0.277026
0.128441 0.457549 0.156018
0.145129 0.464100 0.156890
0.175038 0.471995 0.160041
0.220567 0.476471 0.164212
0.288881 0.479463 0.169747
0.360810 0.484911 0.177709
0.416210 0.479370 0.180168
0.463961 0.471517 0.181537
0.534408 0.503690 0.203634
0.643401 0.551418 0.238202
0.764845 0.576929 0.265853
0.885736 0.594142 0.290042
0.966409 0.593890 0.303301
0.978540 0.572545 0.299082
0.984458 0.557599 0.296109
0.986452 0.539974 0.291280
0.156189 0.522726 0.185382
0.176388 0.530526 0.188457
0.205620 0.537937 0.192770
0.251904 0.542882 0.197307
0.320638 0.545343 0.202568
0.395370 0.552108 0.211115
0.461693 0.553129 0.217114
0.508992 0.543608 0.217139
0.567569 0.559744 0.230311
0.643468 0.591599 0.253617
0.761142 0.640306 0.288878
0.888204 0.660923 0.314115
0.970515 0.655327 0.325053
0.980192 0.628134 0.318129
0.985778 0.610431 0.313910
0.986833 0.589437 0.307357
0.191255 0.595107 0.219254
0.211070 0.600017 0.222630
0.239415 0.607355 0.227951
0.284408 0.611238 0.231965
0.352071 0.611876 0.236182
0.426107 0.616433 0.243381
0.498451 0.620458 0.250839
0.552286 0.614649 0.252791
0.611977 0.625712 0.263150
0.677051 0.649012 0.280602
0.757384 0.679944 0.303379
0.879560 0.723444 0.335732
0.970674 0.720928 0.348075
0.982089 0.686318 0.338599
0.987176 0.665783 0.333166
0.987912 0.641573 0.325187
0.232221 0.676260 0.258554
0.251942 0.681894 0.263408
0.278704 0.689161 0.269331
0.322285 0.692155 0.272884
0.386604 0.692480 0.276495
0.458817 0.691914 0.280836
0.533684 0.696506 0.288260
0.589815 0.689909 0.289621
0.650924 0.693223 0.296230
0.714986 0.708778 0.308821
0.777263 0.726738 0.323826
0.862752 0.756366 0.345859
0.965801 0.786362 0.370624
0.984109 0.751643 0.362095
0.988172 0.723324 0.353441
0.988966 0.696483 0.344352
0.266855 0.739276 0.289770
0.283528 0.743665 0.294164
0.309391 0.752455 0.300968
0.350884 0.759689 0.306372
0.410601 0.762448 0.310699
0.482356 0.762073 0.314743
0.556578 0.764502 0.320629
0.617112 0.760363 0.323123
0.674648 0.755637 0.325436
0.737380 0.759390 0.332211
0.798376 0.770774 0.343153
0.857969 0.784315 0.355731
0.945139 0.812641 0.377047
0.986604 0.814875 0.385221
0.989329 0.785747 0.375726
0.990179 0.752760 0.364464
0.297796 0.801087 0.319960
0.311582 0.803273 0.323154
0.334033 0.807621 0.328051
0.369213 0.810022 0.330773
0.422099 0.810413 0.333521
0.489930 0.809154 0.336667
0.562804 0.810801 0.341836
0.629072 0.811255 0.346538
0.683588 0.802778 0.346626
0.742730 0.799334 0.349649
0.803677 0.802667 0.355955
0.862113 0.812987 0.366904
0.919824 0.823063 0.377549
0.982672 0.842330 0.394023
0.990255 0.834968 0.393579
0.991339 0.808712 0.384562
0.315088 0.835962 0.336789
0.327801 0.838585 0.340078
0.347928 0.841389 0.344296
0.378365 0.841997 0.345880
0.425403 0.840674 0.347454
0.486903 0.838854 0.349875
0.557291 0.838742 0.353871
0.625619 0.842183 0.359733
0.681185 0.835648 0.360751
0.734520 0.827573 0.361099
0.792057 0.824571 0.364121
0.850461 0.829055 0.371536
0.906049 0.839074 0.381793
0.961990 0.849356 0.392837
0.988286 0.853095 0.399422
0.992522 0.854440 0.401359
0.043501 0.036846 0.067528
0.055160 0.042146 0.071562
0.070634 0.052511 0.076838
0.094444 0.061375 0.087276
0.133093 0.066301 0.098256
0.193246 0.067033 0.107033
0.266773 0.067821 0.114211
0.346601 0.071877 0.120641
0.428009 0.080044 0.127198
0.516254 0.093584 0.136794
0.608734 0.111511 0.150103
0.710913 0.133554 0.167739
0.815803 0.157189 0.187646
0.904986 0.177747 0.205427
0.956066 0.190775 0.216441
0.968489 0.194492 0.218814
0.051118 0.059435 0.078115
0.058772 0.059407 0.080000
0.076672 0.064151 0.085150
0.099621 0.068704 0.091091
0.137867 0.072178 0.097914
0.197812 0.072317 0.101329
0.272196 0.073403 0.103502
0.352766 0.077892 0.106352
0.435108 0.086614 0.111307
0.524059 0.100771 0.121146
0.619837 0.120209 0.136470
0.725302 0.143861 0.157075
0.834394 0.169161 0.180585
0.923966 0.190559 0.200998
0.966370 0.202238 0.212237
0.972284 0.204598 0.214283
0.063553 0.083089 0.087616
0.067906 0.084838 0.090481
0.082358 0.086869 0.092938
0.107370 0.092167 0.096778
0.147933 0.098053 0.097866
0.210726 0.104903 0.096998
0.287481 0.113535 0.098053
0.371858 0.123265 0.102590
0.459467 0.135137 0.112143
0.554927 0.151447 0.127693
0.656873 0.171701 0.148350
0.770591 0.195898 0.173857
0.883629 0.220708 0.200231
0.961150 0.238052 0.219933
0.981480 0.242870 0.227140
0.982637 0.240903 0.227158
0.069773 0.111824 0.097042
0.073321 0.113964 0.097996
0.091306 0.117399 0.098649
0.115711 0.119999 0.099698
0.156383 0.130573 0.100393
0.221552 0.141806 0.099015
0.300087 0.153988 0.100610
0.386555 0.164974 0.106449
0.473174 0.178184 0.118160
0.570889 0.196074 0.135404
0.678634 0.219327 0.158768
0.797695 0.246317 0.186817
0.910864 0.271119 0.214014
0.974774 0.283971 0.231681
0.983762 0.281506 0.234787
0.986895 0.278260 0.235886
0.071812 0.147996 0.104078
0.074479 0.149813 0.101191
0.098535 0.155147 0.098378
0.132554 0.158903 0.100713
0.166122 0.163295 0.100538
0.229139 0.178689 0.098260
0.309914 0.193526 0.100631
0.401281 0.205379 0.108121
0.482352 0.222803 0.123883
0.583215 0.244230 0.144128
0.696135 0.271277 0.170827
0.819701 0.300884 0.201295
0.929526 0.324194 0.228167
0.980187 0.332247 0.242700
0.983963 0.325937 0.243080
0.988297 0.322144 0.244594
0.072183 0.201677 0.110278
0.074249 0.202800 0.103507
0.103268 0.202875 0.097942
0.140856 0.201046 0.100512
0.180160 0.205019 0.101873
0.224688 0.213300 0.101269
0.313035 0.237919 0.102977
0.409926 0.252446 0.112886
0.494813 0.272137 0.134016
0.600691 0.297419 0.158328
0.716607 0.328053 0.187709
0.843160 0.358294 0.219043
0.945557 0.377971 0.243466
0.982466 0.379649 0.253602
0.985874 0.371223 0.253486
0.989288 0.365498 0.254025
0.076059 0.260084 0.117794
0.077907 0.261969 0.108988
0.110193 0.269670 0.102444
0.153295 0.270179 0.105536
0.199148 0.265438 0.108464
0.246946 0.263323 0.108955
0.306561 0.280436 0.112752
0.415469 0.306088 0.125815
0.510395 0.329408 0.150832
0.619975 0.357760 0.177610
0.738092 0.388536 0.207524
0.859325 0.416323 0.235285
0.955671 0.430514 0.256737
0.981199 0.425547 0.262418
0.985646 0.416657 0.262209
0.988675 0.408489 0.262015
0.086905 0.320176 0.129071
0.090478 0.323955 0.120598
0.123567 0.334369 0.116410
0.170724 0.339814 0.120873
0.228414 0.337613 0.124628
0.279316 0.329150 0.125814
0.326375 0.328399 0.127399
0.410803 0.360746 0.144579
0.523960 0.393638 0.172085
0.635787 0.423489 0.199103
0.753792 0.452418 0.227508
0.874612 0.475335 0.254484
0.961145 0.482702 0.272087
0.978937 0.471231 0.273402
0.984750 0.462598 0.273183
0.987507 0.451795 0.271467
0.105745 0.386649 0.145511
0.111455 0.391687 0.139864
0.143974 0.403197 0.140063
0.191574 0.408488 0.144914
0.258651 0.410105 0.150344
0.320027 0.407094 0.154273
0.363376 0.392096 0.152113
0.424649 0.411879 0.163240
0.528402 0.458033 0.193282
0.646108 0.490708 0.222971
0.768253 0.517315 0.251054
0.888068 0.536842 0.275989
0.967031 0.538374 0.290017
0.978128 0.519789 0.287198
0.984746 0.508706 0.286051
0.986639 0.495759 0.283071
0.124851 0.455346 0.167668
0.140721 0.464636 0.168251
0.172757 0.473765 0.171272
0.219447 0.478814 0.176020
0.288307 0.481105 0.180572
0.360001 0.485846 0.188204
0.415724 0.480877 0.190632
0.464945 0.473272 0.191197
0.535140 0.505229 0.212006
0.644125 0.552974 0.245241
0.772037 0.582481 0.274368
0.896348 0.599924 0.298295
0.971501 0.596416 0.309595
0.979959 0.573984 0.304503
0.985115 0.558638 0.301365
0.986494 0.540850 0.296399
0.154751 0.520288 0.195150
0.171949 0.529838 0.197870
0.204603 0.539784 0.203960
0.251333 0.545081 0.208795
0.320365 0.547043 0.213736
0.394794 0.553150 0.221166
0.461731 0.555045 0.227039
0.509225 0.544918 0.226503
0.568842 0.561267 0.238464
0.643944 0.592872 0.260405
0.761858 0.641667 0.294511
0.894180 0.664874 0.320595
0.974676 0.658190 0.330935
0.982332 0.631092 0.323823
0.986080 0.612367 0.318851
0.987223 0.591070 0.312385
0.189955 0.591944 0.226483
0.207973 0.601467 0.231695
0.239137 0.610056 0.238214
0.284060 0.614441 0.242305
0.352664 0.615365 0.246760
0.426600 0.618866 0.253195
0.499070 0.623168 0.260251
0.553416 0.616777 0.261675
0.612985 0.627454 0.270879
0.678544 0.650866 0.287280
0.758811 0.681286 0.308930
0.879891 0.724427 0.340005
0.973117 0.723894 0.353190
0.983337 0.690284 0.344043
0.987457 0.669860 0.338455
0.988346 0.644905 0.330400
0.232700 0.676252 0.264829
0.248976 0.683916 0.270291
0.278868 0.693083 0.278594
0.321628 0.696470 0.282039
0.386231 0.696198 0.285456
0.459573 0.695658 0.289887
0.534214 0.699012 0.296213
0.590834 0.692146 0.297313
0.652102 0.695578 0.303408
0.716439 0.710374 0.314792
0.778173 0.728215 0.328907
0.862478 0.756633 0.349513
0.966312 0.787681 0.374186
0.984342 0.753710 0.366101
0.988314 0.728455 0.358624
0.989356 0.700532 0.349478
0.267207 0.738708 0.295439
0.280563 0.744373 0.299445
0.309907 0.755724 0.308703
0.350978 0.763497 0.313959
0.410371 0.765845 0.318108
0.482924 0.766012 0.322450
0.557248 0.767521 0.327677
0.617680 0.762665 0.329565
0.675706 0.757970 0.331838
0.738346 0.761261 0.337878
0.799517 0.772383 0.348113
0.859647 0.785542 0.359865
0.945908 0.813110 0.380430
0.986722 0.815685 0.388516
0.989561 0.788275 0.379748
0.990310 0.756757 0.369045
0.297718 0.800654 0.324533
0.309705 0.804868 0.327972
0.334316 0.809538 0.334147
0.369065 0.812170 0.336742
0.421802 0.812173 0.339290
0.489319 0.811354 0.342725
0.562648 0.812633 0.347615
0.629712 0.813850 0.352366
0.684098 0.804851 0.352361
0.743349 0.800824 0.354978
0.804617 0.804186 0.360752
0.863017 0.814169 0.370994
0.921048 0.824086 0.381214
0.982924 0.843347 0.397115
0.990536 0.835933 0.396698
0.991621 0.810399 0.388178
0.315271 0.836278 0.341067
0.325955 0.839384 0.344040
0.347902 0.843525 0.349668
0.378233 0.843930 0.351379
0.425064 0.842558 0.352859
0.486568 0.840875 0.355478
0.556262 0.840014 0.359041
0.625528 0.843575 0.364821
0.680960 0.837739 0.365950
0.735406 0.829618 0.366394
0.793621 0.826643 0.369352
0.851900 0.830561 0.375946
0.907644 0.840829 0.385810
0.961963 0.850164 0.395886
0.988488 0.853670 0.402390
0.992662 0.855206 0.404361
0.050041 0.047323 0.092548
0.056468 0.048685 0.093211
0.077830 0.057325 0.101624
0.102335 0.064174 0.110234
0.142016 0.067689 0.123361
0.203700 0.067580 0.137093
0.278083 0.068794 0.148181
0.359517 0.073361 0.156210
0.445140 0.082700 0.162991
0.535293 0.097395 0.172338
0.631595 0.116688 0.185445
0.734777 0.139224 0.201888
0.839197 0.162859 0.219713
0.925254 0.182957 0.234369
0.964703 0.193520 0.240162
0.969093 0.194790 0.238012
0.051398 0.056739 0.094954
0.061280 0.062978 0.102774
0.081163 0.066588 0.107596
0.106139 0.071084 0.114456
0.145417 0.073825 0.125183
0.207493 0.073373 0.136449
0.282038 0.074430 0.145525
0.363598 0.078749 0.152021
0.449923 0.087856 0.158123
0.540847 0.102333 0.166892
0.637755 0.121460 0.179596
0.742559 0.143921 0.195876
0.848132 0.167541 0.214034
0.932263 0.187077 0.228664
0.967778 0.196749 0.234405
0.970441 0.197612 0.232424
0.064218 0.086118 0.108093
0.068227 0.086674 0.109230
0.082627 0.088267 0.113088
0.111033 0.091808 0.117405
0.153849 0.091458 0.118968
0.218250 0.086899 0.116677
0.294065 0.084921 0.114576
0.372719 0.086920 0.114419
0.454749 0.094352 0.118282
0.543156 0.108094 0.127700
0.639511 0.127566 0.142992
0.746751 0.151378 0.163848
0.854224 0.175987 0.186802
0.937919 0.196190 0.206143
0.971015 0.205779 0.215269
0.973271 0.206820 0.216023
0.070175 0.114062 0.118201
0.073392 0.114914 0.118824
0.083629 0.117419 0.114038
0.114735 0.122440 0.116234
0.161645 0.128442 0.114382
0.230100 0.134883 0.108891
0.308537 0.143315 0.107955
0.392953 0.152490 0.111487
0.480983 0.164583 0.121084
0.578589 0.181595 0.137362
0.685572 0.203332 0.159599
0.802983 0.228760 0.186447
0.912215 0.252173 0.212293
0.974756 0.265363 0.229493
0.983233 0.264211 0.232524
0.986473 0.262312 0.233735
0.072044 0.151033 0.128979
0.074506 0.151232 0.127873
0.079923 0.154409 0.111930
0.124808 0.161765 0.109884
0.169245 0.165741 0.108571
0.235012 0.177771 0.104134
0.317209 0.189538 0.105180
0.408064 0.200149 0.111441
0.489630 0.216202 0.126074
0.590324 0.237039 0.145571
0.702727 0.263121 0.171558
0.825914 0.292023 0.201549
0.933185 0.314906 0.227745
0.980582 0.321958 0.241446
0.984391 0.315650 0.241886
0.988599 0.311781 0.243331
0.072749 0.206458 0.139689
0.074688 0.206093 0.136856
0.077434 0.207017 0.111086
0.128050 0.204717 0.104487
0.177460 0.207017 0.105995
0.228130 0.215918 0.104149
0.317225 0.237297 0.105375
0.415263 0.249984 0.114701
0.499902 0.268823 0.135278
0.605229 0.293388 0.158991
0.722347 0.323514 0.188193
0.848164 0.353137 0.219191
0.948504 0.372326 0.243345
0.983033 0.373522 0.253162
0.986307 0.365593 0.252984
0.989560 0.359976 0.253532
0.076976 0.263789 0.148156
0.078414 0.263671 0.144223
0.080189 0.266315 0.115195
0.136183 0.274564 0.107023
0.191348 0.267475 0.110276
0.244391 0.264703 0.110877
0.306955 0.281726 0.114411
0.418366 0.305788 0.126799
0.513834 0.327983 0.151617
0.624112 0.355317 0.178169
0.742706 0.386013 0.208007
0.865510 0.413891 0.237292
0.958056 0.427409 0.258136
0.981522 0.421670 0.263296
0.985992 0.413403 0.263287
0.989068 0.405363 0.263019
0.087765 0.322227 0.158017
0.088719 0.321393 0.153290
0.091106 0.327200 0.124358
0.150013 0.342150 0.120966
0.217133 0.341008 0.125738
0.274677 0.331660 0.127119
0.324330 0.328231 0.127750
0.410686 0.361335 0.145240
0.525864 0.393818 0.172847
0.638500 0.422825 0.200674
0.757015 0.451150 0.229376
0.878858 0.473453 0.256223
0.964116 0.480680 0.273657
0.979389 0.469015 0.274469
0.985247 0.460571 0.274407
0.987774 0.449844 0.272706
0.103963 0.380279 0.170579
0.105097 0.380860 0.166334
0.112359 0.395187 0.142543
0.170210 0.409566 0.144661
0.241848 0.410983 0.150052
0.312827 0.409252 0.154951
0.360745 0.394614 0.153369
0.422560 0.411738 0.164850
0.528451 0.458997 0.195608
0.647645 0.491010 0.225094
0.769526 0.516886 0.252723
0.890390 0.535760 0.277395
0.968341 0.536478 0.291009
0.978390 0.517702 0.287937
0.984857 0.507451 0.287043
0.986902 0.494645 0.284182
0.123086 0.440201 0.188326
0.130203 0.446985 0.187213
0.140850 0.465068 0.169450
0.197426 0.479022 0.175510
0.270950 0.481958 0.181402
0.351040 0.486948 0.189952
0.412001 0.483805 0.193575
0.462677 0.474347 0.193546
0.533053 0.504905 0.213507
0.644071 0.553407 0.247109
0.772942 0.582576 0.275900
0.897304 0.599607 0.299532
0.972172 0.595331 0.310464
0.980363 0.572711 0.305259
0.985470 0.557360 0.302134
0.986664 0.539649 0.297229
0.147739 0.506389 0.212148
0.161512 0.516631 0.214347
0.172201 0.530739 0.199003
0.228733 0.544867 0.208057
0.301857 0.548114 0.213918
0.383301 0.553158 0.222205
0.456302 0.556657 0.229255
0.506372 0.545980 0.228702
0.567086 0.561238 0.239921
0.642422 0.592509 0.261499
0.761917 0.642084 0.295792
0.894659 0.665039 0.321712
0.974941 0.657722 0.331675
0.982358 0.630254 0.324447
0.986132 0.611498 0.319526
0.987209 0.590009 0.313057
0.183502 0.581883 0.240559
0.197349 0.590733 0.243345
0.209228 0.603199 0.233284
0.262551 0.615121 0.242977
0.334574 0.617064 0.247848
0.414369 0.619374 0.254378
0.493216 0.625240 0.262286
0.549490 0.617999 0.263382
0.610275 0.627293 0.271899
0.677325 0.651381 0.288504
0.757402 0.681027 0.309537
0.880042 0.724988 0.341012
0.973116 0.724076 0.353987
0.983532 0.690185 0.344887
0.987478 0.669233 0.338986
0.988332 0.644359 0.331108
0.226510 0.668915 0.271592
0.240255 0.677587 0.276741
0.252528 0.687917 0.273992
0.301582 0.697840 0.283035
0.369315 0.698272 0.286613
0.446975 0.697487 0.291177
0.526507 0.700265 0.297497
0.586335 0.693615 0.298833
0.649035 0.696306 0.304613
0.714523 0.710632 0.315794
0.778090 0.729075 0.330127
0.861805 0.756801 0.350427
0.966269 0.788003 0.375156
0.984576 0.753820 0.366953
0.988503 0.728340 0.359410
0.989340 0.700488 0.350239
0.260223 0.732849 0.300291
0.270842 0.738490 0.302433
0.284635 0.748343 0.303305
0.332087 0.763435 0.314267
0.394822 0.767513 0.319013
0.470337 0.768569 0.323891
0.549210 0.769028 0.328906
0.613296 0.764789 0.331227
0.672282 0.759237 0.333183
0.736015 0.762172 0.339078
0.798150 0.772674 0.349017
0.859258 0.786182 0.360986
0.944681 0.813250 0.381123
0.986833 0.816088 0.389334
0.989679 0.788314 0.380549
0.990355 0.756919 0.369933
0.293308 0.798151 0.329882
0.301709 0.801611 0.330580
0.313073 0.806944 0.330940
0.352388 0.812405 0.337168
0.407285 0.813370 0.340085
0.476577 0.812542 0.343502
0.552972 0.813367 0.348375
0.624979 0.815615 0.353832
0.680697 0.806701 0.353880
0.740526 0.801747 0.356204
0.802475 0.804509 0.361824
0.861754 0.814215 0.371714
0.920565 0.824559 0.382185
0.982947 0.843463 0.397991
0.990419 0.836336 0.397674
0.991679 0.810825 0.389127
0.311971 0.835391 0.346456
0.319635 0.838530 0.346881
0.329440 0.841530 0.346946
0.363883 0.845001 0.352288
0.412112 0.843964 0.353804
0.474235 0.841974 0.356274
0.546717 0.840970 0.360008
0.618177 0.843905 0.365505
0.677193 0.839219 0.367258
0.732793 0.831310 0.367956
0.791380 0.827156 0.370433
0.850707 0.831404 0.377060
0.906974 0.840839 0.386622
0.961381 0.850701 0.396753
0.988541 0.854449 0.403410
0.992653 0.855790 0.405428
0.054454 0.055875 0.125620
0.060718 0.056492 0.125926
0.082734 0.061581 0.132276
0.109730 0.066378 0.140628
0.150395 0.068438 0.153989
0.214542 0.068049 0.172515
0.289608 0.069855 0.187830
0.372450 0.075130 0.197764
0.460144 0.085448 0.205689
0.550714 0.100995 0.215894
0.647218 0.120689 0.229126
0.750527 0.143475 0.245272
0.853664 0.166870 0.261140
0.934993 0.186092 0.272147
0.967368 0.194953 0.272922
0.969229 0.195393 0.266848
0.056952 0.065496 0.127570
0.063484 0.069075 0.136589
0.084979 0.070089 0.140266
0.112606 0.073522 0.145739
0.154497 0.075430 0.157494
0.219023 0.074978 0.174107
0.294656 0.076765 0.187680
0.377828 0.081665 0.196117
0.466327 0.091558 0.203290
0.557639 0.106760 0.213034
0.655190 0.126268 0.225905
0.759635 0.148781 0.241711
0.863505 0.171977 0.257450
0.941374 0.190310 0.267846
0.970094 0.198370 0.268042
0.971431 0.198590 0.262111
0.066128 0.094443 0.138304
0.070046 0.095597 0.140919
0.082750 0.093764 0.148317
0.116091 0.093929 0.155085
0.163937 0.093604 0.162357
0.231038 0.088890 0.171673
0.306769 0.086855 0.178415
0.388362 0.088967 0.182601
0.475838 0.097264 0.187563
0.566041 0.111265 0.195971
0.663670 0.130092 0.208669
0.769095 0.152265 0.224430
0.872411 0.175012 0.240768
0.946987 0.192631 0.251549
0.971404 0.199517 0.252303
0.973421 0.200003 0.248315
0.070616 0.118945 0.144878
0.073824 0.119610 0.145917
0.083616 0.122212 0.149797
0.112819 0.125411 0.156213
0.164264 0.125813 0.158467
0.237168 0.119980 0.153474
0.320883 0.112700 0.145204
0.404709 0.108654 0.137215
0.491405 0.112689 0.136506
0.583043 0.125518 0.143730
0.683742 0.144528 0.158569
0.793540 0.167613 0.179102
0.896988 0.190400 0.200642
0.962323 0.206879 0.216246
0.974715 0.211099 0.219950
0.979388 0.213430 0.221704
0.072367 0.152025 0.155888
0.074869 0.152998 0.156213
0.080031 0.155338 0.152441
0.099575 0.160945 0.141985
0.167207 0.170266 0.140741
0.245556 0.173997 0.131641
0.331033 0.179530 0.125379
0.418982 0.186751 0.126365
0.507077 0.199679 0.135677
0.607496 0.218131 0.151982
0.720555 0.242291 0.175847
0.840602 0.268177 0.203286
0.942687 0.288433 0.227550
0.982555 0.294164 0.239456
0.985534 0.288867 0.239769
0.989353 0.285970 0.241160
0.073564 0.211612 0.176059
0.075397 0.212058 0.174566
0.078097 0.211025 0.162806
0.088322 0.209549 0.131039
0.167485 0.212748 0.122653
0.238305 0.223145 0.114475
0.325577 0.235432 0.114387
0.424863 0.243984 0.120890
0.510128 0.261641 0.139578
0.616764 0.284809 0.162065
0.735825 0.313686 0.190837
0.860224 0.341996 0.220944
0.956914 0.359953 0.244166
0.984214 0.359214 0.252120
0.987419 0.352334 0.252250
0.990094 0.346033 0.252366
0.078629 0.271673 0.187878
0.079950 0.271377 0.185323
0.081140 0.269904 0.170587
0.086225 0.274504 0.128651
0.168096 0.272648 0.117600
0.238723 0.267432 0.117187
0.307932 0.284667 0.119499
0.423075 0.304456 0.129646
0.519165 0.324235 0.153879
0.630799 0.350272 0.179723
0.752695 0.380779 0.209605
0.876404 0.407585 0.238649
0.963852 0.419648 0.258489
0.982221 0.412510 0.262307
0.987279 0.405700 0.263057
0.989714 0.397493 0.262636
0.090319 0.330955 0.198907
0.091289 0.330576 0.195717
0.091511 0.327968 0.179555
0.096087 0.336613 0.133839
0.183622 0.347612 0.128888
0.262291 0.337591 0.131264
0.320145 0.328295 0.129515
0.410035 0.362919 0.147500
