luts/Perfect Cinematic.cube
LUT_3D_SIZE 6
0.036469 0.036469 0.036469
0.093894 0.061154 0.082651
0.266997 0.067796 0.098644
0.517305 0.093795 0.116644
0.820039 0.158377 0.173915
0.968145 0.194747 0.208860
0.069948 0.112409 0.092588
0.115459 0.119182 0.094752
0.296610 0.155061 0.097201
0.567144 0.197402 0.133320
0.907501 0.273079 0.212591
0.986204 0.277298 0.224215
0.076201 0.259805 0.105663
0.155744 0.269239 0.103593
0.305679 0.279215 0.110806
0.609211 0.352767 0.162404
0.951712 0.428481 0.248325
0.988507 0.405288 0.252998
0.128441 0.457549 0.156018
0.220567 0.476471 0.164212
0.416210 0.479370 0.180168
0.643401 0.551418 0.238202
0.966409 0.593890 0.303301
0.986452 0.539974 0.291280
0.232221 0.676260 0.258554
0.322285 0.692155 0.272884
0.533684 0.696506 0.288260
0.714986 0.708778 0.308821
0.965801 0.786362 0.370624
0.988966 0.696483 0.344352
0.315088 0.835962 0.336789
0.378365 0.841997 0.345880
0.557291 0.838742 0.353871
0.734520 0.827573 0.361099
0.906049 0.839074 0.381793
0.992522 0.854440 0.401359
0.054454 0.055875 0.125620
0.109730 0.066378 0.140628
0.289608 0.069855 0.187830
0.550714 0.100995 0.215894
0.853664 0.166870 0.261140
0.969229 0.195393 0.266848
0.070616 0.118945 0.144878
0.112819 0.125411 0.156213
0.320883 0.112700 0.145204
0.583043 0.125518 0.143730
0.896988 0.190400 0.200642
0.979388 0.213430 0.221704
0.078629 0.271673 0.187878
0.086225 0.274504 0.128651
0.307932 0.284667 0.119499
0.630799 0.350272 0.179723
0.963852 0.419648 0.258489
0.989714 0.397493 0.262636
0.122273 0.447526 0.226990
0.141132 0.467337 0.172941
0.403890 0.489657 0.196353
0.643717 0.554231 0.247949
0.973148 0.592701 0.310411
0.986762 0.537570 0.297346
0.216076 0.647414 0.291186
0.255714 0.693382 0.277208
0.507479 0.702276 0.298011
0.710485 0.711020 0.316483
0.966155 0.788857 0.376184
0.989496 0.699831 0.350856
0.310320 0.835505 0.356662
0.332067 0.843953 0.348812
0.525899 0.842683 0.360568
0.726138 0.833957 0.369658
0.905835 0.841770 0.387749
0.992669 0.856376 0.406602
0.062361 0.101512 0.314792
0.135277 0.083719 0.325556
0.318404 0.073689 0.319997
0.599665 0.114695 0.362537
0.902492 0.182135 0.408789
0.974206 0.200206 0.384434
0.074565 0.186314 0.322486
0.098839 0.167984 0.358742
0.355049 0.122102 0.355510
0.648539 0.143167 0.372082
0.943541 0.200895 0.402310
0.981224 0.209530 0.369811
0.082066 0.265537 0.308091
0.089814 0.270839 0.314350
0.266400 0.313938 0.353824
0.681325 0.314721 0.336268
0.985799 0.317579 0.322073
0.992286 0.327377 0.326169
0.150717 0.504234 0.410232
0.160261 0.504313 0.393120
0.197291 0.515765 0.273285
0.635123 0.562156 0.270008
0.979739 0.579443 0.321208
0.987517 0.533609 0.315095
0.245010 0.699585 0.457153
0.250415 0.693068 0.429816
0.288862 0.740402 0.309234
0.671649 0.720696 0.325475
0.963676 0.793921 0.381314
0.990174 0.700134 0.355606
0.317645 0.847095 0.453747
0.325194 0.849346 0.426209
0.402399 0.866708 0.373460
0.695049 0.866479 0.388997
0.893954 0.848714 0.395196
0.992903 0.861622 0.411685
0.067533 0.135322 0.504213
0.137635 0.110667 0.509650
0.350606 0.085996 0.502533
0.629364 0.128364 0.503299
0.935242 0.197221 0.551620
0.978233 0.207247 0.509560
0.085685 0.244443 0.505597
0.095100 0.208759 0.547145
0.342405 0.129445 0.550360
0.674533 0.160566 0.540382
0.967578 0.217952 0.566137
0.984373 0.218819 0.514315
0.102320 0.340383 0.494869
0.107911 0.343981 0.510974
0.214310 0.358512 0.587113
0.689610 0.318114 0.595141
0.987828 0.324731 0.590588
0.993256 0.322872 0.527017
0.138207 0.463241 0.515128
0.151418 0.472077 0.522337
0.182449 0.506362 0.551539
0.554659 0.568158 0.584412
0.973650 0.570737 0.573842
0.987324 0.548273 0.551736
0.263503 0.726035 0.632962
0.277537 0.737350 0.634936
0.294116 0.763718 0.619167
0.435763 0.789133 0.479205
0.942564 0.800899 0.502255
0.990129 0.709377 0.507390
0.333216 0.868957 0.643998
0.339812 0.870372 0.627238
0.351068 0.885587 0.565531
0.578723 0.921914 0.514212
0.859148 0.888979 0.527123
0.992227 0.869035 0.490884
0.080808 0.164845 0.652092
0.132307 0.141090 0.656162
0.319151 0.100498 0.662961
0.611198 0.139525 0.656810
0.935454 0.208804 0.705865
0.980887 0.217272 0.647627
0.104459 0.286407 0.648006
0.107811 0.249318 0.697281
0.283225 0.144400 0.722526
0.651339 0.172887 0.705598
0.971510 0.234492 0.734951
0.987244 0.232515 0.666419
0.129419 0.403304 0.657054
0.142569 0.407537 0.678078
0.201547 0.422103 0.774484
0.599010 0.303371 0.800032
0.990510 0.329889 0.797983
0.994497 0.340916 0.709735
0.175260 0.520363 0.674057
0.188888 0.528889 0.686245
0.221475 0.565470 0.743940
0.471204 0.589394 0.806274
0.974954 0.530997 0.809802
0.988344 0.536755 0.717210
0.255615 0.696666 0.734780
0.268300 0.704224 0.740394
0.285598 0.729317 0.761214
0.394009 0.767261 0.788943
0.885031 0.788256 0.778237
0.994024 0.769195 0.756924
0.326921 0.846454 0.766284
0.337638 0.854672 0.768548
0.357215 0.884105 0.775264
0.460511 0.913146 0.748894
0.814618 0.926320 0.717815
0.991094 0.882935 0.715641
0.097414 0.193831 0.762879
0.120996 0.168213 0.764783
0.264258 0.112077 0.772340
0.560698 0.146838 0.784853
0.840584 0.195991 0.788086
0.984682 0.230769 0.791056
0.122146 0.315784 0.756663
0.129342 0.298891 0.783568
0.238139 0.217006 0.819631
0.541440 0.189637 0.837176
0.889700 0.237580 0.838685
0.992688 0.260746 0.825397
0.151116 0.432859 0.768485
0.165872 0.434505 0.781326
0.217057 0.455197 0.845852
0.428192 0.322591 0.866580
0.860481 0.352683 0.891970
0.995113 0.362798 0.867516
0.202066 0.555917 0.793563
0.218724 0.565912 0.807441
0.246208 0.584802 0.842313
0.476023 0.595763 0.890010
0.773579 0.531050 0.897054
0.988020 0.536335 0.879515
0.260803 0.687883 0.826640
0.276424 0.699350 0.838966
0.295773 0.716941 0.862420
0.472901 0.735383 0.894864
0.849228 0.768365 0.899188
0.991458 0.766077 0.878828
0.328212 0.835475 0.871693
0.339904 0.843635 0.879048
0.355847 0.858973 0.897020
0.460578 0.867987 0.906743
0.813385 0.886213 0.894987
0.991634 0.888443 0.879317
