luts/PictureFX Alaska - set strength or opacity to taste - sample at 100% opacity.cube
#Generated with IWLTBAP LUT Generator
#Website: http://luts.iwltbap.com
TITLE "PictureFX-Alaska-3DL25"
#LUT size
LUT_3D_SIZE 9
#LUT data points
0.000000 0.019608 0.000000
0.090196 0.000000 0.000000
0.247059 0.031373 0.047059
0.372549 0.023529 0.070588
0.490196 0.035294 0.082353
0.600000 0.043137 0.090196
0.705882 0.031373 0.098039
0.811765 0.011765 0.109804
0.917647 0.000000 0.125490
0.000000 0.125490 0.000000
0.117647 0.125490 0.035294
0.231373 0.125490 0.070588
0.368627 0.117647 0.094118
0.478431 0.121569 0.090196
0.588235 0.125490 0.094118
0.698039 0.121569 0.101961
0.803922 0.113725 0.113725
0.913725 0.094118 0.125490
0.043137 0.247059 0.031373
0.145098 0.243137 0.035294
0.250980 0.243137 0.011765
0.352941 0.243137 0.117647
0.474510 0.235294 0.125490
0.584314 0.235294 0.117647
0.690196 0.235294 0.121569
0.800000 0.227451 0.129412
0.909804 0.219608 0.137255
0.066667 0.352941 0.047059
0.152941 0.352941 0.050980
0.262745 0.349020 0.039216
0.368627 0.349020 0.000000
0.450980 0.356863 0.078431
0.564706 0.349020 0.137255
0.678431 0.345098 0.141176
0.784314 0.337255 0.145098
0.890196 0.325490 0.145098
0.054902 0.462745 0.070588
0.141176 0.458824 0.070588
0.250980 0.458824 0.066667
0.364706 0.454902 0.050980
0.462745 0.454902 0.027451
0.556863 0.458824 0.094118
0.662745 0.458824 0.145098
0.776471 0.454902 0.164706
0.894118 0.450980 0.176471
0.000000 0.564706 0.086275
0.113725 0.564706 0.086275
0.231373 0.560784 0.086275
0.349020 0.560784 0.082353
0.458824 0.556863 0.074510
0.556863 0.556863 0.074510
0.658824 0.564706 0.117647
0.772549 0.568627 0.168627
0.898039 0.580392 0.203922
0.000000 0.674510 0.117647
0.074510 0.674510 0.117647
0.215686 0.674510 0.117647
0.337255 0.674510 0.121569
0.458824 0.678431 0.121569
0.572549 0.678431 0.129412
0.682353 0.690196 0.149020
0.796078 0.701961 0.188235
0.913725 0.709804 0.223529
0.000000 0.815686 0.180392
0.090196 0.815686 0.180392
0.227451 0.815686 0.184314
0.352941 0.815686 0.184314
0.474510 0.819608 0.192157
0.592157 0.819608 0.196078
0.705882 0.823529 0.203922
0.815686 0.823529 0.219608
0.921569 0.827451 0.239216
0.000000 0.937255 0.223529
0.043137 0.937255 0.223529
0.207843 0.937255 0.223529
0.341176 0.937255 0.223529
0.462745 0.933333 0.227451
0.584314 0.933333 0.227451
0.698039 0.929412 0.231373
0.811765 0.933333 0.239216
0.925490 0.937255 0.258824
0.058824 0.000000 0.000000
0.129412 0.000000 0.043137
0.250980 0.015686 0.105882
0.364706 0.027451 0.125490
0.482353 0.027451 0.145098
0.596078 0.019608 0.156863
0.705882 0.007843 0.164706
0.811765 0.000000 0.176471
0.921569 0.000000 0.184314
0.000000 0.125490 0.070588
0.078431 0.125490 0.094118
0.215686 0.125490 0.109804
0.345098 0.125490 0.133333
0.470588 0.117647 0.149020
0.584314 0.113725 0.160784
0.694118 0.109804 0.168627
0.807843 0.101961 0.176471
0.917647 0.086275 0.184314
0.000000 0.243137 0.117647
0.113725 0.243137 0.121569
0.235294 0.239216 0.141176
0.341176 0.243137 0.168627
0.474510 0.227451 0.188235
0.584314 0.227451 0.184314
0.694118 0.227451 0.184314
0.803922 0.227451 0.188235
0.917647 0.219608 0.196078
0.023529 0.352941 0.129412
0.133333 0.349020 0.133333
0.247059 0.349020 0.133333
0.360784 0.345098 0.113725
0.450980 0.352941 0.184314
0.572549 0.341176 0.215686
0.682353 0.341176 0.203922
0.788235 0.333333 0.200000
0.894118 0.325490 0.196078
0.039216 0.458824 0.137255
0.133333 0.458824 0.141176
0.250980 0.454902 0.141176
0.364706 0.454902 0.129412
0.470588 0.454902 0.098039
0.556863 0.462745 0.152941
0.670588 0.458824 0.211765
0.784314 0.454902 0.219608
0.901961 0.454902 0.227451
0.000000 0.564706 0.149020
0.113725 0.564706 0.149020
0.235294 0.564706 0.149020
0.352941 0.560784 0.149020
0.462745 0.560784 0.141176
0.564706 0.560784 0.133333
0.662745 0.568627 0.168627
0.776471 0.576471 0.219608
0.905882 0.584314 0.250980
0.000000 0.682353 0.172549
0.086275 0.682353 0.172549
0.223529 0.682353 0.172549
0.345098 0.682353 0.176471
0.462745 0.682353 0.176471
0.580392 0.682353 0.180392
0.690196 0.690196 0.192157
0.800000 0.701961 0.223529
0.913725 0.709804 0.262745
0.000000 0.815686 0.219608
0.101961 0.819608 0.223529
0.231373 0.819608 0.223529
0.356863 0.819608 0.227451
0.478431 0.819608 0.231373
0.596078 0.819608 0.235294
0.709804 0.823529 0.239216
0.819608 0.827451 0.250980
0.925490 0.831373 0.274510
0.000000 0.941176 0.254902
0.050980 0.937255 0.254902
0.211765 0.937255 0.254902
0.341176 0.937255 0.258824
0.466667 0.937255 0.258824
0.584314 0.933333 0.262745
0.701961 0.933333 0.262745
0.815686 0.933333 0.270588
0.925490 0.937255 0.286275
0.105882 0.000000 0.137255
0.188235 0.000000 0.168627
0.278431 0.000000 0.184314
0.376471 0.000000 0.203922
0.486275 0.000000 0.223529
0.596078 0.000000 0.235294
0.705882 0.000000 0.247059
0.815686 0.000000 0.258824
0.929412 0.000000 0.270588
0.082353 0.105882 0.113725
0.164706 0.098039 0.129412
0.250980 0.101961 0.168627
0.352941 0.109804 0.196078
0.466667 0.109804 0.215686
0.580392 0.105882 0.235294
0.694118 0.098039 0.247059
0.807843 0.086275 0.258824
0.921569 0.070588 0.266667
0.000000 0.243137 0.180392
0.078431 0.243137 0.184314
0.192157 0.243137 0.207843
0.329412 0.243137 0.223529
0.454902 0.239216 0.239216
0.576471 0.227451 0.250980
0.694118 0.223529 0.262745
0.807843 0.219608 0.270588
0.921569 0.219608 0.278431
0.000000 0.349020 0.215686
0.078431 0.349020 0.219608
0.219608 0.349020 0.227451
0.341176 0.349020 0.250980
0.443137 0.352941 0.266667
0.580392 0.333333 0.294118
0.686275 0.333333 0.286275
0.792157 0.329412 0.282353
0.898039 0.321569 0.278431
0.000000 0.458824 0.231373
0.101961 0.458824 0.235294
0.231373 0.458824 0.235294
0.352941 0.454902 0.239216
0.466667 0.454902 0.227451
0.556863 0.462745 0.278431
0.682353 0.454902 0.325490
0.796078 0.454902 0.313725
0.909804 0.458824 0.313725
0.000000 0.568627 0.243137
0.105882 0.568627 0.243137
0.231373 0.568627 0.243137
0.352941 0.564706 0.243137
0.474510 0.560784 0.235294
0.580392 0.560784 0.207843
0.666667 0.572549 0.250980
0.784314 0.576471 0.313725
0.909804 0.584314 0.333333
0.000000 0.686275 0.258824
0.094118 0.686275 0.258824
0.227451 0.686275 0.262745
0.352941 0.686275 0.262745
0.474510 0.682353 0.262745
0.592157 0.686275 0.258824
0.698039 0.694118 0.262745
0.800000 0.705882 0.294118
0.913725 0.709804 0.333333
0.000000 0.819608 0.294118
0.105882 0.819608 0.298039
0.235294 0.819608 0.298039
0.360784 0.819608 0.301961
0.482353 0.819608 0.301961
0.603922 0.819608 0.305882
0.717647 0.823529 0.305882
0.823529 0.827451 0.313725
0.929412 0.831373 0.337255
0.000000 0.941176 0.321569
0.058824 0.941176 0.321569
0.215686 0.937255 0.321569
0.345098 0.937255 0.321569
0.470588 0.937255 0.325490
0.588235 0.933333 0.325490
0.705882 0.933333 0.325490
0.819608 0.933333 0.333333
0.929412 0.941176 0.345098
0.180392 0.000000 0.266667
0.223529 0.000000 0.270588
0.305882 0.000000 0.274510
0.403922 0.000000 0.290196
0.501961 0.000000 0.305882
0.607843 0.000000 0.321569
0.713725 0.000000 0.333333
0.823529 0.000000 0.345098
0.933333 0.000000 0.356863
0.141176 0.090196 0.239216
0.196078 0.086275 0.243137
0.282353 0.078431 0.258824
0.380392 0.074510 0.278431
0.482353 0.078431 0.298039
0.592157 0.078431 0.313725
0.701961 0.074510 0.329412
0.815686 0.058824 0.345098
0.925490 0.035294 0.356863
0.058824 0.243137 0.231373
0.160784 0.235294 0.223529
0.282353 0.223529 0.239216
0.372549 0.223529 0.282353
0.470588 0.223529 0.309804
0.580392 0.223529 0.325490
0.698039 0.219608 0.341176
0.811765 0.215686 0.352941
0.929412 0.211765 0.364706
0.000000 0.356863 0.286275
0.000000 0.356863 0.286275
0.196078 0.352941 0.290196
0.301961 0.356863 0.317647
0.435294 0.352941 0.333333
0.560784 0.349020 0.345098
0.682353 0.337255 0.356863
0.796078 0.329412 0.360784
0.905882 0.317647 0.364706
0.000000 0.462745 0.321569
0.003922 0.462745 0.321569
0.196078 0.462745 0.325490
0.329412 0.462745 0.337255
0.450980 0.458824 0.360784
0.549020 0.466667 0.380392
0.690196 0.450980 0.407843
0.803922 0.450980 0.403922
0.917647 0.454902 0.400000
0.000000 0.572549 0.337255
0.043137 0.572549 0.337255
0.207843 0.568627 0.341176
0.341176 0.568627 0.345098
0.462745 0.564706 0.349020
0.572549 0.564706 0.341176
0.666667 0.572549 0.384314
0.800000 0.568627 0.447059
0.921569 0.580392 0.439216
0.000000 0.690196 0.356863
0.066667 0.690196 0.356863
0.219608 0.686275 0.356863
0.349020 0.686275 0.360784
0.474510 0.686275 0.364706
0.600000 0.686275 0.360784
0.713725 0.690196 0.337255
0.803922 0.705882 0.372549
0.913725 0.709804 0.439216
0.000000 0.819608 0.388235
0.094118 0.823529 0.388235
0.235294 0.823529 0.388235
0.360784 0.819608 0.392157
0.486275 0.819608 0.396078
0.607843 0.819608 0.396078
0.725490 0.819608 0.392157
0.831373 0.827451 0.392157
0.929412 0.831373 0.415686
0.000000 0.941176 0.407843
0.054902 0.941176 0.407843
0.215686 0.937255 0.407843
0.349020 0.937255 0.407843
0.474510 0.937255 0.407843
0.596078 0.933333 0.411765
0.713725 0.933333 0.411765
0.827451 0.933333 0.411765
0.933333 0.937255 0.419608
0.227451 0.000000 0.364706
0.262745 0.000000 0.368627
0.333333 0.000000 0.372549
0.427451 0.000000 0.384314
0.525490 0.000000 0.396078
0.623529 0.000000 0.407843
0.729412 0.000000 0.419608
0.835294 0.000000 0.431373
0.945098 0.000000 0.443137
0.192157 0.074510 0.345098
0.231373 0.066667 0.349020
0.309804 0.054902 0.356863
0.403922 0.035294 0.368627
0.505882 0.019608 0.384314
0.611765 0.011765 0.400000
0.717647 0.003922 0.415686
0.827451 0.000000 0.431373
0.937255 0.000000 0.443137
0.172549 0.227451 0.352941
0.219608 0.223529 0.352941
0.309804 0.211765 0.360784
0.407843 0.203922 0.372549
0.505882 0.203922 0.392157
0.603922 0.203922 0.407843
0.713725 0.203922 0.423529
0.823529 0.200000 0.439216
0.937255 0.196078 0.454902
0.000000 0.356863 0.345098
0.090196 0.356863 0.341176
0.254902 0.349020 0.325490
0.396078 0.337255 0.345098
0.486275 0.337255 0.392157
0.584314 0.337255 0.415686
0.690196 0.333333 0.431373
0.803922 0.325490 0.443137
0.909804 0.313725 0.447059
0.000000 0.470588 0.396078
0.000000 0.470588 0.396078
0.149020 0.470588 0.392157
0.309804 0.466667 0.400000
0.415686 0.470588 0.431373
0.549020 0.466667 0.443137
0.674510 0.466667 0.458824
0.800000 0.458824 0.470588
0.921569 0.454902 0.482353
0.000000 0.576471 0.427451
0.000000 0.576471 0.427451
0.156863 0.576471 0.431373
0.309804 0.572549 0.435294
0.439216 0.572549 0.447059
0.560784 0.568627 0.470588
0.658824 0.576471 0.490196
0.803922 0.568627 0.521569
0.929412 0.576471 0.525490
0.000000 0.694118 0.454902
0.000000 0.694118 0.454902
0.188235 0.694118 0.454902
0.329412 0.690196 0.458824
0.458824 0.690196 0.466667
0.584314 0.690196 0.474510
0.701961 0.694118 0.474510
0.796078 0.705882 0.513725
0.929412 0.698039 0.580392
0.000000 0.823529 0.482353
0.043137 0.823529 0.486275
0.215686 0.823529 0.486275
0.352941 0.823529 0.490196
0.482353 0.823529 0.494118
0.607843 0.819608 0.494118
0.733333 0.819608 0.490196
0.847059 0.823529 0.466667
0.933333 0.831373 0.494118
0.000000 0.941176 0.501961
0.015686 0.941176 0.501961
0.207843 0.941176 0.501961
0.345098 0.937255 0.501961
0.474510 0.937255 0.505882
0.600000 0.933333 0.505882
0.721569 0.929412 0.505882
0.835294 0.929412 0.501961
0.945098 0.937255 0.501961
0.282353 0.000000 0.466667
0.309804 0.000000 0.470588
0.368627 0.000000 0.474510
0.450980 0.000000 0.482353
0.549020 0.000000 0.490196
0.647059 0.000000 0.498039
0.745098 0.000000 0.509804
0.850980 0.000000 0.521569
0.956863 0.000000 0.533333
0.247059 0.050980 0.450980
0.278431 0.047059 0.450980
0.345098 0.031373 0.458824
0.431373 0.003922 0.466667
0.529412 0.000000 0.478431
0.631373 0.000000 0.490196
0.737255 0.000000 0.505882
0.843137 0.000000 0.517647
0.949020 0.000000 0.529412
0.235294 0.219608 0.466667
0.270588 0.215686 0.466667
0.341176 0.207843 0.470588
0.431373 0.200000 0.474510
0.529412 0.188235 0.486275
0.631373 0.180392 0.498039
0.733333 0.176471 0.513725
0.843137 0.176471 0.525490
0.949020 0.168627 0.541176
0.160784 0.345098 0.458824
0.211765 0.345098 0.458824
0.309804 0.341176 0.458824
0.419608 0.329412 0.466667
0.521569 0.321569 0.482353
0.619608 0.317647 0.498039
0.717647 0.317647 0.513725
0.819608 0.309804 0.525490
0.921569 0.301961 0.533333
0.000000 0.474510 0.466667
0.000000 0.474510 0.462745
0.188235 0.470588 0.450980
0.356863 0.466667 0.431373
0.509804 0.450980 0.450980
0.600000 0.450980 0.501961
0.701961 0.450980 0.529412
0.811765 0.450980 0.545098
0.929412 0.450980 0.560784
0.000000 0.580392 0.505882
0.000000 0.580392 0.501961
0.062745 0.580392 0.501961
0.270588 0.580392 0.498039
0.415686 0.576471 0.505882
0.521569 0.580392 0.537255
0.658824 0.580392 0.552941
0.788235 0.580392 0.572549
0.921569 0.584314 0.592157
0.000000 0.698039 0.541176
0.000000 0.698039 0.541176
0.105882 0.698039 0.541176
0.286275 0.694118 0.545098
0.431373 0.694118 0.552941
0.560784 0.694118 0.568627
0.686275 0.698039 0.596078
0.788235 0.705882 0.619608
0.929412 0.701961 0.647059
0.000000 0.823529 0.576471
0.000000 0.827451 0.580392
0.168627 0.827451 0.580392
0.325490 0.823529 0.584314
0.462745 0.823529 0.588235
0.592157 0.823529 0.596078
0.717647 0.823529 0.607843
0.831373 0.823529 0.603922
0.921569 0.831373 0.635294
0.000000 0.941176 0.596078
0.000000 0.941176 0.596078
0.176471 0.941176 0.596078
0.329412 0.937255 0.600000
0.462745 0.937255 0.600000
0.592157 0.933333 0.603922
0.717647 0.929412 0.603922
0.843137 0.929412 0.600000
0.964706 0.937255 0.580392
0.337255 0.000000 0.572549
0.360784 0.000000 0.576471
0.407843 0.000000 0.576471
0.482353 0.000000 0.580392
0.572549 0.000000 0.588235
0.666667 0.000000 0.596078
0.764706 0.000000 0.603922
0.866667 0.000000 0.611765
0.972549 0.000000 0.623529
0.301961 0.015686 0.552941
0.329412 0.011765 0.556863
0.384314 0.000000 0.560784
0.462745 0.000000 0.568627
0.556863 0.000000 0.576471
0.654902 0.000000 0.588235
0.756863 0.000000 0.600000
0.858824 0.000000 0.607843
0.964706 0.000000 0.619608
0.294118 0.207843 0.572549
0.321569 0.203922 0.572549
0.376471 0.200000 0.572549
0.458824 0.188235 0.576471
0.552941 0.176471 0.584314
0.650980 0.164706 0.592157
0.756863 0.152941 0.603922
0.858824 0.141176 0.615686
0.964706 0.129412 0.627451
0.247059 0.337255 0.568627
0.282353 0.337255 0.568627
0.349020 0.333333 0.572549
0.443137 0.325490 0.576471
0.541176 0.317647 0.584314
0.643137 0.305882 0.592157
0.741176 0.298039 0.603922
0.839216 0.290196 0.611765
0.941176 0.278431 0.619608
0.117647 0.466667 0.568627
0.180392 0.466667 0.564706
0.286275 0.462745 0.564706
0.407843 0.454902 0.564706
0.529412 0.443137 0.572549
0.635294 0.435294 0.592157
0.737255 0.435294 0.611765
0.839216 0.435294 0.627451
0.949020 0.435294 0.643137
0.000000 0.580392 0.580392
0.000000 0.584314 0.576471
0.082353 0.580392 0.572549
0.286275 0.580392 0.556863
0.458824 0.572549 0.533333
0.615686 0.556863 0.556863
0.709804 0.560784 0.611765
0.819608 0.568627 0.643137
0.937255 0.576471 0.666667
0.000000 0.701961 0.623529
0.000000 0.701961 0.623529
0.000000 0.701961 0.619608
0.235294 0.701961 0.619608
0.396078 0.701961 0.619608
0.541176 0.701961 0.631373
0.650980 0.709804 0.666667
0.788235 0.709804 0.682353
0.913725 0.709804 0.701961
0.000000 0.827451 0.666667
0.000000 0.827451 0.666667
0.043137 0.831373 0.670588
0.274510 0.831373 0.670588
0.427451 0.831373 0.678431
0.560784 0.827451 0.686275
0.690196 0.827451 0.698039
0.811765 0.827451 0.725490
0.913725 0.831373 0.745098
0.000000 0.945098 0.690196
0.000000 0.945098 0.690196
0.101961 0.941176 0.690196
0.294118 0.941176 0.694118
0.439216 0.937255 0.694118
0.572549 0.937255 0.701961
0.701961 0.933333 0.705882
0.823529 0.933333 0.717647
0.945098 0.941176 0.725490
0.392157 0.000000 0.678431
0.407843 0.000000 0.678431
0.450980 0.000000 0.682353
0.517647 0.000000 0.682353
0.600000 0.000000 0.686275
0.686275 0.000000 0.690196
0.784314 0.000000 0.698039
0.882353 0.000000 0.705882
0.984314 0.000000 0.713725
0.364706 0.000000 0.662745
0.384314 0.000000 0.662745
0.431373 0.000000 0.666667
0.498039 0.000000 0.674510
0.584314 0.000000 0.678431
0.678431 0.000000 0.686275
0.776471 0.000000 0.694118
0.878431 0.000000 0.701961
0.976471 0.000000 0.709804
0.352941 0.200000 0.674510
0.372549 0.196078 0.674510
0.419608 0.188235 0.678431
0.490196 0.180392 0.678431
0.580392 0.164706 0.686275
0.674510 0.149020 0.690196
0.772549 0.125490 0.698039
0.874510 0.098039 0.705882
0.976471 0.062745 0.713725
0.313725 0.329412 0.674510
0.337255 0.329412 0.674510
0.392157 0.325490 0.678431
0.474510 0.317647 0.682353
0.564706 0.309804 0.686275
0.662745 0.298039 0.690196
0.760784 0.282353 0.694118
0.858824 0.270588 0.698039
0.956863 0.254902 0.705882
0.243137 0.454902 0.674510
0.278431 0.454902 0.674510
0.349020 0.450980 0.678431
0.443137 0.447059 0.678431
0.545098 0.439216 0.682353
0.650980 0.427451 0.690196
0.752941 0.419608 0.701961
0.858824 0.415686 0.713725
0.968627 0.419608 0.729412
0.000000 0.572549 0.670588
0.090196 0.572549 0.670588
0.231373 0.572549 0.666667
0.364706 0.564706 0.662745
0.501961 0.556863 0.662745
0.631373 0.549020 0.674510
0.745098 0.545098 0.698039
0.854902 0.552941 0.721569
0.968627 0.564706 0.752941
0.000000 0.701961 0.698039
0.000000 0.701961 0.698039
0.000000 0.701961 0.694118
0.235294 0.701961 0.690196
0.407843 0.705882 0.674510
0.584314 0.701961 0.654902
0.745098 0.690196 0.682353
0.843137 0.694118 0.741176
0.949020 0.698039 0.768627
0.000000 0.835294 0.752941
0.000000 0.835294 0.752941
0.000000 0.835294 0.752941
0.211765 0.835294 0.752941
0.384314 0.835294 0.749020
0.533333 0.835294 0.749020
0.674510 0.835294 0.760784
0.776471 0.839216 0.792157
0.909804 0.831373 0.803922
0.000000 0.945098 0.780392
0.000000 0.945098 0.780392
0.000000 0.945098 0.780392
0.231373 0.945098 0.780392
0.396078 0.945098 0.784314
0.537255 0.941176 0.784314
0.674510 0.941176 0.792157
0.800000 0.937255 0.807843
0.937255 0.952941 0.850980
0.447059 0.000000 0.784314
0.458824 0.000000 0.780392
0.498039 0.000000 0.784314
0.552941 0.000000 0.784314
0.627451 0.000000 0.784314
0.709804 0.000000 0.788235
0.803922 0.000000 0.792157
0.898039 0.000000 0.796078
0.996078 0.000000 0.800000
0.419608 0.000000 0.768627
0.439216 0.000000 0.772549
0.478431 0.000000 0.772549
0.537255 0.000000 0.776471
0.615686 0.000000 0.780392
0.701961 0.000000 0.784314
0.796078 0.000000 0.788235
0.894118 0.000000 0.796078
0.992157 0.000000 0.800000
0.407843 0.184314 0.780392
0.423529 0.180392 0.776471
0.466667 0.176471 0.780392
0.529412 0.164706 0.780392
0.607843 0.149020 0.784314
0.698039 0.125490 0.788235
0.792157 0.094118 0.792157
0.890196 0.031373 0.796078
0.988235 0.000000 0.803922
0.372549 0.321569 0.776471
0.392157 0.321569 0.780392
0.439216 0.317647 0.780392
0.505882 0.309804 0.780392
0.588235 0.301961 0.784314
0.682353 0.286275 0.784314
0.776471 0.270588 0.788235
0.870588 0.247059 0.788235
0.972549 0.235294 0.800000
0.321569 0.447059 0.780392
0.345098 0.447059 0.780392
0.400000 0.443137 0.780392
0.474510 0.435294 0.780392
0.568627 0.427451 0.784314
0.666667 0.419608 0.788235
0.768627 0.407843 0.792157
0.874510 0.403922 0.803922
0.984314 0.400000 0.819608
0.203922 0.560784 0.768627
0.243137 0.560784 0.768627
0.317647 0.556863 0.768627
0.419608 0.552941 0.772549
0.529412 0.549020 0.776471
0.647059 0.541176 0.784314
0.760784 0.537255 0.796078
0.874510 0.541176 0.815686
0.992157 0.549020 0.843137
0.000000 0.694118 0.788235
0.000000 0.694118 0.788235
0.172549 0.694118 0.788235
0.329412 0.694118 0.784314
0.474510 0.694118 0.784314
0.627451 0.690196 0.788235
0.768627 0.686275 0.803922
0.882353 0.682353 0.827451
0.988235 0.682353 0.854902
0.000000 0.835294 0.835294
0.000000 0.835294 0.835294
0.000000 0.839216 0.835294
0.203922 0.839216 0.831373
0.380392 0.839216 0.823529
0.537255 0.839216 0.807843
0.709804 0.831373 0.780392
0.870588 0.815686 0.803922
0.964706 0.815686 0.858824
0.000000 0.949020 0.866667
0.000000 0.949020 0.866667
0.000000 0.949020 0.862745
0.141176 0.949020 0.862745
0.345098 0.949020 0.858824
0.498039 0.949020 0.858824
0.643137 0.949020 0.858824
0.788235 0.949020 0.874510
0.905882 0.972549 0.925490
