luts/PictureFX Acros 100 II + Red Filter (Picture comparison is between normal Acros and Acros + Filter).cube
#Generated with IWLTBAP LUT Generator
#Website: http://luts.iwltbap.com
TITLE "PictureFX-Acros-100-II-RedFilter"
#LUT size
LUT_3D_SIZE 25
#LUT data points
0.000000 0.000000 0.000000
0.000000 0.000000 0.000000
0.007843 0.007843 0.007843
0.023529 0.023529 0.023529
0.047059 0.047059 0.047059
0.086275 0.086275 0.086275
0.137255 0.137255 0.137255
0.207843 0.207843 0.207843
0.274510 0.274510 0.274510
0.333333 0.333333 0.333333
0.392157 0.392157 0.392157
0.443137 0.443137 0.443137
0.490196 0.490196 0.490196
0.537255 0.537255 0.537255
0.584314 0.584314 0.584314
0.627451 0.627451 0.627451
0.662745 0.666667 0.666667
0.698039 0.698039 0.698039
0.733333 0.733333 0.733333
0.760784 0.764706 0.764706
0.792157 0.792157 0.792157
0.815686 0.815686 0.819608
0.843137 0.843137 0.843137
0.866667 0.866667 0.866667
0.890196 0.890196 0.890196
0.000000 0.000000 0.000000
0.003922 0.003922 0.003922
0.011765 0.011765 0.011765
0.027451 0.027451 0.027451
0.054902 0.054902 0.054902
0.090196 0.090196 0.090196
0.141176 0.141176 0.141176
0.215686 0.215686 0.215686
0.278431 0.278431 0.278431
0.341176 0.341176 0.341176
0.396078 0.396078 0.396078
0.447059 0.447059 0.447059
0.494118 0.494118 0.494118
0.541176 0.541176 0.541176
0.584314 0.584314 0.584314
0.627451 0.627451 0.627451
0.666667 0.666667 0.666667
0.701961 0.701961 0.701961
0.733333 0.733333 0.733333
0.764706 0.764706 0.764706
0.792157 0.792157 0.792157
0.819608 0.819608 0.819608
0.843137 0.843137 0.843137
0.866667 0.866667 0.866667
0.890196 0.890196 0.890196
0.003922 0.003922 0.003922
0.011765 0.011765 0.011765
0.019608 0.019608 0.019608
0.035294 0.035294 0.035294
0.062745 0.062745 0.062745
0.101961 0.101961 0.101961
0.152941 0.152941 0.152941
0.223529 0.223529 0.223529
0.286275 0.286275 0.286275
0.345098 0.345098 0.345098
0.400000 0.400000 0.400000
0.450980 0.450980 0.450980
0.498039 0.498039 0.498039
0.541176 0.541176 0.541176
0.588235 0.588235 0.588235
0.631373 0.631373 0.631373
0.666667 0.666667 0.666667
0.701961 0.701961 0.701961
0.733333 0.733333 0.733333
0.764706 0.764706 0.764706
0.792157 0.792157 0.792157
0.819608 0.819608 0.819608
0.843137 0.843137 0.843137
0.866667 0.866667 0.866667
0.890196 0.890196 0.890196
0.015686 0.015686 0.015686
0.023529 0.023529 0.023529
0.035294 0.035294 0.035294
0.050980 0.050980 0.050980
0.074510 0.074510 0.074510
0.113725 0.113725 0.113725
0.172549 0.172549 0.172549
0.235294 0.235294 0.235294
0.298039 0.298039 0.298039
0.352941 0.352941 0.352941
0.407843 0.407843 0.407843
0.454902 0.454902 0.454902
0.501961 0.501961 0.501961
0.549020 0.549020 0.549020
0.592157 0.592157 0.592157
0.635294 0.635294 0.635294
0.670588 0.670588 0.670588
0.705882 0.705882 0.705882
0.737255 0.737255 0.737255
0.768627 0.768627 0.768627
0.796078 0.796078 0.796078
0.819608 0.819608 0.819608
0.847059 0.847059 0.847059
0.870588 0.870588 0.870588
0.890196 0.890196 0.890196
0.039216 0.039216 0.039216
0.047059 0.047059 0.047059
0.062745 0.062745 0.062745
0.078431 0.078431 0.078431
0.101961 0.101961 0.101961
0.133333 0.137255 0.137255
0.196078 0.196078 0.196078
0.254902 0.254902 0.254902
0.313725 0.313725 0.313725
0.364706 0.364706 0.364706
0.415686 0.415686 0.415686
0.462745 0.462745 0.462745
0.509804 0.509804 0.509804
0.552941 0.552941 0.552941
0.596078 0.596078 0.596078
0.639216 0.639216 0.639216
0.674510 0.674510 0.674510
0.709804 0.709804 0.709804
0.741176 0.741176 0.741176
0.768627 0.768627 0.768627
0.796078 0.796078 0.796078
0.823529 0.823529 0.823529
0.847059 0.847059 0.847059
0.870588 0.870588 0.870588
0.894118 0.894118 0.894118
0.082353 0.082353 0.082353
0.094118 0.094118 0.094118
0.109804 0.109804 0.109804
0.129412 0.129412 0.129412
0.152941 0.152941 0.152941
0.180392 0.180392 0.180392
0.223529 0.223529 0.223529
0.274510 0.274510 0.274510
0.329412 0.329412 0.329412
0.380392 0.380392 0.380392
0.427451 0.427451 0.427451
0.474510 0.474510 0.474510
0.517647 0.517647 0.517647
0.560784 0.560784 0.560784
0.603922 0.603922 0.603922
0.643137 0.643137 0.643137
0.678431 0.678431 0.678431
0.713725 0.713725 0.713725
0.745098 0.745098 0.745098
0.772549 0.772549 0.772549
0.800000 0.800000 0.800000
0.823529 0.823529 0.823529
0.850980 0.850980 0.850980
0.870588 0.874510 0.874510
0.894118 0.894118 0.894118
0.137255 0.137255 0.137255
0.145098 0.145098 0.145098
0.160784 0.160784 0.160784
0.180392 0.180392 0.180392
0.203922 0.203922 0.203922
0.231373 0.231373 0.231373
0.262745 0.262745 0.262745
0.301961 0.301961 0.301961
0.352941 0.352941 0.352941
0.400000 0.400000 0.400000
0.443137 0.443137 0.443137
0.486275 0.486275 0.486275
0.529412 0.529412 0.529412
0.572549 0.572549 0.572549
0.611765 0.611765 0.611765
0.650980 0.650980 0.650980
0.686275 0.686275 0.686275
0.717647 0.717647 0.717647
0.749020 0.749020 0.749020
0.776471 0.776471 0.776471
0.803922 0.803922 0.803922
0.827451 0.827451 0.827451
0.850980 0.850980 0.850980
0.874510 0.874510 0.874510
0.898039 0.898039 0.898039
0.184314 0.184314 0.184314
0.192157 0.192157 0.192157
0.203922 0.203922 0.203922
0.223529 0.223529 0.223529
0.247059 0.247059 0.247059
0.274510 0.274510 0.274510
0.305882 0.305882 0.305882
0.337255 0.337255 0.337255
0.376471 0.376471 0.376471
0.415686 0.415686 0.419608
0.458824 0.458824 0.458824
0.501961 0.501961 0.501961
0.541176 0.541176 0.541176
0.584314 0.584314 0.584314
0.623529 0.623529 0.623529
0.658824 0.658824 0.658824
0.694118 0.694118 0.694118
0.725490 0.725490 0.725490
0.752941 0.752941 0.752941
0.780392 0.780392 0.780392
0.807843 0.807843 0.807843
0.831373 0.831373 0.831373
0.854902 0.854902 0.854902
0.878431 0.878431 0.878431
0.898039 0.898039 0.898039
0.227451 0.227451 0.227451
0.235294 0.235294 0.235294
0.247059 0.247059 0.247059
0.262745 0.262745 0.262745
0.282353 0.282353 0.282353
0.309804 0.309804 0.309804
0.337255 0.337255 0.337255
0.368627 0.368627 0.368627
0.403922 0.403922 0.403922
0.439216 0.439216 0.439216
0.478431 0.478431 0.478431
0.517647 0.517647 0.517647
0.556863 0.556863 0.556863
0.596078 0.596078 0.596078
0.635294 0.635294 0.635294
0.670588 0.670588 0.670588
0.701961 0.701961 0.701961
0.729412 0.729412 0.729412
0.760784 0.760784 0.760784
0.788235 0.788235 0.788235
0.811765 0.811765 0.811765
0.835294 0.835294 0.835294
0.858824 0.858824 0.858824
0.882353 0.882353 0.882353
0.901961 0.901961 0.901961
0.262745 0.262745 0.262745
0.270588 0.270588 0.270588
0.282353 0.282353 0.282353
0.298039 0.298039 0.298039
0.317647 0.317647 0.317647
0.341176 0.341176 0.341176
0.364706 0.364706 0.364706
0.396078 0.396078 0.396078
0.427451 0.427451 0.427451
0.462745 0.462745 0.462745
0.498039 0.498039 0.498039
0.537255 0.537255 0.537255
0.572549 0.572549 0.572549
0.611765 0.611765 0.611765
0.647059 0.647059 0.647059
0.678431 0.678431 0.678431
0.709804 0.709804 0.709804
0.737255 0.737255 0.737255
0.768627 0.768627 0.768627
0.792157 0.792157 0.792157
0.819608 0.819608 0.819608
0.843137 0.843137 0.843137
0.862745 0.862745 0.862745
0.886275 0.886275 0.886275
0.905882 0.905882 0.905882
0.301961 0.301961 0.301961
0.309804 0.309804 0.309804
0.317647 0.317647 0.317647
0.329412 0.329412 0.329412
0.349020 0.349020 0.349020
0.368627 0.368627 0.368627
0.396078 0.396078 0.396078
0.423529 0.423529 0.423529
0.450980 0.450980 0.450980
0.486275 0.486275 0.486275
0.521569 0.521569 0.521569
0.556863 0.556863 0.556863
0.592157 0.592157 0.592157
0.627451 0.627451 0.627451
0.658824 0.658824 0.658824
0.690196 0.690196 0.690196
0.721569 0.721569 0.721569
0.749020 0.749020 0.749020
0.776471 0.776471 0.776471
0.800000 0.800000 0.800000
0.823529 0.823529 0.823529
0.847059 0.847059 0.847059
0.870588 0.870588 0.870588
0.890196 0.890196 0.890196
0.909804 0.909804 0.909804
0.337255 0.337255 0.337255
0.345098 0.345098 0.345098
0.352941 0.352941 0.352941
0.364706 0.364706 0.364706
0.380392 0.380392 0.380392
0.400000 0.400000 0.400000
0.423529 0.423529 0.423529
0.450980 0.450980 0.450980
0.478431 0.478431 0.478431
0.509804 0.509804 0.509804
0.541176 0.541176 0.541176
0.576471 0.576471 0.576471
0.611765 0.611765 0.611765
0.643137 0.643137 0.643137
0.674510 0.674510 0.674510
0.701961 0.701961 0.701961
0.729412 0.729412 0.729412
0.756863 0.756863 0.756863
0.784314 0.784314 0.784314
0.807843 0.807843 0.807843
0.831373 0.831373 0.831373
0.854902 0.854902 0.854902
0.874510 0.874510 0.874510
0.894118 0.894118 0.894118
0.913725 0.913725 0.913725
0.376471 0.376471 0.376471
0.380392 0.380392 0.380392
0.388235 0.388235 0.388235
0.400000 0.400000 0.400000
0.411765 0.411765 0.411765
0.431373 0.431373 0.431373
0.450980 0.450980 0.450980
0.474510 0.474510 0.474510
0.501961 0.501961 0.501961
0.529412 0.529412 0.529412
0.560784 0.560784 0.560784
0.592157 0.592157 0.592157
0.623529 0.623529 0.623529
0.658824 0.658824 0.658824
0.690196 0.690196 0.690196
0.717647 0.717647 0.717647
0.741176 0.741176 0.741176
0.768627 0.768627 0.768627
0.792157 0.792157 0.792157
0.815686 0.815686 0.815686
0.839216 0.839216 0.839216
0.858824 0.858824 0.858824
0.882353 0.882353 0.882353
0.901961 0.901961 0.901961
0.921569 0.921569 0.921569
0.407843 0.407843 0.407843
0.411765 0.411765 0.411765
0.419608 0.419608 0.419608
0.427451 0.427451 0.427451
0.443137 0.443137 0.443137
0.458824 0.458824 0.458824
0.478431 0.478431 0.478431
0.498039 0.498039 0.498039
0.521569 0.521569 0.521569
0.549020 0.549020 0.549020
0.576471 0.576471 0.576471
0.603922 0.603922 0.603922
0.635294 0.635294 0.635294
0.666667 0.666667 0.666667
0.701961 0.701961 0.701961
0.729412 0.729412 0.729412
0.752941 0.752941 0.752941
0.780392 0.780392 0.780392
0.800000 0.803922 0.803922
0.823529 0.823529 0.823529
0.847059 0.847059 0.847059
0.866667 0.866667 0.866667
0.886275 0.886275 0.886275
0.905882 0.905882 0.905882
0.925490 0.925490 0.925490
0.443137 0.443137 0.443137
0.447059 0.447059 0.447059
0.450980 0.450980 0.450980
0.458824 0.458824 0.458824
0.470588 0.470588 0.470588
0.486275 0.486275 0.486275
0.501961 0.501961 0.501961
0.521569 0.521569 0.521569
0.545098 0.545098 0.545098
0.568627 0.568627 0.568627
0.592157 0.592157 0.592157
0.619608 0.619608 0.619608
0.647059 0.647059 0.647059
0.678431 0.678431 0.678431
0.709804 0.709804 0.709804
0.741176 0.741176 0.741176
0.768627 0.768627 0.768627
0.788235 0.788235 0.792157
0.811765 0.811765 0.811765
0.835294 0.835294 0.835294
0.854902 0.854902 0.854902
0.874510 0.874510 0.874510
0.894118 0.894118 0.894118
0.913725 0.913725 0.913725
0.929412 0.929412 0.929412
0.474510 0.474510 0.474510
0.478431 0.478431 0.478431
0.482353 0.482353 0.482353
0.490196 0.490196 0.490196
0.498039 0.498039 0.498039
0.513725 0.513725 0.513725
0.525490 0.525490 0.525490
0.545098 0.545098 0.545098
0.564706 0.564706 0.564706
0.584314 0.584314 0.584314
0.607843 0.607843 0.607843
0.635294 0.635294 0.635294
0.658824 0.658824 0.658824
0.686275 0.686275 0.686275
0.717647 0.717647 0.717647
0.745098 0.745098 0.745098
0.776471 0.776471 0.776471
0.800000 0.803922 0.803922
0.823529 0.823529 0.823529
0.843137 0.843137 0.843137
0.862745 0.862745 0.862745
0.882353 0.882353 0.882353
0.901961 0.901961 0.901961
0.917647 0.917647 0.917647
0.937255 0.937255 0.937255
0.505882 0.505882 0.505882
0.505882 0.505882 0.505882
0.509804 0.509804 0.509804
0.517647 0.517647 0.517647
0.525490 0.525490 0.525490
0.537255 0.537255 0.537255
0.549020 0.549020 0.552941
0.564706 0.564706 0.564706
0.584314 0.584314 0.584314
0.603922 0.603922 0.603922
0.623529 0.623529 0.623529
0.647059 0.647059 0.647059
0.670588 0.670588 0.670588
0.698039 0.698039 0.698039
0.725490 0.725490 0.725490
0.749020 0.749020 0.749020
0.780392 0.780392 0.780392
0.807843 0.807843 0.807843
0.835294 0.835294 0.835294
0.854902 0.854902 0.854902
0.874510 0.874510 0.874510
0.890196 0.890196 0.890196
0.909804 0.909804 0.909804
0.925490 0.925490 0.925490
0.941176 0.941176 0.941176
0.533333 0.533333 0.533333
0.537255 0.537255 0.537255
0.541176 0.541176 0.541176
0.545098 0.545098 0.545098
0.552941 0.552941 0.552941
0.560784 0.560784 0.560784
0.572549 0.572549 0.572549
0.588235 0.588235 0.588235
0.603922 0.603922 0.603922
0.623529 0.623529 0.623529
0.639216 0.639216 0.639216
0.662745 0.662745 0.662745
0.682353 0.682353 0.682353
0.705882 0.705882 0.705882
0.733333 0.733333 0.733333
0.756863 0.756863 0.756863
0.784314 0.784314 0.784314
0.811765 0.811765 0.811765
0.839216 0.839216 0.839216
0.862745 0.862745 0.862745
0.882353 0.882353 0.882353
0.901961 0.901961 0.901961
0.917647 0.917647 0.917647
0.933333 0.933333 0.933333
0.949020 0.949020 0.949020
0.560784 0.560784 0.560784
0.564706 0.564706 0.564706
0.564706 0.564706 0.568627
0.572549 0.572549 0.572549
0.576471 0.576471 0.580392
0.588235 0.588235 0.588235
0.596078 0.596078 0.596078
0.611765 0.611765 0.611765
0.623529 0.623529 0.623529
0.639216 0.639216 0.639216
0.658824 0.658824 0.658824
0.678431 0.678431 0.678431
0.698039 0.698039 0.698039
0.717647 0.717647 0.717647
0.741176 0.741176 0.741176
0.764706 0.764706 0.764706
0.788235 0.788235 0.788235
0.815686 0.815686 0.815686
0.839216 0.839216 0.839216
0.866667 0.866667 0.866667
0.890196 0.890196 0.890196
0.909804 0.909804 0.909804
0.925490 0.925490 0.925490
0.941176 0.941176 0.941176
0.956863 0.956863 0.956863
0.588235 0.588235 0.588235
0.588235 0.588235 0.588235
0.592157 0.592157 0.592157
0.596078 0.596078 0.596078
0.603922 0.603922 0.603922
0.611765 0.611765 0.611765
0.619608 0.619608 0.619608
0.631373 0.631373 0.631373
0.643137 0.643137 0.643137
0.658824 0.658824 0.658824
0.674510 0.674510 0.674510
0.690196 0.690196 0.690196
0.709804 0.709804 0.709804
0.729412 0.729412 0.729412
0.749020 0.752941 0.752941
0.772549 0.772549 0.772549
0.796078 0.796078 0.796078
0.819608 0.819608 0.819608
0.843137 0.843137 0.843137
0.866667 0.866667 0.866667
0.894118 0.894118 0.894118
0.917647 0.917647 0.917647
0.933333 0.933333 0.933333
0.949020 0.949020 0.949020
0.964706 0.964706 0.964706
0.611765 0.611765 0.611765
0.615686 0.615686 0.615686
0.615686 0.615686 0.615686
0.619608 0.619608 0.619608
0.627451 0.627451 0.627451
0.631373 0.631373 0.631373
0.643137 0.643137 0.643137
0.650980 0.650980 0.650980
0.662745 0.662745 0.662745
0.674510 0.674510 0.674510
0.690196 0.690196 0.690196
0.705882 0.705882 0.705882
0.721569 0.721569 0.721569
0.741176 0.741176 0.741176
0.760784 0.760784 0.760784
0.780392 0.780392 0.780392
0.803922 0.803922 0.803922
0.823529 0.823529 0.823529
0.847059 0.847059 0.847059
0.870588 0.870588 0.870588
0.894118 0.894118 0.894118
0.917647 0.917647 0.917647
0.941176 0.941176 0.941176
0.956863 0.956863 0.956863
0.968627 0.968627 0.968627
0.635294 0.635294 0.635294
0.639216 0.639216 0.639216
0.639216 0.639216 0.639216
0.643137 0.643137 0.643137
0.647059 0.647059 0.647059
0.654902 0.654902 0.654902
0.662745 0.662745 0.662745
0.670588 0.670588 0.670588
0.682353 0.682353 0.682353
0.694118 0.694118 0.694118
0.705882 0.705882 0.705882
0.721569 0.721569 0.721569
0.737255 0.737255 0.737255
0.752941 0.752941 0.752941
0.772549 0.772549 0.772549
0.788235 0.788235 0.788235
0.807843 0.807843 0.807843
0.827451 0.827451 0.827451
0.850980 0.850980 0.850980
0.870588 0.870588 0.870588
0.894118 0.894118 0.894118
0.917647 0.917647 0.917647
0.937255 0.937255 0.937255
0.960784 0.960784 0.960784
0.976471 0.976471 0.976471
0.658824 0.658824 0.658824
0.658824 0.658824 0.658824
0.662745 0.662745 0.662745
0.666667 0.666667 0.666667
0.670588 0.670588 0.670588
0.674510 0.674510 0.674510
0.682353 0.682353 0.682353
0.690196 0.690196 0.690196
0.698039 0.698039 0.698039
0.709804 0.709804 0.709804
0.721569 0.721569 0.721569
0.733333 0.733333 0.733333
0.749020 0.749020 0.749020
0.764706 0.764706 0.764706
0.780392 0.780392 0.780392
0.800000 0.800000 0.800000
0.815686 0.815686 0.815686
0.835294 0.835294 0.835294
0.854902 0.854902 0.854902
0.874510 0.874510 0.874510
0.894118 0.894118 0.894118
0.917647 0.917647 0.917647
0.937255 0.937255 0.937255
0.960784 0.960784 0.960784
0.980392 0.980392 0.980392
0.682353 0.682353 0.682353
0.682353 0.682353 0.682353
0.682353 0.682353 0.682353
0.686275 0.686275 0.686275
0.690196 0.690196 0.690196
0.694118 0.694118 0.694118
0.701961 0.701961 0.701961
0.709804 0.709804 0.709804
0.717647 0.717647 0.717647
0.725490 0.725490 0.725490
0.737255 0.737255 0.737255
0.749020 0.749020 0.749020
0.764706 0.764706 0.764706
0.776471 0.776471 0.776471
0.792157 0.792157 0.792157
0.807843 0.807843 0.807843
0.823529 0.823529 0.823529
0.843137 0.843137 0.843137
0.858824 0.858824 0.858824
0.878431 0.878431 0.878431
0.898039 0.898039 0.898039
0.917647 0.917647 0.917647
0.937255 0.937255 0.937255
0.960784 0.960784 0.960784
0.980392 0.980392 0.980392
0.701961 0.701961 0.701961
0.701961 0.701961 0.701961
0.705882 0.705882 0.705882
0.705882 0.705882 0.705882
0.709804 0.709804 0.709804
0.713725 0.713725 0.713725
0.721569 0.721569 0.721569
0.729412 0.729412 0.729412
0.733333 0.733333 0.737255
0.745098 0.745098 0.745098
0.752941 0.752941 0.752941
0.764706 0.764706 0.764706
0.776471 0.776471 0.776471
0.788235 0.788235 0.788235
0.803922 0.803922 0.803922
0.819608 0.819608 0.819608
0.835294 0.835294 0.835294
0.850980 0.850980 0.850980
0.866667 0.866667 0.866667
0.886275 0.886275 0.886275
0.901961 0.901961 0.901961
0.921569 0.921569 0.921569
0.941176 0.941176 0.941176
0.960784 0.960784 0.960784
0.980392 0.980392 0.980392
0.000000 0.000000 0.000000
0.000000 0.000000 0.000000
0.007843 0.007843 0.007843
0.027451 0.027451 0.027451
0.050980 0.050980 0.050980
0.086275 0.086275 0.086275
0.137255 0.137255 0.137255
0.211765 0.211765 0.211765
0.274510 0.274510 0.274510
0.337255 0.337255 0.337255
0.392157 0.392157 0.392157
0.443137 0.443137 0.443137
0.490196 0.490196 0.490196
0.537255 0.537255 0.537255
0.584314 0.584314 0.584314
0.627451 0.627451 0.627451
0.666667 0.666667 0.666667
0.701961 0.701961 0.701961
0.733333 0.733333 0.733333
0.764706 0.764706 0.764706
0.792157 0.792157 0.792157
0.819608 0.819608 0.819608
0.843137 0.843137 0.843137
0.866667 0.866667 0.866667
0.890196 0.890196 0.890196
0.000000 0.000000 0.000000
0.003922 0.003922 0.003922
0.015686 0.015686 0.015686
0.031373 0.031373 0.031373
0.054902 0.054902 0.054902
0.094118 0.094118 0.094118
0.145098 0.145098 0.145098
0.215686 0.215686 0.215686
0.282353 0.282353 0.282353
0.341176 0.341176 0.341176
0.396078 0.396078 0.396078
0.447059 0.447059 0.447059
0.494118 0.494118 0.494118
0.541176 0.541176 0.541176
0.584314 0.584314 0.584314
0.627451 0.627451 0.627451
0.666667 0.666667 0.666667
0.701961 0.701961 0.701961
0.733333 0.733333 0.733333
0.764706 0.764706 0.764706
0.792157 0.792157 0.792157
0.819608 0.819608 0.819608
0.843137 0.843137 0.843137
0.866667 0.866667 0.866667
0.890196 0.890196 0.890196
0.003922 0.003922 0.003922
0.011765 0.011765 0.011765
0.019608 0.019608 0.019608
0.039216 0.039216 0.039216
0.062745 0.062745 0.062745
0.101961 0.101961 0.101961
0.156863 0.156863 0.156863
0.227451 0.227451 0.227451
0.286275 0.286275 0.286275
0.349020 0.349020 0.349020
0.400000 0.400000 0.400000
0.450980 0.450980 0.450980
0.498039 0.498039 0.498039
0.545098 0.545098 0.545098
0.588235 0.588235 0.588235
0.631373 0.631373 0.631373
0.666667 0.666667 0.666667
0.701961 0.701961 0.701961
0.733333 0.733333 0.733333
0.764706 0.764706 0.764706
0.792157 0.792157 0.792157
0.819608 0.819608 0.819608
0.843137 0.843137 0.843137
0.866667 0.866667 0.866667
0.890196 0.890196 0.890196
0.011765 0.011765 0.011765
0.023529 0.023529 0.023529
0.035294 0.035294 0.035294
0.050980 0.050980 0.050980
0.078431 0.078431 0.078431
0.117647 0.117647 0.117647
0.172549 0.172549 0.176471
0.239216 0.239216 0.239216
0.298039 0.298039 0.298039
0.356863 0.356863 0.356863
0.407843 0.407843 0.407843
0.454902 0.454902 0.454902
0.501961 0.501961 0.501961
0.549020 0.549020 0.549020
0.592157 0.592157 0.592157
0.635294 0.635294 0.635294
0.670588 0.670588 0.670588
0.705882 0.705882 0.705882
0.737255 0.737255 0.737255
0.768627 0.768627 0.768627
0.796078 0.796078 0.796078
0.819608 0.819608 0.819608
0.847059 0.847059 0.847059
0.870588 0.870588 0.870588
0.890196 0.890196 0.890196
0.035294 0.035294 0.035294
0.047059 0.047059 0.047059
0.062745 0.062745 0.062745
0.082353 0.082353 0.082353
0.101961 0.101961 0.101961
0.137255 0.137255 0.137255
0.200000 0.200000 0.200000
0.254902 0.254902 0.254902
0.313725 0.313725 0.313725
0.368627 0.368627 0.368627
0.419608 0.419608 0.419608
0.462745 0.462745 0.462745
0.509804 0.509804 0.509804
0.552941 0.552941 0.552941
0.600000 0.600000 0.600000
0.639216 0.639216 0.639216
0.674510 0.674510 0.674510
0.709804 0.709804 0.709804
0.741176 0.741176 0.741176
0.768627 0.768627 0.768627
0.796078 0.796078 0.796078
0.823529 0.823529 0.823529
0.847059 0.847059 0.847059
0.870588 0.870588 0.870588
0.894118 0.894118 0.894118
0.078431 0.078431 0.078431
0.090196 0.090196 0.090196
0.105882 0.105882 0.105882
0.125490 0.125490 0.125490
0.152941 0.152941 0.152941
0.184314 0.184314 0.184314
0.223529 0.223529 0.223529
0.278431 0.278431 0.278431
0.333333 0.333333 0.333333
0.384314 0.384314 0.384314
0.431373 0.431373 0.431373
0.474510 0.474510 0.474510
0.517647 0.517647 0.517647
0.560784 0.564706 0.564706
0.603922 0.603922 0.603922
0.643137 0.643137 0.643137
0.678431 0.678431 0.678431
0.713725 0.713725 0.713725
0.745098 0.745098 0.745098
0.772549 0.772549 0.772549
0.800000 0.800000 0.800000
0.823529 0.823529 0.827451
0.850980 0.850980 0.850980
0.874510 0.874510 0.874510
0.894118 0.894118 0.894118
0.129412 0.129412 0.129412
0.141176 0.141176 0.141176
0.156863 0.156863 0.156863
0.176471 0.176471 0.176471
0.200000 0.200000 0.200000
0.231373 0.231373 0.231373
0.262745 0.262745 0.262745
0.301961 0.301961 0.301961
0.352941 0.352941 0.352941
0.400000 0.400000 0.400000
0.443137 0.443137 0.443137
0.486275 0.486275 0.486275
0.529412 0.529412 0.529412
0.572549 0.572549 0.572549
0.615686 0.615686 0.615686
0.650980 0.650980 0.650980
0.686275 0.686275 0.686275
0.717647 0.717647 0.717647
0.749020 0.749020 0.749020
0.776471 0.776471 0.776471
0.803922 0.803922 0.803922
0.827451 0.827451 0.827451
0.850980 0.850980 0.850980
0.874510 0.874510 0.874510
0.898039 0.898039 0.898039
0.176471 0.176471 0.176471
0.188235 0.188235 0.188235
0.200000 0.200000 0.200000
0.219608 0.219608 0.219608
0.243137 0.243137 0.243137
0.270588 0.270588 0.270588
0.301961 0.301961 0.301961
0.337255 0.337255 0.337255
0.376471 0.376471 0.376471
0.419608 0.419608 0.419608
0.458824 0.458824 0.458824
0.501961 0.501961 0.501961
0.541176 0.541176 0.541176
0.584314 0.584314 0.584314
0.623529 0.623529 0.623529
0.658824 0.658824 0.658824
0.694118 0.694118 0.694118
0.725490 0.725490 0.725490
0.752941 0.752941 0.752941
0.780392 0.780392 0.780392
0.807843 0.807843 0.807843
0.831373 0.831373 0.831373
0.854902 0.854902 0.854902
0.878431 0.878431 0.878431
0.898039 0.898039 0.898039
0.219608 0.219608 0.219608
0.227451 0.227451 0.227451
0.239216 0.239216 0.239216
0.258824 0.258824 0.258824
0.282353 0.282353 0.282353
0.305882 0.305882 0.305882
0.337255 0.337255 0.337255
0.368627 0.368627 0.368627
0.403922 0.403922 0.403922
0.439216 0.439216 0.439216
0.478431 0.478431 0.478431
0.517647 0.517647 0.517647
0.556863 0.556863 0.556863
0.596078 0.596078 0.596078
0.635294 0.635294 0.635294
0.670588 0.670588 0.670588
0.701961 0.701961 0.701961
0.733333 0.733333 0.733333
0.760784 0.760784 0.760784
0.788235 0.788235 0.788235
0.811765 0.811765 0.811765
0.835294 0.835294 0.835294
0.858824 0.858824 0.858824
0.882353 0.882353 0.882353
0.901961 0.901961 0.901961
0.258824 0.258824 0.258824
0.266667 0.266667 0.266667
0.278431 0.278431 0.278431
0.294118 0.294118 0.294118
0.313725 0.313725 0.313725
0.337255 0.337255 0.337255
0.364706 0.364706 0.364706
0.396078 0.396078 0.396078
0.427451 0.427451 0.427451
0.462745 0.462745 0.462745
0.498039 0.498039 0.498039
0.537255 0.537255 0.537255
0.572549 0.572549 0.576471
0.611765 0.611765 0.611765
0.647059 0.647059 0.647059
0.678431 0.678431 0.678431
0.709804 0.709804 0.709804
0.741176 0.741176 0.741176
0.768627 0.768627 0.768627
0.792157 0.792157 0.792157
0.819608 0.819608 0.819608
0.843137 0.843137 0.843137
0.862745 0.862745 0.862745
0.886275 0.886275 0.886275
0.905882 0.905882 0.905882
0.298039 0.298039 0.298039
0.305882 0.305882 0.305882
0.313725 0.313725 0.313725
0.329412 0.329412 0.329412
0.345098 0.345098 0.345098
0.368627 0.368627 0.368627
0.392157 0.392157 0.392157
0.423529 0.423529 0.423529
