luts/PictureFX Creative - Kodak Wratten 85A.cube
#Generated with IWLTBAP LUT Generator
#LutCreator: https://marcrphoto.wordpress.com/
TITLE "PictureFX Creative - Kodak Wratten 85A "
#LUT size
LUT_3D_SIZE 5
#LUT data points
0.000000 0.000000 0.000000
0.156863 0.000000 0.000000
0.458824 0.000000 0.000000
0.752941 0.000000 0.000000
1.000000 0.000000 0.000000
0.000000 0.137255 0.000000
0.168627 0.141176 0.000000
0.482353 0.141176 0.000000
0.768627 0.145098 0.000000
1.000000 0.145098 0.000000
0.000000 0.403922 0.000000
0.176471 0.407843 0.000000
0.494118 0.407843 0.000000
0.772549 0.407843 0.000000
1.000000 0.407843 0.000000
0.000000 0.713725 0.000000
0.172549 0.713725 0.000000
0.486275 0.709804 0.000000
0.768627 0.709804 0.000000
1.000000 0.701961 0.000000
0.000000 1.000000 0.000000
0.164706 1.000000 0.000000
0.466667 1.000000 0.000000
0.749020 1.000000 0.000000
1.000000 1.000000 0.000000
0.000000 0.000000 0.168627
0.168627 0.000000 0.172549
0.494118 0.000000 0.180392
0.780392 0.000000 0.184314
1.000000 0.000000 0.188235
0.000000 0.156863 0.192157
0.192157 0.156863 0.196078
0.529412 0.160784 0.196078
0.800000 0.164706 0.203922
1.000000 0.168627 0.203922
0.000000 0.454902 0.203922
0.203922 0.458824 0.207843
0.549020 0.454902 0.207843
0.807843 0.458824 0.207843
1.000000 0.454902 0.203922
0.000000 0.756863 0.203922
0.196078 0.752941 0.200000
0.533333 0.749020 0.200000
0.792157 0.741176 0.196078
1.000000 0.733333 0.188235
0.000000 1.000000 0.188235
0.184314 1.000000 0.184314
0.501961 1.000000 0.180392
0.768627 1.000000 0.176471
1.000000 1.000000 0.172549
0.000000 0.000000 0.388235
0.180392 0.000000 0.400000
0.509804 0.000000 0.407843
0.792157 0.000000 0.415686
1.000000 0.000000 0.427451
0.000000 0.164706 0.427451
0.203922 0.164706 0.439216
0.556863 0.176471 0.447059
0.819608 0.176471 0.454902
1.000000 0.176471 0.454902
0.000000 0.474510 0.454902
0.211765 0.474510 0.454902
0.564706 0.474510 0.454902
0.819608 0.474510 0.454902
1.000000 0.474510 0.454902
0.000000 0.772549 0.454902
0.211765 0.772549 0.454902
0.560784 0.764706 0.447059
0.807843 0.756863 0.439216
1.000000 0.752941 0.431373
0.000000 1.000000 0.427451
0.192157 1.000000 0.419608
0.513725 1.000000 0.403922
0.780392 1.000000 0.396078
1.000000 1.000000 0.388235
0.000000 0.000000 0.639216
0.172549 0.000000 0.647059
0.498039 0.000000 0.654902
0.784314 0.000000 0.666667
1.000000 0.000000 0.674510
0.000000 0.156863 0.674510
0.196078 0.160784 0.682353
0.533333 0.160784 0.690196
0.803922 0.168627 0.694118
1.000000 0.164706 0.701961
0.000000 0.454902 0.698039
0.203922 0.458824 0.701961
0.549020 0.458824 0.705882
0.807843 0.458824 0.701961
1.000000 0.458824 0.701961
0.000000 0.756863 0.698039
0.200000 0.749020 0.694118
0.533333 0.749020 0.690196
0.796078 0.741176 0.682353
1.000000 0.733333 0.674510
0.000000 1.000000 0.670588
0.184314 1.000000 0.666667
0.498039 1.000000 0.654902
0.768627 1.000000 0.647059
1.000000 1.000000 0.639216
0.000000 0.000000 1.000000
0.156863 0.000000 1.000000
0.466667 0.000000 1.000000
0.756863 0.000000 1.000000
1.000000 0.000000 1.000000
0.000000 0.141176 1.000000
0.172549 0.141176 1.000000
0.486275 0.145098 1.000000
0.772549 0.145098 1.000000
1.000000 0.145098 1.000000
0.000000 0.407843 1.000000
0.180392 0.407843 1.000000
0.494118 0.411765 1.000000
0.772549 0.407843 1.000000
1.000000 0.407843 1.000000
0.000000 0.713725 1.000000
0.172549 0.709804 1.000000
0.486275 0.709804 1.000000
0.764706 0.705882 1.000000
1.000000 0.698039 1.000000
0.000000 1.000000 1.000000
0.160784 1.000000 1.000000
0.458824 1.000000 1.000000
0.745098 1.000000 1.000000
1.000000 1.000000 1.000000
