luts/PictureFX J.S. Style Ethereal Purple - Adjust to taste _ strenght, exposure, bloom etc - more at Pic.cube
#Generated by lutCreator.js
#Coded by SirSerch
#https://github.com/SirSerch/LutCreatorJs
TITLE lutCreatorJs_25
LUT_3D_SIZE 25
0.000000 0.031373 0.035294
0.000000 0.031373 0.043137
0.000000 0.031373 0.070588
0.015686 0.027451 0.094118
0.082353 0.023529 0.105882
0.117647 0.035294 0.109804
0.149020 0.050980 0.109804
0.298039 0.164706 0.215686
0.337255 0.180392 0.215686
0.376471 0.196078 0.219608
0.415686 0.211765 0.219608
0.450980 0.223529 0.219608
0.482353 0.235294 0.219608
0.513725 0.247059 0.219608
0.545098 0.258824 0.219608
0.576471 0.270588 0.219608
0.611765 0.278431 0.223529
0.643137 0.290196 0.223529
0.674510 0.301961 0.227451
0.705882 0.313725 0.231373
0.737255 0.325490 0.235294
0.768627 0.337255 0.239216
0.796078 0.345098 0.243137
0.827451 0.356863 0.247059
0.858824 0.364706 0.247059
0.000000 0.050980 0.078431
0.000000 0.058824 0.058824
0.000000 0.058824 0.070588
0.011765 0.058824 0.094118
0.078431 0.058824 0.121569
0.117647 0.066667 0.125490
0.247059 0.160784 0.215686
0.290196 0.176471 0.215686
0.329412 0.188235 0.215686
0.368627 0.203922 0.215686
0.407843 0.215686 0.219608
0.439216 0.227451 0.215686
0.474510 0.235294 0.215686
0.505882 0.247059 0.215686
0.537255 0.258824 0.215686
0.572549 0.270588 0.215686
0.603922 0.278431 0.219608
0.635294 0.290196 0.223529
0.666667 0.301961 0.227451
0.701961 0.313725 0.231373
0.733333 0.325490 0.235294
0.764706 0.337255 0.239216
0.796078 0.349020 0.243137
0.823529 0.356863 0.247059
0.854902 0.368627 0.247059
0.000000 0.062745 0.160784
0.000000 0.058824 0.168627
0.007843 0.074510 0.129412
0.011765 0.090196 0.090196
0.058824 0.086275 0.172549
0.196078 0.172549 0.247059
0.247059 0.184314 0.235294
0.290196 0.192157 0.227451
0.329412 0.203922 0.223529
0.368627 0.215686 0.219608
0.403922 0.223529 0.219608
0.435294 0.235294 0.215686
0.470588 0.243137 0.215686
0.501961 0.254902 0.215686
0.533333 0.262745 0.215686
0.568627 0.274510 0.215686
0.600000 0.286275 0.219608
0.631373 0.298039 0.223529
0.666667 0.309804 0.227451
0.698039 0.321569 0.231373
0.729412 0.333333 0.235294
0.760784 0.341176 0.239216
0.792157 0.352941 0.243137
0.823529 0.364706 0.247059
0.854902 0.372549 0.250980
0.000000 0.101961 0.133333
0.000000 0.101961 0.145098
0.031373 0.098039 0.156863
0.141176 0.192157 0.235294
0.152941 0.200000 0.270588
0.196078 0.203922 0.298039
0.247059 0.211765 0.266667
0.294118 0.219608 0.247059
0.333333 0.231373 0.239216
0.372549 0.239216 0.231373
0.403922 0.247059 0.227451
0.439216 0.254902 0.223529
0.470588 0.262745 0.223529
0.505882 0.270588 0.223529
0.537255 0.282353 0.223529
0.568627 0.290196 0.223529
0.603922 0.301961 0.227451
0.635294 0.309804 0.231373
0.666667 0.321569 0.235294
0.698039 0.333333 0.239216
0.733333 0.341176 0.239216
0.760784 0.352941 0.243137
0.792157 0.360784 0.247059
0.823529 0.372549 0.250980
0.854902 0.380392 0.250980
0.062745 0.235294 0.219608
0.098039 0.235294 0.227451
0.129412 0.235294 0.235294
0.164706 0.235294 0.243137
0.192157 0.239216 0.250980
0.219608 0.247059 0.270588
0.258824 0.250980 0.278431
0.301961 0.258824 0.270588
0.341176 0.262745 0.258824
0.376471 0.270588 0.250980
0.411765 0.274510 0.243137
0.447059 0.282353 0.239216
0.478431 0.290196 0.235294
0.513725 0.298039 0.235294
0.545098 0.305882 0.235294
0.576471 0.313725 0.239216
0.611765 0.321569 0.239216
0.643137 0.333333 0.243137
0.674510 0.341176 0.247059
0.705882 0.349020 0.247059
0.737255 0.360784 0.250980
0.764706 0.368627 0.250980
0.796078 0.376471 0.250980
0.823529 0.384314 0.254902
0.854902 0.392157 0.254902
0.101961 0.286275 0.235294
0.125490 0.282353 0.239216
0.152941 0.286275 0.243137
0.184314 0.286275 0.250980
0.215686 0.286275 0.258824
0.247059 0.290196 0.266667
0.278431 0.294118 0.274510
0.309804 0.294118 0.278431
0.345098 0.298039 0.270588
0.380392 0.301961 0.266667
0.415686 0.305882 0.258824
0.450980 0.309804 0.254902
0.482353 0.317647 0.250980
0.513725 0.321569 0.250980
0.549020 0.329412 0.247059
0.580392 0.337255 0.250980
0.611765 0.345098 0.250980
0.643137 0.352941 0.250980
0.674510 0.360784 0.254902
0.705882 0.368627 0.254902
0.737255 0.376471 0.254902
0.768627 0.384314 0.258824
0.796078 0.392157 0.258824
0.827451 0.400000 0.262745
0.858824 0.407843 0.262745
0.117647 0.313725 0.235294
0.137255 0.313725 0.239216
0.160784 0.313725 0.239216
0.184314 0.313725 0.243137
0.215686 0.313725 0.250980
0.247059 0.313725 0.254902
0.274510 0.313725 0.258824
0.305882 0.317647 0.266667
0.341176 0.317647 0.266667
0.372549 0.321569 0.266667
0.407843 0.325490 0.262745
0.443137 0.329412 0.258824
0.474510 0.337255 0.258824
0.509804 0.341176 0.254902
0.541176 0.349020 0.254902
0.572549 0.356863 0.254902
0.607843 0.360784 0.254902
0.639216 0.368627 0.258824
0.670588 0.376471 0.258824
0.701961 0.384314 0.258824
0.733333 0.392157 0.262745
0.764706 0.400000 0.262745
0.796078 0.407843 0.262745
0.827451 0.415686 0.266667
0.858824 0.423529 0.270588
0.129412 0.345098 0.235294
0.145098 0.345098 0.239216
0.164706 0.345098 0.239216
0.188235 0.341176 0.243137
0.215686 0.341176 0.247059
0.247059 0.345098 0.254902
0.278431 0.345098 0.258824
0.309804 0.345098 0.262745
0.341176 0.349020 0.270588
0.372549 0.349020 0.270588
0.403922 0.352941 0.270588
0.439216 0.356863 0.270588
0.470588 0.360784 0.266667
0.505882 0.364706 0.266667
0.541176 0.372549 0.266667
0.572549 0.376471 0.266667
0.603922 0.384314 0.266667
0.639216 0.392157 0.266667
0.670588 0.396078 0.266667
0.701961 0.403922 0.266667
0.733333 0.411765 0.266667
0.764706 0.419608 0.270588
0.796078 0.427451 0.270588
0.827451 0.435294 0.274510
0.858824 0.443137 0.274510
0.145098 0.376471 0.243137
0.160784 0.376471 0.247059
0.176471 0.376471 0.247059
0.200000 0.376471 0.250980
0.223529 0.376471 0.254902
0.254902 0.376471 0.258824
0.282353 0.380392 0.266667
0.313725 0.380392 0.270588
0.345098 0.380392 0.274510
0.376471 0.384314 0.278431
0.411765 0.388235 0.282353
0.443137 0.388235 0.282353
0.478431 0.392157 0.282353
0.509804 0.400000 0.282353
0.541176 0.403922 0.278431
0.576471 0.407843 0.278431
0.607843 0.411765 0.278431
0.639216 0.415686 0.278431
0.670588 0.423529 0.278431
0.701961 0.427451 0.278431
0.733333 0.435294 0.278431
0.764706 0.439216 0.278431
0.796078 0.447059 0.278431
0.827451 0.454902 0.278431
0.858824 0.458824 0.282353
0.168627 0.415686 0.258824
0.180392 0.415686 0.258824
0.192157 0.415686 0.262745
0.215686 0.415686 0.262745
0.239216 0.415686 0.266667
0.266667 0.415686 0.270588
0.294118 0.415686 0.274510
0.325490 0.419608 0.282353
0.356863 0.419608 0.286275
0.388235 0.423529 0.290196
0.419608 0.423529 0.294118
0.450980 0.427451 0.294118
0.482353 0.431373 0.298039
0.517647 0.431373 0.298039
0.549020 0.435294 0.294118
0.580392 0.439216 0.294118
0.611765 0.443137 0.290196
0.643137 0.447059 0.290196
0.674510 0.450980 0.290196
0.705882 0.454902 0.286275
0.733333 0.458824 0.286275
0.764706 0.462745 0.286275
0.796078 0.470588 0.286275
0.823529 0.474510 0.286275
0.854902 0.478431 0.286275
0.196078 0.458824 0.278431
0.203922 0.458824 0.278431
0.215686 0.458824 0.278431
0.235294 0.458824 0.282353
0.254902 0.458824 0.282353
0.282353 0.458824 0.286275
0.309804 0.458824 0.290196
0.337255 0.458824 0.294118
0.364706 0.458824 0.298039
0.396078 0.458824 0.301961
0.427451 0.462745 0.301961
0.458824 0.462745 0.305882
0.490196 0.462745 0.305882
0.521569 0.466667 0.305882
0.552941 0.466667 0.305882
0.584314 0.470588 0.305882
0.615686 0.474510 0.305882
0.647059 0.478431 0.301961
0.678431 0.478431 0.301961
0.705882 0.482353 0.301961
0.737255 0.490196 0.298039
0.768627 0.494118 0.298039
0.800000 0.498039 0.298039
0.831373 0.501961 0.298039
0.862745 0.509804 0.301961
0.203922 0.486275 0.282353
0.215686 0.486275 0.282353
0.223529 0.486275 0.282353
0.239216 0.486275 0.282353
0.262745 0.486275 0.286275
0.286275 0.486275 0.290196
0.309804 0.486275 0.290196
0.337255 0.486275 0.294118
0.364706 0.486275 0.298039
0.396078 0.486275 0.301961
0.427451 0.490196 0.305882
0.458824 0.490196 0.309804
0.486275 0.490196 0.309804
0.517647 0.494118 0.313725
0.549020 0.494118 0.313725
0.580392 0.498039 0.313725
0.615686 0.501961 0.313725
0.647059 0.505882 0.309804
0.678431 0.505882 0.309804
0.709804 0.513725 0.309804
0.741176 0.517647 0.309804
0.772549 0.521569 0.309804
0.803922 0.525490 0.309804
0.835294 0.529412 0.309804
0.866667 0.537255 0.309804
0.219608 0.517647 0.286275
0.227451 0.517647 0.290196
0.235294 0.517647 0.290196
0.250980 0.517647 0.290196
0.270588 0.517647 0.290196
0.290196 0.517647 0.294118
0.317647 0.517647 0.298039
0.341176 0.517647 0.298039
0.368627 0.517647 0.301961
0.400000 0.517647 0.305882
0.427451 0.517647 0.309804
0.458824 0.521569 0.313725
0.490196 0.521569 0.313725
0.521569 0.521569 0.317647
0.552941 0.525490 0.317647
0.584314 0.529412 0.321569
0.615686 0.529412 0.321569
0.647059 0.533333 0.321569
0.678431 0.537255 0.321569
0.709804 0.541176 0.321569
0.741176 0.545098 0.317647
0.772549 0.549020 0.317647
0.803922 0.552941 0.317647
0.835294 0.556863 0.321569
0.866667 0.560784 0.321569
0.235294 0.549020 0.298039
0.239216 0.549020 0.298039
0.250980 0.549020 0.298039
0.262745 0.549020 0.298039
0.282353 0.549020 0.301961
0.301961 0.549020 0.301961
0.325490 0.549020 0.305882
0.349020 0.549020 0.305882
0.376471 0.549020 0.309804
0.403922 0.549020 0.313725
0.435294 0.552941 0.313725
0.462745 0.552941 0.317647
0.494118 0.552941 0.321569
0.525490 0.552941 0.321569
0.552941 0.556863 0.325490
0.584314 0.556863 0.325490
0.615686 0.560784 0.329412
0.647059 0.560784 0.329412
0.678431 0.564706 0.329412
0.709804 0.568627 0.329412
0.741176 0.572549 0.329412
0.772549 0.576471 0.325490
0.803922 0.576471 0.325490
0.835294 0.584314 0.325490
0.866667 0.588235 0.325490
0.250980 0.584314 0.305882
0.254902 0.584314 0.305882
0.266667 0.584314 0.305882
0.278431 0.584314 0.305882
0.294118 0.584314 0.309804
0.313725 0.584314 0.309804
0.333333 0.584314 0.313725
0.356863 0.584314 0.313725
0.384314 0.584314 0.317647
0.411765 0.584314 0.317647
0.439216 0.584314 0.321569
0.466667 0.584314 0.325490
0.498039 0.584314 0.325490
0.525490 0.584314 0.329412
0.556863 0.588235 0.329412
0.588235 0.588235 0.333333
0.615686 0.588235 0.333333
0.647059 0.592157 0.333333
0.678431 0.592157 0.333333
0.709804 0.596078 0.333333
0.737255 0.596078 0.333333
0.768627 0.600000 0.333333
0.800000 0.603922 0.333333
0.827451 0.603922 0.329412
0.858824 0.607843 0.329412
0.266667 0.619608 0.317647
0.274510 0.619608 0.317647
0.282353 0.619608 0.317647
0.294118 0.619608 0.317647
0.309804 0.619608 0.317647
0.325490 0.619608 0.321569
0.345098 0.619608 0.321569
0.368627 0.619608 0.325490
0.392157 0.619608 0.325490
0.419608 0.619608 0.329412
0.447059 0.619608 0.329412
0.474510 0.619608 0.333333
0.505882 0.619608 0.333333
0.533333 0.619608 0.337255
0.564706 0.623529 0.341176
0.592157 0.623529 0.341176
0.623529 0.623529 0.345098
0.654902 0.627451 0.345098
0.686275 0.627451 0.345098
0.717647 0.631373 0.349020
0.749020 0.635294 0.349020
0.780392 0.635294 0.349020
0.811765 0.639216 0.349020
0.839216 0.643137 0.349020
0.870588 0.647059 0.349020
0.286275 0.650980 0.325490
0.290196 0.650980 0.325490
0.298039 0.650980 0.325490
0.305882 0.650980 0.325490
0.321569 0.650980 0.329412
0.337255 0.650980 0.329412
0.356863 0.650980 0.329412
0.380392 0.650980 0.333333
0.403922 0.650980 0.333333
0.427451 0.650980 0.337255
0.454902 0.654902 0.337255
0.482353 0.654902 0.341176
0.513725 0.654902 0.345098
0.541176 0.654902 0.345098
0.572549 0.654902 0.349020
0.600000 0.658824 0.352941
0.631373 0.658824 0.352941
0.662745 0.662745 0.356863
0.694118 0.662745 0.356863
0.725490 0.666667 0.360784
0.752941 0.666667 0.360784
0.784314 0.670588 0.360784
0.815686 0.674510 0.360784
0.847059 0.678431 0.360784
0.878431 0.682353 0.360784
0.301961 0.686275 0.333333
0.305882 0.686275 0.337255
0.313725 0.686275 0.337255
0.321569 0.686275 0.337255
0.337255 0.686275 0.337255
0.352941 0.686275 0.337255
0.368627 0.686275 0.341176
0.392157 0.686275 0.341176
0.415686 0.686275 0.341176
0.439216 0.686275 0.345098
0.462745 0.686275 0.349020
0.490196 0.686275 0.349020
0.517647 0.690196 0.352941
0.549020 0.690196 0.356863
0.576471 0.690196 0.356863
0.607843 0.690196 0.360784
0.635294 0.694118 0.360784
0.666667 0.694118 0.364706
0.698039 0.698039 0.364706
0.729412 0.698039 0.368627
0.756863 0.701961 0.368627
0.788235 0.701961 0.368627
0.819608 0.705882 0.368627
0.850980 0.709804 0.372549
0.882353 0.713725 0.372549
0.317647 0.717647 0.345098
0.321569 0.717647 0.345098
0.325490 0.717647 0.345098
0.337255 0.717647 0.345098
0.349020 0.717647 0.345098
0.364706 0.717647 0.345098
0.380392 0.717647 0.345098
0.400000 0.717647 0.349020
0.423529 0.717647 0.349020
0.447059 0.717647 0.352941
0.470588 0.717647 0.352941
0.498039 0.717647 0.356863
0.525490 0.717647 0.356863
0.552941 0.721569 0.360784
0.580392 0.721569 0.360784
0.607843 0.721569 0.364706
0.639216 0.721569 0.364706
0.666667 0.721569 0.368627
0.698039 0.725490 0.368627
0.729412 0.725490 0.372549
0.756863 0.729412 0.372549
0.788235 0.729412 0.372549
0.819608 0.733333 0.376471
0.850980 0.737255 0.376471
0.882353 0.741176 0.380392
0.329412 0.745098 0.349020
0.333333 0.745098 0.349020
0.337255 0.745098 0.349020
0.349020 0.745098 0.349020
0.356863 0.745098 0.349020
0.372549 0.745098 0.349020
0.388235 0.745098 0.352941
0.407843 0.745098 0.352941
0.427451 0.745098 0.352941
0.450980 0.745098 0.352941
0.474510 0.745098 0.356863
0.498039 0.745098 0.356863
0.525490 0.745098 0.356863
0.549020 0.745098 0.360784
0.580392 0.745098 0.360784
0.607843 0.745098 0.364706
0.635294 0.745098 0.364706
0.662745 0.749020 0.368627
0.694118 0.749020 0.368627
0.725490 0.749020 0.372549
0.752941 0.752941 0.372549
0.784314 0.756863 0.376471
0.815686 0.760784 0.376471
0.850980 0.764706 0.380392
0.882353 0.768627 0.384314
0.341176 0.776471 0.352941
0.345098 0.776471 0.352941
0.349020 0.776471 0.352941
0.360784 0.776471 0.356863
0.368627 0.776471 0.356863
0.384314 0.776471 0.356863
0.400000 0.776471 0.356863
0.419608 0.776471 0.360784
0.439216 0.780392 0.360784
0.462745 0.780392 0.364706
0.486275 0.780392 0.364706
0.509804 0.780392 0.368627
0.537255 0.780392 0.368627
0.564706 0.784314 0.372549
0.592157 0.784314 0.372549
0.619608 0.784314 0.376471
0.650980 0.788235 0.380392
0.678431 0.788235 0.384314
0.709804 0.792157 0.388235
0.741176 0.796078 0.392157
0.776471 0.800000 0.396078
0.807843 0.803922 0.400000
0.843137 0.811765 0.403922
0.878431 0.815686 0.411765
0.913725 0.823529 0.415686
0.368627 0.819608 0.372549
0.372549 0.819608 0.372549
0.376471 0.819608 0.372549
0.384314 0.819608 0.372549
0.396078 0.819608 0.372549
0.407843 0.819608 0.376471
0.423529 0.819608 0.376471
0.439216 0.819608 0.376471
0.458824 0.823529 0.380392
0.482353 0.823529 0.380392
0.505882 0.823529 0.384314
0.529412 0.823529 0.384314
0.556863 0.827451 0.388235
0.580392 0.827451 0.388235
0.607843 0.827451 0.392157
0.639216 0.831373 0.396078
0.666667 0.835294 0.400000
0.698039 0.835294 0.403922
0.729412 0.839216 0.407843
0.760784 0.843137 0.411765
0.796078 0.847059 0.415686
0.827451 0.854902 0.423529
0.862745 0.858824 0.427451
0.894118 0.862745 0.431373
0.925490 0.866667 0.431373
0.392157 0.858824 0.388235
0.396078 0.858824 0.388235
0.400000 0.858824 0.388235
0.407843 0.858824 0.388235
0.415686 0.858824 0.388235
0.427451 0.858824 0.392157
0.443137 0.862745 0.392157
0.462745 0.862745 0.392157
0.478431 0.862745 0.396078
0.501961 0.862745 0.396078
0.525490 0.866667 0.400000
0.549020 0.866667 0.400000
0.572549 0.870588 0.403922
0.600000 0.870588 0.407843
0.627451 0.870588 0.411765
0.658824 0.874510 0.415686
0.686275 0.878431 0.419608
0.717647 0.882353 0.423529
0.749020 0.886275 0.427451
0.780392 0.886275 0.431373
0.811765 0.890196 0.435294
0.839216 0.894118 0.435294
0.870588 0.894118 0.439216
0.901961 0.898039 0.443137
0.933333 0.901961 0.443137
0.415686 0.898039 0.403922
0.419608 0.898039 0.403922
0.423529 0.901961 0.403922
0.431373 0.901961 0.403922
0.439216 0.901961 0.403922
0.450980 0.901961 0.403922
0.462745 0.901961 0.407843
0.482353 0.901961 0.407843
0.498039 0.901961 0.407843
0.517647 0.905882 0.411765
0.541176 0.905882 0.415686
0.564706 0.905882 0.415686
0.588235 0.909804 0.419608
0.615686 0.909804 0.423529
0.643137 0.913725 0.423529
0.670588 0.913725 0.427451
0.698039 0.913725 0.431373
0.725490 0.917647 0.431373
0.756863 0.917647 0.435294
0.784314 0.921569 0.439216
0.815686 0.921569 0.439216
0.847059 0.925490 0.443137
0.874510 0.925490 0.443137
0.905882 0.929412 0.447059
0.933333 0.929412 0.447059
0.439216 0.941176 0.419608
0.443137 0.941176 0.419608
0.447059 0.941176 0.419608
0.450980 0.937255 0.419608
0.458824 0.937255 0.419608
0.470588 0.941176 0.419608
0.482353 0.937255 0.419608
0.498039 0.937255 0.419608
0.513725 0.941176 0.419608
0.533333 0.941176 0.423529
0.552941 0.941176 0.423529
0.576471 0.941176 0.423529
0.600000 0.941176 0.427451
0.623529 0.941176 0.427451
0.647059 0.941176 0.431373
0.674510 0.945098 0.431373
0.701961 0.945098 0.435294
0.729412 0.945098 0.435294
0.756863 0.945098 0.439216
0.784314 0.945098 0.439216
0.815686 0.949020 0.443137
0.843137 0.949020 0.443137
0.870588 0.949020 0.447059
0.901961 0.952941 0.447059
0.929412 0.952941 0.447059
0.000000 0.031373 0.047059
0.000000 0.031373 0.066667
0.000000 0.031373 0.082353
0.023529 0.027451 0.098039
0.082353 0.027451 0.113725
0.117647 0.039216 0.117647
0.149020 0.054902 0.121569
0.294118 0.164706 0.227451
0.333333 0.180392 0.231373
0.372549 0.196078 0.235294
0.411765 0.211765 0.239216
0.443137 0.223529 0.239216
0.478431 0.235294 0.239216
0.509804 0.243137 0.239216
0.541176 0.254902 0.239216
0.572549 0.266667 0.243137
0.603922 0.278431 0.243137
0.639216 0.290196 0.247059
0.670588 0.301961 0.247059
0.701961 0.313725 0.250980
0.733333 0.325490 0.254902
0.764706 0.333333 0.254902
0.796078 0.345098 0.258824
0.827451 0.356863 0.262745
0.858824 0.368627 0.262745
0.000000 0.058824 0.070588
0.000000 0.058824 0.062745
0.000000 0.058824 0.074510
0.023529 0.058824 0.101961
0.082353 0.062745 0.121569
0.117647 0.070588 0.133333
0.243137 0.160784 0.223529
0.286275 0.172549 0.231373
0.325490 0.188235 0.231373
0.364706 0.200000 0.235294
0.400000 0.215686 0.235294
0.435294 0.223529 0.235294
0.466667 0.235294 0.235294
0.501961 0.247059 0.235294
0.533333 0.254902 0.235294
0.564706 0.266667 0.235294
0.600000 0.278431 0.239216
0.631373 0.290196 0.243137
0.662745 0.301961 0.247059
0.698039 0.313725 0.250980
0.729412 0.325490 0.250980
0.760784 0.337255 0.254902
0.792157 0.349020 0.258824
0.823529 0.356863 0.262745
0.854902 0.368627 0.262745
0.000000 0.074510 0.125490
0.000000 0.078431 0.121569
0.000000 0.086275 0.098039
0.007843 0.094118 0.098039
0.070588 0.090196 0.137255
0.192157 0.172549 0.243137
0.239216 0.180392 0.243137
0.282353 0.192157 0.239216
0.321569 0.200000 0.239216
0.360784 0.211765 0.239216
0.396078 0.223529 0.235294
0.431373 0.231373 0.235294
0.462745 0.243137 0.235294
0.494118 0.250980 0.235294
0.529412 0.262745 0.235294
0.560784 0.270588 0.235294
0.596078 0.282353 0.239216
0.627451 0.294118 0.243137
0.662745 0.305882 0.247059
0.694118 0.317647 0.250980
0.725490 0.329412 0.250980
0.760784 0.341176 0.254902
0.792157 0.352941 0.258824
0.823529 0.364706 0.262745
0.854902 0.372549 0.262745
0.000000 0.105882 0.152941
0.000000 0.101961 0.172549
0.035294 0.094118 0.200000
0.141176 0.188235 0.247059
0.149020 0.200000 0.258824
0.176471 0.203922 0.329412
0.239216 0.211765 0.286275
0.286275 0.219608 0.266667
0.325490 0.227451 0.254902
0.364706 0.235294 0.250980
0.400000 0.243137 0.247059
0.431373 0.250980 0.243137
0.466667 0.258824 0.243137
0.498039 0.270588 0.243137
0.533333 0.278431 0.243137
0.564706 0.286275 0.243137
0.596078 0.298039 0.247059
0.631373 0.309804 0.250980
0.662745 0.321569 0.250980
0.698039 0.329412 0.254902
0.729412 0.341176 0.258824
0.760784 0.352941 0.258824
0.792157 0.360784 0.262745
0.823529 0.372549 0.262745
0.854902 0.380392 0.266667
0.054902 0.231373 0.239216
0.094118 0.231373 0.250980
0.129412 0.231373 0.262745
0.164706 0.231373 0.270588
0.188235 0.239216 0.270588
0.203922 0.243137 0.301961
0.243137 0.250980 0.321569
0.294118 0.254902 0.301961
0.333333 0.262745 0.282353
0.372549 0.266667 0.270588
0.403922 0.274510 0.262745
0.439216 0.278431 0.258824
0.474510 0.286275 0.258824
0.505882 0.294118 0.258824
0.541176 0.301961 0.254902
0.572549 0.313725 0.258824
0.607843 0.321569 0.258824
0.639216 0.333333 0.262745
0.670588 0.341176 0.262745
0.701961 0.349020 0.262745
0.733333 0.356863 0.266667
0.764706 0.364706 0.266667
0.792157 0.376471 0.266667
0.823529 0.384314 0.270588
0.854902 0.392157 0.270588
0.098039 0.282353 0.254902
0.121569 0.282353 0.262745
0.149020 0.282353 0.266667
0.180392 0.282353 0.274510
0.211765 0.286275 0.282353
0.239216 0.286275 0.290196
0.266667 0.290196 0.305882
0.301961 0.294118 0.309804
0.337255 0.294118 0.301961
0.376471 0.298039 0.290196
0.411765 0.305882 0.282353
0.443137 0.309804 0.274510
0.478431 0.313725 0.270588
0.509804 0.321569 0.270588
0.541176 0.329412 0.266667
0.576471 0.337255 0.266667
0.607843 0.341176 0.266667
0.639216 0.352941 0.270588
0.670588 0.360784 0.270588
0.701961 0.368627 0.270588
0.733333 0.376471 0.270588
0.764706 0.384314 0.274510
0.796078 0.392157 0.274510
0.827451 0.400000 0.274510
0.858824 0.407843 0.278431
0.109804 0.313725 0.254902
0.129412 0.313725 0.258824
0.152941 0.309804 0.262745
0.180392 0.309804 0.266667
0.207843 0.309804 0.270588
0.239216 0.309804 0.278431
0.266667 0.313725 0.282353
0.298039 0.313725 0.294118
0.329412 0.317647 0.294118
0.364706 0.321569 0.294118
0.400000 0.325490 0.286275
0.435294 0.329412 0.282353
0.470588 0.333333 0.278431
0.501961 0.341176 0.274510
0.537255 0.345098 0.274510
0.568627 0.352941 0.270588
0.603922 0.360784 0.270588
0.635294 0.368627 0.274510
0.666667 0.376471 0.274510
0.701961 0.384314 0.274510
0.733333 0.392157 0.274510
0.764706 0.400000 0.278431
0.796078 0.407843 0.278431
0.827451 0.415686 0.278431
0.858824 0.423529 0.282353
0.121569 0.341176 0.254902
0.137255 0.341176 0.258824
0.156863 0.341176 0.258824
0.184314 0.341176 0.262745
0.211765 0.341176 0.266667
0.239216 0.341176 0.274510
0.270588 0.341176 0.278431
0.301961 0.341176 0.286275
0.333333 0.345098 0.290196
0.364706 0.349020 0.294118
0.400000 0.349020 0.290196
0.431373 0.352941 0.290196
0.466667 0.360784 0.286275
0.501961 0.364706 0.282353
0.533333 0.368627 0.282353
0.568627 0.376471 0.282353
0.600000 0.384314 0.278431
0.635294 0.388235 0.278431
0.666667 0.396078 0.282353
0.698039 0.403922 0.282353
0.729412 0.411765 0.282353
0.764706 0.419608 0.282353
0.796078 0.427451 0.286275
0.827451 0.435294 0.286275
0.858824 0.443137 0.286275
0.137255 0.372549 0.262745
0.152941 0.372549 0.262745
0.168627 0.372549 0.266667
0.192157 0.372549 0.266667
0.219608 0.372549 0.270588
0.247059 0.376471 0.278431
0.278431 0.376471 0.282353
0.309804 0.376471 0.286275
0.341176 0.380392 0.290196
0.372549 0.380392 0.298039
0.403922 0.384314 0.298039
0.439216 0.388235 0.301961
0.470588 0.392157 0.298039
0.505882 0.396078 0.298039
0.537255 0.400000 0.294118
0.572549 0.403922 0.294118
0.603922 0.411765 0.290196
0.635294 0.415686 0.290196
0.666667 0.423529 0.290196
0.701961 0.427451 0.290196
0.733333 0.435294 0.290196
0.764706 0.439216 0.290196
0.796078 0.447059 0.290196
0.827451 0.454902 0.294118
0.854902 0.458824 0.294118
0.160784 0.411765 0.270588
0.172549 0.411765 0.274510
0.188235 0.411765 0.274510
0.207843 0.411765 0.278431
0.231373 0.411765 0.282353
0.258824 0.415686 0.286275
0.290196 0.415686 0.290196
0.321569 0.415686 0.294118
0.352941 0.419608 0.301961
0.384314 0.419608 0.305882
0.415686 0.423529 0.309804
0.447059 0.423529 0.313725
0.478431 0.427451 0.313725
0.513725 0.431373 0.309804
0.545098 0.435294 0.309804
0.576471 0.439216 0.305882
0.607843 0.443137 0.305882
0.639216 0.447059 0.301961
0.670588 0.450980 0.301961
0.701961 0.454902 0.301961
0.733333 0.458824 0.298039
0.764706 0.462745 0.298039
0.796078 0.470588 0.298039
0.823529 0.474510 0.298039
0.854902 0.478431 0.298039
0.192157 0.458824 0.290196
0.200000 0.458824 0.294118
0.211765 0.458824 0.294118
0.231373 0.458824 0.294118
0.250980 0.458824 0.298039
0.278431 0.454902 0.298039
0.305882 0.454902 0.301961
0.333333 0.458824 0.305882
0.364706 0.458824 0.309804
