luts/PictureFX Silberra Color 100 - Adjust strength or opacity to taste.cube
#Generated with IWLTBAP LUT Generator
#Website: http://luts.iwltbap.com
TITLE "Neutral-125_01"
#LUT size
LUT_3D_SIZE 9
#LUT data points
0.000000 0.000000 0.000000
0.019608 0.000000 0.000000
0.133333 0.000000 0.000000
0.329412 0.000000 0.000000
0.556863 0.000000 0.000000
0.784314 0.000000 0.000000
0.980392 0.000000 0.000000
1.000000 0.000000 0.074510
1.000000 0.000000 0.152941
0.000000 0.027451 0.000000
0.027451 0.027451 0.000000
0.149020 0.050980 0.000000
0.341176 0.058824 0.000000
0.564706 0.000000 0.000000
0.788235 0.000000 0.000000
0.980392 0.000000 0.000000
1.000000 0.000000 0.062745
1.000000 0.000000 0.149020
0.000000 0.176471 0.000000
0.054902 0.180392 0.000000
0.188235 0.188235 0.000000
0.372549 0.223529 0.000000
0.584314 0.235294 0.000000
0.800000 0.215686 0.000000
0.984314 0.168627 0.000000
1.000000 0.113725 0.035294
1.000000 0.109804 0.149020
0.000000 0.400000 0.000000
0.000000 0.403922 0.000000
0.231373 0.407843 0.000000
0.407843 0.411765 0.000000
0.607843 0.423529 0.000000
0.811765 0.427451 0.000000
0.984314 0.411765 0.000000
1.000000 0.392157 0.000000
1.000000 0.384314 0.145098
0.000000 0.623529 0.000000
0.000000 0.623529 0.000000
0.203922 0.627451 0.000000
0.427451 0.627451 0.000000
0.627451 0.631373 0.000000
0.819608 0.627451 0.000000
0.980392 0.611765 0.000000
1.000000 0.592157 0.000000
1.000000 0.568627 0.152941
0.000000 0.811765 0.000000
0.000000 0.811765 0.000000
0.121569 0.811765 0.000000
0.411765 0.811765 0.000000
0.619608 0.807843 0.000000
0.807843 0.803922 0.000000
0.964706 0.788235 0.000000
1.000000 0.756863 0.000000
1.000000 0.725490 0.176471
0.000000 0.941176 0.000000
0.000000 0.941176 0.000000
0.152941 0.941176 0.000000
0.411765 0.937255 0.000000
0.603922 0.933333 0.000000
0.772549 0.929412 0.000000
0.929412 0.921569 0.000000
1.000000 0.898039 0.062745
1.000000 0.858824 0.227451
0.000000 1.000000 0.000000
0.078431 1.000000 0.000000
0.282353 1.000000 0.000000
0.447059 1.000000 0.000000
0.600000 1.000000 0.000000
0.745098 1.000000 0.000000
0.878431 0.996078 0.125490
1.000000 0.988235 0.215686
1.000000 0.972549 0.298039
0.294118 1.000000 0.113725
0.329412 1.000000 0.121569
0.403922 1.000000 0.145098
0.501961 1.000000 0.176471
0.611765 1.000000 0.215686
0.725490 1.000000 0.258824
0.835294 1.000000 0.309804
0.937255 1.000000 0.360784
1.000000 1.000000 0.411765
0.003922 0.000000 0.019608
0.031373 0.000000 0.019608
0.149020 0.000000 0.047059
0.345098 0.000000 0.070588
0.572549 0.000000 0.066667
0.792157 0.000000 0.070588
0.988235 0.000000 0.101961
1.000000 0.000000 0.149020
1.000000 0.000000 0.211765
0.000000 0.027451 0.019608
0.039216 0.027451 0.019608
0.172549 0.019608 0.023529
0.364706 0.000000 0.027451
0.580392 0.000000 0.035294
0.800000 0.000000 0.058824
0.988235 0.000000 0.094118
1.000000 0.000000 0.149020
1.000000 0.000000 0.211765
0.000000 0.180392 0.000000
0.031373 0.184314 0.000000
0.196078 0.188235 0.000000
0.388235 0.211765 0.000000
0.596078 0.215686 0.000000
0.807843 0.188235 0.007843
0.988235 0.133333 0.070588
1.000000 0.086275 0.141176
1.000000 0.109804 0.211765
0.000000 0.403922 0.000000
0.000000 0.403922 0.000000
0.227451 0.407843 0.000000
0.415686 0.411765 0.000000
0.615686 0.423529 0.000000
0.819608 0.419608 0.000000
0.988235 0.403922 0.003922
1.000000 0.388235 0.129412
1.000000 0.384314 0.211765
0.000000 0.623529 0.000000
0.000000 0.623529 0.000000
0.196078 0.627451 0.000000
0.431373 0.627451 0.000000
0.631373 0.631373 0.000000
0.823529 0.627451 0.000000
0.980392 0.607843 0.000000
1.000000 0.588235 0.117647
1.000000 0.568627 0.219608
0.000000 0.811765 0.000000
0.000000 0.811765 0.000000
0.121569 0.811765 0.000000
0.415686 0.811765 0.000000
0.623529 0.807843 0.000000
0.811765 0.803922 0.000000
0.968627 0.788235 0.000000
1.000000 0.756863 0.129412
1.000000 0.725490 0.243137
0.000000 0.941176 0.000000
0.000000 0.941176 0.000000
0.176471 0.941176 0.000000
0.419608 0.937255 0.000000
0.607843 0.933333 0.000000
0.776471 0.929412 0.000000
0.933333 0.921569 0.007843
1.000000 0.898039 0.176471
1.000000 0.858824 0.282353
0.000000 1.000000 0.000000
0.129412 1.000000 0.000000
0.301961 1.000000 0.000000
0.454902 1.000000 0.000000
0.603922 1.000000 0.043137
0.749020 1.000000 0.141176
0.882353 0.996078 0.211765
1.000000 0.988235 0.274510
1.000000 0.968627 0.345098
0.317647 1.000000 0.203922
0.349020 1.000000 0.211765
0.419608 1.000000 0.223529
0.513725 1.000000 0.247059
0.619608 1.000000 0.274510
0.729412 1.000000 0.309804
0.839216 1.000000 0.352941
0.937255 1.000000 0.396078
1.000000 1.000000 0.443137
0.039216 0.000000 0.145098
0.094118 0.000000 0.149020
0.188235 0.000000 0.156863
0.372549 0.000000 0.207843
0.592157 0.000000 0.239216
0.807843 0.000000 0.254902
0.996078 0.000000 0.262745
1.000000 0.000000 0.282353
1.000000 0.000000 0.325490
0.000000 0.019608 0.152941
0.082353 0.011765 0.156863
0.203922 0.000000 0.164706
0.396078 0.000000 0.200000
0.603922 0.000000 0.223529
0.819608 0.000000 0.231373
1.000000 0.000000 0.247059
1.000000 0.000000 0.282353
1.000000 0.000000 0.325490
0.000000 0.184314 0.160784
0.019608 0.184314 0.160784
0.231373 0.184314 0.160784
0.427451 0.172549 0.168627
0.623529 0.152941 0.188235
0.831373 0.101961 0.207843
1.000000 0.031373 0.243137
1.000000 0.035294 0.282353
1.000000 0.129412 0.325490
0.000000 0.407843 0.133333
0.000000 0.407843 0.129412
0.227451 0.407843 0.137255
0.439216 0.411765 0.152941
0.639216 0.411765 0.168627
0.835294 0.403922 0.196078
0.996078 0.392157 0.235294
1.000000 0.384314 0.282353
1.000000 0.392157 0.329412
0.000000 0.627451 0.058824
0.000000 0.627451 0.066667
0.192157 0.627451 0.082353
0.439216 0.627451 0.105882
0.647059 0.631373 0.137255
0.835294 0.623529 0.176471
0.988235 0.603922 0.227451
1.000000 0.588235 0.282353
1.000000 0.572549 0.337255
0.000000 0.811765 0.000000
0.000000 0.811765 0.000000
0.152941 0.811765 0.011765
0.431373 0.807843 0.066667
0.635294 0.807843 0.117647
0.819608 0.803922 0.168627
0.972549 0.784314 0.227451
1.000000 0.756863 0.290196
1.000000 0.729412 0.356863
0.000000 0.941176 0.062745
0.000000 0.941176 0.074510
0.223529 0.937255 0.098039
0.439216 0.937255 0.133333
0.619608 0.933333 0.172549
0.784314 0.925490 0.215686
0.937255 0.921569 0.262745
1.000000 0.898039 0.321569
1.000000 0.862745 0.388235
0.129412 1.000000 0.211765
0.215686 1.000000 0.215686
0.341176 1.000000 0.227451
0.478431 1.000000 0.247059
0.619608 1.000000 0.274510
0.756863 1.000000 0.305882
0.886275 0.996078 0.345098
1.000000 0.988235 0.388235
1.000000 0.968627 0.439216
0.372549 1.000000 0.341176
0.396078 1.000000 0.345098
0.458824 1.000000 0.352941
0.541176 1.000000 0.368627
0.643137 1.000000 0.388235
0.745098 1.000000 0.411765
0.847059 1.000000 0.443137
0.945098 1.000000 0.478431
1.000000 1.000000 0.517647
0.125490 0.000000 0.345098
0.184314 0.000000 0.349020
0.286275 0.000000 0.352941
0.423529 0.000000 0.368627
0.619608 0.000000 0.403922
0.827451 0.000000 0.427451
1.000000 0.000000 0.431373
1.000000 0.000000 0.439216
1.000000 0.000000 0.454902
0.078431 0.000000 0.349020
0.160784 0.000000 0.352941
0.286275 0.000000 0.360784
0.435294 0.000000 0.372549
0.631373 0.000000 0.400000
0.839216 0.000000 0.419608
1.000000 0.000000 0.427451
1.000000 0.000000 0.435294
1.000000 0.000000 0.454902
0.000000 0.184314 0.360784
0.058824 0.172549 0.364706
0.278431 0.164706 0.368627
0.462745 0.145098 0.380392
0.654902 0.101961 0.392157
0.850980 0.000000 0.407843
1.000000 0.000000 0.419608
1.000000 0.019608 0.435294
1.000000 0.188235 0.466667
0.000000 0.407843 0.364706
0.000000 0.407843 0.364706
0.250980 0.407843 0.368627
0.474510 0.400000 0.372549
0.674510 0.388235 0.376471
0.858824 0.380392 0.392157
1.000000 0.376471 0.411765
1.000000 0.388235 0.439216
1.000000 0.415686 0.474510
0.000000 0.627451 0.349020
0.000000 0.627451 0.349020
0.203922 0.627451 0.345098
0.462745 0.627451 0.356863
0.674510 0.627451 0.368627
0.850980 0.611765 0.388235
0.996078 0.600000 0.411765
1.000000 0.588235 0.447059
1.000000 0.588235 0.482353
0.000000 0.811765 0.337255
0.000000 0.811765 0.337255
0.211765 0.811765 0.345098
0.458824 0.807843 0.352941
0.654902 0.803922 0.368627
0.835294 0.800000 0.388235
0.976471 0.780392 0.419608
1.000000 0.756863 0.458824
1.000000 0.737255 0.498039
0.000000 0.937255 0.360784
0.058824 0.937255 0.360784
0.301961 0.937255 0.368627
0.478431 0.933333 0.380392
0.643137 0.929412 0.396078
0.800000 0.925490 0.415686
0.945098 0.917647 0.443137
1.000000 0.894118 0.482353
1.000000 0.862745 0.525490
0.282353 1.000000 0.415686
0.329412 1.000000 0.419608
0.415686 1.000000 0.427451
0.529412 1.000000 0.435294
0.650980 1.000000 0.450980
0.776471 1.000000 0.470588
0.898039 0.992157 0.498039
1.000000 0.984314 0.525490
1.000000 0.968627 0.560784
0.454902 1.000000 0.494118
0.478431 1.000000 0.498039
0.525490 1.000000 0.501961
0.592157 1.000000 0.509804
0.678431 1.000000 0.525490
0.768627 1.000000 0.541176
0.862745 1.000000 0.564706
0.949020 1.000000 0.588235
1.000000 1.000000 0.615686
0.211765 0.000000 0.552941
0.262745 0.000000 0.552941
0.364706 0.000000 0.556863
0.498039 0.000000 0.564706
0.662745 0.000000 0.580392
0.854902 0.000000 0.600000
1.000000 0.000000 0.600000
1.000000 0.000000 0.596078
1.000000 0.000000 0.592157
0.176471 0.000000 0.556863
0.243137 0.000000 0.556863
0.356863 0.000000 0.560784
0.501961 0.000000 0.568627
0.670588 0.000000 0.580392
0.862745 0.000000 0.600000
1.000000 0.000000 0.600000
1.000000 0.000000 0.596078
1.000000 0.000000 0.592157
0.058824 0.156863 0.564706
0.184314 0.152941 0.564706
0.337255 0.141176 0.568627
0.505882 0.113725 0.576471
0.686275 0.054902 0.588235
0.870588 0.000000 0.596078
1.000000 0.000000 0.596078
1.000000 0.019608 0.596078
1.000000 0.200000 0.600000
0.000000 0.396078 0.568627
0.105882 0.396078 0.572549
0.309804 0.388235 0.576471
0.509804 0.380392 0.580392
0.705882 0.372549 0.588235
0.878431 0.364706 0.588235
1.000000 0.372549 0.592157
1.000000 0.400000 0.603922
1.000000 0.450980 0.619608
0.000000 0.627451 0.568627
0.000000 0.627451 0.572549
0.270588 0.627451 0.572549
0.494118 0.627451 0.576471
0.705882 0.615686 0.576471
0.866667 0.603922 0.584314
1.000000 0.600000 0.596078
1.000000 0.607843 0.615686
1.000000 0.619608 0.635294
0.000000 0.807843 0.552941
0.000000 0.807843 0.552941
0.298039 0.807843 0.556863
0.501961 0.803922 0.564706
0.682353 0.803922 0.572549
0.850980 0.796078 0.584314
0.980392 0.776471 0.603922
1.000000 0.760784 0.623529
1.000000 0.752941 0.647059
0.223529 0.933333 0.564706
0.290196 0.933333 0.564706
0.403922 0.933333 0.568627
0.537255 0.929412 0.576471
0.678431 0.925490 0.584314
0.819608 0.921569 0.600000
0.952941 0.917647 0.615686
1.000000 0.890196 0.635294
1.000000 0.870588 0.662745
0.423529 1.000000 0.596078
0.447059 1.000000 0.596078
0.509804 1.000000 0.600000
0.596078 1.000000 0.607843
0.698039 1.000000 0.615686
0.803922 0.996078 0.627451
0.913725 0.988235 0.643137
1.000000 0.984314 0.658824
1.000000 0.964706 0.682353
0.552941 1.000000 0.639216
0.568627 1.000000 0.639216
0.603922 1.000000 0.643137
0.658824 1.000000 0.650980
0.725490 1.000000 0.658824
0.803922 1.000000 0.670588
0.882353 1.000000 0.682353
0.960784 1.000000 0.698039
1.000000 1.000000 0.717647
0.286275 0.000000 0.745098
0.333333 0.000000 0.745098
0.423529 0.000000 0.749020
0.552941 0.000000 0.752941
0.709804 0.000000 0.760784
0.878431 0.000000 0.768627
1.000000 0.000000 0.764706
1.000000 0.000000 0.749020
1.000000 0.000000 0.729412
0.266667 0.000000 0.749020
0.317647 0.000000 0.749020
0.415686 0.000000 0.752941
0.552941 0.000000 0.756863
0.713725 0.000000 0.760784
0.882353 0.000000 0.772549
1.000000 0.000000 0.764706
1.000000 0.000000 0.749020
1.000000 0.000000 0.729412
0.219608 0.125490 0.752941
0.282353 0.117647 0.752941
0.403922 0.101961 0.752941
0.552941 0.066667 0.760784
0.717647 0.000000 0.764706
0.890196 0.000000 0.772549
1.000000 0.000000 0.760784
1.000000 0.027451 0.745098
1.000000 0.211765 0.733333
0.160784 0.376471 0.752941
0.250980 0.376471 0.756863
0.392157 0.376471 0.756863
0.552941 0.372549 0.760784
0.725490 0.364706 0.764706
0.894118 0.356863 0.768627
1.000000 0.372549 0.756863
1.000000 0.403922 0.749020
1.000000 0.458824 0.741176
0.113725 0.603922 0.752941
0.223529 0.603922 0.752941
0.380392 0.603922 0.756863
0.549020 0.600000 0.760784
0.725490 0.600000 0.764706
0.882353 0.600000 0.760784
1.000000 0.603922 0.756863
1.000000 0.619608 0.752941
1.000000 0.643137 0.760784
0.137255 0.803922 0.745098
0.243137 0.803922 0.745098
0.396078 0.803922 0.749020
0.556863 0.800000 0.749020
0.721569 0.800000 0.752941
0.866667 0.788235 0.756863
0.980392 0.776471 0.756863
1.000000 0.772549 0.764706
1.000000 0.776471 0.776471
0.349020 0.929412 0.725490
0.392157 0.929412 0.725490
0.482353 0.929412 0.729412
0.596078 0.925490 0.737255
0.721569 0.921569 0.745098
0.847059 0.917647 0.749020
0.960784 0.909804 0.760784
1.000000 0.890196 0.772549
1.000000 0.878431 0.784314
0.521569 1.000000 0.737255
0.545098 1.000000 0.737255
0.600000 1.000000 0.745098
0.662745 0.996078 0.749020
0.745098 0.996078 0.752941
0.835294 0.992157 0.760784
0.929412 0.984314 0.772549
1.000000 0.980392 0.780392
1.000000 0.960784 0.796078
0.650980 1.000000 0.764706
0.662745 1.000000 0.768627
0.686275 1.000000 0.768627
0.729412 1.000000 0.772549
0.780392 1.000000 0.780392
0.843137 1.000000 0.788235
0.905882 1.000000 0.796078
0.968627 1.000000 0.807843
1.000000 1.000000 0.819608
0.360784 0.000000 0.890196
0.396078 0.000000 0.890196
0.474510 0.000000 0.890196
0.592157 0.000000 0.894118
0.733333 0.000000 0.898039
0.882353 0.000000 0.901961
1.000000 0.000000 0.905882
1.000000 0.000000 0.890196
1.000000 0.000000 0.854902
0.349020 0.000000 0.890196
0.388235 0.000000 0.890196
0.470588 0.000000 0.890196
0.592157 0.000000 0.894118
0.733333 0.000000 0.898039
0.886275 0.000000 0.901961
1.000000 0.000000 0.905882
1.000000 0.000000 0.886275
1.000000 0.000000 0.854902
0.333333 0.086275 0.890196
0.376471 0.078431 0.890196
0.466667 0.058824 0.894118
0.592157 0.015686 0.894118
0.737255 0.000000 0.898039
0.886275 0.000000 0.901961
1.000000 0.000000 0.905882
1.000000 0.054902 0.882353
1.000000 0.231373 0.854902
0.333333 0.368627 0.890196
0.376471 0.368627 0.890196
0.470588 0.368627 0.890196
0.600000 0.364706 0.894118
0.741176 0.364706 0.898039
0.890196 0.364706 0.898039
1.000000 0.372549 0.905882
1.000000 0.411765 0.878431
1.000000 0.466667 0.854902
0.356863 0.588235 0.886275
0.400000 0.588235 0.886275
0.494118 0.592157 0.886275
0.611765 0.592157 0.890196
0.745098 0.592157 0.890196
0.886275 0.596078 0.894118
1.000000 0.603922 0.894118
1.000000 0.619608 0.874510
1.000000 0.647059 0.862745
0.392157 0.776471 0.882353
0.431373 0.776471 0.882353
0.513725 0.776471 0.882353
0.627451 0.776471 0.882353
0.752941 0.776471 0.886275
0.878431 0.776471 0.890196
0.988235 0.776471 0.882353
1.000000 0.780392 0.874510
1.000000 0.792157 0.874510
0.450980 0.925490 0.870588
0.482353 0.925490 0.870588
0.552941 0.925490 0.870588
0.650980 0.921569 0.874510
0.760784 0.917647 0.878431
0.874510 0.913725 0.882353
0.964706 0.905882 0.882353
1.000000 0.898039 0.882353
1.000000 0.894118 0.886275
0.588235 1.000000 0.847059
0.607843 0.996078 0.850980
0.650980 0.996078 0.854902
0.717647 0.992157 0.858824
0.800000 0.988235 0.870588
0.874510 0.984314 0.874510
0.945098 0.984314 0.878431
1.000000 0.976471 0.886275
1.000000 0.960784 0.894118
0.717647 1.000000 0.858824
0.729412 1.000000 0.862745
0.756863 1.000000 0.866667
0.803922 1.000000 0.878431
0.843137 1.000000 0.882353
0.886275 1.000000 0.886275
0.933333 1.000000 0.890196
0.980392 1.000000 0.898039
1.000000 1.000000 0.905882
0.435294 0.000000 0.988235
0.462745 0.000000 0.988235
0.525490 0.000000 0.988235
0.627451 0.000000 0.988235
0.745098 0.000000 0.992157
0.874510 0.000000 0.992157
1.000000 0.000000 0.996078
1.000000 0.000000 0.996078
1.000000 0.000000 0.968627
0.427451 0.000000 0.988235
0.458824 0.000000 0.988235
0.525490 0.000000 0.988235
0.623529 0.000000 0.988235
0.745098 0.000000 0.992157
0.874510 0.000000 0.992157
1.000000 0.000000 0.992157
1.000000 0.000000 0.996078
1.000000 0.000000 0.964706
0.427451 0.047059 0.988235
0.458824 0.039216 0.988235
0.529412 0.027451 0.988235
0.627451 0.003922 0.988235
0.749020 0.000000 0.988235
0.878431 0.000000 0.992157
1.000000 0.039216 0.992157
1.000000 0.121569 0.992157
1.000000 0.250980 0.964706
0.450980 0.364706 0.984314
0.478431 0.364706 0.984314
0.545098 0.364706 0.984314
0.643137 0.368627 0.984314
0.756863 0.372549 0.984314
0.878431 0.380392 0.984314
1.000000 0.396078 0.988235
1.000000 0.423529 0.988235
1.000000 0.478431 0.956863
0.501961 0.584314 0.976471
0.525490 0.584314 0.976471
0.580392 0.588235 0.976471
0.666667 0.588235 0.976471
0.768627 0.596078 0.976471
0.878431 0.600000 0.976471
0.992157 0.611765 0.980392
1.000000 0.623529 0.976471
1.000000 0.650980 0.952941
0.545098 0.756863 0.968627
0.568627 0.756863 0.968627
0.623529 0.760784 0.968627
0.701961 0.764706 0.968627
0.788235 0.768627 0.968627
0.882353 0.768627 0.968627
0.980392 0.772549 0.972549
1.000000 0.780392 0.964706
1.000000 0.796078 0.952941
0.588235 0.890196 0.960784
0.607843 0.890196 0.960784
0.654902 0.894118 0.960784
0.725490 0.894118 0.960784
0.807843 0.898039 0.960784
0.894118 0.901961 0.960784
0.968627 0.901961 0.964706
1.000000 0.898039 0.960784
1.000000 0.901961 0.952941
0.654902 0.992157 0.949020
0.670588 0.992157 0.949020
0.709804 0.992157 0.949020
0.764706 0.988235 0.952941
0.831373 0.984314 0.952941
0.898039 0.984314 0.956863
0.960784 0.980392 0.956863
1.000000 0.976471 0.956863
1.000000 0.968627 0.960784
0.764706 1.000000 0.933333
0.776471 1.000000 0.933333
0.796078 1.000000 0.933333
0.835294 1.000000 0.937255
0.878431 1.000000 0.945098
0.929412 1.000000 0.956863
0.960784 1.000000 0.960784
0.992157 1.000000 0.964706
1.000000 1.000000 0.968627
0.505882 0.000000 1.000000
0.525490 0.000000 1.000000
0.576471 0.000000 1.000000
0.654902 0.000000 1.000000
0.752941 0.000000 1.000000
0.862745 0.000000 1.000000
0.976471 0.000000 1.000000
1.000000 0.000000 1.000000
1.000000 0.000000 1.000000
0.505882 0.000000 1.000000
0.525490 0.000000 1.000000
0.576471 0.000000 1.000000
0.658824 0.000000 1.000000
0.756863 0.000000 1.000000
0.866667 0.000000 1.000000
0.976471 0.000000 1.000000
1.000000 0.000000 1.000000
1.000000 0.000000 1.000000
0.513725 0.043137 1.000000
0.533333 0.043137 1.000000
0.584314 0.047059 1.000000
0.662745 0.054902 1.000000
0.760784 0.078431 1.000000
0.866667 0.109804 1.000000
0.976471 0.156863 1.000000
1.000000 0.215686 1.000000
1.000000 0.290196 1.000000
0.541176 0.368627 1.000000
0.560784 0.368627 1.000000
0.607843 0.372549 1.000000
0.682353 0.376471 1.000000
0.772549 0.384314 1.000000
0.874510 0.400000 1.000000
0.976471 0.423529 1.000000
1.000000 0.454902 1.000000
1.000000 0.490196 1.000000
0.596078 0.584314 1.000000
0.611765 0.588235 1.000000
0.650980 0.588235 1.000000
0.713725 0.592157 1.000000
0.792157 0.600000 1.000000
0.882353 0.611765 1.000000
0.972549 0.623529 1.000000
1.000000 0.639216 1.000000
1.000000 0.658824 1.000000
0.662745 0.756863 1.000000
0.674510 0.756863 1.000000
0.705882 0.760784 1.000000
0.752941 0.760784 1.000000
0.819608 0.764706 1.000000
0.890196 0.768627 1.000000
0.968627 0.776471 1.000000
1.000000 0.784314 1.000000
1.000000 0.800000 1.000000
0.698039 0.874510 1.000000
0.709804 0.874510 1.000000
0.741176 0.878431 1.000000
0.792157 0.882353 1.000000
0.850980 0.890196 1.000000
0.909804 0.890196 1.000000
0.968627 0.894118 1.000000
1.000000 0.898039 1.000000
1.000000 0.905882 1.000000
0.741176 0.968627 1.000000
0.752941 0.968627 1.000000
0.780392 0.968627 1.000000
0.819608 0.968627 1.000000
0.866667 0.968627 1.000000
0.921569 0.968627 1.000000
0.972549 0.972549 1.000000
1.000000 0.976471 1.000000
1.000000 0.984314 0.996078
0.811765 1.000000 0.992157
0.819608 1.000000 0.992157
0.835294 1.000000 0.992157
0.866667 1.000000 0.992157
0.905882 1.000000 0.992157
0.952941 1.000000 0.996078
1.000000 1.000000 1.000000
1.000000 1.000000 1.000000
1.000000 1.000000 1.000000
