luts/PictureFX Perfect Sunset V1 - Example Blend Mode _ Hardlight 70%.cube
#Generated with IWLTBAP LUT Generator
#Website: http://luts.iwltbap.com
TITLE "Neutral-125_01"
#LUT size
LUT_3D_SIZE 5
#LUT data points
0.000000 0.000000 0.000000
0.282353 0.000000 0.043137
0.670588 0.007843 0.066667
0.984314 0.184314 0.141176
1.000000 0.301961 0.219608
0.258824 0.298039 0.117647
0.443137 0.305882 0.109804
0.737255 0.321569 0.070588
0.996078 0.368627 0.168627
1.000000 0.435294 0.247059
0.470588 0.631373 0.270588
0.576471 0.631373 0.282353
0.792157 0.631373 0.270588
1.000000 0.647059 0.258824
1.000000 0.658824 0.301961
0.611765 0.913725 0.388235
0.678431 0.905882 0.392157
0.839216 0.894118 0.396078
1.000000 0.878431 0.388235
1.000000 0.862745 0.380392
0.670588 1.000000 0.443137
0.713725 1.000000 0.443137
0.827451 1.000000 0.447059
0.972549 1.000000 0.443137
1.000000 0.988235 0.431373
0.066667 0.000000 0.215686
0.266667 0.027451 0.301961
0.639216 0.141176 0.407843
0.988235 0.215686 0.403922
1.000000 0.317647 0.423529
0.243137 0.309804 0.392157
0.439216 0.317647 0.396078
0.713725 0.352941 0.392157
1.000000 0.388235 0.396078
1.000000 0.443137 0.427451
0.470588 0.643137 0.443137
0.576471 0.643137 0.450980
0.796078 0.643137 0.439216
1.000000 0.647059 0.392157
1.000000 0.658824 0.431373
0.611765 0.909804 0.505882
0.678431 0.901961 0.509804
0.839216 0.890196 0.517647
1.000000 0.874510 0.494118
1.000000 0.858824 0.466667
0.666667 1.000000 0.521569
0.709804 1.000000 0.521569
0.823529 1.000000 0.525490
0.972549 1.000000 0.521569
1.000000 0.984314 0.501961
0.149020 0.015686 0.454902
0.329412 0.054902 0.513725
0.658824 0.149020 0.658824
0.964706 0.258824 0.713725
1.000000 0.341176 0.705882
0.266667 0.321569 0.650980
0.423529 0.337255 0.666667
0.670588 0.384314 0.713725
0.949020 0.431373 0.741176
1.000000 0.466667 0.713725
0.435294 0.647059 0.725490
0.549020 0.647059 0.741176
0.776471 0.647059 0.733333
1.000000 0.670588 0.709804
1.000000 0.670588 0.686275
0.600000 0.905882 0.717647
0.666667 0.901961 0.717647
0.827451 0.890196 0.717647
1.000000 0.874510 0.690196
1.000000 0.854902 0.631373
0.662745 1.000000 0.690196
0.705882 1.000000 0.690196
0.819608 1.000000 0.690196
0.968627 1.000000 0.686275
1.000000 0.980392 0.650980
0.243137 0.058824 0.780392
0.411765 0.098039 0.874510
0.698039 0.184314 0.921569
0.976471 0.274510 0.949020
1.000000 0.360784 0.972549
0.325490 0.352941 0.901961
0.458824 0.368627 0.909804
0.709804 0.396078 0.913725
0.972549 0.431373 0.956863
1.000000 0.478431 0.976471
0.458824 0.650980 0.984314
0.556863 0.654902 0.988235
0.756863 0.662745 0.984314
0.960784 0.690196 1.000000
1.000000 0.694118 0.992157
0.572549 0.905882 0.972549
0.635294 0.901961 0.972549
0.796078 0.890196 0.980392
0.996078 0.874510 0.952941
1.000000 0.870588 0.905882
0.654902 1.000000 0.886275
0.698039 1.000000 0.882353
0.807843 1.000000 0.878431
0.952941 1.000000 0.862745
1.000000 0.976471 0.823529
0.368627 0.113725 1.000000
0.486275 0.145098 1.000000
0.717647 0.211765 1.000000
0.976471 0.294118 1.000000
1.000000 0.380392 1.000000
0.403922 0.364706 1.000000
0.505882 0.372549 1.000000
0.721569 0.396078 1.000000
0.980392 0.439216 1.000000
1.000000 0.490196 1.000000
0.482353 0.662745 1.000000
0.564706 0.666667 1.000000
0.756863 0.682353 1.000000
0.984314 0.694118 1.000000
1.000000 0.690196 1.000000
0.584314 0.901961 1.000000
0.647059 0.898039 1.000000
0.792157 0.890196 1.000000
0.972549 0.882353 1.000000
1.000000 0.882353 1.000000
0.635294 1.000000 1.000000
0.674510 1.000000 1.000000
0.776471 1.000000 1.000000
0.925490 1.000000 1.000000
1.000000 0.972549 1.000000
