luts/PictureFX Kodak Aerochrome V1.0.cube
#Generated by lutCreator.js
#Coded by SirSerch
#https://github.com/SirSerch/LutCreatorJs
TITLE lutCreatorJs_25
LUT_3D_SIZE 9
0.000000 0.000000 0.000000
0.098039 0.074510 0.000000
0.207843 0.168627 0.000000
0.317647 0.262745 0.000000
0.427451 0.352941 0.000000
0.537255 0.447059 0.000000
0.643137 0.541176 0.000000
0.752941 0.631373 0.000000
0.862745 0.725490 0.000000
0.164706 0.000000 0.086275
0.180392 0.000000 0.003922
0.247059 0.121569 0.000000
0.345098 0.235294 0.000000
0.443137 0.337255 0.000000
0.549020 0.435294 0.000000
0.654902 0.529412 0.000000
0.760784 0.623529 0.000000
0.870588 0.717647 0.000000
0.317647 0.000000 0.184314
0.325490 0.000000 0.149020
0.349020 0.000000 0.019608
0.400000 0.145098 0.000000
0.486275 0.286275 0.000000
0.584314 0.396078 0.000000
0.682353 0.501961 0.000000
0.784314 0.600000 0.000000
0.890196 0.698039 0.000000
0.470588 0.000000 0.286275
0.474510 0.000000 0.262745
0.490196 0.000000 0.211765
0.513725 0.000000 0.050980
0.556863 0.145098 0.000000
0.639216 0.317647 0.000000
0.729412 0.447059 0.000000
0.823529 0.556863 0.000000
0.921569 0.662745 0.000000
0.623529 0.000000 0.384314
0.627451 0.000000 0.368627
0.639216 0.000000 0.333333
0.654902 0.000000 0.262745
0.678431 0.000000 0.082353
0.709804 0.109804 0.000000
0.792157 0.341176 0.000000
0.878431 0.486275 0.000000
0.968627 0.607843 0.000000
0.776471 0.000000 0.482353
0.776471 0.000000 0.474510
0.788235 0.000000 0.447059
0.800000 0.000000 0.396078
0.819608 0.000000 0.313725
0.847059 0.000000 0.113725
0.866667 0.000000 0.000000
0.945098 0.352941 0.000000
1.000000 0.513725 0.000000
0.929412 0.000000 0.584314
0.929412 0.000000 0.576471
0.937255 0.000000 0.552941
0.952941 0.000000 0.513725
0.964706 0.000000 0.454902
0.988235 0.000000 0.360784
1.000000 0.000000 0.145098
1.000000 0.000000 0.000000
1.000000 0.352941 0.000000
1.000000 0.000000 0.682353
1.000000 0.000000 0.674510
1.000000 0.000000 0.658824
1.000000 0.000000 0.627451
1.000000 0.000000 0.572549
1.000000 0.000000 0.509804
1.000000 0.000000 0.403922
1.000000 0.000000 0.176471
1.000000 0.000000 0.000000
1.000000 0.000000 0.780392
1.000000 0.000000 0.776471
1.000000 0.000000 0.760784
1.000000 0.000000 0.737255
1.000000 0.000000 0.694118
1.000000 0.000000 0.639216
1.000000 0.000000 0.560784
1.000000 0.000000 0.447059
1.000000 0.000000 0.207843
0.000000 0.113725 0.113725
0.000000 0.113725 0.066667
0.172549 0.176471 0.000000
0.313725 0.258824 0.000000
0.423529 0.352941 0.000000
0.533333 0.443137 0.000000
0.643137 0.537255 0.000000
0.752941 0.631373 0.000000
0.862745 0.725490 0.000000
0.035294 0.023529 0.125490
0.141176 0.090196 0.125490
0.231373 0.145098 0.023529
0.341176 0.231373 0.000000
0.443137 0.333333 0.000000
0.549020 0.431373 0.000000
0.654902 0.525490 0.000000
0.760784 0.623529 0.000000
0.870588 0.717647 0.000000
0.294118 0.027451 0.231373
0.309804 0.000000 0.203922
0.341176 0.000000 0.098039
0.400000 0.137255 0.000000
0.486275 0.282353 0.000000
0.584314 0.396078 0.000000
0.682353 0.498039 0.000000
0.784314 0.600000 0.000000
0.890196 0.698039 0.000000
0.458824 0.000000 0.313725
0.466667 0.000000 0.294118
0.482353 0.000000 0.239216
0.513725 0.000000 0.074510
0.552941 0.137255 0.000000
0.639216 0.317647 0.000000
0.729412 0.443137 0.000000
0.823529 0.556863 0.000000
0.921569 0.662745 0.000000
0.615686 0.000000 0.403922
0.619608 0.000000 0.392157
0.631373 0.000000 0.356863
0.654902 0.000000 0.278431
0.678431 0.000000 0.094118
0.709804 0.101961 0.000000
0.788235 0.337255 0.000000
0.878431 0.482353 0.000000
0.968627 0.607843 0.000000
0.768627 0.000000 0.498039
0.772549 0.000000 0.490196
0.784314 0.000000 0.462745
0.800000 0.000000 0.407843
0.819608 0.000000 0.317647
0.847059 0.000000 0.121569
0.866667 0.000000 0.000000
0.945098 0.349020 0.000000
1.000000 0.513725 0.000000
0.921569 0.000000 0.596078
0.925490 0.000000 0.588235
0.933333 0.000000 0.564706
0.945098 0.000000 0.525490
0.964706 0.000000 0.458824
0.988235 0.000000 0.360784
1.000000 0.000000 0.149020
1.000000 0.000000 0.000000
1.000000 0.349020 0.000000
1.000000 0.000000 0.694118
1.000000 0.000000 0.686275
1.000000 0.000000 0.670588
1.000000 0.000000 0.635294
1.000000 0.000000 0.584314
1.000000 0.000000 0.509804
1.000000 0.000000 0.403922
1.000000 0.000000 0.180392
1.000000 0.000000 0.000000
1.000000 0.000000 0.792157
1.000000 0.000000 0.784314
1.000000 0.000000 0.772549
1.000000 0.000000 0.745098
1.000000 0.000000 0.701961
1.000000 0.000000 0.639216
1.000000 0.000000 0.564706
1.000000 0.000000 0.447059
1.000000 0.000000 0.211765
0.000000 0.231373 0.231373
0.000000 0.231373 0.223529
0.000000 0.231373 0.152941
0.168627 0.274510 0.015686
0.388235 0.364706 0.000000
0.529412 0.443137 0.000000
0.643137 0.533333 0.000000
0.749020 0.627451 0.000000
0.858824 0.721569 0.000000
0.000000 0.188235 0.235294
0.000000 0.203922 0.227451
0.000000 0.223529 0.184314
0.258824 0.278431 0.117647
0.419608 0.356863 0.000000
0.545098 0.427451 0.000000
0.650980 0.521569 0.000000
0.760784 0.619608 0.000000
0.866667 0.713725 0.000000
0.098039 0.074510 0.250980
0.168627 0.113725 0.254902
0.278431 0.192157 0.250980
0.356863 0.223529 0.149020
0.466667 0.309804 0.007843
0.576471 0.392157 0.000000
0.678431 0.494118 0.000000
0.784314 0.596078 0.000000
0.886275 0.694118 0.000000
0.415686 0.070588 0.372549
0.435294 0.113725 0.368627
0.450980 0.117647 0.325490
0.486275 0.043137 0.219608
0.537255 0.188235 0.082353
0.631373 0.317647 0.000000
0.725490 0.439216 0.000000
0.819608 0.552941 0.000000
0.921569 0.658824 0.000000
0.592157 0.011765 0.458824
0.596078 0.000000 0.443137
0.611765 0.000000 0.411765
0.635294 0.000000 0.341176
0.670588 0.000000 0.196078
0.705882 0.113725 0.000000
0.788235 0.329412 0.000000
0.874510 0.478431 0.000000
0.968627 0.603922 0.000000
0.752941 0.000000 0.541176
0.756863 0.000000 0.529412
0.768627 0.000000 0.501961
0.784314 0.000000 0.454902
0.811765 0.000000 0.364706
0.843137 0.000000 0.176471
0.866667 0.000000 0.000000
0.941176 0.341176 0.000000
1.000000 0.509804 0.000000
0.909804 0.000000 0.627451
0.913725 0.000000 0.619608
0.921569 0.000000 0.600000
0.937255 0.000000 0.560784
0.956863 0.000000 0.498039
0.984314 0.000000 0.388235
1.000000 0.000000 0.149020
1.000000 0.000000 0.000000
1.000000 0.341176 0.000000
1.000000 0.000000 0.717647
1.000000 0.000000 0.713725
1.000000 0.000000 0.694118
1.000000 0.000000 0.662745
1.000000 0.000000 0.615686
1.000000 0.000000 0.537255
1.000000 0.000000 0.411765
1.000000 0.000000 0.196078
1.000000 0.000000 0.000000
1.000000 0.000000 0.811765
1.000000 0.000000 0.807843
1.000000 0.000000 0.792157
1.000000 0.000000 0.768627
1.000000 0.000000 0.725490
1.000000 0.000000 0.666667
1.000000 0.000000 0.576471
1.000000 0.000000 0.450980
1.000000 0.000000 0.223529
0.000000 0.349020 0.349020
0.000000 0.341176 0.345098
0.000000 0.364706 0.333333
0.000000 0.349020 0.239216
0.050980 0.376471 0.047059
0.411765 0.466667 0.031373
0.603922 0.556863 0.000000
0.741176 0.631373 0.000000
0.858824 0.713725 0.000000
0.000000 0.321569 0.352941
0.000000 0.321569 0.349020
0.000000 0.345098 0.337255
0.000000 0.345098 0.258824
0.196078 0.380392 0.125490
0.450980 0.466667 0.117647
0.623529 0.552941 0.000000
0.752941 0.623529 0.000000
0.866667 0.709804 0.000000
0.000000 0.254902 0.360784
0.000000 0.266667 0.356863
0.000000 0.294118 0.345098
0.152941 0.333333 0.305882
0.368627 0.384314 0.243137
0.529412 0.458824 0.149020
0.654902 0.525490 0.000000
0.772549 0.600000 0.000000
0.886275 0.690196 0.000000
0.160784 0.125490 0.376471
0.207843 0.152941 0.380392
0.301961 0.207843 0.380392
0.415686 0.294118 0.376471
0.482353 0.301961 0.266667
0.592157 0.388235 0.180392
0.701961 0.474510 0.000000
0.811765 0.560784 0.000000
0.917647 0.654902 0.000000
0.513725 0.125490 0.498039
0.529412 0.149020 0.501961
0.572549 0.203922 0.501961
0.592157 0.223529 0.447059
0.631373 0.176471 0.341176
0.674510 0.243137 0.215686
0.768627 0.380392 0.074510
0.866667 0.486275 0.000000
0.964706 0.596078 0.000000
0.725490 0.137255 0.607843
0.725490 0.168627 0.600000
0.737255 0.160784 0.576471
0.756863 0.117647 0.529412
0.784314 0.000000 0.454902
0.819608 0.000000 0.317647
0.847059 0.145098 0.156863
0.933333 0.360784 0.000000
1.000000 0.501961 0.000000
0.886275 0.000000 0.682353
0.890196 0.000000 0.674510
0.898039 0.000000 0.654902
0.913725 0.000000 0.619608
0.937255 0.000000 0.560784
0.964706 0.000000 0.466667
1.000000 0.000000 0.298039
1.000000 0.000000 0.050980
1.000000 0.325490 0.000000
1.000000 0.000000 0.764706
1.000000 0.000000 0.756863
1.000000 0.000000 0.741176
1.000000 0.000000 0.713725
1.000000 0.000000 0.666667
1.000000 0.000000 0.592157
1.000000 0.000000 0.482353
1.000000 0.000000 0.278431
1.000000 0.000000 0.000000
1.000000 0.000000 0.850980
1.000000 0.000000 0.847059
1.000000 0.000000 0.831373
1.000000 0.000000 0.807843
1.000000 0.000000 0.768627
1.000000 0.000000 0.709804
1.000000 0.000000 0.627451
1.000000 0.000000 0.498039
1.000000 0.000000 0.250980
0.000000 0.466667 0.466667
0.000000 0.462745 0.462745
0.000000 0.466667 0.454902
0.000000 0.482353 0.427451
0.000000 0.466667 0.325490
0.000000 0.478431 0.078431
0.407843 0.564706 0.066667
0.635294 0.654902 0.050980
0.815686 0.745098 0.000000
0.000000 0.447059 0.466667
0.000000 0.443137 0.466667
0.000000 0.454902 0.458824
0.000000 0.482353 0.439216
0.000000 0.462745 0.337255
0.000000 0.482353 0.145098
0.447059 0.568627 0.133333
0.658824 0.654902 0.125490
0.831373 0.745098 0.000000
0.000000 0.400000 0.474510
0.000000 0.403922 0.470588
0.000000 0.419608 0.462745
0.000000 0.450980 0.447059
0.000000 0.458824 0.372549
0.266667 0.486275 0.247059
0.533333 0.568627 0.235294
0.717647 0.658824 0.125490
0.850980 0.729412 0.000000
0.000000 0.317647 0.486275
0.000000 0.325490 0.482353
0.000000 0.345098 0.474510
0.000000 0.380392 0.458824
0.313725 0.443137 0.431373
0.494118 0.490196 0.368627
0.643137 0.556863 0.282353
0.768627 0.623529 0.156863
0.886275 0.694118 0.000000
0.227451 0.180392 0.505882
0.258824 0.200000 0.505882
0.333333 0.243137 0.505882
0.439216 0.305882 0.509804
0.552941 0.396078 0.501961
0.607843 0.384314 0.380392
0.717647 0.470588 0.301961
0.827451 0.556863 0.196078
0.937255 0.639216 0.000000
0.603922 0.176471 0.627451
0.615686 0.196078 0.627451
0.647059 0.239216 0.627451
0.705882 0.301961 0.627451
0.733333 0.329412 0.572549
0.776471 0.286275 0.466667
0.807843 0.305882 0.333333
0.901961 0.443137 0.239216
1.000000 0.552941 0.011765
0.847059 0.172549 0.749020
0.858824 0.192157 0.749020
0.866667 0.243137 0.737255
0.874510 0.278431 0.705882
0.898039 0.243137 0.650980
0.929412 0.184314 0.568627
0.968627 0.043137 0.439216
0.992157 0.192157 0.282353
1.000000 0.407843 0.149020
1.000000 0.207843 0.831373
1.000000 0.200000 0.823529
1.000000 0.184314 0.807843
1.000000 0.145098 0.780392
1.000000 0.058824 0.737255
1.000000 0.000000 0.670588
1.000000 0.000000 0.576471
1.000000 0.000000 0.419608
1.000000 0.000000 0.227451
1.000000 0.000000 0.905882
1.000000 0.000000 0.901961
1.000000 0.000000 0.890196
1.000000 0.000000 0.866667
1.000000 0.000000 0.827451
1.000000 0.000000 0.772549
1.000000 0.000000 0.698039
1.000000 0.000000 0.584314
1.000000 0.000000 0.400000
0.000000 0.584314 0.584314
0.000000 0.580392 0.580392
0.000000 0.572549 0.576471
0.000000 0.596078 0.568627
0.000000 0.603922 0.521569
0.000000 0.584314 0.411765
0.000000 0.580392 0.133333
0.368627 0.666667 0.101961
0.650980 0.752941 0.086275
0.000000 0.572549 0.584314
0.000000 0.568627 0.584314
0.000000 0.564706 0.580392
0.000000 0.588235 0.568627
0.000000 0.600000 0.529412
0.000000 0.580392 0.423529
0.000000 0.580392 0.164706
0.407843 0.666667 0.156863
0.674510 0.756863 0.145098
0.000000 0.537255 0.592157
0.000000 0.533333 0.588235
0.000000 0.541176 0.584314
0.000000 0.560784 0.572549
0.000000 0.596078 0.552941
0.000000 0.576471 0.447059
0.000000 0.584314 0.254902
0.498039 0.670588 0.247059
0.729412 0.756863 0.239216
0.000000 0.470588 0.600000
0.000000 0.478431 0.596078
0.000000 0.490196 0.592157
0.000000 0.513725 0.580392
0.000000 0.552941 0.560784
0.000000 0.568627 0.494118
0.376471 0.592157 0.368627
0.631373 0.674510 0.356863
0.815686 0.760784 0.286275
0.000000 0.372549 0.611765
0.000000 0.376471 0.607843
0.000000 0.392157 0.600000
0.000000 0.419608 0.592157
0.231373 0.466667 0.572549
0.454902 0.529412 0.545098
0.623529 0.592157 0.482353
0.756863 0.650980 0.403922
0.882353 0.717647 0.305882
0.290196 0.235294 0.631373
0.317647 0.247059 0.631373
0.376471 0.282353 0.631373
0.466667 0.337255 0.635294
0.576471 0.407843 0.635294
0.690196 0.498039 0.627451
0.752941 0.458824 0.494118
0.843137 0.549020 0.423529
0.952941 0.635294 0.333333
0.686275 0.231373 0.752941
0.698039 0.247059 0.752941
0.725490 0.278431 0.752941
0.772549 0.333333 0.756863
0.839216 0.400000 0.756863
0.870588 0.431373 0.694118
0.917647 0.388235 0.588235
0.956863 0.368627 0.443137
1.000000 0.509804 0.364706
0.949020 0.227451 0.874510
0.956863 0.243137 0.874510
0.976471 0.274510 0.874510
1.000000 0.329412 0.874510
1.000000 0.388235 0.831373
1.000000 0.356863 0.772549
1.000000 0.305882 0.686275
1.000000 0.231373 0.560784
1.000000 0.247059 0.400000
1.000000 0.239216 0.984314
1.000000 0.258824 0.976471
1.000000 0.301961 0.964706
1.000000 0.317647 0.945098
1.000000 0.290196 0.909804
1.000000 0.243137 0.858824
1.000000 0.164706 0.788235
1.000000 0.000000 0.686275
1.000000 0.000000 0.541176
0.000000 0.701961 0.701961
0.000000 0.701961 0.698039
0.000000 0.694118 0.698039
0.000000 0.701961 0.690196
0.000000 0.729412 0.674510
0.000000 0.721569 0.611765
0.000000 0.701961 0.498039
0.000000 0.678431 0.266667
0.262745 0.768627 0.133333
0.000000 0.690196 0.701961
0.000000 0.690196 0.701961
0.000000 0.682353 0.698039
0.000000 0.694118 0.690196
0.000000 0.721569 0.678431
0.000000 0.717647 0.619608
0.000000 0.701961 0.505882
0.000000 0.678431 0.278431
0.317647 0.768627 0.180392
0.000000 0.662745 0.705882
0.000000 0.662745 0.705882
0.000000 0.654902 0.701961
0.000000 0.674510 0.694118
0.000000 0.701961 0.678431
0.000000 0.717647 0.635294
0.000000 0.698039 0.525490
0.000000 0.682353 0.309804
0.431373 0.772549 0.262745
0.000000 0.611765 0.713725
0.000000 0.611765 0.713725
0.000000 0.619608 0.709804
0.000000 0.639216 0.698039
0.000000 0.666667 0.686275
0.000000 0.709804 0.666667
0.000000 0.690196 0.560784
0.027451 0.690196 0.376471
0.572549 0.772549 0.364706
0.000000 0.541176 0.721569
0.000000 0.545098 0.721569
0.000000 0.552941 0.717647
0.000000 0.572549 0.709804
0.000000 0.603922 0.694118
0.000000 0.650980 0.674510
0.286275 0.678431 0.615686
0.501961 0.698039 0.498039
0.741176 0.776471 0.482353
0.000000 0.419608 0.733333
0.000000 0.427451 0.733333
0.000000 0.439216 0.729412
0.000000 0.462745 0.721569
0.086275 0.498039 0.705882
0.384314 0.549020 0.690196
0.580392 0.619608 0.662745
0.741176 0.682353 0.600000
0.874510 0.741176 0.521569
0.352941 0.286275 0.756863
0.376471 0.298039 0.756863
0.423529 0.325490 0.760784
0.501961 0.372549 0.760784
0.600000 0.431373 0.764706
0.717647 0.505882 0.764706
0.827451 0.600000 0.752941
0.890196 0.556863 0.623529
0.968627 0.627451 0.537255
0.768627 0.286275 0.878431
0.776471 0.298039 0.878431
0.800000 0.325490 0.878431
0.843137 0.368627 0.882353
0.901961 0.427451 0.882353
0.976471 0.498039 0.886275
1.000000 0.533333 0.819608
1.000000 0.494118 0.713725
1.000000 0.435294 0.556863
1.000000 0.282353 1.000000
1.000000 0.294118 1.000000
1.000000 0.321569 1.000000
1.000000 0.364706 1.000000
1.000000 0.423529 1.000000
1.000000 0.494118 0.960784
1.000000 0.462745 0.898039
1.000000 0.415686 0.807843
1.000000 0.356863 0.686275
0.000000 0.819608 0.819608
0.000000 0.819608 0.815686
0.000000 0.811765 0.815686
0.000000 0.807843 0.811765
0.000000 0.827451 0.800000
0.000000 0.854902 0.776471
0.000000 0.839216 0.701961
0.000000 0.819608 0.584314
0.000000 0.796078 0.372549
0.000000 0.811765 0.819608
0.000000 0.811765 0.819608
0.000000 0.803922 0.815686
0.000000 0.800000 0.811765
0.000000 0.823529 0.800000
0.000000 0.850980 0.784314
0.000000 0.839216 0.705882
0.000000 0.819608 0.592157
0.000000 0.792157 0.380392
0.000000 0.788235 0.823529
0.000000 0.788235 0.823529
0.000000 0.780392 0.819608
0.000000 0.784314 0.815686
0.000000 0.807843 0.803922
0.000000 0.839216 0.788235
0.000000 0.835294 0.721569
0.000000 0.815686 0.607843
0.000000 0.792157 0.403922
0.000000 0.749020 0.827451
0.000000 0.745098 0.827451
0.000000 0.741176 0.827451
0.000000 0.756863 0.819608
0.000000 0.780392 0.807843
0.000000 0.811765 0.792157
0.000000 0.831373 0.749020
0.000000 0.811765 0.635294
0.000000 0.788235 0.443137
0.000000 0.682353 0.839216
0.000000 0.686275 0.835294
0.000000 0.694118 0.831373
0.000000 0.709804 0.827451
0.000000 0.733333 0.815686
0.000000 0.764706 0.800000
0.000000 0.811765 0.776471
0.000000 0.803922 0.678431
0.266667 0.796078 0.498039
0.000000 0.603922 0.847059
0.000000 0.607843 0.847059
0.000000 0.615686 0.843137
0.000000 0.631373 0.835294
0.000000 0.658824 0.823529
0.000000 0.694118 0.811765
0.215686 0.741176 0.788235
0.458824 0.788235 0.741176
0.635294 0.800000 0.627451
0.000000 0.466667 0.858824
0.000000 0.470588 0.858824
0.000000 0.482353 0.854902
0.000000 0.501961 0.847059
0.000000 0.533333 0.839216
0.313725 0.576471 0.823529
0.521569 0.631373 0.803922
0.717647 0.713725 0.776471
0.862745 0.768627 0.713725
0.415686 0.341176 0.886275
0.435294 0.349020 0.886275
0.478431 0.372549 0.886275
0.545098 0.411765 0.886275
0.631373 0.462745 0.890196
0.737255 0.529412 0.890196
0.858824 0.607843 0.894118
0.964706 0.701961 0.878431
1.000000 0.658824 0.752941
0.847059 0.337255 1.000000
0.854902 0.349020 1.000000
0.874510 0.372549 1.000000
0.913725 0.407843 1.000000
0.964706 0.458824 1.000000
1.000000 0.525490 1.000000
1.000000 0.600000 1.000000
1.000000 0.635294 0.945098
1.000000 0.596078 0.839216
0.000000 0.937255 0.937255
0.000000 0.937255 0.933333
0.000000 0.933333 0.933333
0.000000 0.925490 0.929412
0.000000 0.933333 0.921569
0.000000 0.960784 0.909804
0.000000 0.972549 0.874510
0.000000 0.956863 0.792157
0.000000 0.937255 0.670588
0.000000 0.929412 0.937255
0.000000 0.929412 0.937255
0.000000 0.925490 0.933333
0.000000 0.917647 0.929412
0.000000 0.929412 0.921569
0.000000 0.956863 0.909804
0.000000 0.972549 0.878431
0.000000 0.956863 0.796078
0.000000 0.937255 0.674510
0.000000 0.913725 0.941176
0.000000 0.909804 0.937255
0.000000 0.905882 0.937255
0.000000 0.898039 0.933333
0.000000 0.917647 0.925490
0.000000 0.941176 0.913725
0.000000 0.968627 0.890196
0.000000 0.952941 0.807843
0.000000 0.933333 0.690196
0.000000 0.878431 0.945098
0.000000 0.878431 0.945098
0.000000 0.870588 0.941176
0.000000 0.874510 0.937255
0.000000 0.894118 0.929412
0.000000 0.917647 0.917647
0.000000 0.952941 0.898039
0.000000 0.949020 0.827451
0.000000 0.929412 0.713725
0.000000 0.823529 0.952941
0.000000 0.819608 0.952941
0.000000 0.823529 0.949020
0.000000 0.835294 0.945098
0.000000 0.854902 0.933333
0.000000 0.882353 0.921569
0.000000 0.917647 0.905882
0.000000 0.945098 0.862745
0.000000 0.921569 0.749020
0.000000 0.756863 0.960784
0.000000 0.756863 0.960784
0.000000 0.764706 0.956863
0.000000 0.776471 0.952941
0.000000 0.796078 0.941176
0.000000 0.823529 0.929412
0.000000 0.862745 0.913725
0.000000 0.913725 0.890196
0.160784 0.913725 0.800000
0.000000 0.662745 0.972549
0.000000 0.666667 0.972549
0.000000 0.674510 0.968627
0.000000 0.690196 0.960784
0.000000 0.709804 0.952941
0.000000 0.741176 0.941176
0.000000 0.780392 0.925490
0.403922 0.831373 0.901961
0.615686 0.898039 0.870588
0.000000 0.513725 0.984314
0.000000 0.517647 0.984314
0.000000 0.525490 0.980392
0.000000 0.541176 0.976471
0.000000 0.568627 0.968627
0.223529 0.603922 0.956863
0.466667 0.650980 0.941176
0.658824 0.717647 0.917647
0.862745 0.811765 0.905882
0.482353 0.396078 1.000000
0.494118 0.403922 1.000000
0.533333 0.423529 1.000000
0.592157 0.454902 1.000000
0.670588 0.501961 1.000000
0.764706 0.560784 1.000000
0.874510 0.627451 1.000000
0.996078 0.709804 1.000000
1.000000 0.803922 1.000000
