luts/PictureFX Discovery Style - for Log and ORF.cube
#Generated with IWLTBAP LUT Generator
#Website: http://luts.iwltbap.com
TITLE "Grutto-Edit-Neutral-125"
#LUT size
LUT_3D_SIZE 5
#LUT data points
0.000000 0.000000 0.000000
0.156863 0.003922 0.000000
0.466667 0.000000 0.000000
0.933333 0.000000 0.000000
1.000000 0.000000 0.000000
0.000000 0.192157 0.000000
0.196078 0.200000 0.000000
0.509804 0.196078 0.000000
0.960784 0.000000 0.000000
1.000000 0.000000 0.000000
0.000000 0.568627 0.000000
0.000000 0.576471 0.000000
0.552941 0.588235 0.000000
0.984314 0.596078 0.000000
1.000000 0.639216 0.000000
0.000000 0.976471 0.000000
0.000000 0.976471 0.000000
0.627451 0.968627 0.000000
0.988235 0.960784 0.000000
1.000000 0.921569 0.000000
0.321569 1.000000 0.000000
0.435294 1.000000 0.000000
0.658824 1.000000 0.000000
0.882353 1.000000 0.019608
1.000000 1.000000 0.129412
0.007843 0.000000 0.149020
0.172549 0.003922 0.180392
0.482353 0.000000 0.200000
0.945098 0.000000 0.207843
1.000000 0.000000 0.203922
0.000000 0.196078 0.196078
0.203922 0.203922 0.203922
0.521569 0.192157 0.207843
0.968627 0.000000 0.203922
1.000000 0.000000 0.192157
0.000000 0.572549 0.180392
0.000000 0.580392 0.176471
0.572549 0.592157 0.164706
0.988235 0.600000 0.137255
1.000000 0.639216 0.090196
0.000000 0.976471 0.000000
0.000000 0.976471 0.000000
0.639216 0.968627 0.000000
0.988235 0.960784 0.000000
1.000000 0.917647 0.117647
0.400000 1.000000 0.309804
0.494118 1.000000 0.313725
0.686275 1.000000 0.325490
0.890196 1.000000 0.345098
1.000000 1.000000 0.376471
0.000000 0.000000 0.501961
0.109804 0.000000 0.517647
0.505882 0.000000 0.549020
0.964706 0.000000 0.572549
1.000000 0.000000 0.592157
0.000000 0.203922 0.545098
0.133333 0.207843 0.552941
0.541176 0.184314 0.568627
0.984314 0.000000 0.584314
1.000000 0.000000 0.596078
0.000000 0.580392 0.588235
0.000000 0.584314 0.588235
0.592157 0.592157 0.592157
0.992157 0.600000 0.596078
1.000000 0.643137 0.603922
0.000000 0.976471 0.607843
0.000000 0.972549 0.607843
0.643137 0.968627 0.611765
0.976471 0.960784 0.615686
1.000000 0.921569 0.639216
0.592157 1.000000 0.701961
0.643137 1.000000 0.705882
0.764706 1.000000 0.709804
0.909804 1.000000 0.717647
1.000000 1.000000 0.729412
0.000000 0.000000 0.945098
0.000000 0.000000 0.949020
0.513725 0.000000 0.956863
0.976471 0.000000 0.968627
1.000000 0.000000 0.972549
0.000000 0.203922 0.956863
0.000000 0.200000 0.960784
0.560784 0.145098 0.964706
0.992157 0.000000 0.968627
1.000000 0.058824 0.968627
0.000000 0.592157 0.968627
0.000000 0.592157 0.968627
0.615686 0.596078 0.968627
0.988235 0.607843 0.968627
1.000000 0.666667 0.941176
0.000000 0.972549 0.960784
0.203922 0.972549 0.960784
0.658824 0.964706 0.960784
0.960784 0.960784 0.960784
1.000000 0.964706 0.964706
0.733333 1.000000 0.917647
0.788235 1.000000 0.925490
0.921569 1.000000 0.960784
0.988235 1.000000 0.988235
1.000000 1.000000 0.992157
0.000000 0.000000 1.000000
0.000000 0.000000 1.000000
0.478431 0.000000 1.000000
0.862745 0.000000 1.000000
1.000000 0.000000 1.000000
0.000000 0.219608 1.000000
0.000000 0.219608 1.000000
0.545098 0.200000 1.000000
0.878431 0.192157 1.000000
1.000000 0.294118 1.000000
0.333333 0.596078 1.000000
0.454902 0.603922 1.000000
0.670588 0.619608 1.000000
0.898039 0.650980 1.000000
1.000000 0.709804 1.000000
0.568627 0.882353 1.000000
0.650980 0.890196 1.000000
0.835294 0.921569 1.000000
0.968627 0.968627 1.000000
1.000000 0.992157 1.000000
0.847059 1.000000 1.000000
0.890196 1.000000 1.000000
0.984314 1.000000 1.000000
1.000000 1.000000 1.000000
1.000000 1.000000 1.000000
