luts/PictureFX Leica M8 Camera Black and White.cube
#Generated with IWLTBAP LUT Generator
#Website: http://luts.iwltbap.com
TITLE "PictureFX-LeicaM8-BW-125"
#LUT size
LUT_3D_SIZE 5
#LUT data points
0.000000 0.000000 0.000000
0.039216 0.039216 0.039216
0.156863 0.156863 0.156863
0.313725 0.313725 0.313725
0.509804 0.509804 0.509804
0.141176 0.141176 0.141176
0.200000 0.200000 0.200000
0.325490 0.325490 0.325490
0.419608 0.419608 0.419608
0.584314 0.584314 0.584314
0.384314 0.384314 0.384314
0.364706 0.364706 0.364706
0.490196 0.490196 0.494118
0.627451 0.627451 0.627451
0.760784 0.760784 0.760784
0.627451 0.627451 0.627451
0.615686 0.615686 0.615686
0.650980 0.650980 0.650980
0.768627 0.768627 0.768627
0.909804 0.909804 0.909804
0.929412 0.929412 0.929412
0.929412 0.929412 0.929412
0.913725 0.913725 0.913725
0.960784 0.960784 0.964706
0.992157 0.992157 0.996078
0.074510 0.074510 0.074510
0.156863 0.156863 0.156863
0.286275 0.286275 0.286275
0.333333 0.333333 0.333333
0.501961 0.501961 0.501961
0.219608 0.219608 0.219608
0.247059 0.247059 0.247059
0.329412 0.329412 0.329412
0.427451 0.427451 0.427451
0.580392 0.580392 0.580392
0.466667 0.466667 0.466667
0.443137 0.443137 0.443137
0.509804 0.509804 0.509804
0.631373 0.631373 0.631373
0.752941 0.752941 0.752941
0.674510 0.674510 0.674510
0.662745 0.662745 0.666667
0.662745 0.662745 0.662745
0.776471 0.776471 0.776471
0.909804 0.909804 0.909804
0.937255 0.937255 0.941176
0.933333 0.933333 0.937255
0.925490 0.925490 0.925490
0.964706 0.964706 0.964706
0.996078 0.996078 0.996078
0.254902 0.254902 0.254902
0.313725 0.313725 0.313725
0.419608 0.419608 0.419608
0.588235 0.588235 0.588235
0.674510 0.674510 0.674510
0.333333 0.333333 0.333333
0.380392 0.380392 0.380392
0.466667 0.466667 0.466667
0.607843 0.607843 0.607843
0.674510 0.674510 0.674510
0.517647 0.517647 0.517647
0.529412 0.529412 0.529412
0.560784 0.560784 0.560784
0.623529 0.623529 0.623529
0.733333 0.733333 0.733333
0.768627 0.768627 0.768627
0.772549 0.772549 0.772549
0.737255 0.737255 0.737255
0.800000 0.800000 0.800000
0.917647 0.917647 0.917647
0.964706 0.964706 0.964706
0.964706 0.964706 0.964706
0.952941 0.952941 0.956863
0.964706 0.964706 0.964706
0.992157 0.992157 0.996078
0.478431 0.478431 0.478431
0.509804 0.509804 0.509804
0.592157 0.592157 0.592157
0.682353 0.682353 0.682353
0.831373 0.831373 0.831373
0.525490 0.525490 0.525490
0.552941 0.552941 0.552941
0.627451 0.627451 0.627451
0.709804 0.709804 0.709804
0.850980 0.850980 0.850980
0.549020 0.549020 0.549020
0.596078 0.596078 0.596078
0.686275 0.686275 0.686275
0.756863 0.756863 0.756863
0.894118 0.894118 0.894118
0.792157 0.792157 0.792157
0.800000 0.800000 0.800000
0.811765 0.811765 0.811765
0.843137 0.843137 0.843137
0.905882 0.905882 0.905882
0.988235 0.988235 0.992157
0.988235 0.988235 0.988235
0.988235 0.988235 0.988235
0.980392 0.980392 0.980392
1.000000 1.000000 1.000000
0.811765 0.811765 0.811765
0.823529 0.823529 0.827451
0.862745 0.862745 0.862745
0.913725 0.913725 0.913725
0.949020 0.949020 0.949020
0.827451 0.827451 0.827451
0.839216 0.839216 0.839216
0.874510 0.874510 0.874510
0.921569 0.921569 0.921569
0.952941 0.952941 0.952941
0.843137 0.843137 0.843137
0.858824 0.858824 0.858824
0.890196 0.890196 0.890196
0.933333 0.933333 0.933333
0.968627 0.968627 0.968627
0.886275 0.886275 0.886275
0.882353 0.882353 0.882353
0.882353 0.882353 0.882353
0.952941 0.952941 0.952941
0.984314 0.984314 0.988235
0.996078 0.996078 0.996078
0.996078 0.996078 1.000000
0.996078 0.996078 1.000000
0.996078 0.996078 1.000000
1.000000 1.000000 1.000000
