luts/PictureFX Creative - Kodak Wratten 82A.cube
#Generated with IWLTBAP LUT Generator
#Website: http://luts.iwltbap.com
TITLE "PictureFX Creative - Kodak Wratten 82A"
#LUT size
LUT_3D_SIZE 25
#LUT data points
0.000000 0.000000 0.000000
0.031373 0.000000 0.000000
0.066667 0.000000 0.000000
0.098039 0.000000 0.000000
0.133333 0.000000 0.000000
0.172549 0.000000 0.000000
0.203922 0.000000 0.000000
0.239216 0.000000 0.000000
0.278431 0.000000 0.000000
0.313725 0.000000 0.000000
0.352941 0.000000 0.000000
0.392157 0.000000 0.000000
0.431373 0.000000 0.000000
0.474510 0.000000 0.000000
0.517647 0.000000 0.000000
0.560784 0.000000 0.000000
0.607843 0.000000 0.000000
0.654902 0.000000 0.000000
0.701961 0.000000 0.000000
0.749020 0.000000 0.000000
0.800000 0.000000 0.000000
0.847059 0.000000 0.000000
0.901961 0.000000 0.000000
0.952941 0.000000 0.000000
1.000000 0.000000 0.000000
0.000000 0.039216 0.000000
0.031373 0.039216 0.000000
0.066667 0.039216 0.000000
0.098039 0.039216 0.000000
0.133333 0.039216 0.000000
0.172549 0.039216 0.000000
0.203922 0.039216 0.000000
0.239216 0.039216 0.000000
0.278431 0.039216 0.000000
0.313725 0.039216 0.000000
0.352941 0.039216 0.000000
0.392157 0.039216 0.000000
0.431373 0.039216 0.000000
0.474510 0.039216 0.000000
0.517647 0.039216 0.000000
0.560784 0.039216 0.000000
0.607843 0.039216 0.000000
0.654902 0.039216 0.000000
0.701961 0.039216 0.000000
0.749020 0.039216 0.000000
0.800000 0.039216 0.000000
0.847059 0.039216 0.000000
0.901961 0.039216 0.000000
0.952941 0.039216 0.000000
1.000000 0.039216 0.000000
0.000000 0.082353 0.000000
0.031373 0.082353 0.000000
0.066667 0.082353 0.000000
0.098039 0.082353 0.000000
0.133333 0.082353 0.000000
0.172549 0.082353 0.000000
0.203922 0.082353 0.000000
0.239216 0.082353 0.000000
0.278431 0.082353 0.000000
0.313725 0.082353 0.000000
0.352941 0.082353 0.000000
0.392157 0.082353 0.000000
0.431373 0.082353 0.000000
0.474510 0.082353 0.000000
0.517647 0.082353 0.000000
0.560784 0.082353 0.000000
0.607843 0.082353 0.000000
0.654902 0.082353 0.000000
0.701961 0.082353 0.000000
0.749020 0.082353 0.000000
0.800000 0.082353 0.000000
0.847059 0.082353 0.000000
0.901961 0.082353 0.000000
0.952941 0.082353 0.000000
1.000000 0.082353 0.000000
0.000000 0.121569 0.000000
0.031373 0.121569 0.000000
0.066667 0.121569 0.000000
0.098039 0.121569 0.000000
0.133333 0.121569 0.000000
0.172549 0.121569 0.000000
0.203922 0.121569 0.000000
0.239216 0.121569 0.000000
0.278431 0.121569 0.000000
0.313725 0.121569 0.000000
0.352941 0.121569 0.000000
0.392157 0.121569 0.000000
0.431373 0.121569 0.000000
0.474510 0.121569 0.000000
0.517647 0.121569 0.000000
0.560784 0.121569 0.000000
0.607843 0.121569 0.000000
0.654902 0.121569 0.000000
0.701961 0.121569 0.000000
0.749020 0.121569 0.000000
0.800000 0.121569 0.000000
0.847059 0.121569 0.000000
0.901961 0.121569 0.000000
0.952941 0.121569 0.000000
1.000000 0.121569 0.000000
0.000000 0.164706 0.000000
0.031373 0.164706 0.000000
0.066667 0.164706 0.000000
0.098039 0.164706 0.000000
0.133333 0.164706 0.000000
0.172549 0.164706 0.000000
0.203922 0.164706 0.000000
0.239216 0.164706 0.000000
0.278431 0.164706 0.000000
0.313725 0.164706 0.000000
0.352941 0.164706 0.000000
0.392157 0.164706 0.000000
0.431373 0.164706 0.000000
0.474510 0.164706 0.000000
0.517647 0.164706 0.000000
0.560784 0.164706 0.000000
0.607843 0.164706 0.000000
0.654902 0.164706 0.000000
0.701961 0.164706 0.000000
0.749020 0.164706 0.000000
0.800000 0.164706 0.000000
0.847059 0.164706 0.000000
0.901961 0.164706 0.000000
0.952941 0.164706 0.000000
1.000000 0.164706 0.000000
0.000000 0.207843 0.000000
0.031373 0.207843 0.000000
0.066667 0.207843 0.000000
0.098039 0.207843 0.000000
0.133333 0.207843 0.000000
0.172549 0.207843 0.000000
0.203922 0.207843 0.000000
0.239216 0.207843 0.000000
0.278431 0.207843 0.000000
0.313725 0.207843 0.000000
0.352941 0.207843 0.000000
0.392157 0.207843 0.000000
0.431373 0.207843 0.000000
0.474510 0.207843 0.000000
0.517647 0.207843 0.000000
0.560784 0.207843 0.000000
0.607843 0.207843 0.000000
0.654902 0.207843 0.000000
0.701961 0.207843 0.000000
0.749020 0.207843 0.000000
0.800000 0.207843 0.000000
0.847059 0.207843 0.000000
0.901961 0.207843 0.000000
0.952941 0.207843 0.000000
1.000000 0.207843 0.000000
0.000000 0.247059 0.000000
0.031373 0.247059 0.000000
0.066667 0.247059 0.000000
0.098039 0.247059 0.000000
0.133333 0.247059 0.000000
0.172549 0.247059 0.000000
0.203922 0.247059 0.000000
0.239216 0.247059 0.000000
0.278431 0.247059 0.000000
0.313725 0.247059 0.000000
0.352941 0.247059 0.000000
0.392157 0.247059 0.000000
0.431373 0.247059 0.000000
0.474510 0.247059 0.000000
0.517647 0.247059 0.000000
0.560784 0.247059 0.000000
0.607843 0.247059 0.000000
0.654902 0.247059 0.000000
0.701961 0.247059 0.000000
0.749020 0.247059 0.000000
0.800000 0.247059 0.000000
0.847059 0.247059 0.000000
0.901961 0.247059 0.000000
0.952941 0.247059 0.000000
1.000000 0.247059 0.000000
0.000000 0.290196 0.000000
0.031373 0.290196 0.000000
0.066667 0.290196 0.000000
0.098039 0.290196 0.000000
0.133333 0.290196 0.000000
0.172549 0.290196 0.000000
0.203922 0.290196 0.000000
0.239216 0.290196 0.000000
0.278431 0.290196 0.000000
0.313725 0.290196 0.000000
0.352941 0.290196 0.000000
0.392157 0.290196 0.000000
0.431373 0.290196 0.000000
0.474510 0.290196 0.000000
0.517647 0.290196 0.000000
0.560784 0.290196 0.000000
0.607843 0.290196 0.000000
0.654902 0.290196 0.000000
0.701961 0.290196 0.000000
0.749020 0.290196 0.000000
0.800000 0.290196 0.000000
0.847059 0.290196 0.000000
0.901961 0.290196 0.000000
0.952941 0.290196 0.000000
1.000000 0.290196 0.000000
0.000000 0.333333 0.000000
0.031373 0.333333 0.000000
0.066667 0.333333 0.000000
0.098039 0.333333 0.000000
0.133333 0.333333 0.000000
0.172549 0.333333 0.000000
0.203922 0.333333 0.000000
0.239216 0.333333 0.000000
0.278431 0.333333 0.000000
0.313725 0.333333 0.000000
0.352941 0.333333 0.000000
0.392157 0.333333 0.000000
0.431373 0.333333 0.000000
0.474510 0.333333 0.000000
0.517647 0.333333 0.000000
0.560784 0.333333 0.000000
0.607843 0.333333 0.000000
0.654902 0.333333 0.000000
0.701961 0.333333 0.000000
0.749020 0.333333 0.000000
0.800000 0.333333 0.000000
0.847059 0.333333 0.000000
0.901961 0.333333 0.000000
0.952941 0.333333 0.000000
1.000000 0.333333 0.000000
0.000000 0.372549 0.000000
0.031373 0.372549 0.000000
0.066667 0.372549 0.000000
0.098039 0.372549 0.000000
0.133333 0.372549 0.000000
0.172549 0.372549 0.000000
0.203922 0.372549 0.000000
0.239216 0.372549 0.000000
0.278431 0.372549 0.000000
0.313725 0.372549 0.000000
0.352941 0.372549 0.000000
0.392157 0.372549 0.000000
0.431373 0.372549 0.000000
0.474510 0.372549 0.000000
0.517647 0.372549 0.000000
0.560784 0.372549 0.000000
0.607843 0.372549 0.000000
0.654902 0.372549 0.000000
0.701961 0.372549 0.000000
0.749020 0.372549 0.000000
0.800000 0.372549 0.000000
0.847059 0.372549 0.000000
0.901961 0.372549 0.000000
0.952941 0.372549 0.000000
1.000000 0.372549 0.000000
0.000000 0.415686 0.000000
0.031373 0.415686 0.000000
0.066667 0.415686 0.000000
0.098039 0.415686 0.000000
0.133333 0.415686 0.000000
0.172549 0.415686 0.000000
0.203922 0.415686 0.000000
0.239216 0.415686 0.000000
0.278431 0.415686 0.000000
0.313725 0.415686 0.000000
0.352941 0.415686 0.000000
0.392157 0.415686 0.000000
0.431373 0.415686 0.000000
0.474510 0.415686 0.000000
0.517647 0.415686 0.000000
0.560784 0.415686 0.000000
0.607843 0.415686 0.000000
0.654902 0.415686 0.000000
0.701961 0.415686 0.000000
0.749020 0.415686 0.000000
0.800000 0.415686 0.000000
0.847059 0.415686 0.000000
0.901961 0.415686 0.000000
0.952941 0.415686 0.000000
1.000000 0.415686 0.000000
0.000000 0.458824 0.000000
0.031373 0.458824 0.000000
0.066667 0.458824 0.000000
0.098039 0.458824 0.000000
0.133333 0.458824 0.000000
0.172549 0.458824 0.000000
0.203922 0.458824 0.000000
0.239216 0.458824 0.000000
0.278431 0.458824 0.000000
0.313725 0.458824 0.000000
0.352941 0.458824 0.000000
0.392157 0.458824 0.000000
0.431373 0.458824 0.000000
0.474510 0.458824 0.000000
0.517647 0.458824 0.000000
0.560784 0.458824 0.000000
0.607843 0.458824 0.000000
0.654902 0.458824 0.000000
0.701961 0.458824 0.000000
0.749020 0.458824 0.000000
0.800000 0.458824 0.000000
0.847059 0.458824 0.000000
0.901961 0.458824 0.000000
0.952941 0.458824 0.000000
1.000000 0.458824 0.000000
0.000000 0.498039 0.000000
0.031373 0.498039 0.000000
0.066667 0.498039 0.000000
0.098039 0.498039 0.000000
0.133333 0.498039 0.000000
0.172549 0.498039 0.000000
0.203922 0.498039 0.000000
0.239216 0.498039 0.000000
0.278431 0.498039 0.000000
0.313725 0.498039 0.000000
0.352941 0.498039 0.000000
0.392157 0.498039 0.000000
0.431373 0.498039 0.000000
0.474510 0.498039 0.000000
0.517647 0.498039 0.000000
0.560784 0.498039 0.000000
0.607843 0.498039 0.000000
0.654902 0.498039 0.000000
0.701961 0.498039 0.000000
0.749020 0.498039 0.000000
0.800000 0.498039 0.000000
0.847059 0.498039 0.000000
0.901961 0.498039 0.000000
0.952941 0.498039 0.000000
1.000000 0.498039 0.000000
0.000000 0.541176 0.000000
0.031373 0.541176 0.000000
0.066667 0.541176 0.000000
0.098039 0.541176 0.000000
0.133333 0.541176 0.000000
0.172549 0.541176 0.000000
0.203922 0.541176 0.000000
0.239216 0.541176 0.000000
0.278431 0.541176 0.000000
0.313725 0.541176 0.000000
0.352941 0.541176 0.000000
0.392157 0.541176 0.000000
0.431373 0.541176 0.000000
0.474510 0.541176 0.000000
0.517647 0.541176 0.000000
0.560784 0.541176 0.000000
0.607843 0.541176 0.000000
0.654902 0.541176 0.000000
0.701961 0.541176 0.000000
0.749020 0.541176 0.000000
0.800000 0.541176 0.000000
0.847059 0.541176 0.000000
0.901961 0.541176 0.000000
0.952941 0.541176 0.000000
1.000000 0.541176 0.000000
0.000000 0.584314 0.000000
0.031373 0.584314 0.000000
0.066667 0.584314 0.000000
0.098039 0.584314 0.000000
0.133333 0.584314 0.000000
0.172549 0.584314 0.000000
0.203922 0.584314 0.000000
0.239216 0.584314 0.000000
0.278431 0.584314 0.000000
0.313725 0.584314 0.000000
0.352941 0.584314 0.000000
0.392157 0.584314 0.000000
0.431373 0.584314 0.000000
0.474510 0.584314 0.000000
0.517647 0.584314 0.000000
0.560784 0.584314 0.000000
0.607843 0.584314 0.000000
0.654902 0.584314 0.000000
0.701961 0.584314 0.000000
0.749020 0.584314 0.000000
0.800000 0.584314 0.000000
0.847059 0.584314 0.000000
0.901961 0.584314 0.000000
0.952941 0.584314 0.000000
1.000000 0.584314 0.000000
0.000000 0.623529 0.000000
0.031373 0.623529 0.000000
0.066667 0.623529 0.000000
0.098039 0.623529 0.000000
0.133333 0.623529 0.000000
0.172549 0.623529 0.000000
0.203922 0.623529 0.000000
0.239216 0.623529 0.000000
0.278431 0.623529 0.000000
0.313725 0.623529 0.000000
0.352941 0.623529 0.000000
0.392157 0.623529 0.000000
0.431373 0.623529 0.000000
0.474510 0.623529 0.000000
0.517647 0.623529 0.000000
0.560784 0.623529 0.000000
0.607843 0.623529 0.000000
0.654902 0.623529 0.000000
0.701961 0.623529 0.000000
0.749020 0.623529 0.000000
0.800000 0.623529 0.000000
0.847059 0.623529 0.000000
0.901961 0.623529 0.000000
0.952941 0.623529 0.000000
1.000000 0.623529 0.000000
0.000000 0.666667 0.000000
0.031373 0.666667 0.000000
0.066667 0.666667 0.000000
0.098039 0.666667 0.000000
0.133333 0.666667 0.000000
0.172549 0.666667 0.000000
0.203922 0.666667 0.000000
0.239216 0.666667 0.000000
0.278431 0.666667 0.000000
0.313725 0.666667 0.000000
0.352941 0.666667 0.000000
0.392157 0.666667 0.000000
0.431373 0.666667 0.000000
0.474510 0.666667 0.000000
0.517647 0.666667 0.000000
0.560784 0.666667 0.000000
0.607843 0.666667 0.000000
0.654902 0.666667 0.000000
0.701961 0.666667 0.000000
0.749020 0.666667 0.000000
0.800000 0.666667 0.000000
0.847059 0.666667 0.000000
0.901961 0.666667 0.000000
0.952941 0.666667 0.000000
1.000000 0.666667 0.000000
0.000000 0.709804 0.000000
0.031373 0.709804 0.000000
0.066667 0.709804 0.000000
0.098039 0.709804 0.000000
0.133333 0.709804 0.000000
0.172549 0.709804 0.000000
0.203922 0.709804 0.000000
0.239216 0.709804 0.000000
0.278431 0.709804 0.000000
0.313725 0.709804 0.000000
0.352941 0.709804 0.000000
0.392157 0.709804 0.000000
0.431373 0.709804 0.000000
0.474510 0.709804 0.000000
0.517647 0.709804 0.000000
0.560784 0.709804 0.000000
0.607843 0.709804 0.000000
0.654902 0.709804 0.000000
0.701961 0.709804 0.000000
0.749020 0.709804 0.000000
0.800000 0.709804 0.000000
0.847059 0.709804 0.000000
0.901961 0.709804 0.000000
0.952941 0.709804 0.000000
1.000000 0.709804 0.000000
0.000000 0.749020 0.000000
0.031373 0.749020 0.000000
0.066667 0.749020 0.000000
0.098039 0.749020 0.000000
0.133333 0.749020 0.000000
0.172549 0.749020 0.000000
0.203922 0.749020 0.000000
0.239216 0.749020 0.000000
0.278431 0.749020 0.000000
0.313725 0.749020 0.000000
0.352941 0.749020 0.000000
0.392157 0.749020 0.000000
0.431373 0.749020 0.000000
0.474510 0.749020 0.000000
0.517647 0.749020 0.000000
0.560784 0.749020 0.000000
0.607843 0.749020 0.000000
0.654902 0.749020 0.000000
0.701961 0.749020 0.000000
0.749020 0.749020 0.000000
0.800000 0.749020 0.000000
0.847059 0.749020 0.000000
0.901961 0.749020 0.000000
0.952941 0.749020 0.000000
1.000000 0.749020 0.000000
0.000000 0.792157 0.000000
0.031373 0.792157 0.000000
0.066667 0.792157 0.000000
0.098039 0.792157 0.000000
0.133333 0.792157 0.000000
0.172549 0.792157 0.000000
0.203922 0.792157 0.000000
0.239216 0.792157 0.000000
0.278431 0.792157 0.000000
0.313725 0.792157 0.000000
0.352941 0.792157 0.000000
0.392157 0.792157 0.000000
0.431373 0.792157 0.000000
0.474510 0.792157 0.000000
0.517647 0.792157 0.000000
0.560784 0.792157 0.000000
0.607843 0.792157 0.000000
0.654902 0.792157 0.000000
0.701961 0.792157 0.000000
0.749020 0.792157 0.000000
0.800000 0.792157 0.000000
0.847059 0.792157 0.000000
0.901961 0.792157 0.000000
0.952941 0.792157 0.000000
1.000000 0.792157 0.000000
0.000000 0.835294 0.000000
0.031373 0.835294 0.000000
0.066667 0.835294 0.000000
0.098039 0.835294 0.000000
0.133333 0.835294 0.000000
0.172549 0.835294 0.000000
0.203922 0.835294 0.000000
0.239216 0.835294 0.000000
0.278431 0.835294 0.000000
0.313725 0.835294 0.000000
0.352941 0.835294 0.000000
0.392157 0.835294 0.000000
0.431373 0.835294 0.000000
0.474510 0.835294 0.000000
0.517647 0.835294 0.000000
0.560784 0.835294 0.000000
0.607843 0.835294 0.000000
0.654902 0.835294 0.000000
0.701961 0.835294 0.000000
0.749020 0.835294 0.000000
0.800000 0.835294 0.000000
0.847059 0.835294 0.000000
0.901961 0.835294 0.000000
0.952941 0.835294 0.000000
1.000000 0.835294 0.000000
0.000000 0.874510 0.000000
0.031373 0.874510 0.000000
0.066667 0.874510 0.000000
0.098039 0.874510 0.000000
0.133333 0.874510 0.000000
0.172549 0.874510 0.000000
0.203922 0.874510 0.000000
0.239216 0.874510 0.000000
0.278431 0.874510 0.000000
0.313725 0.874510 0.000000
0.352941 0.874510 0.000000
0.392157 0.874510 0.000000
0.431373 0.874510 0.000000
0.474510 0.874510 0.000000
0.517647 0.874510 0.000000
0.560784 0.874510 0.000000
0.607843 0.874510 0.000000
0.654902 0.874510 0.000000
0.701961 0.874510 0.000000
0.749020 0.874510 0.000000
0.800000 0.874510 0.000000
0.847059 0.874510 0.000000
0.901961 0.874510 0.000000
0.952941 0.874510 0.000000
1.000000 0.874510 0.000000
0.000000 0.917647 0.000000
0.031373 0.917647 0.000000
0.066667 0.917647 0.000000
0.098039 0.917647 0.000000
0.133333 0.917647 0.000000
0.172549 0.917647 0.000000
0.203922 0.917647 0.000000
0.239216 0.917647 0.000000
0.278431 0.917647 0.000000
0.313725 0.917647 0.000000
0.352941 0.917647 0.000000
0.392157 0.917647 0.000000
0.431373 0.917647 0.000000
0.474510 0.917647 0.000000
0.517647 0.917647 0.000000
0.560784 0.917647 0.000000
0.607843 0.917647 0.000000
0.654902 0.917647 0.000000
0.701961 0.917647 0.000000
0.749020 0.917647 0.000000
0.800000 0.917647 0.000000
0.847059 0.917647 0.000000
0.901961 0.917647 0.000000
0.952941 0.917647 0.000000
1.000000 0.917647 0.000000
0.000000 0.960784 0.000000
0.031373 0.960784 0.000000
0.066667 0.960784 0.000000
0.098039 0.960784 0.000000
0.133333 0.960784 0.000000
0.172549 0.960784 0.000000
0.203922 0.960784 0.000000
0.239216 0.960784 0.000000
0.278431 0.960784 0.000000
0.313725 0.960784 0.000000
0.352941 0.960784 0.000000
0.392157 0.960784 0.000000
0.431373 0.960784 0.000000
0.474510 0.960784 0.000000
0.517647 0.960784 0.000000
0.560784 0.960784 0.000000
0.607843 0.960784 0.000000
0.654902 0.960784 0.000000
0.701961 0.960784 0.000000
0.749020 0.960784 0.000000
0.800000 0.960784 0.000000
0.847059 0.960784 0.000000
0.901961 0.960784 0.000000
0.952941 0.960784 0.000000
1.000000 0.960784 0.000000
0.000000 1.000000 0.000000
0.031373 1.000000 0.000000
0.066667 1.000000 0.000000
0.098039 1.000000 0.000000
0.133333 1.000000 0.000000
0.172549 1.000000 0.000000
0.203922 1.000000 0.000000
0.239216 1.000000 0.000000
0.278431 1.000000 0.000000
0.313725 1.000000 0.000000
0.352941 1.000000 0.000000
0.392157 1.000000 0.000000
0.431373 1.000000 0.000000
0.474510 1.000000 0.000000
0.517647 1.000000 0.000000
0.560784 1.000000 0.000000
0.607843 1.000000 0.000000
0.654902 1.000000 0.000000
0.701961 1.000000 0.000000
0.749020 1.000000 0.000000
0.800000 1.000000 0.000000
0.847059 1.000000 0.000000
0.901961 1.000000 0.000000
0.952941 1.000000 0.000000
1.000000 1.000000 0.000000
0.000000 0.000000 0.047059
0.031373 0.000000 0.047059
0.066667 0.000000 0.047059
0.098039 0.000000 0.047059
0.133333 0.000000 0.047059
0.172549 0.000000 0.047059
0.203922 0.000000 0.047059
0.239216 0.000000 0.047059
0.278431 0.000000 0.047059
0.313725 0.000000 0.047059
0.352941 0.000000 0.047059
0.392157 0.000000 0.047059
0.431373 0.000000 0.047059
0.474510 0.000000 0.047059
0.517647 0.000000 0.047059
0.560784 0.000000 0.047059
0.607843 0.000000 0.047059
0.654902 0.000000 0.047059
0.701961 0.000000 0.047059
0.749020 0.000000 0.047059
0.800000 0.000000 0.047059
0.847059 0.000000 0.047059
0.901961 0.000000 0.047059
0.952941 0.000000 0.047059
1.000000 0.000000 0.047059
0.000000 0.039216 0.047059
0.031373 0.039216 0.047059
0.066667 0.039216 0.047059
0.098039 0.039216 0.047059
0.133333 0.039216 0.047059
0.172549 0.039216 0.047059
0.203922 0.039216 0.047059
0.239216 0.039216 0.047059
0.278431 0.039216 0.047059
0.313725 0.039216 0.047059
0.352941 0.039216 0.047059
0.392157 0.039216 0.047059
0.431373 0.039216 0.047059
0.474510 0.039216 0.047059
0.517647 0.039216 0.047059
0.560784 0.039216 0.047059
0.607843 0.039216 0.047059
0.654902 0.039216 0.047059
0.701961 0.039216 0.047059
0.749020 0.039216 0.047059
0.800000 0.039216 0.047059
0.847059 0.039216 0.047059
0.901961 0.039216 0.047059
0.952941 0.039216 0.047059
1.000000 0.039216 0.047059
0.000000 0.082353 0.047059
0.031373 0.082353 0.047059
0.066667 0.082353 0.047059
0.098039 0.082353 0.047059
0.133333 0.082353 0.047059
0.172549 0.082353 0.047059
0.203922 0.082353 0.047059
0.239216 0.082353 0.047059
0.278431 0.082353 0.047059
0.313725 0.082353 0.047059
0.352941 0.082353 0.047059
0.392157 0.082353 0.047059
0.431373 0.082353 0.047059
0.474510 0.082353 0.047059
0.517647 0.082353 0.047059
0.560784 0.082353 0.047059
0.607843 0.082353 0.047059
0.654902 0.082353 0.047059
0.701961 0.082353 0.047059
0.749020 0.082353 0.047059
0.800000 0.082353 0.047059
0.847059 0.082353 0.047059
0.901961 0.082353 0.047059
0.952941 0.082353 0.047059
1.000000 0.082353 0.047059
0.000000 0.121569 0.047059
0.031373 0.121569 0.047059
0.066667 0.121569 0.047059
0.098039 0.121569 0.047059
0.133333 0.121569 0.047059
0.172549 0.121569 0.047059
0.203922 0.121569 0.047059
0.239216 0.121569 0.047059
0.278431 0.121569 0.047059
0.313725 0.121569 0.047059
0.352941 0.121569 0.047059
0.392157 0.121569 0.047059
0.431373 0.121569 0.047059
0.474510 0.121569 0.047059
0.517647 0.121569 0.047059
0.560784 0.121569 0.047059
0.607843 0.121569 0.047059
0.654902 0.121569 0.047059
0.701961 0.121569 0.047059
0.749020 0.121569 0.047059
0.800000 0.121569 0.047059
0.847059 0.121569 0.047059
0.901961 0.121569 0.047059
0.952941 0.121569 0.047059
1.000000 0.121569 0.047059
0.000000 0.164706 0.047059
0.031373 0.164706 0.047059
0.066667 0.164706 0.047059
0.098039 0.164706 0.047059
0.133333 0.164706 0.047059
0.172549 0.164706 0.047059
0.203922 0.164706 0.047059
0.239216 0.164706 0.047059
0.278431 0.164706 0.047059
0.313725 0.164706 0.047059
0.352941 0.164706 0.047059
0.392157 0.164706 0.047059
0.431373 0.164706 0.047059
0.474510 0.164706 0.047059
0.517647 0.164706 0.047059
0.560784 0.164706 0.047059
0.607843 0.164706 0.047059
0.654902 0.164706 0.047059
0.701961 0.164706 0.047059
0.749020 0.164706 0.047059
0.800000 0.164706 0.047059
0.847059 0.164706 0.047059
0.901961 0.164706 0.047059
0.952941 0.164706 0.047059
1.000000 0.164706 0.047059
0.000000 0.207843 0.047059
0.031373 0.207843 0.047059
0.066667 0.207843 0.047059
0.098039 0.207843 0.047059
0.133333 0.207843 0.047059
0.172549 0.207843 0.047059
0.203922 0.207843 0.047059
0.239216 0.207843 0.047059
0.278431 0.207843 0.047059
0.313725 0.207843 0.047059
0.352941 0.207843 0.047059
0.392157 0.207843 0.047059
0.431373 0.207843 0.047059
0.474510 0.207843 0.047059
0.517647 0.207843 0.047059
0.560784 0.207843 0.047059
0.607843 0.207843 0.047059
0.654902 0.207843 0.047059
0.701961 0.207843 0.047059
0.749020 0.207843 0.047059
0.800000 0.207843 0.047059
0.847059 0.207843 0.047059
0.901961 0.207843 0.047059
0.952941 0.207843 0.047059
1.000000 0.207843 0.047059
0.000000 0.247059 0.047059
0.031373 0.247059 0.047059
0.066667 0.247059 0.047059
0.098039 0.247059 0.047059
0.133333 0.247059 0.047059
0.172549 0.247059 0.047059
0.203922 0.247059 0.047059
0.239216 0.247059 0.047059
0.278431 0.247059 0.047059
0.313725 0.247059 0.047059
0.352941 0.247059 0.047059
0.392157 0.247059 0.047059
0.431373 0.247059 0.047059
0.474510 0.247059 0.047059
0.517647 0.247059 0.047059
0.560784 0.247059 0.047059
0.607843 0.247059 0.047059
0.654902 0.247059 0.047059
0.701961 0.247059 0.047059
0.749020 0.247059 0.047059
0.800000 0.247059 0.047059
0.847059 0.247059 0.047059
0.901961 0.247059 0.047059
0.952941 0.247059 0.047059
1.000000 0.247059 0.047059
0.000000 0.290196 0.047059
0.031373 0.290196 0.047059
0.066667 0.290196 0.047059
0.098039 0.290196 0.047059
0.133333 0.290196 0.047059
0.172549 0.290196 0.047059
0.203922 0.290196 0.047059
0.239216 0.290196 0.047059
0.278431 0.290196 0.047059
0.313725 0.290196 0.047059
0.352941 0.290196 0.047059
0.392157 0.290196 0.047059
0.431373 0.290196 0.047059
0.474510 0.290196 0.047059
0.517647 0.290196 0.047059
0.560784 0.290196 0.047059
0.607843 0.290196 0.047059
0.654902 0.290196 0.047059
0.701961 0.290196 0.047059
0.749020 0.290196 0.047059
0.800000 0.290196 0.047059
0.847059 0.290196 0.047059
0.901961 0.290196 0.047059
0.952941 0.290196 0.047059
1.000000 0.290196 0.047059
0.000000 0.333333 0.047059
0.031373 0.333333 0.047059
0.066667 0.333333 0.047059
0.098039 0.333333 0.047059
0.133333 0.333333 0.047059
0.172549 0.333333 0.047059
0.203922 0.333333 0.047059
0.239216 0.333333 0.047059
0.278431 0.333333 0.047059
0.313725 0.333333 0.047059
0.352941 0.333333 0.047059
0.392157 0.333333 0.047059
0.431373 0.333333 0.047059
0.474510 0.333333 0.047059
0.517647 0.333333 0.047059
0.560784 0.333333 0.047059
0.607843 0.333333 0.047059
0.654902 0.333333 0.047059
0.701961 0.333333 0.047059
0.749020 0.333333 0.047059
0.800000 0.333333 0.047059
0.847059 0.333333 0.047059
0.901961 0.333333 0.047059
0.952941 0.333333 0.047059
1.000000 0.333333 0.047059
0.000000 0.372549 0.047059
0.031373 0.372549 0.047059
0.066667 0.372549 0.047059
0.098039 0.372549 0.047059
0.133333 0.372549 0.047059
0.172549 0.372549 0.047059
0.203922 0.372549 0.047059
0.239216 0.372549 0.047059
0.278431 0.372549 0.047059
0.313725 0.372549 0.047059
0.352941 0.372549 0.047059
0.392157 0.372549 0.047059
0.431373 0.372549 0.047059
0.474510 0.372549 0.047059
0.517647 0.372549 0.047059
0.560784 0.372549 0.047059
0.607843 0.372549 0.047059
0.654902 0.372549 0.047059
0.701961 0.372549 0.047059
0.749020 0.372549 0.047059
0.800000 0.372549 0.047059
0.847059 0.372549 0.047059
0.901961 0.372549 0.047059
0.952941 0.372549 0.047059
1.000000 0.372549 0.047059
0.000000 0.415686 0.047059
0.031373 0.415686 0.047059
0.066667 0.415686 0.047059
0.098039 0.415686 0.047059
0.133333 0.415686 0.047059
0.172549 0.415686 0.047059
0.203922 0.415686 0.047059
