luts/PictureFX Perfect Sunset V1 - Example Blend Mode _ Hardlight 70%.cube
#Generated with IWLTBAP LUT Generator
#Website: http://luts.iwltbap.com
TITLE "Neutral-125_01"
#LUT size
LUT_3D_SIZE 25
#LUT data points
0.000000 0.000000 0.000000
0.074510 0.000000 0.031373
0.117647 0.000000 0.039216
0.141176 0.000000 0.035294
0.168627 0.000000 0.035294
0.223529 0.000000 0.043137
0.282353 0.000000 0.043137
0.337255 0.000000 0.043137
0.396078 0.000000 0.043137
0.450980 0.000000 0.043137
0.509804 0.000000 0.047059
0.607843 0.000000 0.058824
0.670588 0.007843 0.066667
0.729412 0.047059 0.078431
0.784314 0.082353 0.086275
0.843137 0.109804 0.101961
0.890196 0.137255 0.113725
0.937255 0.160784 0.125490
0.984314 0.184314 0.141176
1.000000 0.203922 0.152941
1.000000 0.227451 0.168627
1.000000 0.247059 0.180392
1.000000 0.266667 0.192157
1.000000 0.282353 0.207843
1.000000 0.301961 0.219608
0.086275 0.003922 0.050980
0.101961 0.003922 0.047059
0.121569 0.007843 0.043137
0.149020 0.015686 0.039216
0.196078 0.019608 0.039216
0.247059 0.015686 0.043137
0.305882 0.011765 0.043137
0.360784 0.011765 0.039216
0.411765 0.011765 0.039216
0.466667 0.015686 0.039216
0.545098 0.019608 0.047059
0.623529 0.039216 0.054902
0.682353 0.062745 0.062745
0.737255 0.090196 0.074510
0.792157 0.113725 0.090196
0.847059 0.137255 0.101961
0.894118 0.160784 0.113725
0.941176 0.180392 0.129412
0.984314 0.203922 0.141176
1.000000 0.219608 0.156863
1.000000 0.239216 0.168627
1.000000 0.258824 0.184314
1.000000 0.278431 0.196078
1.000000 0.294118 0.207843
1.000000 0.313725 0.223529
0.094118 0.054902 0.058824
0.113725 0.058824 0.058824
0.137255 0.062745 0.054902
0.172549 0.062745 0.054902
0.219608 0.062745 0.050980
0.266667 0.062745 0.047059
0.313725 0.062745 0.039216
0.364706 0.066667 0.035294
0.419608 0.066667 0.035294
0.474510 0.070588 0.035294
0.568627 0.082353 0.043137
0.627451 0.094118 0.050980
0.686275 0.113725 0.062745
0.741176 0.133333 0.074510
0.796078 0.149020 0.086275
0.847059 0.168627 0.101961
0.894118 0.188235 0.117647
0.941176 0.207843 0.129412
0.984314 0.223529 0.145098
1.000000 0.239216 0.160784
1.000000 0.258824 0.172549
1.000000 0.274510 0.184314
1.000000 0.294118 0.200000
1.000000 0.309804 0.211765
1.000000 0.329412 0.223529
0.117647 0.113725 0.070588
0.141176 0.117647 0.070588
0.168627 0.117647 0.070588
0.207843 0.117647 0.066667
0.250980 0.117647 0.062745
0.294118 0.117647 0.054902
0.341176 0.117647 0.047059
0.392157 0.117647 0.039216
0.443137 0.121569 0.035294
0.533333 0.129412 0.031373
0.588235 0.137255 0.035294
0.647059 0.149020 0.043137
0.701961 0.164706 0.058824
0.752941 0.176471 0.074510
0.807843 0.192157 0.090196
0.854902 0.207843 0.105882
0.898039 0.223529 0.121569
0.945098 0.239216 0.137255
0.988235 0.254902 0.149020
1.000000 0.270588 0.164706
1.000000 0.282353 0.176471
1.000000 0.298039 0.188235
1.000000 0.313725 0.203922
1.000000 0.333333 0.215686
1.000000 0.349020 0.227451
0.152941 0.168627 0.078431
0.172549 0.168627 0.078431
0.200000 0.168627 0.078431
0.231373 0.168627 0.074510
0.270588 0.168627 0.074510
0.309804 0.168627 0.066667
0.356863 0.168627 0.058824
0.407843 0.172549 0.047059
0.490196 0.184314 0.039216
0.549020 0.188235 0.031373
0.603922 0.196078 0.031373
0.658824 0.203922 0.039216
0.709804 0.215686 0.054902
0.760784 0.227451 0.070588
0.811765 0.239216 0.090196
0.854902 0.250980 0.109804
0.901961 0.262745 0.125490
0.945098 0.274510 0.141176
0.988235 0.286275 0.152941
1.000000 0.301961 0.168627
1.000000 0.313725 0.180392
1.000000 0.329412 0.196078
1.000000 0.341176 0.207843
1.000000 0.356863 0.219608
1.000000 0.372549 0.235294
0.200000 0.227451 0.094118
0.219608 0.227451 0.094118
0.239216 0.227451 0.094118
0.270588 0.227451 0.090196
0.305882 0.227451 0.090196
0.364706 0.239216 0.090196
0.415686 0.243137 0.082353
0.466667 0.247059 0.070588
0.521569 0.247059 0.058824
0.576471 0.250980 0.047059
0.627451 0.254902 0.039216
0.678431 0.258824 0.043137
0.729412 0.266667 0.058824
0.776471 0.278431 0.074510
0.819608 0.286275 0.094118
0.862745 0.298039 0.113725
0.905882 0.305882 0.129412
0.949020 0.317647 0.145098
0.996078 0.329412 0.160784
1.000000 0.337255 0.176471
1.000000 0.349020 0.188235
1.000000 0.364706 0.203922
1.000000 0.376471 0.215686
1.000000 0.388235 0.227451
1.000000 0.403922 0.239216
0.258824 0.298039 0.117647
0.274510 0.298039 0.117647
0.294118 0.298039 0.117647
0.321569 0.298039 0.117647
0.356863 0.301961 0.117647
0.396078 0.301961 0.113725
0.443137 0.305882 0.109804
0.490196 0.305882 0.101961
0.541176 0.309804 0.090196
0.588235 0.309804 0.074510
0.639216 0.313725 0.066667
0.690196 0.317647 0.066667
0.737255 0.321569 0.070588
0.784314 0.325490 0.086275
0.823529 0.333333 0.101961
0.866667 0.341176 0.121569
0.909804 0.349020 0.137255
0.952941 0.356863 0.152941
0.996078 0.368627 0.168627
1.000000 0.376471 0.184314
1.000000 0.388235 0.196078
1.000000 0.400000 0.207843
1.000000 0.411765 0.223529
1.000000 0.423529 0.235294
1.000000 0.435294 0.247059
0.309804 0.364706 0.149020
0.321569 0.364706 0.149020
0.341176 0.364706 0.149020
0.364706 0.364706 0.149020
0.396078 0.364706 0.149020
0.431373 0.368627 0.149020
0.474510 0.368627 0.145098
0.517647 0.368627 0.137255
0.560784 0.368627 0.125490
0.611765 0.372549 0.117647
0.658824 0.372549 0.105882
0.705882 0.372549 0.098039
0.749020 0.376471 0.098039
0.792157 0.380392 0.101961
0.835294 0.384314 0.113725
0.878431 0.388235 0.129412
0.921569 0.396078 0.145098
0.960784 0.403922 0.160784
1.000000 0.411765 0.176471
1.000000 0.419608 0.192157
1.000000 0.431373 0.203922
1.000000 0.439216 0.219608
1.000000 0.450980 0.231373
1.000000 0.462745 0.243137
1.000000 0.474510 0.254902
0.345098 0.423529 0.176471
0.360784 0.423529 0.176471
0.376471 0.423529 0.176471
0.396078 0.423529 0.180392
0.427451 0.423529 0.180392
0.458824 0.423529 0.180392
0.494118 0.423529 0.176471
0.537255 0.423529 0.172549
0.576471 0.427451 0.164706
0.619608 0.423529 0.152941
0.666667 0.423529 0.145098
0.709804 0.427451 0.133333
0.756863 0.427451 0.129412
0.800000 0.427451 0.129412
0.843137 0.431373 0.133333
0.882353 0.435294 0.145098
0.925490 0.443137 0.156863
0.968627 0.447059 0.172549
1.000000 0.454902 0.188235
1.000000 0.462745 0.200000
1.000000 0.474510 0.215686
1.000000 0.482353 0.227451
1.000000 0.494118 0.243137
1.000000 0.501961 0.254902
1.000000 0.509804 0.266667
0.388235 0.482353 0.203922
0.396078 0.482353 0.207843
0.411765 0.482353 0.207843
0.431373 0.482353 0.207843
0.458824 0.482353 0.211765
0.486275 0.482353 0.211765
0.521569 0.482353 0.207843
0.556863 0.478431 0.203922
0.596078 0.478431 0.200000
0.635294 0.478431 0.192157
0.678431 0.478431 0.184314
0.721569 0.478431 0.172549
0.764706 0.478431 0.164706
0.807843 0.482353 0.160784
0.850980 0.482353 0.160784
0.894118 0.486275 0.164706
0.937255 0.490196 0.176471
0.980392 0.498039 0.188235
1.000000 0.501961 0.200000
1.000000 0.509804 0.215686
1.000000 0.517647 0.227451
1.000000 0.529412 0.239216
1.000000 0.537255 0.254902
1.000000 0.541176 0.262745
1.000000 0.549020 0.274510
0.411765 0.533333 0.227451
0.423529 0.533333 0.227451
0.435294 0.529412 0.231373
0.454902 0.529412 0.231373
0.478431 0.529412 0.235294
0.505882 0.529412 0.235294
0.537255 0.529412 0.235294
0.572549 0.529412 0.235294
0.607843 0.529412 0.231373
0.647059 0.529412 0.223529
0.686275 0.529412 0.215686
0.729412 0.529412 0.207843
0.772549 0.529412 0.200000
0.815686 0.529412 0.192157
0.858824 0.533333 0.188235
0.901961 0.533333 0.192157
0.945098 0.537255 0.196078
0.988235 0.545098 0.203922
1.000000 0.549020 0.215686
1.000000 0.556863 0.227451
1.000000 0.564706 0.239216
1.000000 0.572549 0.254902
1.000000 0.576471 0.262745
1.000000 0.580392 0.274510
1.000000 0.584314 0.282353
0.443137 0.584314 0.250980
0.454902 0.584314 0.254902
0.466667 0.584314 0.254902
0.482353 0.584314 0.254902
0.501961 0.584314 0.258824
0.529412 0.584314 0.258824
0.560784 0.580392 0.262745
0.592157 0.580392 0.262745
0.627451 0.580392 0.258824
0.662745 0.580392 0.254902
0.701961 0.580392 0.250980
0.741176 0.580392 0.243137
0.784314 0.584314 0.235294
0.827451 0.584314 0.231373
0.870588 0.584314 0.223529
0.913725 0.588235 0.219608
0.956863 0.592157 0.223529
1.000000 0.596078 0.227451
1.000000 0.600000 0.235294
1.000000 0.603922 0.247059
1.000000 0.611765 0.254902
1.000000 0.615686 0.266667
1.000000 0.615686 0.274510
1.000000 0.619608 0.286275
1.000000 0.623529 0.294118
0.470588 0.631373 0.270588
0.478431 0.631373 0.274510
0.486275 0.631373 0.274510
0.501961 0.631373 0.274510
0.525490 0.631373 0.278431
0.549020 0.631373 0.282353
0.576471 0.631373 0.282353
0.607843 0.631373 0.282353
0.643137 0.631373 0.286275
0.678431 0.631373 0.282353
0.713725 0.631373 0.282353
0.752941 0.631373 0.274510
0.792157 0.631373 0.270588
0.835294 0.635294 0.262745
0.878431 0.635294 0.258824
0.925490 0.639216 0.254902
0.968627 0.643137 0.250980
1.000000 0.643137 0.254902
1.000000 0.647059 0.258824
1.000000 0.650980 0.262745
1.000000 0.654902 0.270588
1.000000 0.654902 0.278431
1.000000 0.658824 0.290196
1.000000 0.658824 0.294118
1.000000 0.658824 0.301961
0.498039 0.686275 0.294118
0.505882 0.686275 0.298039
0.517647 0.686275 0.298039
0.529412 0.686275 0.298039
0.549020 0.686275 0.301961
0.572549 0.686275 0.301961
0.600000 0.682353 0.305882
0.627451 0.682353 0.305882
0.662745 0.682353 0.309804
0.694118 0.682353 0.309804
0.733333 0.686275 0.309804
0.772549 0.686275 0.305882
0.811765 0.686275 0.301961
0.850980 0.686275 0.298039
0.894118 0.690196 0.290196
0.937255 0.690196 0.286275
0.976471 0.690196 0.282353
1.000000 0.694118 0.282353
1.000000 0.694118 0.282353
1.000000 0.694118 0.286275
1.000000 0.694118 0.290196
1.000000 0.694118 0.294118
1.000000 0.694118 0.301961
1.000000 0.694118 0.305882
1.000000 0.694118 0.313725
0.525490 0.737255 0.317647
0.533333 0.737255 0.317647
0.541176 0.737255 0.317647
0.556863 0.737255 0.317647
0.572549 0.737255 0.321569
0.596078 0.737255 0.325490
0.619608 0.737255 0.325490
0.650980 0.737255 0.329412
0.682353 0.737255 0.329412
0.713725 0.737255 0.333333
0.749020 0.737255 0.333333
0.788235 0.737255 0.333333
0.827451 0.737255 0.329412
0.862745 0.737255 0.325490
0.901961 0.737255 0.321569
0.941176 0.737255 0.317647
0.980392 0.737255 0.313725
1.000000 0.737255 0.309804
1.000000 0.733333 0.305882
1.000000 0.733333 0.305882
1.000000 0.733333 0.305882
1.000000 0.729412 0.309804
1.000000 0.729412 0.313725
1.000000 0.729412 0.321569
1.000000 0.729412 0.325490
0.556863 0.792157 0.337255
0.560784 0.792157 0.341176
0.568627 0.792157 0.341176
0.584314 0.792157 0.341176
0.600000 0.792157 0.345098
0.619608 0.792157 0.345098
0.643137 0.788235 0.349020
0.670588 0.788235 0.349020
0.701961 0.788235 0.352941
0.733333 0.788235 0.352941
0.764706 0.788235 0.356863
0.800000 0.784314 0.352941
0.835294 0.784314 0.352941
0.870588 0.784314 0.349020
0.905882 0.780392 0.345098
0.941176 0.780392 0.341176
0.980392 0.776471 0.337255
1.000000 0.772549 0.333333
1.000000 0.772549 0.329412
1.000000 0.768627 0.325490
1.000000 0.768627 0.325490
1.000000 0.764706 0.325490
1.000000 0.764706 0.329412
1.000000 0.764706 0.333333
1.000000 0.760784 0.337255
0.580392 0.839216 0.356863
0.584314 0.839216 0.360784
0.592157 0.839216 0.360784
0.603922 0.839216 0.360784
0.619608 0.839216 0.360784
0.639216 0.835294 0.364706
0.658824 0.835294 0.364706
0.686275 0.835294 0.368627
0.713725 0.831373 0.368627
0.741176 0.831373 0.368627
0.772549 0.827451 0.372549
0.807843 0.827451 0.372549
0.839216 0.823529 0.372549
0.874510 0.823529 0.368627
0.905882 0.819608 0.364706
0.941176 0.815686 0.360784
0.976471 0.815686 0.356863
1.000000 0.811765 0.352941
1.000000 0.807843 0.349020
1.000000 0.803922 0.345098
1.000000 0.803922 0.345098
1.000000 0.800000 0.345098
1.000000 0.800000 0.345098
1.000000 0.800000 0.349020
1.000000 0.796078 0.352941
0.596078 0.878431 0.372549
0.603922 0.878431 0.372549
0.611765 0.878431 0.372549
0.619608 0.878431 0.376471
0.635294 0.874510 0.376471
0.650980 0.874510 0.376471
0.670588 0.874510 0.380392
0.694118 0.870588 0.380392
0.721569 0.870588 0.380392
0.749020 0.866667 0.384314
0.776471 0.862745 0.384314
0.807843 0.862745 0.384314
0.839216 0.858824 0.384314
0.870588 0.854902 0.384314
0.901961 0.854902 0.384314
0.937255 0.850980 0.380392
0.968627 0.847059 0.376471
1.000000 0.843137 0.372549
1.000000 0.843137 0.368627
1.000000 0.839216 0.364706
1.000000 0.835294 0.364706
1.000000 0.835294 0.360784
1.000000 0.831373 0.360784
1.000000 0.831373 0.364706
1.000000 0.827451 0.364706
0.611765 0.913725 0.388235
0.615686 0.913725 0.388235
0.623529 0.909804 0.388235
0.631373 0.909804 0.388235
0.647059 0.909804 0.388235
0.662745 0.909804 0.388235
0.678431 0.905882 0.392157
0.701961 0.905882 0.392157
0.725490 0.901961 0.392157
0.752941 0.901961 0.396078
0.780392 0.898039 0.396078
0.807843 0.894118 0.396078
0.839216 0.894118 0.396078
0.870588 0.890196 0.396078
0.901961 0.886275 0.396078
0.933333 0.886275 0.396078
0.968627 0.882353 0.392157
1.000000 0.878431 0.392157
1.000000 0.878431 0.388235
1.000000 0.874510 0.384314
1.000000 0.870588 0.380392
1.000000 0.870588 0.380392
1.000000 0.866667 0.380392
1.000000 0.862745 0.380392
1.000000 0.862745 0.380392
0.623529 0.941176 0.396078
0.627451 0.941176 0.396078
0.635294 0.941176 0.396078
0.643137 0.941176 0.400000
0.654902 0.941176 0.400000
0.670588 0.937255 0.400000
0.686275 0.937255 0.400000
0.705882 0.937255 0.403922
0.729412 0.933333 0.403922
0.752941 0.933333 0.403922
0.780392 0.929412 0.407843
0.807843 0.925490 0.407843
0.839216 0.925490 0.407843
0.870588 0.921569 0.407843
0.898039 0.917647 0.407843
0.929412 0.917647 0.407843
0.964706 0.913725 0.407843
0.996078 0.909804 0.403922
1.000000 0.909804 0.403922
1.000000 0.905882 0.400000
1.000000 0.901961 0.396078
1.000000 0.898039 0.396078
1.000000 0.894118 0.392157
1.000000 0.890196 0.392157
1.000000 0.886275 0.392157
0.639216 0.972549 0.407843
0.643137 0.972549 0.407843
0.647059 0.972549 0.407843
0.654902 0.972549 0.411765
0.666667 0.972549 0.411765
0.678431 0.968627 0.411765
0.694118 0.968627 0.411765
0.713725 0.968627 0.411765
0.737255 0.964706 0.415686
0.760784 0.964706 0.415686
0.784314 0.960784 0.415686
0.811765 0.960784 0.419608
0.839216 0.956863 0.419608
0.870588 0.952941 0.419608
0.898039 0.952941 0.419608
0.929412 0.949020 0.419608
0.960784 0.945098 0.419608
0.992157 0.941176 0.419608
1.000000 0.941176 0.415686
1.000000 0.937255 0.415686
1.000000 0.933333 0.411765
1.000000 0.929412 0.407843
1.000000 0.925490 0.407843
1.000000 0.921569 0.403922
1.000000 0.917647 0.403922
0.647059 1.000000 0.419608
0.650980 1.000000 0.419608
0.658824 1.000000 0.419608
0.666667 1.000000 0.419608
0.674510 1.000000 0.419608
0.686275 1.000000 0.419608
0.701961 0.996078 0.423529
0.721569 0.996078 0.423529
0.741176 0.992157 0.423529
0.764706 0.992157 0.423529
0.788235 0.988235 0.427451
0.811765 0.988235 0.427451
0.839216 0.984314 0.427451
0.866667 0.980392 0.427451
0.894118 0.980392 0.431373
0.925490 0.976471 0.431373
0.952941 0.972549 0.427451
0.984314 0.968627 0.427451
1.000000 0.964706 0.427451
1.000000 0.960784 0.423529
1.000000 0.956863 0.423529
1.000000 0.949020 0.419608
1.000000 0.945098 0.415686
1.000000 0.941176 0.415686
1.000000 0.933333 0.411765
0.658824 1.000000 0.427451
0.662745 1.000000 0.427451
0.666667 1.000000 0.427451
0.674510 1.000000 0.431373
0.682353 1.000000 0.431373
0.694118 1.000000 0.431373
0.709804 1.000000 0.431373
0.725490 1.000000 0.431373
0.745098 1.000000 0.431373
0.764706 1.000000 0.435294
0.788235 1.000000 0.435294
0.811765 1.000000 0.435294
0.839216 1.000000 0.435294
0.862745 1.000000 0.435294
0.890196 1.000000 0.439216
0.921569 1.000000 0.439216
0.949020 0.996078 0.439216
0.976471 0.992157 0.435294
1.000000 0.988235 0.435294
1.000000 0.984314 0.435294
1.000000 0.980392 0.431373
1.000000 0.972549 0.427451
1.000000 0.968627 0.427451
1.000000 0.960784 0.423529
1.000000 0.952941 0.419608
0.666667 1.000000 0.435294
0.670588 1.000000 0.435294
0.674510 1.000000 0.435294
0.682353 1.000000 0.435294
0.690196 1.000000 0.435294
0.701961 1.000000 0.439216
0.713725 1.000000 0.439216
0.729412 1.000000 0.439216
0.745098 1.000000 0.439216
0.764706 1.000000 0.439216
0.788235 1.000000 0.439216
0.807843 1.000000 0.439216
0.831373 1.000000 0.443137
0.858824 1.000000 0.443137
0.882353 1.000000 0.443137
0.909804 1.000000 0.443137
0.933333 1.000000 0.443137
0.960784 1.000000 0.439216
0.988235 1.000000 0.439216
1.000000 1.000000 0.439216
1.000000 0.992157 0.435294
1.000000 0.988235 0.435294
1.000000 0.980392 0.431373
1.000000 0.976471 0.427451
1.000000 0.968627 0.427451
0.670588 1.000000 0.443137
0.674510 1.000000 0.443137
0.678431 1.000000 0.443137
0.682353 1.000000 0.443137
0.690196 1.000000 0.443137
0.701961 1.000000 0.443137
0.713725 1.000000 0.443137
0.729412 1.000000 0.443137
0.745098 1.000000 0.443137
0.764706 1.000000 0.443137
0.784314 1.000000 0.443137
0.803922 1.000000 0.443137
0.827451 1.000000 0.447059
0.847059 1.000000 0.447059
0.874510 1.000000 0.447059
0.898039 1.000000 0.447059
0.921569 1.000000 0.443137
0.949020 1.000000 0.443137
0.972549 1.000000 0.443137
1.000000 1.000000 0.443137
1.000000 1.000000 0.439216
1.000000 1.000000 0.439216
1.000000 1.000000 0.435294
1.000000 0.992157 0.435294
1.000000 0.988235 0.431373
0.015686 0.000000 0.019608
0.086275 0.000000 0.062745
0.117647 0.000000 0.066667
0.137255 0.000000 0.066667
0.168627 0.000000 0.066667
0.211765 0.000000 0.074510
0.278431 0.000000 0.082353
0.341176 0.000000 0.086275
0.403922 0.000000 0.086275
0.466667 0.000000 0.086275
0.529412 0.000000 0.086275
0.619608 0.000000 0.098039
0.678431 0.015686 0.105882
0.741176 0.050980 0.113725
0.796078 0.086275 0.125490
0.850980 0.113725 0.137255
0.901961 0.141176 0.149020
0.952941 0.164706 0.160784
0.996078 0.188235 0.172549
1.000000 0.207843 0.188235
1.000000 0.231373 0.196078
1.000000 0.250980 0.207843
1.000000 0.270588 0.219608
1.000000 0.290196 0.231373
1.000000 0.305882 0.243137
0.086275 0.003922 0.078431
0.101961 0.003922 0.074510
0.121569 0.011765 0.074510
0.145098 0.019608 0.070588
0.188235 0.023529 0.074510
0.250980 0.019608 0.082353
0.309804 0.019608 0.086275
0.372549 0.015686 0.086275
0.431373 0.015686 0.082353
0.494118 0.019608 0.086275
0.572549 0.027451 0.090196
0.635294 0.047059 0.094118
0.694118 0.070588 0.105882
0.752941 0.094118 0.113725
0.807843 0.117647 0.125490
0.858824 0.141176 0.141176
0.909804 0.164706 0.152941
0.956863 0.188235 0.164706
1.000000 0.207843 0.176471
1.000000 0.227451 0.188235
1.000000 0.247059 0.200000
1.000000 0.262745 0.211765
1.000000 0.282353 0.223529
1.000000 0.301961 0.235294
1.000000 0.317647 0.247059
0.094118 0.054902 0.082353
0.109804 0.054902 0.082353
0.133333 0.058824 0.082353
0.172549 0.062745 0.082353
0.219608 0.062745 0.082353
0.266667 0.066667 0.082353
0.321569 0.070588 0.082353
0.376471 0.070588 0.078431
0.435294 0.074510 0.078431
0.490196 0.078431 0.078431
0.576471 0.090196 0.086275
0.635294 0.101961 0.090196
0.694118 0.117647 0.101961
0.752941 0.137255 0.113725
0.803922 0.152941 0.125490
0.858824 0.172549 0.141176
0.905882 0.192157 0.152941
0.952941 0.211765 0.164706
1.000000 0.227451 0.176471
1.000000 0.247059 0.188235
1.000000 0.262745 0.200000
1.000000 0.278431 0.211765
1.000000 0.298039 0.223529
1.000000 0.313725 0.235294
1.000000 0.329412 0.247059
0.121569 0.117647 0.098039
0.145098 0.117647 0.098039
0.176471 0.117647 0.098039
0.215686 0.121569 0.098039
0.258824 0.121569 0.094118
0.305882 0.121569 0.090196
0.356863 0.125490 0.086275
0.411765 0.129412 0.082353
0.466667 0.129412 0.078431
0.545098 0.137255 0.082353
0.603922 0.145098 0.082353
0.658824 0.156863 0.090196
0.713725 0.168627 0.101961
0.768627 0.184314 0.113725
0.819608 0.200000 0.129412
0.866667 0.211765 0.141176
0.913725 0.227451 0.156863
0.960784 0.243137 0.168627
1.000000 0.258824 0.180392
1.000000 0.274510 0.192157
1.000000 0.290196 0.203922
1.000000 0.305882 0.215686
1.000000 0.321569 0.227451
1.000000 0.337255 0.239216
1.000000 0.352941 0.250980
0.156863 0.172549 0.105882
0.176471 0.172549 0.105882
0.203922 0.172549 0.105882
0.239216 0.172549 0.105882
0.278431 0.172549 0.105882
0.321569 0.176471 0.101961
0.372549 0.176471 0.094118
0.423529 0.180392 0.090196
0.498039 0.192157 0.086275
0.556863 0.196078 0.082353
0.611765 0.200000 0.082353
0.666667 0.207843 0.086275
0.721569 0.219608 0.098039
0.772549 0.231373 0.113725
0.819608 0.243137 0.129412
0.866667 0.254902 0.145098
0.913725 0.266667 0.156863
0.960784 0.282353 0.172549
1.000000 0.294118 0.184314
1.000000 0.305882 0.196078
1.000000 0.321569 0.207843
1.000000 0.333333 0.219608
1.000000 0.345098 0.231373
1.000000 0.360784 0.243137
1.000000 0.376471 0.254902
0.211765 0.239216 0.125490
0.227451 0.239216 0.125490
0.250980 0.239216 0.125490
0.282353 0.239216 0.125490
0.321569 0.239216 0.125490
0.376471 0.247059 0.125490
0.427451 0.250980 0.121569
0.478431 0.254902 0.113725
0.529412 0.254902 0.105882
0.584314 0.258824 0.098039
0.639216 0.262745 0.090196
0.690196 0.266667 0.094118
0.741176 0.274510 0.101961
0.788235 0.282353 0.113725
0.835294 0.290196 0.129412
0.878431 0.301961 0.145098
0.921569 0.313725 0.160784
0.968627 0.321569 0.176471
1.000000 0.333333 0.188235
1.000000 0.345098 0.203922
1.000000 0.356863 0.215686
1.000000 0.368627 0.227451
1.000000 0.380392 0.239216
1.000000 0.392157 0.250980
1.000000 0.403922 0.258824
0.258824 0.301961 0.149020
0.274510 0.301961 0.149020
0.298039 0.305882 0.149020
0.325490 0.305882 0.152941
0.360784 0.305882 0.149020
0.403922 0.309804 0.149020
0.447059 0.309804 0.145098
0.494118 0.313725 0.137255
0.545098 0.313725 0.129412
0.596078 0.313725 0.121569
0.647059 0.317647 0.109804
0.701961 0.321569 0.105882
0.749020 0.325490 0.109804
0.792157 0.329412 0.121569
0.839216 0.337255 0.133333
0.882353 0.345098 0.149020
0.925490 0.356863 0.164706
0.968627 0.364706 0.180392
1.000000 0.372549 0.196078
1.000000 0.384314 0.207843
1.000000 0.392157 0.219608
1.000000 0.403922 0.231373
1.000000 0.415686 0.243137
1.000000 0.427451 0.254902
1.000000 0.439216 0.266667
0.313725 0.372549 0.180392
0.325490 0.372549 0.180392
0.345098 0.372549 0.180392
0.372549 0.372549 0.180392
0.403922 0.372549 0.180392
0.439216 0.376471 0.180392
0.478431 0.376471 0.176471
0.525490 0.376471 0.172549
0.572549 0.376471 0.160784
0.619608 0.376471 0.152941
0.670588 0.380392 0.141176
0.717647 0.380392 0.133333
0.764706 0.380392 0.129412
0.807843 0.384314 0.133333
0.850980 0.388235 0.145098
0.894118 0.396078 0.156863
0.937255 0.403922 0.172549
0.976471 0.411765 0.188235
1.000000 0.419608 0.200000
1.000000 0.427451 0.215686
1.000000 0.435294 0.227451
1.000000 0.447059 0.239216
1.000000 0.454902 0.250980
1.000000 0.462745 0.262745
1.000000 0.474510 0.274510
0.349020 0.427451 0.203922
0.360784 0.427451 0.203922
0.376471 0.427451 0.203922
0.400000 0.427451 0.203922
0.431373 0.427451 0.207843
0.462745 0.431373 0.207843
0.501961 0.431373 0.203922
0.541176 0.431373 0.200000
0.584314 0.431373 0.192157
0.627451 0.431373 0.184314
0.674510 0.431373 0.172549
0.721569 0.431373 0.164706
0.768627 0.431373 0.156863
0.811765 0.435294 0.152941
0.854902 0.439216 0.156863
0.898039 0.443137 0.168627
0.941176 0.447059 0.180392
0.980392 0.454902 0.196078
1.000000 0.462745 0.207843
1.000000 0.470588 0.223529
1.000000 0.478431 0.235294
1.000000 0.486275 0.247059
1.000000 0.494118 0.258824
1.000000 0.501961 0.270588
1.000000 0.509804 0.278431
0.392157 0.490196 0.231373
0.403922 0.490196 0.231373
0.415686 0.490196 0.231373
0.439216 0.490196 0.235294
0.462745 0.490196 0.235294
0.494118 0.490196 0.235294
0.529412 0.490196 0.235294
0.564706 0.490196 0.231373
0.603922 0.490196 0.227451
0.647059 0.490196 0.219608
0.690196 0.490196 0.207843
0.733333 0.490196 0.200000
0.780392 0.490196 0.188235
0.823529 0.490196 0.184314
0.866667 0.490196 0.180392
0.909804 0.494118 0.188235
0.952941 0.498039 0.196078
0.992157 0.501961 0.207843
1.000000 0.509804 0.219608
1.000000 0.513725 0.231373
1.000000 0.521569 0.247059
1.000000 0.529412 0.258824
1.000000 0.537255 0.270588
1.000000 0.541176 0.278431
1.000000 0.545098 0.286275
0.419608 0.537255 0.250980
0.427451 0.537255 0.250980
0.443137 0.537255 0.254902
0.458824 0.537255 0.254902
0.486275 0.537255 0.254902
0.513725 0.537255 0.258824
0.545098 0.537255 0.258824
0.580392 0.537255 0.258824
