luts/PictureFX Creative - Kodak Wratten 81A.cube
#Generated with IWLTBAP LUT Generator
#LutCreator: https://marcrphoto.wordpress.com/
TITLE "PictureFX Creative - Kodak Wratten 81AB"
#LUT size
LUT_3D_SIZE 5
#LUT data points
0.000000 0.000000 0.000000
0.301961 0.000000 0.000000
0.572549 0.000000 0.000000
0.796078 0.000000 0.000000
1.000000 0.000000 0.000000
0.000000 0.247059 0.000000
0.301961 0.247059 0.000000
0.572549 0.247059 0.000000
0.796078 0.247059 0.000000
1.000000 0.247059 0.000000
0.000000 0.498039 0.000000
0.301961 0.498039 0.000000
0.572549 0.498039 0.000000
0.796078 0.498039 0.000000
1.000000 0.498039 0.000000
0.000000 0.749020 0.000000
0.301961 0.749020 0.000000
0.572549 0.749020 0.000000
0.796078 0.749020 0.000000
1.000000 0.749020 0.000000
0.000000 1.000000 0.000000
0.301961 1.000000 0.000000
0.572549 1.000000 0.000000
0.796078 1.000000 0.000000
1.000000 1.000000 0.000000
0.000000 0.000000 0.203922
0.301961 0.000000 0.203922
0.572549 0.000000 0.203922
0.796078 0.000000 0.203922
1.000000 0.000000 0.203922
0.000000 0.247059 0.203922
0.301961 0.247059 0.203922
0.572549 0.247059 0.203922
0.796078 0.247059 0.203922
1.000000 0.247059 0.203922
0.000000 0.498039 0.203922
0.301961 0.498039 0.203922
0.572549 0.498039 0.203922
0.796078 0.498039 0.203922
1.000000 0.498039 0.203922
0.000000 0.749020 0.203922
0.301961 0.749020 0.203922
0.572549 0.749020 0.203922
0.796078 0.749020 0.203922
1.000000 0.749020 0.203922
0.000000 1.000000 0.203922
0.301961 1.000000 0.203922
0.572549 1.000000 0.203922
0.796078 1.000000 0.203922
1.000000 1.000000 0.203922
0.000000 0.000000 0.431373
0.301961 0.000000 0.431373
0.572549 0.000000 0.431373
0.796078 0.000000 0.431373
1.000000 0.000000 0.431373
0.000000 0.247059 0.431373
0.301961 0.247059 0.431373
0.572549 0.247059 0.431373
0.796078 0.247059 0.431373
1.000000 0.247059 0.431373
0.000000 0.498039 0.431373
0.301961 0.498039 0.431373
0.572549 0.498039 0.431373
0.796078 0.498039 0.431373
1.000000 0.498039 0.431373
0.000000 0.749020 0.431373
0.301961 0.749020 0.431373
0.572549 0.749020 0.431373
0.796078 0.749020 0.431373
1.000000 0.749020 0.431373
0.000000 1.000000 0.431373
0.301961 1.000000 0.431373
0.572549 1.000000 0.431373
0.796078 1.000000 0.431373
1.000000 1.000000 0.431373
0.000000 0.000000 0.701961
0.301961 0.000000 0.701961
0.572549 0.000000 0.701961
0.796078 0.000000 0.701961
1.000000 0.000000 0.701961
0.000000 0.247059 0.701961
0.301961 0.247059 0.701961
0.572549 0.247059 0.701961
0.796078 0.247059 0.701961
1.000000 0.247059 0.701961
0.000000 0.498039 0.701961
0.301961 0.498039 0.701961
0.572549 0.498039 0.701961
0.796078 0.498039 0.701961
1.000000 0.498039 0.701961
0.000000 0.749020 0.701961
0.301961 0.749020 0.701961
0.572549 0.749020 0.701961
0.796078 0.749020 0.701961
1.000000 0.749020 0.701961
0.000000 1.000000 0.701961
0.301961 1.000000 0.701961
0.572549 1.000000 0.701961
0.796078 1.000000 0.701961
1.000000 1.000000 0.701961
0.000000 0.000000 1.000000
0.301961 0.000000 1.000000
0.572549 0.000000 1.000000
0.796078 0.000000 1.000000
1.000000 0.000000 1.000000
0.000000 0.247059 1.000000
0.301961 0.247059 1.000000
0.572549 0.247059 1.000000
0.796078 0.247059 1.000000
1.000000 0.247059 1.000000
0.000000 0.498039 1.000000
0.301961 0.498039 1.000000
0.572549 0.498039 1.000000
0.796078 0.498039 1.000000
1.000000 0.498039 1.000000
0.000000 0.749020 1.000000
0.301961 0.749020 1.000000
0.572549 0.749020 1.000000
0.796078 0.749020 1.000000
1.000000 0.749020 1.000000
0.000000 1.000000 1.000000
0.301961 1.000000 1.000000
0.572549 1.000000 1.000000
0.796078 1.000000 1.000000
1.000000 1.000000 1.000000
