luts/PictureFX Ektachrome 1966 E4.cube
#Generated with IWLTBAP LUT Generator
#Website: http://luts.iwltbap.com
TITLE "Neutral-125-Ektachrome"
#LUT size
LUT_3D_SIZE 9
#LUT data points
0.000000 0.000000 0.031373
0.000000 0.000000 0.027451
0.125490 0.007843 0.003922
0.270588 0.027451 0.023529
0.450980 0.062745 0.074510
0.603922 0.094118 0.121569
0.717647 0.117647 0.152941
0.784314 0.133333 0.172549
0.784314 0.133333 0.172549
0.015686 0.062745 0.043137
0.062745 0.074510 0.050980
0.160784 0.082353 0.039216
0.313725 0.086275 0.043137
0.490196 0.070588 0.086275
0.631373 0.101961 0.129412
0.717647 0.117647 0.152941
0.784314 0.133333 0.172549
0.784314 0.133333 0.172549
0.066667 0.164706 0.098039
0.105882 0.180392 0.109804
0.219608 0.200000 0.105882
0.380392 0.203922 0.113725
0.549020 0.196078 0.121569
0.686275 0.192157 0.156863
0.780392 0.180392 0.176471
0.823529 0.164706 0.184314
0.823529 0.164706 0.184314
0.164706 0.329412 0.168627
0.176471 0.345098 0.176471
0.247059 0.384314 0.172549
0.494118 0.403922 0.192157
0.658824 0.396078 0.203922
0.768627 0.380392 0.207843
0.839216 0.376471 0.219608
0.870588 0.372549 0.227451
0.874510 0.380392 0.231373
0.274510 0.513725 0.235294
0.274510 0.513725 0.235294
0.298039 0.552941 0.235294
0.509804 0.600000 0.231373
0.764706 0.596078 0.262745
0.882353 0.588235 0.282353
0.929412 0.584314 0.290196
0.956863 0.584314 0.294118
0.960784 0.588235 0.294118
0.360784 0.658824 0.286275
0.360784 0.658824 0.286275
0.372549 0.682353 0.290196
0.466667 0.729412 0.274510
0.788235 0.737255 0.309804
0.925490 0.725490 0.325490
0.976471 0.725490 0.333333
1.000000 0.721569 0.337255
1.000000 0.725490 0.337255
0.411765 0.745098 0.317647
0.411765 0.745098 0.317647
0.419608 0.760784 0.317647
0.478431 0.803922 0.305882
0.792157 0.815686 0.337255
0.945098 0.807843 0.352941
0.996078 0.807843 0.360784
1.000000 0.803922 0.364706
1.000000 0.803922 0.364706
0.439216 0.788235 0.333333
0.439216 0.788235 0.333333
0.450980 0.811765 0.321569
0.529412 0.850980 0.325490
0.815686 0.854902 0.352941
0.960784 0.843137 0.368627
1.000000 0.843137 0.372549
1.000000 0.843137 0.376471
1.000000 0.839216 0.376471
0.447059 0.800000 0.329412
0.447059 0.807843 0.325490
0.458824 0.827451 0.309804
0.572549 0.854902 0.329412
0.800000 0.854902 0.352941
0.933333 0.847059 0.364706
0.992157 0.847059 0.372549
1.000000 0.847059 0.376471
1.000000 0.847059 0.380392
0.000000 0.000000 0.047059
0.000000 0.000000 0.062745
0.129412 0.007843 0.062745
0.278431 0.027451 0.043137
0.458824 0.066667 0.078431
0.611765 0.098039 0.121569
0.725490 0.121569 0.156863
0.788235 0.133333 0.172549
0.788235 0.133333 0.172549
0.019608 0.070588 0.086275
0.066667 0.082353 0.090196
0.168627 0.082353 0.090196
0.321569 0.086275 0.082353
0.498039 0.074510 0.094118
0.639216 0.101961 0.129412
0.725490 0.121569 0.156863
0.788235 0.133333 0.172549
0.788235 0.133333 0.172549
0.070588 0.168627 0.121569
0.117647 0.184314 0.133333
0.227451 0.207843 0.133333
0.392157 0.207843 0.137255
0.556863 0.200000 0.141176
0.694118 0.192157 0.160784
0.784314 0.180392 0.176471
0.823529 0.168627 0.184314
0.823529 0.164706 0.184314
0.172549 0.337255 0.188235
0.180392 0.352941 0.196078
0.254902 0.392157 0.196078
0.505882 0.411765 0.207843
0.662745 0.400000 0.215686
0.772549 0.384314 0.211765
0.839216 0.376471 0.223529
0.870588 0.376471 0.227451
0.874510 0.380392 0.231373
0.278431 0.517647 0.243137
0.278431 0.517647 0.243137
0.298039 0.556863 0.243137
0.513725 0.600000 0.235294
0.768627 0.600000 0.266667
0.882353 0.588235 0.282353
0.929412 0.584314 0.286275
0.956863 0.584314 0.294118
0.960784 0.588235 0.294118
0.360784 0.658824 0.286275
0.360784 0.658824 0.286275
0.372549 0.678431 0.290196
0.466667 0.729412 0.274510
0.788235 0.737255 0.309804
0.925490 0.725490 0.325490
0.976471 0.725490 0.333333
1.000000 0.721569 0.337255
1.000000 0.725490 0.337255
0.411765 0.745098 0.317647
0.411765 0.745098 0.317647
0.419608 0.760784 0.317647
0.478431 0.803922 0.305882
0.792157 0.815686 0.337255
0.945098 0.807843 0.352941
0.996078 0.807843 0.360784
1.000000 0.803922 0.364706
1.000000 0.803922 0.364706
0.439216 0.788235 0.333333
0.439216 0.788235 0.333333
0.450980 0.811765 0.321569
0.529412 0.850980 0.325490
0.815686 0.854902 0.352941
0.956863 0.843137 0.368627
1.000000 0.843137 0.372549
1.000000 0.843137 0.376471
1.000000 0.839216 0.376471
0.447059 0.803922 0.345098
0.450980 0.807843 0.337255
0.458824 0.827451 0.317647
0.580392 0.858824 0.329412
0.807843 0.858824 0.352941
0.941176 0.850980 0.368627
0.992157 0.854902 0.376471
1.000000 0.854902 0.380392
1.000000 0.854902 0.380392
0.003922 0.000000 0.145098
0.015686 0.003922 0.152941
0.129412 0.007843 0.145098
0.278431 0.039216 0.145098
0.466667 0.066667 0.149020
0.619608 0.098039 0.160784
0.729412 0.121569 0.176471
0.792157 0.133333 0.184314
0.792157 0.133333 0.184314
0.023529 0.070588 0.168627
0.066667 0.078431 0.176471
0.164706 0.090196 0.168627
0.333333 0.086275 0.172549
0.498039 0.074510 0.164706
0.623529 0.098039 0.160784
0.733333 0.121569 0.176471
0.792157 0.133333 0.184314
0.792157 0.133333 0.184314
0.086275 0.180392 0.192157
0.109804 0.196078 0.203922
0.235294 0.219608 0.219608
0.407843 0.207843 0.207843
0.572549 0.192157 0.200000
0.705882 0.184314 0.211765
0.792157 0.168627 0.219608
0.831373 0.156863 0.223529
0.831373 0.156863 0.223529
0.188235 0.352941 0.250980
0.188235 0.352941 0.250980
0.274510 0.396078 0.278431
0.513725 0.427451 0.274510
0.650980 0.407843 0.258824
0.764706 0.384314 0.247059
0.835294 0.376471 0.247059
0.870588 0.376471 0.250980
0.870588 0.384314 0.250980
0.286275 0.521569 0.309804
0.290196 0.525490 0.309804
0.305882 0.552941 0.317647
0.501961 0.607843 0.286275
0.776471 0.619608 0.321569
0.886275 0.607843 0.325490
0.929412 0.600000 0.321569
0.949020 0.596078 0.313725
0.952941 0.600000 0.317647
0.368627 0.662745 0.345098
0.368627 0.662745 0.345098
0.380392 0.678431 0.352941
0.458824 0.729412 0.305882
0.796078 0.752941 0.329412
0.929412 0.745098 0.345098
0.980392 0.745098 0.349020
1.000000 0.741176 0.349020
1.000000 0.741176 0.349020
0.415686 0.745098 0.360784
0.415686 0.745098 0.360784
0.423529 0.756863 0.364706
0.474510 0.803922 0.321569
0.796078 0.827451 0.341176
0.949020 0.819608 0.360784
1.000000 0.819608 0.364706
1.000000 0.815686 0.368627
1.000000 0.819608 0.368627
0.443137 0.788235 0.368627
0.443137 0.788235 0.368627
0.450980 0.807843 0.364706
0.521569 0.850980 0.325490
0.815686 0.866667 0.356863
0.964706 0.854902 0.372549
1.000000 0.854902 0.380392
1.000000 0.854902 0.380392
1.000000 0.850980 0.380392
0.454902 0.800000 0.419608
0.454902 0.803922 0.407843
0.462745 0.823529 0.388235
0.572549 0.850980 0.364706
0.800000 0.874510 0.368627
0.941176 0.866667 0.392157
0.996078 0.866667 0.403922
1.000000 0.862745 0.411765
1.000000 0.862745 0.419608
0.023529 0.007843 0.282353
0.023529 0.007843 0.286275
0.129412 0.015686 0.278431
0.270588 0.054902 0.250980
0.458824 0.066667 0.258824
0.619608 0.098039 0.262745
0.733333 0.121569 0.266667
0.796078 0.133333 0.270588
0.796078 0.133333 0.266667
0.054902 0.082353 0.301961
0.062745 0.090196 0.309804
0.160784 0.094118 0.305882
0.321569 0.101961 0.286275
0.494118 0.074510 0.282353
0.623529 0.101961 0.262745
0.737255 0.121569 0.266667
0.796078 0.133333 0.270588
0.796078 0.133333 0.266667
0.109804 0.180392 0.325490
0.113725 0.192157 0.333333
0.215686 0.203922 0.349020
0.407843 0.223529 0.337255
0.588235 0.203922 0.341176
0.717647 0.180392 0.333333
0.796078 0.152941 0.329412
0.827451 0.141176 0.321569
0.827451 0.141176 0.321569
0.223529 0.384314 0.372549
0.223529 0.388235 0.372549
0.286275 0.427451 0.400000
0.517647 0.447059 0.411765
0.662745 0.400000 0.368627
0.772549 0.368627 0.341176
0.843137 0.360784 0.337255
0.874510 0.360784 0.341176
0.874510 0.368627 0.337255
0.325490 0.568627 0.423529
0.329412 0.568627 0.423529
0.341176 0.588235 0.439216
0.490196 0.607843 0.439216
0.784314 0.643137 0.439216
0.866667 0.615686 0.411765
0.905882 0.596078 0.388235
0.929412 0.588235 0.380392
0.929412 0.596078 0.384314
0.396078 0.686275 0.458824
0.396078 0.686275 0.454902
0.403922 0.694118 0.466667
0.458824 0.701961 0.439216
0.784314 0.772549 0.423529
0.941176 0.776471 0.454902
0.984314 0.768627 0.454902
1.000000 0.760784 0.447059
1.000000 0.760784 0.447059
0.439216 0.756863 0.474510
0.439216 0.756863 0.474510
0.443137 0.764706 0.486275
0.478431 0.780392 0.447059
0.760784 0.839216 0.419608
0.952941 0.843137 0.450980
1.000000 0.843137 0.458824
1.000000 0.835294 0.458824
1.000000 0.835294 0.458824
0.462745 0.796078 0.490196
0.462745 0.796078 0.490196
0.466667 0.803922 0.498039
0.509804 0.827451 0.450980
0.772549 0.878431 0.427451
0.960784 0.874510 0.447059
1.000000 0.870588 0.458824
1.000000 0.870588 0.458824
1.000000 0.866667 0.470588
0.474510 0.811765 0.533333
0.470588 0.807843 0.525490
0.490196 0.811765 0.509804
0.580392 0.835294 0.474510
0.776471 0.874510 0.466667
0.941176 0.878431 0.482353
0.996078 0.878431 0.498039
1.000000 0.878431 0.509804
1.000000 0.874510 0.513725
0.078431 0.050980 0.423529
0.078431 0.050980 0.427451
0.094118 0.039216 0.419608
0.270588 0.035294 0.380392
0.447059 0.066667 0.372549
0.603922 0.098039 0.384314
0.717647 0.121569 0.388235
0.784314 0.133333 0.396078
0.784314 0.133333 0.396078
0.094118 0.086275 0.439216
0.098039 0.086275 0.443137
0.141176 0.090196 0.443137
0.321569 0.094118 0.407843
0.486275 0.078431 0.400000
0.607843 0.098039 0.384314
0.721569 0.121569 0.392157
0.784314 0.133333 0.396078
0.784314 0.133333 0.392157
0.137255 0.180392 0.462745
0.137255 0.176471 0.462745
0.203922 0.203922 0.486275
0.403922 0.219608 0.462745
0.584314 0.227451 0.466667
0.709804 0.207843 0.466667
0.792157 0.180392 0.466667
0.823529 0.152941 0.458824
0.819608 0.141176 0.450980
0.243137 0.380392 0.505882
0.243137 0.380392 0.505882
0.270588 0.411765 0.533333
0.486275 0.419608 0.541176
0.682353 0.427451 0.529412
0.792157 0.380392 0.505882
0.854902 0.360784 0.490196
0.882353 0.349020 0.486275
0.882353 0.349020 0.482353
0.364706 0.600000 0.556863
0.364706 0.600000 0.556863
0.380392 0.623529 0.572549
0.521569 0.647059 0.584314
0.784314 0.666667 0.588235
0.858824 0.607843 0.525490
0.901961 0.580392 0.498039
0.921569 0.568627 0.486275
0.921569 0.572549 0.486275
0.443137 0.737255 0.580392
0.443137 0.737255 0.580392
0.443137 0.741176 0.580392
0.498039 0.741176 0.588235
0.741176 0.780392 0.576471
0.945098 0.800000 0.592157
0.980392 0.780392 0.572549
0.988235 0.764706 0.549020
0.988235 0.764706 0.549020
0.482353 0.811765 0.596078
0.482353 0.811765 0.596078
0.482353 0.811765 0.592157
0.505882 0.796078 0.596078
0.701961 0.827451 0.568627
0.956863 0.858824 0.580392
1.000000 0.858824 0.588235
1.000000 0.850980 0.584314
1.000000 0.850980 0.584314
0.501961 0.843137 0.611765
0.501961 0.843137 0.611765
0.505882 0.847059 0.623529
0.537255 0.819608 0.600000
0.705882 0.850980 0.564706
0.949020 0.882353 0.568627
1.000000 0.882353 0.584314
1.000000 0.878431 0.584314
1.000000 0.874510 0.596078
0.509804 0.847059 0.643137
0.505882 0.839216 0.639216
0.556863 0.827451 0.623529
0.635294 0.831373 0.603922
0.768627 0.870588 0.592157
0.941176 0.886275 0.596078
1.000000 0.886275 0.611765
1.000000 0.882353 0.619608
1.000000 0.882353 0.623529
0.113725 0.031373 0.545098
0.113725 0.031373 0.545098
0.113725 0.031373 0.541176
0.266667 0.043137 0.509804
0.450980 0.070588 0.478431
0.600000 0.098039 0.486275
0.709804 0.117647 0.494118
0.768627 0.133333 0.498039
0.768627 0.133333 0.498039
0.129412 0.078431 0.556863
0.129412 0.078431 0.556863
0.129412 0.082353 0.564706
0.309804 0.078431 0.525490
0.474510 0.074510 0.490196
0.603922 0.098039 0.486275
0.709804 0.121569 0.494118
0.768627 0.133333 0.498039
0.772549 0.133333 0.498039
0.168627 0.180392 0.580392
0.168627 0.180392 0.580392
0.184314 0.203922 0.596078
0.400000 0.215686 0.580392
0.584314 0.227451 0.560784
0.705882 0.215686 0.560784
0.784314 0.196078 0.564706
0.819608 0.172549 0.560784
0.815686 0.164706 0.552941
0.262745 0.376471 0.623529
0.262745 0.372549 0.623529
0.278431 0.400000 0.643137
0.470588 0.411765 0.650980
0.674510 0.427451 0.627451
0.800000 0.415686 0.623529
0.862745 0.396078 0.619608
0.890196 0.384314 0.615686
0.890196 0.384314 0.615686
0.380392 0.592157 0.666667
0.380392 0.592157 0.666667
0.392157 0.611765 0.678431
0.505882 0.631373 0.690196
0.764706 0.647059 0.698039
0.886275 0.631373 0.682353
0.925490 0.592157 0.650980
0.941176 0.572549 0.631373
0.941176 0.576471 0.623529
0.466667 0.752941 0.690196
0.466667 0.752941 0.690196
0.466667 0.752941 0.690196
0.521569 0.784314 0.709804
0.780392 0.800000 0.725490
0.949020 0.811765 0.721569
0.972549 0.780392 0.674510
0.984314 0.756863 0.647059
0.984314 0.756863 0.643137
0.509804 0.835294 0.705882
0.509804 0.835294 0.705882
0.509804 0.835294 0.705882
0.525490 0.850980 0.721569
0.741176 0.835294 0.717647
0.945098 0.866667 0.698039
1.000000 0.866667 0.709804
1.000000 0.854902 0.690196
1.000000 0.850980 0.690196
0.533333 0.870588 0.717647
0.533333 0.870588 0.717647
0.533333 0.870588 0.717647
0.552941 0.878431 0.729412
0.725490 0.854902 0.705882
0.917647 0.886275 0.686275
1.000000 0.890196 0.698039
1.000000 0.886275 0.698039
1.000000 0.878431 0.705882
0.556863 0.878431 0.733333
0.588235 0.874510 0.733333
0.650980 0.858824 0.725490
0.745098 0.858824 0.725490
0.835294 0.878431 0.721569
0.949020 0.890196 0.705882
1.000000 0.890196 0.713725
1.000000 0.890196 0.721569
1.000000 0.886275 0.721569
0.141176 0.039216 0.623529
0.141176 0.039216 0.627451
0.141176 0.039216 0.627451
0.262745 0.047059 0.600000
0.458824 0.074510 0.556863
0.607843 0.101961 0.556863
0.709804 0.121569 0.564706
0.768627 0.133333 0.572549
0.768627 0.133333 0.572549
0.152941 0.066667 0.635294
0.152941 0.066667 0.639216
0.152941 0.070588 0.639216
0.301961 0.058824 0.611765
0.466667 0.078431 0.556863
0.607843 0.101961 0.556863
0.709804 0.121569 0.564706
0.768627 0.133333 0.572549
0.768627 0.133333 0.572549
0.188235 0.180392 0.658824
0.188235 0.176471 0.658824
0.200000 0.200000 0.674510
0.400000 0.207843 0.658824
0.592157 0.219608 0.627451
0.705882 0.215686 0.623529
0.784314 0.200000 0.623529
0.819608 0.180392 0.623529
0.815686 0.172549 0.619608
0.278431 0.368627 0.701961
0.278431 0.368627 0.701961
0.294118 0.396078 0.713725
0.466667 0.407843 0.721569
0.678431 0.419608 0.694118
0.800000 0.419608 0.690196
0.862745 0.411765 0.690196
0.894118 0.403922 0.690196
0.894118 0.407843 0.690196
0.388235 0.588235 0.737255
0.388235 0.588235 0.737255
0.400000 0.600000 0.745098
0.494118 0.619608 0.752941
0.756863 0.635294 0.760784
0.890196 0.643137 0.749020
0.941176 0.631373 0.749020
0.956863 0.611765 0.737255
0.956863 0.611765 0.737255
0.474510 0.749020 0.756863
0.474510 0.749020 0.756863
0.474510 0.745098 0.756863
0.525490 0.780392 0.768627
0.768627 0.803922 0.784314
0.941176 0.807843 0.784314
0.988235 0.788235 0.772549
1.000000 0.764706 0.752941
1.000000 0.764706 0.749020
0.525490 0.839216 0.772549
0.525490 0.839216 0.772549
0.525490 0.839216 0.772549
0.541176 0.862745 0.788235
0.768627 0.874510 0.800000
0.941176 0.866667 0.800000
1.000000 0.870588 0.788235
1.000000 0.854902 0.760784
1.000000 0.854902 0.756863
0.552941 0.882353 0.796078
0.552941 0.882353 0.796078
0.552941 0.882353 0.792157
0.564706 0.898039 0.803922
0.764706 0.894118 0.800000
0.917647 0.886275 0.792157
1.000000 0.890196 0.776471
1.000000 0.886275 0.776471
1.000000 0.882353 0.776471
0.600000 0.898039 0.796078
0.635294 0.898039 0.796078
0.709804 0.890196 0.792157
0.811765 0.878431 0.788235
0.913725 0.886275 0.792157
0.996078 0.894118 0.784314
1.000000 0.894118 0.788235
1.000000 0.890196 0.788235
1.000000 0.886275 0.788235
0.160784 0.043137 0.674510
0.160784 0.043137 0.674510
0.160784 0.043137 0.674510
0.270588 0.050980 0.650980
0.474510 0.078431 0.607843
0.615686 0.105882 0.603922
0.713725 0.121569 0.607843
0.768627 0.133333 0.615686
0.768627 0.133333 0.615686
0.164706 0.047059 0.686275
0.164706 0.043137 0.682353
0.164706 0.050980 0.686275
0.294118 0.054902 0.654902
0.474510 0.078431 0.607843
0.619608 0.105882 0.603922
0.713725 0.121569 0.607843
0.768627 0.133333 0.615686
0.768627 0.133333 0.615686
0.203922 0.176471 0.705882
0.203922 0.176471 0.705882
0.211765 0.196078 0.717647
0.415686 0.203922 0.701961
0.600000 0.215686 0.662745
0.713725 0.207843 0.658824
0.784314 0.196078 0.654902
0.819608 0.180392 0.658824
0.815686 0.176471 0.654902
0.286275 0.364706 0.741176
0.286275 0.364706 0.741176
0.301961 0.396078 0.752941
0.486275 0.403922 0.756863
0.686275 0.415686 0.733333
0.803922 0.419608 0.721569
0.866667 0.415686 0.721569
0.898039 0.411765 0.725490
0.898039 0.415686 0.729412
0.392157 0.580392 0.768627
0.392157 0.580392 0.768627
0.403922 0.600000 0.776471
0.513725 0.615686 0.784314
0.760784 0.631373 0.788235
0.890196 0.643137 0.776471
0.945098 0.643137 0.780392
0.968627 0.635294 0.780392
0.968627 0.639216 0.780392
0.478431 0.741176 0.788235
0.478431 0.741176 0.788235
0.482353 0.749020 0.788235
0.537255 0.776471 0.796078
0.768627 0.796078 0.807843
0.941176 0.800000 0.807843
0.988235 0.800000 0.807843
1.000000 0.780392 0.800000
1.000000 0.784314 0.800000
0.529412 0.839216 0.803922
0.529412 0.835294 0.803922
0.529412 0.835294 0.803922
0.552941 0.858824 0.815686
0.776471 0.878431 0.827451
0.945098 0.870588 0.819608
1.000000 0.870588 0.815686
1.000000 0.858824 0.800000
1.000000 0.858824 0.796078
0.560784 0.886275 0.827451
0.560784 0.886275 0.827451
0.560784 0.890196 0.831373
0.572549 0.905882 0.835294
0.780392 0.905882 0.835294
0.941176 0.890196 0.827451
1.000000 0.894118 0.819608
1.000000 0.890196 0.815686
1.000000 0.890196 0.815686
0.658824 0.905882 0.827451
0.690196 0.905882 0.827451
0.760784 0.901961 0.823529
0.858824 0.890196 0.819608
0.949020 0.886275 0.815686
1.000000 0.894118 0.807843
1.000000 0.890196 0.815686
1.000000 0.890196 0.815686
1.000000 0.890196 0.815686
0.160784 0.043137 0.678431
0.160784 0.043137 0.678431
0.160784 0.043137 0.678431
0.266667 0.050980 0.654902
0.454902 0.078431 0.611765
0.592157 0.098039 0.603922
0.686275 0.117647 0.607843
0.752941 0.129412 0.611765
0.768627 0.133333 0.615686
0.164706 0.054902 0.686275
0.164706 0.050980 0.686275
0.168627 0.066667 0.690196
0.317647 0.066667 0.658824
0.498039 0.086275 0.623529
0.607843 0.101961 0.611765
0.686275 0.117647 0.607843
0.752941 0.129412 0.611765
0.788235 0.137255 0.631373
0.203922 0.184314 0.709804
0.203922 0.184314 0.709804
0.223529 0.207843 0.717647
0.427451 0.219608 0.701961
0.592157 0.235294 0.670588
0.705882 0.243137 0.666667
0.784314 0.247059 0.674510
0.831373 0.258824 0.678431
0.854902 0.278431 0.690196
0.290196 0.372549 0.741176
0.298039 0.392157 0.749020
0.321569 0.407843 0.752941
0.521569 0.415686 0.756863
0.686275 0.431373 0.737255
0.796078 0.443137 0.729412
0.862745 0.454902 0.733333
0.905882 0.466667 0.741176
0.921569 0.486275 0.749020
0.400000 0.596078 0.776471
0.407843 0.603922 0.776471
0.439216 0.615686 0.780392
0.607843 0.627451 0.788235
0.780392 0.639216 0.788235
0.882353 0.654902 0.780392
0.937255 0.666667 0.784314
0.968627 0.670588 0.788235
0.984314 0.678431 0.792157
0.478431 0.741176 0.792157
0.482353 0.745098 0.792157
0.533333 0.760784 0.796078
0.690196 0.780392 0.803922
0.847059 0.800000 0.811765
0.945098 0.803922 0.811765
0.984314 0.807843 0.807843
1.000000 0.803922 0.803922
1.000000 0.800000 0.800000
0.529412 0.831373 0.807843
0.537255 0.835294 0.807843
0.627451 0.850980 0.815686
0.760784 0.858824 0.819608
0.898039 0.862745 0.819608
0.984314 0.866667 0.819608
1.000000 0.870588 0.815686
1.000000 0.866667 0.807843
1.000000 0.866667 0.803922
0.635294 0.890196 0.831373
0.670588 0.894118 0.831373
0.741176 0.894118 0.831373
0.843137 0.890196 0.827451
0.945098 0.886275 0.823529
1.000000 0.886275 0.823529
1.000000 0.890196 0.819608
1.000000 0.890196 0.815686
1.000000 0.890196 0.815686
0.800000 0.905882 0.831373
0.823529 0.905882 0.831373
0.870588 0.898039 0.831373
0.937255 0.894118 0.827451
0.984314 0.894118 0.823529
1.000000 0.894118 0.819608
1.000000 0.890196 0.815686
1.000000 0.890196 0.815686
1.000000 0.890196 0.815686
