luts/PictureFX Ektachrome 1966 E4.cube
#Generated with IWLTBAP LUT Generator
#Website: http://luts.iwltbap.com
TITLE "Neutral-125-Ektachrome"
#LUT size
LUT_3D_SIZE 5
#LUT data points
0.000000 0.000000 0.031373
0.125490 0.007843 0.003922
0.450980 0.062745 0.074510
0.717647 0.117647 0.152941
0.784314 0.133333 0.172549
0.066667 0.164706 0.098039
0.219608 0.200000 0.105882
0.549020 0.196078 0.121569
0.780392 0.180392 0.176471
0.823529 0.164706 0.184314
0.274510 0.513725 0.235294
0.298039 0.552941 0.235294
0.764706 0.596078 0.262745
0.929412 0.584314 0.290196
0.960784 0.588235 0.294118
0.411765 0.745098 0.317647
0.419608 0.760784 0.317647
0.792157 0.815686 0.337255
0.996078 0.807843 0.360784
1.000000 0.803922 0.364706
0.447059 0.800000 0.329412
0.458824 0.827451 0.309804
0.800000 0.854902 0.352941
0.992157 0.847059 0.372549
1.000000 0.847059 0.380392
0.003922 0.000000 0.145098
0.129412 0.007843 0.145098
0.466667 0.066667 0.149020
0.729412 0.121569 0.176471
0.792157 0.133333 0.184314
0.086275 0.180392 0.192157
0.235294 0.219608 0.219608
0.572549 0.192157 0.200000
0.792157 0.168627 0.219608
0.831373 0.156863 0.223529
0.286275 0.521569 0.309804
0.305882 0.552941 0.317647
0.776471 0.619608 0.321569
0.929412 0.600000 0.321569
0.952941 0.600000 0.317647
0.415686 0.745098 0.360784
0.423529 0.756863 0.364706
0.796078 0.827451 0.341176
1.000000 0.819608 0.364706
1.000000 0.819608 0.368627
0.454902 0.800000 0.419608
0.462745 0.823529 0.388235
0.800000 0.874510 0.368627
0.996078 0.866667 0.403922
1.000000 0.862745 0.419608
0.078431 0.050980 0.423529
0.094118 0.039216 0.419608
0.447059 0.066667 0.372549
0.717647 0.121569 0.388235
0.784314 0.133333 0.396078
0.137255 0.180392 0.462745
0.203922 0.203922 0.486275
0.584314 0.227451 0.466667
0.792157 0.180392 0.466667
0.819608 0.141176 0.450980
0.364706 0.600000 0.556863
0.380392 0.623529 0.572549
0.784314 0.666667 0.588235
0.901961 0.580392 0.498039
0.921569 0.572549 0.486275
0.482353 0.811765 0.596078
0.482353 0.811765 0.592157
0.701961 0.827451 0.568627
1.000000 0.858824 0.588235
1.000000 0.850980 0.584314
0.509804 0.847059 0.643137
0.556863 0.827451 0.623529
0.768627 0.870588 0.592157
1.000000 0.886275 0.611765
1.000000 0.882353 0.623529
0.141176 0.039216 0.623529
0.141176 0.039216 0.627451
0.458824 0.074510 0.556863
0.709804 0.121569 0.564706
0.768627 0.133333 0.572549
0.188235 0.180392 0.658824
0.200000 0.200000 0.674510
0.592157 0.219608 0.627451
0.784314 0.200000 0.623529
0.815686 0.172549 0.619608
0.388235 0.588235 0.737255
0.400000 0.600000 0.745098
0.756863 0.635294 0.760784
0.941176 0.631373 0.749020
0.956863 0.611765 0.737255
0.525490 0.839216 0.772549
0.525490 0.839216 0.772549
0.768627 0.874510 0.800000
1.000000 0.870588 0.788235
1.000000 0.854902 0.756863
0.600000 0.898039 0.796078
0.709804 0.890196 0.792157
0.913725 0.886275 0.792157
1.000000 0.894118 0.788235
1.000000 0.886275 0.788235
0.160784 0.043137 0.678431
0.160784 0.043137 0.678431
0.454902 0.078431 0.611765
0.686275 0.117647 0.607843
0.768627 0.133333 0.615686
0.203922 0.184314 0.709804
0.223529 0.207843 0.717647
0.592157 0.235294 0.670588
0.784314 0.247059 0.674510
0.854902 0.278431 0.690196
0.400000 0.596078 0.776471
0.439216 0.615686 0.780392
0.780392 0.639216 0.788235
0.937255 0.666667 0.784314
0.984314 0.678431 0.792157
0.529412 0.831373 0.807843
0.627451 0.850980 0.815686
0.898039 0.862745 0.819608
1.000000 0.870588 0.815686
1.000000 0.866667 0.803922
0.800000 0.905882 0.831373
0.870588 0.898039 0.831373
0.984314 0.894118 0.823529
1.000000 0.890196 0.815686
1.000000 0.890196 0.815686
