luts/PictureFX Discovery Style - for Log and ORF.cube
#Generated with IWLTBAP LUT Generator
#Website: http://luts.iwltbap.com
TITLE "Grutto-Edit-Neutral-125"
#LUT size
LUT_3D_SIZE 9
#LUT data points
0.000000 0.000000 0.000000
0.035294 0.000000 0.000000
0.156863 0.003922 0.000000
0.294118 0.000000 0.000000
0.466667 0.000000 0.000000
0.686275 0.000000 0.000000
0.933333 0.000000 0.000000
1.000000 0.000000 0.000000
1.000000 0.000000 0.000000
0.007843 0.066667 0.000000
0.074510 0.074510 0.000000
0.176471 0.078431 0.003922
0.309804 0.074510 0.003922
0.482353 0.027451 0.000000
0.698039 0.000000 0.000000
0.941176 0.000000 0.000000
1.000000 0.000000 0.000000
1.000000 0.000000 0.000000
0.000000 0.192157 0.000000
0.074510 0.192157 0.000000
0.196078 0.200000 0.000000
0.333333 0.203922 0.000000
0.509804 0.196078 0.000000
0.729412 0.149020 0.000000
0.960784 0.000000 0.000000
1.000000 0.000000 0.000000
1.000000 0.000000 0.000000
0.000000 0.352941 0.000000
0.000000 0.356863 0.000000
0.184314 0.360784 0.000000
0.349020 0.364706 0.000000
0.541176 0.368627 0.000000
0.764706 0.356863 0.000000
0.980392 0.345098 0.000000
1.000000 0.349020 0.000000
1.000000 0.392157 0.000000
0.000000 0.568627 0.000000
0.000000 0.568627 0.000000
0.000000 0.576471 0.000000
0.321569 0.584314 0.000000
0.552941 0.588235 0.000000
0.784314 0.592157 0.000000
0.984314 0.596078 0.000000
1.000000 0.611765 0.000000
1.000000 0.639216 0.000000
0.000000 0.803922 0.000000
0.000000 0.803922 0.000000
0.000000 0.803922 0.000000
0.270588 0.807843 0.000000
0.572549 0.807843 0.000000
0.796078 0.807843 0.000000
0.980392 0.807843 0.000000
1.000000 0.815686 0.000000
1.000000 0.807843 0.000000
0.000000 0.976471 0.000000
0.000000 0.976471 0.000000
0.000000 0.976471 0.000000
0.380392 0.972549 0.000000
0.627451 0.968627 0.000000
0.823529 0.964706 0.000000
0.988235 0.960784 0.000000
1.000000 0.960784 0.000000
1.000000 0.921569 0.000000
0.000000 1.000000 0.000000
0.164706 1.000000 0.000000
0.352941 1.000000 0.000000
0.525490 1.000000 0.000000
0.686275 1.000000 0.000000
0.835294 1.000000 0.000000
0.960784 1.000000 0.000000
1.000000 1.000000 0.000000
1.000000 0.992157 0.000000
0.321569 1.000000 0.000000
0.356863 1.000000 0.000000
0.435294 1.000000 0.000000
0.541176 1.000000 0.000000
0.658824 1.000000 0.000000
0.776471 1.000000 0.000000
0.882353 1.000000 0.019608
0.980392 1.000000 0.082353
1.000000 1.000000 0.129412
0.000000 0.000000 0.011765
0.058824 0.000000 0.054902
0.164706 0.003922 0.074510
0.301961 0.000000 0.082353
0.470588 0.000000 0.086275
0.690196 0.000000 0.082353
0.937255 0.000000 0.074510
1.000000 0.000000 0.050980
1.000000 0.000000 0.019608
0.007843 0.070588 0.070588
0.074510 0.074510 0.074510
0.180392 0.078431 0.082353
0.313725 0.074510 0.086275
0.486275 0.023529 0.086275
0.705882 0.000000 0.082353
0.945098 0.000000 0.066667
1.000000 0.000000 0.043137
1.000000 0.000000 0.003922
0.000000 0.192157 0.082353
0.078431 0.196078 0.082353
0.196078 0.200000 0.082353
0.337255 0.203922 0.082353
0.513725 0.192157 0.082353
0.733333 0.145098 0.070588
0.960784 0.000000 0.047059
1.000000 0.000000 0.003922
1.000000 0.000000 0.000000
0.000000 0.352941 0.062745
0.000000 0.356863 0.062745
0.188235 0.360784 0.058824
0.352941 0.364706 0.050980
0.545098 0.368627 0.035294
0.768627 0.356863 0.003922
0.980392 0.345098 0.000000
1.000000 0.349020 0.000000
1.000000 0.392157 0.000000
0.000000 0.568627 0.000000
0.000000 0.572549 0.000000
0.000000 0.576471 0.000000
0.325490 0.584314 0.000000
0.560784 0.592157 0.000000
0.788235 0.592157 0.000000
0.984314 0.596078 0.000000
1.000000 0.611765 0.000000
1.000000 0.639216 0.000000
0.000000 0.803922 0.000000
0.000000 0.803922 0.000000
0.000000 0.803922 0.000000
0.282353 0.807843 0.000000
0.576471 0.807843 0.000000
0.796078 0.807843 0.000000
0.980392 0.807843 0.000000
1.000000 0.815686 0.000000
1.000000 0.807843 0.000000
0.000000 0.976471 0.000000
0.000000 0.976471 0.000000
0.000000 0.976471 0.000000
0.388235 0.972549 0.000000
0.631373 0.968627 0.000000
0.827451 0.964706 0.000000
0.988235 0.960784 0.000000
1.000000 0.960784 0.000000
1.000000 0.921569 0.000000
0.000000 1.000000 0.000000
0.188235 1.000000 0.000000
0.364706 1.000000 0.000000
0.533333 1.000000 0.000000
0.690196 1.000000 0.000000
0.835294 1.000000 0.000000
0.960784 1.000000 0.000000
1.000000 1.000000 0.000000
1.000000 0.992157 0.000000
0.345098 1.000000 0.105882
0.380392 1.000000 0.109804
0.454902 1.000000 0.113725
0.552941 1.000000 0.125490
0.666667 1.000000 0.137255
0.780392 1.000000 0.156863
0.886275 1.000000 0.176471
0.980392 1.000000 0.200000
1.000000 1.000000 0.223529
0.007843 0.000000 0.149020
0.070588 0.003922 0.160784
0.172549 0.003922 0.180392
0.309804 0.000000 0.192157
0.482353 0.000000 0.200000
0.701961 0.000000 0.207843
0.945098 0.000000 0.207843
1.000000 0.000000 0.207843
1.000000 0.000000 0.203922
0.000000 0.078431 0.176471
0.074510 0.078431 0.180392
0.188235 0.082353 0.188235
0.325490 0.074510 0.196078
0.498039 0.011765 0.203922
0.717647 0.000000 0.207843
0.952941 0.000000 0.207843
1.000000 0.000000 0.203922
1.000000 0.000000 0.200000
0.000000 0.196078 0.196078
0.074510 0.200000 0.200000
0.203922 0.203922 0.203922
0.345098 0.203922 0.203922
0.521569 0.192157 0.207843
0.745098 0.141176 0.207843
0.968627 0.000000 0.203922
1.000000 0.000000 0.200000
1.000000 0.000000 0.192157
0.000000 0.356863 0.203922
0.000000 0.356863 0.203922
0.192157 0.364706 0.203922
0.364706 0.368627 0.203922
0.552941 0.368627 0.203922
0.780392 0.356863 0.200000
0.988235 0.345098 0.192157
1.000000 0.349020 0.180392
1.000000 0.396078 0.160784
0.000000 0.572549 0.180392
0.000000 0.572549 0.176471
0.000000 0.580392 0.176471
0.337255 0.584314 0.172549
0.572549 0.592157 0.164706
0.796078 0.592157 0.152941
0.988235 0.600000 0.137255
1.000000 0.611765 0.113725
1.000000 0.639216 0.090196
0.000000 0.803922 0.086275
0.000000 0.803922 0.082353
0.000000 0.803922 0.078431
0.301961 0.807843 0.070588
0.588235 0.807843 0.054902
0.803922 0.807843 0.031373
0.984314 0.807843 0.000000
1.000000 0.815686 0.000000
1.000000 0.803922 0.043137
0.000000 0.976471 0.000000
0.000000 0.976471 0.000000
0.000000 0.976471 0.000000
0.403922 0.972549 0.000000
0.639216 0.968627 0.000000
0.831373 0.964706 0.000000
0.988235 0.960784 0.000000
1.000000 0.960784 0.000000
1.000000 0.917647 0.117647
0.113725 1.000000 0.113725
0.231373 1.000000 0.113725
0.384314 1.000000 0.121569
0.545098 1.000000 0.129412
0.698039 1.000000 0.141176
0.839216 1.000000 0.156863
0.960784 1.000000 0.180392
1.000000 1.000000 0.203922
1.000000 0.992157 0.239216
0.400000 1.000000 0.309804
0.431373 1.000000 0.313725
0.494118 1.000000 0.313725
0.584314 1.000000 0.317647
0.686275 1.000000 0.325490
0.792157 1.000000 0.333333
0.890196 1.000000 0.345098
0.980392 1.000000 0.356863
1.000000 1.000000 0.376471
0.000000 0.003922 0.301961
0.031373 0.003922 0.309804
0.172549 0.000000 0.321569
0.321569 0.000000 0.337255
0.498039 0.000000 0.349020
0.721569 0.000000 0.360784
0.956863 0.000000 0.368627
1.000000 0.000000 0.372549
1.000000 0.000000 0.376471
0.000000 0.082353 0.321569
0.031373 0.082353 0.325490
0.180392 0.082353 0.333333
0.329412 0.066667 0.345098
0.509804 0.000000 0.356863
0.733333 0.000000 0.364706
0.964706 0.000000 0.368627
1.000000 0.000000 0.372549
1.000000 0.000000 0.376471
0.000000 0.200000 0.345098
0.023529 0.203922 0.349020
0.196078 0.203922 0.352941
0.352941 0.203922 0.356863
0.537255 0.188235 0.364706
0.760784 0.129412 0.368627
0.980392 0.000000 0.372549
1.000000 0.000000 0.376471
1.000000 0.000000 0.376471
0.000000 0.360784 0.364706
0.000000 0.360784 0.364706
0.188235 0.364706 0.368627
0.368627 0.368627 0.368627
0.568627 0.368627 0.372549
0.792157 0.356863 0.372549
0.992157 0.345098 0.372549
1.000000 0.352941 0.372549
1.000000 0.400000 0.372549
0.000000 0.576471 0.368627
0.000000 0.576471 0.368627
0.000000 0.580392 0.368627
0.349020 0.588235 0.368627
0.584314 0.592157 0.368627
0.803922 0.596078 0.364706
0.992157 0.600000 0.364706
1.000000 0.611765 0.360784
1.000000 0.639216 0.360784
0.000000 0.803922 0.356863
0.000000 0.803922 0.356863
0.000000 0.807843 0.356863
0.329412 0.807843 0.356863
0.600000 0.807843 0.352941
0.811765 0.807843 0.352941
0.984314 0.807843 0.352941
1.000000 0.815686 0.356863
1.000000 0.803922 0.372549
0.000000 0.976471 0.356863
0.000000 0.976471 0.356863
0.000000 0.976471 0.360784
0.419608 0.972549 0.360784
0.643137 0.968627 0.360784
0.831373 0.964706 0.364706
0.988235 0.960784 0.368627
1.000000 0.960784 0.376471
1.000000 0.917647 0.407843
0.200000 1.000000 0.411765
0.282353 1.000000 0.415686
0.411765 1.000000 0.415686
0.560784 1.000000 0.419608
0.705882 1.000000 0.423529
0.843137 1.000000 0.431373
0.956863 1.000000 0.443137
1.000000 1.000000 0.454902
1.000000 0.988235 0.470588
0.482353 1.000000 0.513725
0.501961 1.000000 0.513725
0.552941 1.000000 0.517647
0.627451 1.000000 0.517647
0.713725 1.000000 0.521569
0.807843 1.000000 0.529412
0.898039 1.000000 0.537255
0.976471 1.000000 0.545098
1.000000 1.000000 0.556863
0.000000 0.000000 0.501961
0.000000 0.000000 0.505882
0.109804 0.000000 0.517647
0.305882 0.000000 0.533333
0.505882 0.000000 0.549020
0.741176 0.000000 0.560784
0.964706 0.000000 0.572549
1.000000 0.000000 0.584314
1.000000 0.000000 0.592157
0.000000 0.082353 0.517647
0.000000 0.082353 0.521569
0.117647 0.078431 0.529412
0.317647 0.054902 0.541176
0.517647 0.000000 0.556863
0.749020 0.000000 0.568627
0.972549 0.000000 0.576471
1.000000 0.000000 0.584314
1.000000 0.000000 0.592157
0.000000 0.203922 0.545098
0.000000 0.203922 0.545098
0.133333 0.207843 0.552941
0.337255 0.203922 0.560784
0.541176 0.184314 0.568627
0.772549 0.109804 0.576471
0.984314 0.000000 0.584314
1.000000 0.000000 0.592157
1.000000 0.000000 0.596078
0.000000 0.364706 0.572549
0.000000 0.364706 0.572549
0.121569 0.368627 0.576471
0.356863 0.372549 0.580392
0.572549 0.368627 0.584314
0.800000 0.352941 0.588235
0.996078 0.345098 0.592157
1.000000 0.356863 0.596078
1.000000 0.407843 0.600000
0.000000 0.580392 0.588235
0.000000 0.580392 0.588235
0.000000 0.584314 0.588235
0.341176 0.592157 0.592157
0.592157 0.592157 0.592157
0.807843 0.596078 0.596078
0.992157 0.600000 0.596078
1.000000 0.615686 0.600000
1.000000 0.643137 0.603922
0.000000 0.807843 0.596078
0.000000 0.807843 0.596078
0.000000 0.807843 0.596078
0.337255 0.807843 0.596078
0.603922 0.807843 0.600000
0.807843 0.807843 0.600000
0.980392 0.807843 0.603922
1.000000 0.815686 0.603922
1.000000 0.807843 0.615686
0.000000 0.976471 0.607843
0.000000 0.976471 0.607843
0.000000 0.972549 0.607843
0.423529 0.972549 0.611765
0.643137 0.968627 0.611765
0.827451 0.964706 0.615686
0.976471 0.960784 0.615686
1.000000 0.960784 0.619608
1.000000 0.921569 0.639216
0.282353 1.000000 0.643137
0.341176 1.000000 0.643137
0.450980 1.000000 0.643137
0.584314 1.000000 0.647059
0.721569 1.000000 0.650980
0.843137 1.000000 0.654902
0.952941 1.000000 0.658824
1.000000 1.000000 0.666667
1.000000 0.984314 0.678431
0.592157 1.000000 0.701961
0.607843 1.000000 0.701961
0.643137 1.000000 0.705882
0.694118 1.000000 0.705882
0.764706 1.000000 0.709804
0.835294 1.000000 0.713725
0.909804 1.000000 0.717647
0.972549 1.000000 0.721569
1.000000 1.000000 0.729412
0.000000 0.000000 0.745098
0.000000 0.000000 0.749020
0.000000 0.000000 0.756863
0.247059 0.000000 0.764706
0.498039 0.000000 0.776471
0.749020 0.000000 0.784314
0.968627 0.000000 0.792157
1.000000 0.000000 0.800000
1.000000 0.000000 0.803922
0.000000 0.078431 0.756863
0.000000 0.074510 0.756863
0.000000 0.062745 0.764706
0.262745 0.019608 0.772549
0.509804 0.000000 0.780392
0.756863 0.000000 0.788235
0.972549 0.000000 0.796078
1.000000 0.000000 0.800000
1.000000 0.000000 0.807843
0.000000 0.207843 0.772549
0.000000 0.207843 0.776471
0.000000 0.203922 0.780392
0.294118 0.196078 0.784314
0.537255 0.168627 0.788235
0.780392 0.078431 0.796078
0.984314 0.000000 0.800000
1.000000 0.000000 0.803922
1.000000 0.000000 0.807843
0.000000 0.368627 0.792157
0.000000 0.368627 0.792157
0.000000 0.372549 0.792157
0.325490 0.372549 0.796078
0.576471 0.364706 0.800000
0.803922 0.352941 0.803922
0.996078 0.345098 0.803922
1.000000 0.360784 0.807843
1.000000 0.419608 0.807843
0.000000 0.584314 0.800000
0.000000 0.588235 0.803922
0.000000 0.588235 0.803922
0.333333 0.592157 0.803922
0.596078 0.596078 0.803922
0.807843 0.596078 0.807843
0.988235 0.603922 0.807843
1.000000 0.619608 0.807843
1.000000 0.658824 0.803922
0.000000 0.807843 0.803922
0.000000 0.807843 0.803922
0.000000 0.807843 0.803922
0.345098 0.807843 0.807843
0.603922 0.807843 0.807843
0.807843 0.807843 0.807843
0.972549 0.811765 0.807843
1.000000 0.819608 0.807843
1.000000 0.827451 0.815686
0.000000 0.976471 0.811765
0.000000 0.976471 0.811765
0.043137 0.972549 0.811765
0.431373 0.972549 0.811765
0.643137 0.968627 0.811765
0.823529 0.964706 0.811765
0.968627 0.960784 0.815686
1.000000 0.960784 0.815686
1.000000 0.929412 0.827451
0.321569 1.000000 0.815686
0.380392 1.000000 0.815686
0.490196 1.000000 0.815686
0.623529 1.000000 0.823529
0.756863 1.000000 0.835294
0.862745 1.000000 0.835294
0.949020 1.000000 0.839216
1.000000 1.000000 0.843137
1.000000 0.984314 0.850980
0.694118 1.000000 0.839216
0.713725 1.000000 0.847059
0.756863 1.000000 0.858824
0.803922 1.000000 0.866667
0.843137 1.000000 0.870588
0.890196 1.000000 0.870588
0.933333 1.000000 0.874510
0.976471 1.000000 0.878431
1.000000 1.000000 0.882353
0.000000 0.000000 0.945098
0.000000 0.000000 0.945098
0.000000 0.000000 0.949020
0.207843 0.000000 0.952941
0.513725 0.000000 0.956863
0.768627 0.000000 0.964706
0.976471 0.000000 0.968627
1.000000 0.000000 0.968627
1.000000 0.000000 0.972549
0.000000 0.058824 0.949020
0.000000 0.054902 0.949020
0.000000 0.027451 0.952941
0.231373 0.000000 0.956863
0.529412 0.000000 0.960784
0.776471 0.000000 0.964706
0.980392 0.000000 0.968627
1.000000 0.000000 0.972549
1.000000 0.000000 0.972549
0.000000 0.203922 0.956863
0.000000 0.203922 0.956863
0.000000 0.200000 0.960784
0.282353 0.184314 0.960784
0.560784 0.145098 0.964706
0.796078 0.019608 0.968627
0.992157 0.000000 0.968627
1.000000 0.000000 0.972549
1.000000 0.058824 0.968627
0.000000 0.372549 0.964706
0.000000 0.372549 0.964706
0.000000 0.372549 0.964706
0.337255 0.368627 0.968627
0.600000 0.360784 0.968627
0.815686 0.349020 0.968627
0.996078 0.345098 0.972549
1.000000 0.372549 0.972549
1.000000 0.439216 0.956863
0.000000 0.592157 0.968627
0.000000 0.592157 0.968627
0.000000 0.592157 0.968627
0.368627 0.596078 0.968627
0.615686 0.596078 0.968627
0.819608 0.600000 0.968627
0.988235 0.607843 0.968627
1.000000 0.623529 0.968627
1.000000 0.666667 0.941176
0.000000 0.807843 0.964706
0.000000 0.807843 0.964706
0.000000 0.807843 0.964706
0.388235 0.807843 0.964706
0.623529 0.807843 0.964706
0.815686 0.807843 0.964706
0.972549 0.811765 0.964706
1.000000 0.823529 0.964706
1.000000 0.850980 0.937255
0.000000 0.972549 0.960784
0.000000 0.972549 0.960784
0.203922 0.972549 0.960784
0.466667 0.968627 0.960784
0.658824 0.964706 0.960784
0.827451 0.960784 0.960784
0.960784 0.960784 0.960784
1.000000 0.964706 0.960784
1.000000 0.964706 0.964706
0.396078 1.000000 0.945098
0.439216 1.000000 0.945098
0.533333 1.000000 0.945098
0.654902 1.000000 0.945098
0.784314 1.000000 0.945098
0.901961 1.000000 0.956863
0.972549 1.000000 0.972549
1.000000 1.000000 0.972549
1.000000 0.996078 0.976471
0.733333 1.000000 0.917647
0.749020 1.000000 0.921569
0.788235 1.000000 0.925490
0.850980 1.000000 0.941176
0.921569 1.000000 0.960784
0.980392 1.000000 0.988235
0.988235 1.000000 0.988235
0.996078 1.000000 0.992157
1.000000 1.000000 0.992157
0.000000 0.000000 1.000000
0.000000 0.000000 1.000000
0.000000 0.000000 1.000000
0.294118 0.000000 1.000000
0.572549 0.000000 1.000000
0.792157 0.000000 1.000000
0.980392 0.000000 1.000000
1.000000 0.000000 1.000000
1.000000 0.000000 1.000000
0.000000 0.019608 1.000000
0.000000 0.007843 1.000000
0.000000 0.000000 1.000000
0.313725 0.000000 1.000000
0.580392 0.000000 1.000000
0.800000 0.000000 1.000000
0.980392 0.000000 1.000000
1.000000 0.000000 1.000000
1.000000 0.000000 1.000000
0.000000 0.200000 1.000000
0.000000 0.200000 1.000000
0.000000 0.192157 1.000000
0.360784 0.172549 1.000000
0.607843 0.125490 1.000000
0.811765 0.019608 1.000000
0.984314 0.000000 1.000000
1.000000 0.000000 1.000000
1.000000 0.160784 1.000000
0.000000 0.376471 1.000000
0.000000 0.376471 1.000000
0.109804 0.376471 1.000000
0.419608 0.368627 1.000000
0.639216 0.364706 1.000000
0.823529 0.360784 1.000000
0.984314 0.368627 1.000000
1.000000 0.400000 1.000000
1.000000 0.458824 1.000000
0.000000 0.588235 1.000000
0.000000 0.588235 1.000000
0.243137 0.592157 1.000000
0.470588 0.600000 1.000000
0.658824 0.600000 1.000000
0.823529 0.607843 1.000000
0.968627 0.619608 1.000000
1.000000 0.643137 1.000000
1.000000 0.682353 1.000000
0.000000 0.784314 1.000000
0.062745 0.788235 1.000000
0.329412 0.788235 1.000000
0.521569 0.796078 1.000000
0.694118 0.803922 1.000000
0.835294 0.811765 1.000000
0.949020 0.819608 1.000000
1.000000 0.835294 1.000000
1.000000 0.858824 1.000000
0.290196 0.933333 1.000000
0.349020 0.933333 1.000000
0.462745 0.933333 1.000000
0.603922 0.933333 1.000000
0.745098 0.937255 1.000000
0.874510 0.945098 1.000000
0.964706 0.964706 1.000000
1.000000 0.972549 1.000000
1.000000 0.984314 1.000000
0.541176 1.000000 1.000000
0.568627 1.000000 1.000000
0.635294 1.000000 1.000000
0.725490 1.000000 1.000000
0.831373 1.000000 1.000000
0.933333 1.000000 1.000000
1.000000 1.000000 1.000000
1.000000 1.000000 1.000000
1.000000 1.000000 1.000000
0.780392 1.000000 0.976471
0.796078 1.000000 0.976471
0.831373 1.000000 0.980392
0.886275 1.000000 0.984314
0.949020 1.000000 0.992157
1.000000 1.000000 1.000000
1.000000 1.000000 1.000000
1.000000 1.000000 1.000000
1.000000 1.000000 1.000000
0.000000 0.000000 1.000000
0.000000 0.000000 1.000000
0.000000 0.000000 1.000000
0.219608 0.000000 1.000000
0.478431 0.000000 1.000000
0.686275 0.000000 1.000000
0.862745 0.000000 1.000000
1.000000 0.000000 1.000000
1.000000 0.000000 1.000000
0.000000 0.078431 1.000000
0.000000 0.074510 1.000000
0.000000 0.062745 1.000000
0.258824 0.027451 1.000000
0.498039 0.000000 1.000000
0.698039 0.000000 1.000000
0.866667 0.000000 1.000000
1.000000 0.000000 1.000000
1.000000 0.000000 1.000000
0.000000 0.219608 1.000000
0.000000 0.219608 1.000000
0.000000 0.219608 1.000000
0.341176 0.211765 1.000000
0.545098 0.200000 1.000000
0.721569 0.188235 1.000000
0.878431 0.192157 1.000000
1.000000 0.223529 1.000000
1.000000 0.294118 1.000000
0.000000 0.384314 1.000000
0.113725 0.388235 1.000000
0.286275 0.388235 1.000000
0.450980 0.392157 1.000000
0.607843 0.396078 1.000000
0.756863 0.403922 1.000000
0.890196 0.427451 1.000000
1.000000 0.462745 1.000000
1.000000 0.513725 1.000000
0.333333 0.596078 1.000000
0.380392 0.600000 1.000000
0.454902 0.603922 1.000000
0.556863 0.607843 1.000000
0.670588 0.619608 1.000000
0.788235 0.631373 1.000000
0.898039 0.650980 1.000000
0.992157 0.674510 1.000000
1.000000 0.709804 1.000000
0.443137 0.752941 1.000000
0.478431 0.760784 1.000000
0.552941 0.768627 1.000000
0.658824 0.788235 1.000000
0.764706 0.811765 1.000000
0.843137 0.823529 1.000000
0.917647 0.835294 1.000000
0.980392 0.850980 1.000000
1.000000 0.874510 1.000000
0.568627 0.882353 1.000000
0.596078 0.882353 1.000000
0.650980 0.890196 1.000000
0.737255 0.901961 1.000000
0.835294 0.921569 1.000000
0.925490 0.949020 1.000000
0.968627 0.968627 1.000000
0.992157 0.976471 1.000000
1.000000 0.992157 1.000000
0.709804 0.964706 1.000000
0.729412 0.968627 1.000000
0.768627 0.968627 1.000000
0.831373 0.972549 1.000000
0.905882 0.980392 1.000000
0.976471 0.992157 1.000000
1.000000 1.000000 1.000000
1.000000 1.000000 1.000000
1.000000 1.000000 1.000000
0.847059 1.000000 1.000000
0.862745 1.000000 1.000000
0.890196 1.000000 1.000000
0.933333 1.000000 1.000000
0.984314 1.000000 1.000000
1.000000 1.000000 1.000000
1.000000 1.000000 1.000000
1.000000 1.000000 1.000000
1.000000 1.000000 1.000000
