luts/PictureFX Perfect Sunset V1 - Example Blend Mode _ Hardlight 70%.cube
#Generated with IWLTBAP LUT Generator
#Website: http://luts.iwltbap.com
TITLE "Neutral-125_01"
#LUT size
LUT_3D_SIZE 9
#LUT data points
0.000000 0.000000 0.000000
0.141176 0.000000 0.035294
0.282353 0.000000 0.043137
0.450980 0.000000 0.043137
0.670588 0.007843 0.066667
0.843137 0.109804 0.101961
0.984314 0.184314 0.141176
1.000000 0.247059 0.180392
1.000000 0.301961 0.219608
0.117647 0.113725 0.070588
0.207843 0.117647 0.066667
0.341176 0.117647 0.047059
0.533333 0.129412 0.031373
0.701961 0.164706 0.058824
0.854902 0.207843 0.105882
0.988235 0.254902 0.149020
1.000000 0.298039 0.188235
1.000000 0.349020 0.227451
0.258824 0.298039 0.117647
0.321569 0.298039 0.117647
0.443137 0.305882 0.109804
0.588235 0.309804 0.074510
0.737255 0.321569 0.070588
0.866667 0.341176 0.121569
0.996078 0.368627 0.168627
1.000000 0.400000 0.207843
1.000000 0.435294 0.247059
0.388235 0.482353 0.203922
0.431373 0.482353 0.207843
0.521569 0.482353 0.207843
0.635294 0.478431 0.192157
0.764706 0.478431 0.164706
0.894118 0.486275 0.164706
1.000000 0.501961 0.200000
1.000000 0.529412 0.239216
1.000000 0.549020 0.274510
0.470588 0.631373 0.270588
0.501961 0.631373 0.274510
0.576471 0.631373 0.282353
0.678431 0.631373 0.282353
0.792157 0.631373 0.270588
0.925490 0.639216 0.254902
1.000000 0.647059 0.258824
1.000000 0.654902 0.278431
1.000000 0.658824 0.301961
0.556863 0.792157 0.337255
0.584314 0.792157 0.341176
0.643137 0.788235 0.349020
0.733333 0.788235 0.352941
0.835294 0.784314 0.352941
0.941176 0.780392 0.341176
1.000000 0.772549 0.329412
1.000000 0.764706 0.325490
1.000000 0.760784 0.337255
0.611765 0.913725 0.388235
0.631373 0.909804 0.388235
0.678431 0.905882 0.392157
0.752941 0.901961 0.396078
0.839216 0.894118 0.396078
0.933333 0.886275 0.396078
1.000000 0.878431 0.388235
1.000000 0.870588 0.380392
1.000000 0.862745 0.380392
0.647059 1.000000 0.419608
0.666667 1.000000 0.419608
0.701961 0.996078 0.423529
0.764706 0.992157 0.423529
0.839216 0.984314 0.427451
0.925490 0.976471 0.431373
1.000000 0.964706 0.427451
1.000000 0.949020 0.419608
1.000000 0.933333 0.411765
0.670588 1.000000 0.443137
0.682353 1.000000 0.443137
0.713725 1.000000 0.443137
0.764706 1.000000 0.443137
0.827451 1.000000 0.447059
0.898039 1.000000 0.447059
0.972549 1.000000 0.443137
1.000000 1.000000 0.439216
1.000000 0.988235 0.431373
0.066667 0.000000 0.113725
0.133333 0.000000 0.129412
0.262745 0.015686 0.172549
0.454902 0.039216 0.196078
0.674510 0.066667 0.211765
0.850980 0.129412 0.227451
1.000000 0.196078 0.250980
1.000000 0.254902 0.274510
1.000000 0.309804 0.301961
0.121569 0.117647 0.184314
0.219608 0.121569 0.188235
0.352941 0.137255 0.188235
0.529412 0.164706 0.203922
0.709804 0.184314 0.211765
0.866667 0.223529 0.231373
1.000000 0.266667 0.254902
1.000000 0.309804 0.282353
1.000000 0.352941 0.305882
0.250980 0.305882 0.227451
0.321569 0.309804 0.235294
0.443137 0.313725 0.231373
0.592157 0.321569 0.215686
0.745098 0.329412 0.203922
0.882353 0.349020 0.219608
1.000000 0.376471 0.254902
1.000000 0.407843 0.286275
1.000000 0.439216 0.317647
0.388235 0.494118 0.290196
0.435294 0.494118 0.294118
0.525490 0.494118 0.294118
0.647059 0.494118 0.282353
0.780392 0.490196 0.250980
0.913725 0.494118 0.239216
1.000000 0.509804 0.266667
1.000000 0.529412 0.301961
1.000000 0.549020 0.329412
0.474510 0.643137 0.341176
0.513725 0.643137 0.345098
0.584314 0.639216 0.349020
0.686275 0.639216 0.349020
0.803922 0.639216 0.333333
0.929412 0.643137 0.309804
1.000000 0.647059 0.305882
1.000000 0.654902 0.325490
1.000000 0.658824 0.349020
0.556863 0.796078 0.392157
0.584314 0.792157 0.396078
0.643137 0.792157 0.400000
0.733333 0.788235 0.403922
0.831373 0.780392 0.403922
0.937255 0.776471 0.388235
1.000000 0.768627 0.368627
1.000000 0.764706 0.364706
1.000000 0.760784 0.372549
0.611765 0.909804 0.427451
0.631373 0.909804 0.427451
0.678431 0.905882 0.431373
0.749020 0.898039 0.435294
0.839216 0.890196 0.435294
0.933333 0.882353 0.431373
1.000000 0.874510 0.423529
1.000000 0.866667 0.411765
1.000000 0.858824 0.407843
0.647059 0.996078 0.450980
0.662745 0.996078 0.450980
0.698039 0.992157 0.450980
0.756863 0.984314 0.454902
0.835294 0.980392 0.458824
0.917647 0.968627 0.458824
1.000000 0.956863 0.454902
1.000000 0.945098 0.443137
1.000000 0.929412 0.435294
0.666667 1.000000 0.462745
0.678431 1.000000 0.466667
0.709804 1.000000 0.466667
0.760784 1.000000 0.466667
0.823529 1.000000 0.466667
0.894118 1.000000 0.470588
0.972549 1.000000 0.466667
1.000000 1.000000 0.462745
1.000000 0.984314 0.454902
0.066667 0.000000 0.215686
0.133333 0.003922 0.223529
0.266667 0.027451 0.301961
0.427451 0.094118 0.364706
0.639216 0.141176 0.407843
0.827451 0.172549 0.403922
0.988235 0.215686 0.403922
1.000000 0.266667 0.407843
1.000000 0.317647 0.423529
0.137255 0.121569 0.313725
0.219608 0.129412 0.321569
0.337255 0.152941 0.345098
0.490196 0.200000 0.396078
0.666667 0.235294 0.415686
0.843137 0.254902 0.407843
0.996078 0.282353 0.403922
1.000000 0.317647 0.411765
1.000000 0.360784 0.423529
0.243137 0.309804 0.392157
0.313725 0.309804 0.400000
0.439216 0.317647 0.396078
0.572549 0.333333 0.392157
0.713725 0.352941 0.392157
0.862745 0.368627 0.392157
1.000000 0.388235 0.396078
1.000000 0.411765 0.407843
1.000000 0.443137 0.427451
0.368627 0.498039 0.419608
0.415686 0.498039 0.423529
0.509804 0.498039 0.423529
0.635294 0.498039 0.415686
0.768627 0.498039 0.396078
0.905882 0.501961 0.372549
1.000000 0.513725 0.380392
1.000000 0.533333 0.407843
1.000000 0.549020 0.431373
0.470588 0.643137 0.443137
0.501961 0.643137 0.447059
0.576471 0.643137 0.450980
0.678431 0.643137 0.450980
0.796078 0.643137 0.439216
0.929412 0.643137 0.411765
1.000000 0.647059 0.392157
1.000000 0.650980 0.407843
1.000000 0.658824 0.431373
0.556863 0.792157 0.486275
0.584314 0.792157 0.486275
0.643137 0.788235 0.490196
0.729412 0.784314 0.494118
0.831373 0.780392 0.494118
0.937255 0.776471 0.474510
1.000000 0.768627 0.447059
1.000000 0.760784 0.431373
1.000000 0.760784 0.439216
0.611765 0.909804 0.505882
0.631373 0.905882 0.509804
0.678431 0.901961 0.509804
0.749020 0.898039 0.513725
0.839216 0.890196 0.517647
0.933333 0.882353 0.509804
1.000000 0.874510 0.494118
1.000000 0.866667 0.474510
1.000000 0.858824 0.466667
0.643137 0.996078 0.517647
0.658824 0.992157 0.517647
0.698039 0.992157 0.517647
0.756863 0.984314 0.521569
0.835294 0.976471 0.525490
0.917647 0.968627 0.525490
1.000000 0.956863 0.517647
1.000000 0.945098 0.501961
1.000000 0.929412 0.490196
0.666667 1.000000 0.521569
0.678431 1.000000 0.521569
0.709804 1.000000 0.521569
0.756863 1.000000 0.521569
0.823529 1.000000 0.525490
0.894118 1.000000 0.521569
0.972549 1.000000 0.521569
1.000000 1.000000 0.513725
1.000000 0.984314 0.501961
0.101961 0.007843 0.294118
0.172549 0.011765 0.333333
0.298039 0.027451 0.400000
0.450980 0.086275 0.478431
0.635294 0.156863 0.556863
0.807843 0.207843 0.576471
0.972549 0.243137 0.568627
1.000000 0.286275 0.560784
1.000000 0.329412 0.560784
0.149020 0.141176 0.431373
0.223529 0.145098 0.443137
0.345098 0.164706 0.470588
0.494118 0.207843 0.541176
0.647059 0.254902 0.584314
0.815686 0.286275 0.592157
0.976471 0.305882 0.576471
1.000000 0.337255 0.564706
1.000000 0.372549 0.564706
0.258824 0.309804 0.533333
0.325490 0.313725 0.541176
0.435294 0.321569 0.541176
0.552941 0.345098 0.552941
0.670588 0.380392 0.576471
0.815686 0.400000 0.588235
0.972549 0.411765 0.572549
1.000000 0.427451 0.560784
1.000000 0.450980 0.564706
0.356863 0.501961 0.584314
0.403922 0.498039 0.592157
0.505882 0.498039 0.592157
0.627451 0.498039 0.580392
0.745098 0.505882 0.564706
0.870588 0.521569 0.560784
1.000000 0.533333 0.556863
1.000000 0.545098 0.556863
1.000000 0.556863 0.556863
0.447059 0.647059 0.572549
0.482353 0.647059 0.576471
0.556863 0.647059 0.580392
0.662745 0.647059 0.584314
0.784314 0.647059 0.572549
0.913725 0.650980 0.552941
1.000000 0.654902 0.533333
1.000000 0.654902 0.525490
1.000000 0.658824 0.541176
0.549020 0.796078 0.596078
0.576471 0.792157 0.600000
0.635294 0.792157 0.600000
0.721569 0.788235 0.600000
0.823529 0.784314 0.596078
0.929412 0.776471 0.580392
1.000000 0.768627 0.549020
1.000000 0.760784 0.521569
1.000000 0.756863 0.525490
0.607843 0.905882 0.607843
0.631373 0.905882 0.607843
0.678431 0.901961 0.611765
0.749020 0.894118 0.611765
0.835294 0.886275 0.615686
0.929412 0.882353 0.607843
1.000000 0.874510 0.588235
1.000000 0.862745 0.560784
1.000000 0.854902 0.541176
0.643137 0.992157 0.607843
0.658824 0.992157 0.607843
0.698039 0.988235 0.607843
0.756863 0.984314 0.611765
0.835294 0.976471 0.615686
0.917647 0.964706 0.611765
1.000000 0.952941 0.603922
1.000000 0.941176 0.584314
1.000000 0.925490 0.560784
0.666667 1.000000 0.600000
0.678431 1.000000 0.600000
0.709804 1.000000 0.600000
0.756863 1.000000 0.600000
0.819608 1.000000 0.603922
0.894118 1.000000 0.600000
0.968627 1.000000 0.596078
1.000000 1.000000 0.588235
1.000000 0.984314 0.572549
0.149020 0.015686 0.454902
0.211765 0.027451 0.478431
0.329412 0.054902 0.513725
0.498039 0.094118 0.596078
0.658824 0.149020 0.658824
0.815686 0.207843 0.701961
0.964706 0.258824 0.713725
1.000000 0.301961 0.709804
1.000000 0.341176 0.705882
0.188235 0.160784 0.552941
0.254902 0.168627 0.556863
0.380392 0.188235 0.596078
0.525490 0.211765 0.639216
0.674510 0.247059 0.690196
0.815686 0.286275 0.721569
0.964706 0.321569 0.725490
1.000000 0.352941 0.717647
1.000000 0.384314 0.709804
0.266667 0.321569 0.650980
0.321569 0.329412 0.654902
0.423529 0.337255 0.666667
0.549020 0.356863 0.682353
0.670588 0.384314 0.713725
0.800000 0.411765 0.741176
0.949020 0.431373 0.741176
1.000000 0.443137 0.725490
1.000000 0.466667 0.713725
0.368627 0.498039 0.733333
0.415686 0.498039 0.733333
0.509804 0.498039 0.733333
0.619608 0.501961 0.725490
0.725490 0.517647 0.717647
0.827451 0.541176 0.733333
0.956863 0.556863 0.745098
1.000000 0.564706 0.733333
1.000000 0.568627 0.709804
0.435294 0.647059 0.725490
0.470588 0.647059 0.733333
0.549020 0.647059 0.741176
0.658824 0.647059 0.745098
0.776471 0.647059 0.733333
0.894118 0.658824 0.717647
1.000000 0.670588 0.709804
1.000000 0.674510 0.698039
1.000000 0.670588 0.686275
0.529412 0.796078 0.725490
0.556863 0.796078 0.729412
0.615686 0.796078 0.729412
0.701961 0.792157 0.733333
0.803922 0.788235 0.729412
0.917647 0.780392 0.713725
1.000000 0.772549 0.686275
1.000000 0.768627 0.654902
1.000000 0.760784 0.639216
0.600000 0.905882 0.717647
0.623529 0.905882 0.717647
0.666667 0.901961 0.717647
0.741176 0.898039 0.717647
0.827451 0.890196 0.717647
0.921569 0.882353 0.709804
1.000000 0.874510 0.690196
1.000000 0.866667 0.658824
1.000000 0.854902 0.631373
0.643137 0.992157 0.709804
0.658824 0.992157 0.709804
0.698039 0.988235 0.709804
0.756863 0.980392 0.709804
0.831373 0.972549 0.709804
0.917647 0.964706 0.709804
1.000000 0.952941 0.698039
1.000000 0.941176 0.674510
1.000000 0.925490 0.643137
0.662745 1.000000 0.690196
0.678431 1.000000 0.690196
0.705882 1.000000 0.690196
0.756863 1.000000 0.690196
0.819608 1.000000 0.690196
0.894118 1.000000 0.690196
0.968627 1.000000 0.686275
1.000000 0.996078 0.674510
1.000000 0.980392 0.650980
0.192157 0.035294 0.619608
0.250980 0.047059 0.635294
0.360784 0.078431 0.666667
0.525490 0.121569 0.737255
0.678431 0.164706 0.776471
0.827451 0.215686 0.811765
0.968627 0.262745 0.831373
1.000000 0.309804 0.843137
1.000000 0.352941 0.843137
0.235294 0.176471 0.698039
0.298039 0.188235 0.725490
0.407843 0.203922 0.741176
0.549020 0.227451 0.760784
0.698039 0.254902 0.792157
0.835294 0.286275 0.823529
0.972549 0.321569 0.843137
1.000000 0.356863 0.850980
1.000000 0.396078 0.850980
0.290196 0.341176 0.768627
0.337255 0.345098 0.772549
0.435294 0.356863 0.776471
0.564706 0.368627 0.784314
0.694118 0.384314 0.803922
0.823529 0.403922 0.835294
0.956863 0.427451 0.858824
1.000000 0.450980 0.862745
1.000000 0.474510 0.854902
0.380392 0.505882 0.847059
0.419608 0.505882 0.847059
0.498039 0.509804 0.843137
0.603922 0.513725 0.843137
0.717647 0.525490 0.847059
0.827451 0.545098 0.866667
0.945098 0.564706 0.894118
1.000000 0.576471 0.890196
1.000000 0.580392 0.858824
0.447059 0.647059 0.866667
0.482353 0.647059 0.870588
0.556863 0.647059 0.878431
0.662745 0.647059 0.878431
0.772549 0.650980 0.870588
0.874510 0.666667 0.862745
0.964706 0.686275 0.874510
1.000000 0.694118 0.878431
1.000000 0.686275 0.850980
0.517647 0.800000 0.870588
0.545098 0.800000 0.874510
0.603922 0.796078 0.878431
0.690196 0.792157 0.882353
0.800000 0.784314 0.882353
0.905882 0.780392 0.862745
1.000000 0.780392 0.835294
1.000000 0.780392 0.819608
1.000000 0.776471 0.803922
0.584314 0.909804 0.839216
0.603922 0.905882 0.839216
0.650980 0.901961 0.839216
0.717647 0.898039 0.839216
0.807843 0.894118 0.839216
0.905882 0.886275 0.831373
1.000000 0.874510 0.815686
1.000000 0.866667 0.788235
1.000000 0.858824 0.756863
0.635294 0.992157 0.815686
0.650980 0.988235 0.811765
0.690196 0.988235 0.811765
0.749020 0.980392 0.811765
0.823529 0.972549 0.807843
0.905882 0.964706 0.803922
0.992157 0.952941 0.796078
1.000000 0.941176 0.772549
1.000000 0.925490 0.737255
0.662745 1.000000 0.788235
0.674510 1.000000 0.788235
0.705882 1.000000 0.788235
0.752941 1.000000 0.784314
0.819608 1.000000 0.784314
0.890196 1.000000 0.780392
0.964706 1.000000 0.776471
1.000000 0.996078 0.760784
1.000000 0.980392 0.737255
0.243137 0.058824 0.780392
0.305882 0.066667 0.850980
0.411765 0.098039 0.874510
0.549020 0.137255 0.901961
0.698039 0.184314 0.921569
0.839216 0.227451 0.937255
0.976471 0.274510 0.949020
1.000000 0.317647 0.960784
1.000000 0.360784 0.972549
0.290196 0.196078 0.898039
0.341176 0.203922 0.901961
0.439216 0.219608 0.913725
0.568627 0.243137 0.921569
0.709804 0.270588 0.929412
0.847059 0.298039 0.941176
0.980392 0.329412 0.956863
1.000000 0.364706 0.968627
1.000000 0.400000 0.976471
0.325490 0.352941 0.901961
0.368627 0.360784 0.905882
0.458824 0.368627 0.909804
0.576471 0.380392 0.909804
0.709804 0.396078 0.913725
0.843137 0.411765 0.929412
0.972549 0.431373 0.956863
1.000000 0.454902 0.976471
1.000000 0.478431 0.976471
0.388235 0.517647 0.960784
0.423529 0.517647 0.956863
0.498039 0.521569 0.952941
0.603922 0.525490 0.945098
0.725490 0.533333 0.941176
0.847059 0.545098 0.956863
0.972549 0.560784 0.984314
1.000000 0.576471 1.000000
1.000000 0.584314 0.984314
0.458824 0.650980 0.984314
0.490196 0.650980 0.984314
0.556863 0.654902 0.988235
0.650980 0.658824 0.984314
0.756863 0.662745 0.984314
0.862745 0.674510 0.988235
0.960784 0.690196 1.000000
1.000000 0.698039 1.000000
1.000000 0.694118 0.992157
0.525490 0.796078 1.000000
0.552941 0.796078 1.000000
0.607843 0.792157 1.000000
0.698039 0.788235 1.000000
0.800000 0.784314 1.000000
0.898039 0.780392 0.988235
0.984314 0.784314 0.972549
1.000000 0.792157 0.968627
1.000000 0.792157 0.964706
0.572549 0.905882 0.972549
0.592157 0.905882 0.972549
0.635294 0.901961 0.972549
0.705882 0.898039 0.976471
0.796078 0.890196 0.980392
0.898039 0.882353 0.972549
0.996078 0.874510 0.952941
1.000000 0.874510 0.925490
1.000000 0.870588 0.905882
0.619608 0.992157 0.925490
0.635294 0.988235 0.925490
0.670588 0.988235 0.925490
0.729412 0.980392 0.925490
0.803922 0.976471 0.921569
0.886275 0.964706 0.917647
0.972549 0.952941 0.909804
1.000000 0.941176 0.886275
1.000000 0.925490 0.854902
0.654902 1.000000 0.886275
0.666667 1.000000 0.886275
0.698039 1.000000 0.882353
0.745098 1.000000 0.882353
0.807843 1.000000 0.878431
0.878431 1.000000 0.870588
0.952941 1.000000 0.862745
1.000000 0.996078 0.850980
1.000000 0.976471 0.823529
0.313725 0.082353 1.000000
0.356863 0.094118 1.000000
0.450980 0.117647 1.000000
0.576471 0.156863 1.000000
0.709804 0.200000 1.000000
0.847059 0.243137 1.000000
0.984314 0.286275 1.000000
1.000000 0.329412 1.000000
1.000000 0.372549 1.000000
0.341176 0.211765 1.000000
0.384314 0.215686 1.000000
0.474510 0.231373 1.000000
0.592157 0.250980 1.000000
0.721569 0.278431 1.000000
0.854902 0.305882 1.000000
0.988235 0.341176 1.000000
1.000000 0.372549 1.000000
1.000000 0.407843 1.000000
0.364706 0.364706 1.000000
0.403922 0.368627 1.000000
0.486275 0.376471 1.000000
0.596078 0.388235 1.000000
0.717647 0.400000 1.000000
0.850980 0.419608 1.000000
0.980392 0.439216 1.000000
1.000000 0.462745 1.000000
1.000000 0.482353 1.000000
0.411765 0.525490 1.000000
0.443137 0.525490 1.000000
0.513725 0.529412 1.000000
0.615686 0.537255 1.000000
0.733333 0.545098 1.000000
0.858824 0.552941 1.000000
0.988235 0.564706 1.000000
1.000000 0.576471 1.000000
1.000000 0.584314 1.000000
0.466667 0.658824 1.000000
0.494118 0.662745 1.000000
0.556863 0.662745 1.000000
0.647059 0.670588 1.000000
0.752941 0.678431 1.000000
0.866667 0.682353 1.000000
0.976471 0.686275 1.000000
1.000000 0.690196 1.000000
1.000000 0.690196 1.000000
0.537255 0.800000 1.000000
0.560784 0.796078 1.000000
0.611765 0.796078 1.000000
0.690196 0.792157 1.000000
0.784314 0.788235 1.000000
0.878431 0.788235 1.000000
0.968627 0.788235 1.000000
1.000000 0.792157 1.000000
1.000000 0.796078 1.000000
0.576471 0.905882 1.000000
0.596078 0.901961 1.000000
0.639216 0.898039 1.000000
0.709804 0.894118 1.000000
0.800000 0.886275 1.000000
0.894118 0.878431 1.000000
0.988235 0.874510 1.000000
1.000000 0.874510 1.000000
1.000000 0.878431 1.000000
0.611765 0.988235 1.000000
0.623529 0.988235 1.000000
0.658824 0.984314 1.000000
0.717647 0.980392 1.000000
0.788235 0.972549 1.000000
0.874510 0.960784 1.000000
0.964706 0.949020 1.000000
1.000000 0.937255 1.000000
1.000000 0.929412 0.976471
0.643137 1.000000 0.988235
0.654902 1.000000 0.988235
0.682353 1.000000 0.988235
0.729412 1.000000 0.984314
0.788235 1.000000 0.980392
0.858824 1.000000 0.976471
0.933333 1.000000 0.968627
1.000000 0.996078 0.952941
1.000000 0.976471 0.929412
0.368627 0.113725 1.000000
0.403922 0.121569 1.000000
0.486275 0.145098 1.000000
0.596078 0.172549 1.000000
0.717647 0.211765 1.000000
0.843137 0.250980 1.000000
0.976471 0.294118 1.000000
1.000000 0.337255 1.000000
1.000000 0.380392 1.000000
0.388235 0.223529 1.000000
0.423529 0.227451 1.000000
0.498039 0.239216 1.000000
0.603922 0.258824 1.000000
0.721569 0.282353 1.000000
0.847059 0.309804 1.000000
0.976471 0.345098 1.000000
1.000000 0.380392 1.000000
1.000000 0.415686 1.000000
0.403922 0.364706 1.000000
0.435294 0.368627 1.000000
0.505882 0.372549 1.000000
0.603922 0.384314 1.000000
0.721569 0.396078 1.000000
0.847059 0.415686 1.000000
0.980392 0.439216 1.000000
1.000000 0.466667 1.000000
1.000000 0.490196 1.000000
0.435294 0.517647 1.000000
0.466667 0.517647 1.000000
0.529412 0.521569 1.000000
0.619608 0.529412 1.000000
0.733333 0.537255 1.000000
0.858824 0.552941 1.000000
0.992157 0.568627 1.000000
1.000000 0.580392 1.000000
1.000000 0.584314 1.000000
0.482353 0.662745 1.000000
0.505882 0.662745 1.000000
0.564706 0.666667 1.000000
0.650980 0.674510 1.000000
0.756863 0.682353 1.000000
0.870588 0.690196 1.000000
0.984314 0.694118 1.000000
1.000000 0.690196 1.000000
1.000000 0.690196 1.000000
0.545098 0.803922 1.000000
0.564706 0.803922 1.000000
0.615686 0.800000 1.000000
0.686275 0.800000 1.000000
0.772549 0.800000 1.000000
0.870588 0.796078 1.000000
0.968627 0.796078 1.000000
1.000000 0.792157 1.000000
1.000000 0.792157 1.000000
0.584314 0.901961 1.000000
0.603922 0.901961 1.000000
0.647059 0.898039 1.000000
0.709804 0.894118 1.000000
0.792157 0.890196 1.000000
0.882353 0.886275 1.000000
0.972549 0.882353 1.000000
1.000000 0.882353 1.000000
1.000000 0.882353 1.000000
0.615686 0.992157 1.000000
0.631373 0.992157 1.000000
0.666667 0.988235 1.000000
0.721569 0.984314 1.000000
0.796078 0.976471 1.000000
0.882353 0.964706 1.000000
0.968627 0.952941 1.000000
1.000000 0.941176 1.000000
1.000000 0.933333 1.000000
0.635294 1.000000 1.000000
0.647059 1.000000 1.000000
0.674510 1.000000 1.000000
0.717647 1.000000 1.000000
0.776471 1.000000 1.000000
0.847059 1.000000 1.000000
0.925490 1.000000 1.000000
1.000000 0.988235 1.000000
1.000000 0.972549 1.000000
