luts/PictureFX J.S. Style Wildflowers - Typical J.S. color palette and tonal repartition - add bloom, exp.cube
#Generated by lutCreator.js
#Coded by SirSerch
#https://github.com/SirSerch/LutCreatorJs
TITLE lutCreatorJs_25
LUT_3D_SIZE 9
0.000000 0.039216 0.074510
0.109804 0.003922 0.117647
0.235294 0.000000 0.086275
0.501961 0.098039 0.164706
0.639216 0.105882 0.141176
0.768627 0.101961 0.121569
0.898039 0.074510 0.101961
1.000000 0.000000 0.078431
1.000000 0.000000 0.043137
0.000000 0.125490 0.121569
0.050980 0.113725 0.219608
0.329412 0.203922 0.200000
0.482353 0.203922 0.164706
0.619608 0.196078 0.141176
0.756863 0.192157 0.121569
0.886275 0.172549 0.101961
1.000000 0.141176 0.078431
1.000000 0.090196 0.043137
0.007843 0.345098 0.192157
0.180392 0.341176 0.207843
0.325490 0.333333 0.239216
0.462745 0.333333 0.200000
0.607843 0.329412 0.164706
0.741176 0.317647 0.137255
0.874510 0.305882 0.113725
1.000000 0.282353 0.082353
1.000000 0.266667 0.047059
0.000000 0.470588 0.188235
0.160784 0.466667 0.196078
0.313725 0.462745 0.211765
0.450980 0.458824 0.223529
0.584314 0.454902 0.200000
0.721569 0.447059 0.164706
0.850980 0.431373 0.125490
0.988235 0.423529 0.090196
1.000000 0.415686 0.058824
0.000000 0.588235 0.176471
0.113725 0.588235 0.176471
0.278431 0.584314 0.184314
0.423529 0.576471 0.192157
0.564706 0.572549 0.196078
0.698039 0.568627 0.176471
0.839216 0.564706 0.145098
0.976471 0.560784 0.109804
1.000000 0.549020 0.047059
0.000000 0.709804 0.152941
0.019608 0.709804 0.156863
0.250980 0.709804 0.160784
0.407843 0.709804 0.168627
0.556863 0.709804 0.180392
0.694118 0.701961 0.176471
0.827451 0.698039 0.152941
0.956863 0.686275 0.105882
1.000000 0.670588 0.007843
0.000000 0.835294 0.113725
0.000000 0.835294 0.113725
0.203922 0.831373 0.113725
0.372549 0.827451 0.113725
0.521569 0.823529 0.117647
0.662745 0.815686 0.113725
0.792157 0.803922 0.090196
0.921569 0.792157 0.023529
1.000000 0.780392 0.000000
0.000000 0.937255 0.000000
0.000000 0.937255 0.000000
0.058824 0.937255 0.000000
0.313725 0.933333 0.000000
0.478431 0.929412 0.000000
0.623529 0.921569 0.000000
0.760784 0.917647 0.000000
0.894118 0.905882 0.000000
1.000000 0.898039 0.000000
0.000000 1.000000 0.000000
0.000000 1.000000 0.000000
0.000000 1.000000 0.000000
0.196078 1.000000 0.000000
0.400000 1.000000 0.000000
0.560784 1.000000 0.000000
0.698039 1.000000 0.000000
0.831373 0.988235 0.000000
0.960784 0.980392 0.000000
0.000000 0.043137 0.243137
0.062745 0.015686 0.239216
0.231373 0.000000 0.207843
0.494118 0.094118 0.294118
0.631373 0.094118 0.274510
0.764706 0.090196 0.254902
0.894118 0.058824 0.231373
1.000000 0.000000 0.207843
1.000000 0.000000 0.184314
0.000000 0.141176 0.215686
0.066667 0.137255 0.164706
0.317647 0.196078 0.290196
0.470588 0.196078 0.282353
0.611765 0.188235 0.266667
0.749020 0.180392 0.247059
0.878431 0.164706 0.227451
1.000000 0.129412 0.203922
1.000000 0.078431 0.180392
0.000000 0.341176 0.305882
0.133333 0.337255 0.317647
0.286275 0.325490 0.435294
0.447059 0.329412 0.321569
0.596078 0.325490 0.278431
0.737255 0.313725 0.250980
0.870588 0.301961 0.227451
0.996078 0.282353 0.203922
1.000000 0.262745 0.184314
0.000000 0.466667 0.290196
0.125490 0.462745 0.298039
0.298039 0.458824 0.317647
0.439216 0.454902 0.341176
0.576471 0.450980 0.305882
0.713725 0.443137 0.262745
0.847059 0.431373 0.227451
0.984314 0.419608 0.203922
1.000000 0.415686 0.184314
0.000000 0.584314 0.266667
0.082353 0.584314 0.266667
0.266667 0.580392 0.274510
0.419608 0.572549 0.286275
0.556863 0.568627 0.290196
0.694118 0.564706 0.270588
0.831373 0.564706 0.243137
0.972549 0.560784 0.211765
1.000000 0.549020 0.176471
0.000000 0.709804 0.243137
0.000000 0.709804 0.243137
0.243137 0.709804 0.247059
0.403922 0.709804 0.258824
0.552941 0.705882 0.266667
0.690196 0.701961 0.266667
0.827451 0.698039 0.247059
0.956863 0.686275 0.211765
1.000000 0.674510 0.164706
0.000000 0.831373 0.207843
0.000000 0.831373 0.207843
0.196078 0.831373 0.211765
0.372549 0.827451 0.211765
0.521569 0.823529 0.215686
0.662745 0.815686 0.211765
0.796078 0.807843 0.200000
0.925490 0.796078 0.172549
1.000000 0.784314 0.125490
0.000000 0.941176 0.141176
0.000000 0.941176 0.141176
0.074510 0.941176 0.141176
0.321569 0.937255 0.141176
0.482353 0.933333 0.141176
0.631373 0.929412 0.137255
0.768627 0.921569 0.129412
0.901961 0.913725 0.105882
1.000000 0.905882 0.043137
0.000000 1.000000 0.000000
0.000000 1.000000 0.000000
0.000000 1.000000 0.000000
0.211765 1.000000 0.000000
0.411765 1.000000 0.000000
0.568627 1.000000 0.000000
0.705882 1.000000 0.000000
0.839216 0.996078 0.000000
0.968627 0.988235 0.000000
0.000000 0.050980 0.450980
0.000000 0.023529 0.431373
0.184314 0.000000 0.392157
0.470588 0.094118 0.470588
0.615686 0.086275 0.443137
0.752941 0.074510 0.419608
0.886275 0.035294 0.392157
1.000000 0.000000 0.368627
1.000000 0.000000 0.341176
0.000000 0.152941 0.411765
0.000000 0.200000 0.458824
0.274510 0.196078 0.454902
0.447059 0.188235 0.443137
0.596078 0.180392 0.423529
0.737255 0.172549 0.403922
0.870588 0.152941 0.384314
1.000000 0.117647 0.356863
1.000000 0.062745 0.337255
0.000000 0.345098 0.443137
0.000000 0.341176 0.427451
0.266667 0.341176 0.368627
0.439216 0.325490 0.427451
0.588235 0.317647 0.415686
0.725490 0.305882 0.400000
0.862745 0.294118 0.376471
0.996078 0.274510 0.356863
1.000000 0.258824 0.337255
0.000000 0.462745 0.427451
0.000000 0.462745 0.431373
0.254902 0.458824 0.447059
0.400000 0.447059 0.568627
0.556863 0.450980 0.454902
0.705882 0.439216 0.403922
0.843137 0.427451 0.372549
0.980392 0.419608 0.352941
1.000000 0.411765 0.333333
0.000000 0.584314 0.403922
0.000000 0.580392 0.403922
0.239216 0.576471 0.411765
0.403922 0.568627 0.431373
0.545098 0.564706 0.454902
0.682353 0.564706 0.423529
0.827451 0.560784 0.384314
0.968627 0.556863 0.352941
1.000000 0.545098 0.329412
0.000000 0.709804 0.380392
0.000000 0.709804 0.380392
0.223529 0.709804 0.384314
0.396078 0.705882 0.392157
0.549020 0.705882 0.407843
0.686275 0.701961 0.411765
0.819608 0.698039 0.392157
0.952941 0.686275 0.356863
1.000000 0.674510 0.321569
0.000000 0.831373 0.349020
0.000000 0.831373 0.349020
0.172549 0.827451 0.349020
0.360784 0.827451 0.349020
0.517647 0.819608 0.352941
0.658824 0.815686 0.356863
0.796078 0.807843 0.349020
0.925490 0.800000 0.329412
1.000000 0.788235 0.298039
0.000000 0.945098 0.301961
0.000000 0.945098 0.301961
0.058824 0.945098 0.301961
0.321569 0.945098 0.301961
0.486275 0.941176 0.305882
0.635294 0.937255 0.305882
0.776471 0.929412 0.301961
0.909804 0.921569 0.294118
1.000000 0.917647 0.274510
0.000000 1.000000 0.227451
0.000000 1.000000 0.227451
0.000000 1.000000 0.223529
0.219608 1.000000 0.219608
0.415686 1.000000 0.211765
0.572549 1.000000 0.207843
0.713725 1.000000 0.196078
0.847059 1.000000 0.180392
0.976471 0.992157 0.152941
0.000000 0.050980 0.623529
0.000000 0.035294 0.603922
0.196078 0.101961 0.678431
0.423529 0.101961 0.654902
0.592157 0.090196 0.623529
0.741176 0.066667 0.592157
0.878431 0.011765 0.564706
1.000000 0.000000 0.533333
1.000000 0.000000 0.509804
0.000000 0.203922 0.662745
0.000000 0.203922 0.658824
0.184314 0.200000 0.647059
0.407843 0.192157 0.623529
0.572549 0.180392 0.600000
0.725490 0.164706 0.576471
0.862745 0.141176 0.549020
0.996078 0.101961 0.525490
1.000000 0.035294 0.501961
0.000000 0.345098 0.619608
0.000000 0.341176 0.611765
0.188235 0.337255 0.596078
0.403922 0.325490 0.588235
0.568627 0.313725 0.580392
0.717647 0.301961 0.560784
0.854902 0.290196 0.541176
0.992157 0.270588 0.517647
1.000000 0.254902 0.498039
0.000000 0.466667 0.580392
0.000000 0.466667 0.572549
0.160784 0.462745 0.552941
0.384314 0.462745 0.494118
0.552941 0.447059 0.552941
0.698039 0.435294 0.541176
0.835294 0.423529 0.525490
0.976471 0.415686 0.509804
1.000000 0.407843 0.494118
0.000000 0.584314 0.552941
0.000000 0.580392 0.552941
0.160784 0.580392 0.552941
0.372549 0.572549 0.564706
0.513725 0.556863 0.694118
0.662745 0.564706 0.584314
0.819608 0.560784 0.533333
0.964706 0.556863 0.505882
1.000000 0.545098 0.482353
0.000000 0.713725 0.533333
0.000000 0.709804 0.533333
0.164706 0.709804 0.537255
0.372549 0.709804 0.545098
0.533333 0.701961 0.568627
0.674510 0.698039 0.600000
0.807843 0.698039 0.564706
0.945098 0.690196 0.513725
1.000000 0.678431 0.478431
0.000000 0.831373 0.498039
0.000000 0.831373 0.498039
0.113725 0.827451 0.501961
0.341176 0.823529 0.501961
0.505882 0.819608 0.509804
0.654902 0.811765 0.517647
0.788235 0.807843 0.517647
0.921569 0.800000 0.498039
1.000000 0.792157 0.462745
0.000000 0.949020 0.458824
0.000000 0.949020 0.462745
0.000000 0.949020 0.462745
0.305882 0.945098 0.462745
0.478431 0.941176 0.462745
0.631373 0.937255 0.466667
0.776471 0.933333 0.470588
0.909804 0.925490 0.466667
1.000000 0.921569 0.447059
0.000000 1.000000 0.403922
0.000000 1.000000 0.400000
0.000000 1.000000 0.400000
0.207843 1.000000 0.396078
0.415686 1.000000 0.392157
0.572549 1.000000 0.388235
0.717647 1.000000 0.384314
0.850980 1.000000 0.376471
0.984314 1.000000 0.364706
0.000000 0.062745 0.784314
0.000000 0.050980 0.772549
0.000000 0.121569 0.862745
0.356863 0.117647 0.835294
0.549020 0.101961 0.803922
0.713725 0.074510 0.772549
0.858824 0.003922 0.741176
0.996078 0.000000 0.709804
1.000000 0.000000 0.682353
0.000000 0.207843 0.847059
0.000000 0.207843 0.843137
0.000000 0.203922 0.827451
0.337255 0.196078 0.803922
0.533333 0.184314 0.780392
0.698039 0.164706 0.752941
0.847059 0.133333 0.725490
0.984314 0.086275 0.694118
1.000000 0.003922 0.670588
0.000000 0.341176 0.811765
0.000000 0.341176 0.803922
0.000000 0.333333 0.792157
0.341176 0.325490 0.776471
0.533333 0.317647 0.756863
0.694118 0.301961 0.737255
0.843137 0.286275 0.713725
0.980392 0.266667 0.686275
1.000000 0.247059 0.666667
0.000000 0.466667 0.752941
0.000000 0.462745 0.745098
0.000000 0.462745 0.733333
0.333333 0.458824 0.717647
0.521569 0.447059 0.713725
0.682353 0.431373 0.701961
0.827451 0.419608 0.686275
0.972549 0.411765 0.670588
1.000000 0.400000 0.658824
0.000000 0.584314 0.709804
0.000000 0.584314 0.705882
0.000000 0.584314 0.698039
0.301961 0.580392 0.674510
0.498039 0.576471 0.611765
0.666667 0.564706 0.678431
0.815686 0.556863 0.670588
0.960784 0.552941 0.658824
1.000000 0.541176 0.639216
0.000000 0.713725 0.690196
0.000000 0.713725 0.690196
0.000000 0.713725 0.690196
0.317647 0.713725 0.690196
0.505882 0.705882 0.705882
0.647059 0.694118 0.831373
0.788235 0.698039 0.725490
0.937255 0.686275 0.666667
1.000000 0.674510 0.631373
0.000000 0.831373 0.654902
0.000000 0.831373 0.654902
0.000000 0.827451 0.654902
0.301961 0.823529 0.654902
0.486275 0.819608 0.662745
0.643137 0.811765 0.686275
0.776471 0.803922 0.713725
0.905882 0.800000 0.678431
1.000000 0.792157 0.627451
0.000000 0.949020 0.619608
0.000000 0.949020 0.619608
0.000000 0.949020 0.619608
0.274510 0.945098 0.623529
0.462745 0.945098 0.623529
0.623529 0.937255 0.631373
0.772549 0.933333 0.639216
0.905882 0.929412 0.643137
1.000000 0.921569 0.623529
0.000000 1.000000 0.568627
0.000000 1.000000 0.564706
0.000000 1.000000 0.564706
0.172549 1.000000 0.560784
0.400000 1.000000 0.556863
0.568627 1.000000 0.552941
0.713725 1.000000 0.552941
0.847059 1.000000 0.549020
0.980392 1.000000 0.541176
0.000000 0.145098 1.000000
0.000000 0.145098 1.000000
0.000000 0.145098 1.000000
0.239216 0.133333 1.000000
0.494118 0.117647 0.984314
0.678431 0.090196 0.952941
0.835294 0.019608 0.921569
0.980392 0.000000 0.886275
1.000000 0.000000 0.854902
0.000000 0.219608 1.000000
0.000000 0.219608 1.000000
0.000000 0.211765 1.000000
0.215686 0.203922 0.984314
0.478431 0.192157 0.960784
0.662745 0.172549 0.933333
0.819608 0.141176 0.901961
0.968627 0.086275 0.870588
1.000000 0.000000 0.847059
0.000000 0.345098 0.996078
0.000000 0.341176 0.988235
0.000000 0.337255 0.980392
0.231373 0.329412 0.964706
0.478431 0.321569 0.941176
0.662745 0.305882 0.917647
0.819608 0.286275 0.890196
0.968627 0.262745 0.862745
1.000000 0.243137 0.843137
0.000000 0.466667 0.937255
0.000000 0.466667 0.933333
0.000000 0.462745 0.929412
0.227451 0.458824 0.917647
0.470588 0.447059 0.901961
0.647059 0.435294 0.882353
0.807843 0.419608 0.858824
0.960784 0.411765 0.843137
1.000000 0.400000 0.827451
0.000000 0.588235 0.882353
0.000000 0.588235 0.878431
0.000000 0.584314 0.870588
0.215686 0.580392 0.854902
0.458824 0.576471 0.835294
0.639216 0.568627 0.835294
0.800000 0.556863 0.831373
0.952941 0.549020 0.819608
1.000000 0.537255 0.803922
0.000000 0.717647 0.854902
0.000000 0.717647 0.850980
0.000000 0.717647 0.847059
0.207843 0.717647 0.835294
0.447059 0.717647 0.811765
0.631373 0.713725 0.749020
0.796078 0.694118 0.811765
0.937255 0.682353 0.800000
1.000000 0.670588 0.784314
0.000000 0.831373 0.815686
0.000000 0.831373 0.811765
0.000000 0.831373 0.811765
0.203922 0.827451 0.807843
0.435294 0.823529 0.803922
0.611765 0.811765 0.815686
0.749020 0.796078 0.941176
0.886275 0.800000 0.835294
1.000000 0.788235 0.772549
0.000000 0.949020 0.776471
0.000000 0.949020 0.776471
0.000000 0.949020 0.776471
0.188235 0.945098 0.776471
0.427451 0.941176 0.776471
0.600000 0.933333 0.784314
0.756863 0.925490 0.807843
0.890196 0.921569 0.839216
1.000000 0.917647 0.803922
0.000000 1.000000 0.725490
0.000000 1.000000 0.721569
0.000000 1.000000 0.717647
0.015686 1.000000 0.713725
0.364706 1.000000 0.713725
0.545098 1.000000 0.709804
0.698039 1.000000 0.709804
0.835294 1.000000 0.713725
0.968627 0.992157 0.717647
0.000000 0.168627 1.000000
0.000000 0.164706 1.000000
0.000000 0.160784 1.000000
0.000000 0.152941 1.000000
0.415686 0.137255 1.000000
0.627451 0.109804 1.000000
0.800000 0.047059 1.000000
0.952941 0.000000 1.000000
1.000000 0.000000 1.000000
0.000000 0.227451 1.000000
0.000000 0.227451 1.000000
0.000000 0.223529 1.000000
0.000000 0.215686 1.000000
0.396078 0.203922 1.000000
0.611765 0.180392 1.000000
0.788235 0.149020 1.000000
0.941176 0.090196 1.000000
1.000000 0.000000 1.000000
0.000000 0.349020 1.000000
0.000000 0.349020 1.000000
0.000000 0.341176 1.000000
0.000000 0.337255 1.000000
0.400000 0.325490 1.000000
0.611765 0.309804 1.000000
0.784314 0.290196 1.000000
0.945098 0.266667 1.000000
1.000000 0.247059 1.000000
0.000000 0.466667 1.000000
0.000000 0.466667 1.000000
0.000000 0.462745 1.000000
0.000000 0.458824 1.000000
0.396078 0.447059 1.000000
0.603922 0.435294 1.000000
0.776471 0.419608 1.000000
0.941176 0.411765 1.000000
1.000000 0.396078 1.000000
0.000000 0.588235 1.000000
0.000000 0.588235 1.000000
0.000000 0.584314 1.000000
0.000000 0.580392 1.000000
0.388235 0.572549 1.000000
0.596078 0.568627 1.000000
0.772549 0.560784 1.000000
0.933333 0.549020 0.996078
1.000000 0.533333 0.972549
0.000000 0.721569 1.000000
0.000000 0.721569 1.000000
0.000000 0.721569 1.000000
0.000000 0.721569 1.000000
0.392157 0.717647 0.992157
0.596078 0.709804 0.972549
0.764706 0.698039 0.968627
0.921569 0.682353 0.956863
1.000000 0.666667 0.941176
0.000000 0.835294 0.976471
0.000000 0.835294 0.976471
0.000000 0.831373 0.972549
0.000000 0.831373 0.960784
0.352941 0.827451 0.949020
0.556863 0.823529 0.917647
0.733333 0.815686 0.850980
0.894118 0.796078 0.917647
1.000000 0.784314 0.901961
0.000000 0.945098 0.933333
0.000000 0.945098 0.933333
0.000000 0.945098 0.933333
0.000000 0.945098 0.929412
0.352941 0.941176 0.925490
0.552941 0.933333 0.921569
0.725490 0.925490 0.933333
0.862745 0.909804 1.000000
0.996078 0.913725 0.956863
0.000000 1.000000 0.878431
0.000000 1.000000 0.878431
0.000000 1.000000 0.874510
0.000000 1.000000 0.870588
0.301961 1.000000 0.862745
0.509804 1.000000 0.858824
0.674510 1.000000 0.862745
0.823529 0.992157 0.882353
0.956863 0.992157 0.921569
0.000000 0.184314 1.000000
0.000000 0.184314 1.000000
0.000000 0.180392 1.000000
0.000000 0.172549 1.000000
0.282353 0.156863 1.000000
0.560784 0.129412 1.000000
0.752941 0.074510 1.000000
0.921569 0.000000 1.000000
1.000000 0.000000 1.000000
0.000000 0.243137 1.000000
0.000000 0.239216 1.000000
0.000000 0.235294 1.000000
0.000000 0.227451 1.000000
0.258824 0.215686 1.000000
0.545098 0.192157 1.000000
0.741176 0.160784 1.000000
0.909804 0.105882 1.000000
1.000000 0.031373 1.000000
0.000000 0.356863 1.000000
0.000000 0.352941 1.000000
0.000000 0.349020 1.000000
0.000000 0.341176 1.000000
0.270588 0.329412 1.000000
0.549020 0.317647 1.000000
0.741176 0.294118 1.000000
0.913725 0.270588 1.000000
1.000000 0.250980 1.000000
0.000000 0.470588 1.000000
0.000000 0.470588 1.000000
0.000000 0.466667 1.000000
0.000000 0.458824 1.000000
0.262745 0.450980 1.000000
0.537255 0.439216 1.000000
0.733333 0.423529 1.000000
0.913725 0.415686 1.000000
1.000000 0.400000 1.000000
0.000000 0.588235 1.000000
0.000000 0.588235 1.000000
0.000000 0.584314 1.000000
0.000000 0.580392 1.000000
0.266667 0.576471 1.000000
0.541176 0.572549 1.000000
0.737255 0.564706 1.000000
0.905882 0.549020 1.000000
1.000000 0.533333 1.000000
0.000000 0.725490 1.000000
0.000000 0.725490 1.000000
0.000000 0.725490 1.000000
0.000000 0.721569 1.000000
0.286275 0.713725 1.000000
0.541176 0.705882 1.000000
0.729412 0.694118 1.000000
0.890196 0.678431 1.000000
1.000000 0.658824 1.000000
0.000000 0.835294 1.000000
0.000000 0.835294 1.000000
0.000000 0.831373 1.000000
0.000000 0.827451 1.000000
0.239216 0.823529 1.000000
0.505882 0.815686 1.000000
0.694118 0.807843 1.000000
0.858824 0.792157 1.000000
1.000000 0.776471 1.000000
0.000000 0.941176 1.000000
0.000000 0.941176 1.000000
0.000000 0.941176 1.000000
0.000000 0.941176 1.000000
0.207843 0.937255 1.000000
0.478431 0.933333 1.000000
0.662745 0.925490 1.000000
0.835294 0.917647 0.956863
0.992157 0.898039 1.000000
0.000000 1.000000 1.000000
0.000000 1.000000 1.000000
0.000000 1.000000 1.000000
0.000000 1.000000 1.000000
0.133333 1.000000 1.000000
0.435294 1.000000 1.000000
0.623529 1.000000 0.988235
0.784314 0.988235 0.996078
0.929412 0.976471 1.000000
0.000000 0.203922 1.000000
0.000000 0.203922 1.000000
0.000000 0.200000 1.000000
0.000000 0.188235 1.000000
0.000000 0.172549 1.000000
0.466667 0.145098 1.000000
0.694118 0.094118 1.000000
0.878431 0.000000 1.000000
1.000000 0.000000 1.000000
0.000000 0.254902 1.000000
0.000000 0.254902 1.000000
0.000000 0.250980 1.000000
0.000000 0.243137 1.000000
0.000000 0.227451 1.000000
0.450980 0.207843 1.000000
0.682353 0.172549 1.000000
0.870588 0.125490 1.000000
1.000000 0.066667 1.000000
0.000000 0.360784 1.000000
0.000000 0.360784 1.000000
0.000000 0.356863 1.000000
0.000000 0.349020 1.000000
0.000000 0.337255 1.000000
0.454902 0.321569 1.000000
0.682353 0.298039 1.000000
0.874510 0.278431 1.000000
1.000000 0.258824 1.000000
0.000000 0.474510 1.000000
0.000000 0.474510 1.000000
0.000000 0.470588 1.000000
0.000000 0.462745 1.000000
0.000000 0.450980 1.000000
0.447059 0.439216 1.000000
0.682353 0.431373 1.000000
0.874510 0.419608 1.000000
1.000000 0.400000 1.000000
0.000000 0.592157 1.000000
0.000000 0.588235 1.000000
0.000000 0.588235 1.000000
0.000000 0.584314 1.000000
0.000000 0.580392 1.000000
0.458824 0.576471 1.000000
0.682353 0.564706 1.000000
0.866667 0.552941 1.000000
1.000000 0.529412 1.000000
0.000000 0.725490 1.000000
0.000000 0.725490 1.000000
0.000000 0.725490 1.000000
0.000000 0.721569 1.000000
0.000000 0.713725 1.000000
0.458824 0.705882 1.000000
0.674510 0.690196 1.000000
0.847059 0.674510 1.000000
1.000000 0.654902 1.000000
0.000000 0.835294 1.000000
0.000000 0.831373 1.000000
0.000000 0.831373 1.000000
0.000000 0.827451 1.000000
0.000000 0.819608 1.000000
0.423529 0.811765 1.000000
0.643137 0.800000 1.000000
0.819608 0.784314 1.000000
0.976471 0.768627 1.000000
0.000000 0.937255 1.000000
0.000000 0.937255 1.000000
0.000000 0.937255 1.000000
0.000000 0.933333 1.000000
0.000000 0.929412 1.000000
0.388235 0.921569 1.000000
0.611765 0.913725 1.000000
0.792157 0.901961 1.000000
0.952941 0.886275 1.000000
0.000000 1.000000 1.000000
0.000000 1.000000 1.000000
0.000000 1.000000 1.000000
0.000000 1.000000 1.000000
0.000000 1.000000 1.000000
0.321569 1.000000 1.000000
0.549020 0.996078 1.000000
0.729412 0.988235 1.000000
0.901961 0.988235 1.000000
