luts/PictureFX Leica M8 Camera Black and White.cube
#Generated with IWLTBAP LUT Generator
#Website: http://luts.iwltbap.com
TITLE "PictureFX-LeicaM8-BW-125"
#LUT size
LUT_3D_SIZE 9
#LUT data points
0.000000 0.000000 0.000000
0.011765 0.011765 0.011765
0.039216 0.039216 0.039216
0.086275 0.086275 0.086275
0.156863 0.156863 0.156863
0.235294 0.235294 0.235294
0.313725 0.313725 0.313725
0.400000 0.400000 0.400000
0.509804 0.509804 0.509804
0.039216 0.039216 0.039216
0.070588 0.070588 0.070588
0.113725 0.113725 0.113725
0.152941 0.152941 0.152941
0.211765 0.211765 0.211765
0.278431 0.278431 0.278431
0.345098 0.345098 0.345098
0.427451 0.427451 0.427451
0.529412 0.529412 0.529412
0.141176 0.141176 0.141176
0.133333 0.133333 0.133333
0.200000 0.200000 0.200000
0.278431 0.278431 0.278431
0.325490 0.325490 0.325490
0.368627 0.368627 0.368627
0.419608 0.419608 0.419608
0.486275 0.486275 0.486275
0.584314 0.584314 0.584314
0.262745 0.262745 0.262745
0.258824 0.258824 0.258824
0.282353 0.282353 0.282353
0.356863 0.356863 0.356863
0.439216 0.439216 0.439216
0.478431 0.478431 0.478431
0.521569 0.521569 0.521569
0.580392 0.580392 0.580392
0.670588 0.670588 0.670588
0.384314 0.384314 0.384314
0.380392 0.380392 0.380392
0.364706 0.364706 0.364706
0.419608 0.419608 0.419608
0.490196 0.490196 0.494118
0.584314 0.584314 0.584314
0.627451 0.627451 0.627451
0.686275 0.686275 0.686275
0.760784 0.760784 0.760784
0.494118 0.494118 0.494118
0.498039 0.498039 0.498039
0.478431 0.478431 0.478431
0.498039 0.498039 0.498039
0.556863 0.556863 0.556863
0.631373 0.631373 0.631373
0.725490 0.725490 0.725490
0.776471 0.776471 0.776471
0.843137 0.843137 0.843137
0.627451 0.627451 0.627451
0.627451 0.627451 0.627451
0.615686 0.615686 0.615686
0.596078 0.596078 0.600000
0.650980 0.650980 0.650980
0.709804 0.709804 0.709804
0.768627 0.768627 0.768627
0.850980 0.850980 0.850980
0.909804 0.909804 0.909804
0.784314 0.784314 0.784314
0.784314 0.784314 0.784314
0.772549 0.772549 0.772549
0.760784 0.760784 0.760784
0.772549 0.772549 0.772549
0.819608 0.819608 0.819608
0.866667 0.866667 0.870588
0.913725 0.913725 0.913725
0.956863 0.956863 0.960784
0.929412 0.929412 0.929412
0.929412 0.929412 0.929412
0.929412 0.929412 0.929412
0.921569 0.921569 0.921569
0.913725 0.913725 0.913725
0.937255 0.937255 0.937255
0.960784 0.960784 0.964706
0.980392 0.980392 0.984314
0.992157 0.992157 0.996078
0.023529 0.023529 0.023529
0.047059 0.047059 0.047059
0.101961 0.101961 0.101961
0.121569 0.121569 0.121569
0.180392 0.180392 0.180392
0.250980 0.250980 0.250980
0.321569 0.321569 0.321569
0.400000 0.400000 0.400000
0.501961 0.501961 0.501961
0.078431 0.078431 0.078431
0.090196 0.090196 0.090196
0.121569 0.121569 0.121569
0.168627 0.168627 0.168627
0.227451 0.227451 0.227451
0.290196 0.290196 0.290196
0.352941 0.352941 0.352941
0.427451 0.427451 0.427451
0.525490 0.525490 0.525490
0.200000 0.200000 0.200000
0.180392 0.180392 0.180392
0.215686 0.215686 0.215686
0.282353 0.282353 0.282353
0.329412 0.329412 0.329412
0.368627 0.368627 0.368627
0.419608 0.419608 0.419608
0.490196 0.490196 0.490196
0.580392 0.580392 0.584314
0.298039 0.298039 0.298039
0.298039 0.298039 0.298039
0.294118 0.294118 0.294118
0.364706 0.364706 0.364706
0.439216 0.439216 0.439216
0.478431 0.478431 0.478431
0.521569 0.521569 0.521569
0.580392 0.580392 0.584314
0.666667 0.666667 0.666667
0.411765 0.411765 0.411765
0.407843 0.407843 0.407843
0.384314 0.384314 0.384314
0.431373 0.431373 0.431373
0.498039 0.498039 0.498039
0.580392 0.580392 0.580392
0.627451 0.627451 0.627451
0.686275 0.686275 0.686275
0.760784 0.760784 0.760784
0.513725 0.513725 0.513725
0.517647 0.517647 0.517647
0.501961 0.501961 0.501961
0.505882 0.505882 0.505882
0.564706 0.564706 0.564706
0.635294 0.635294 0.635294
0.725490 0.725490 0.725490
0.776471 0.776471 0.776471
0.843137 0.843137 0.843137
0.643137 0.643137 0.643137
0.647059 0.647059 0.647059
0.631373 0.631373 0.631373
0.611765 0.611765 0.611765
0.654902 0.654902 0.654902
0.709804 0.709804 0.709804
0.772549 0.772549 0.772549
0.854902 0.854902 0.854902
0.909804 0.909804 0.909804
0.792157 0.792157 0.792157
0.792157 0.792157 0.792157
0.784314 0.784314 0.784314
0.772549 0.772549 0.772549
0.776471 0.776471 0.776471
0.819608 0.819608 0.819608
0.870588 0.870588 0.870588
0.913725 0.913725 0.913725
0.956863 0.956863 0.956863
0.933333 0.933333 0.933333
0.933333 0.933333 0.933333
0.929412 0.929412 0.929412
0.925490 0.925490 0.925490
0.917647 0.917647 0.917647
0.937255 0.937255 0.941176
0.960784 0.960784 0.960784
0.980392 0.980392 0.980392
0.992157 0.992157 0.996078
0.074510 0.074510 0.074510
0.098039 0.098039 0.098039
0.156863 0.156863 0.156863
0.247059 0.247059 0.247059
0.286275 0.286275 0.286275
0.305882 0.305882 0.305882
0.333333 0.333333 0.333333
0.411765 0.411765 0.411765
0.501961 0.501961 0.501961
0.109804 0.109804 0.109804
0.145098 0.145098 0.145098
0.188235 0.188235 0.188235
0.266667 0.266667 0.266667
0.286275 0.286275 0.286275
0.305882 0.305882 0.305882
0.360784 0.360784 0.360784
0.435294 0.435294 0.435294
0.529412 0.529412 0.529412
0.219608 0.219608 0.219608
0.227451 0.227451 0.227451
0.247059 0.247059 0.247059
0.286275 0.286275 0.286275
0.329412 0.329412 0.329412
0.372549 0.372549 0.372549
0.427451 0.427451 0.427451
0.490196 0.490196 0.490196
0.580392 0.580392 0.580392
0.364706 0.364706 0.364706
0.364706 0.364706 0.364706
0.345098 0.345098 0.345098
0.388235 0.388235 0.388235
0.443137 0.443137 0.443137
0.478431 0.478431 0.478431
0.521569 0.521569 0.521569
0.584314 0.584314 0.584314
0.666667 0.666667 0.666667
0.466667 0.466667 0.466667
0.462745 0.462745 0.462745
0.443137 0.443137 0.443137
0.447059 0.447059 0.447059
0.509804 0.509804 0.509804
0.584314 0.584314 0.584314
0.631373 0.631373 0.631373
0.686275 0.686275 0.686275
0.752941 0.752941 0.752941
0.556863 0.556863 0.556863
0.560784 0.560784 0.560784
0.545098 0.545098 0.545098
0.521569 0.521569 0.521569
0.576471 0.576471 0.576471
0.643137 0.643137 0.643137
0.725490 0.725490 0.725490
0.780392 0.780392 0.780392
0.847059 0.847059 0.847059
0.674510 0.674510 0.674510
0.674510 0.674510 0.674510
0.662745 0.662745 0.666667
0.647059 0.647059 0.647059
0.662745 0.662745 0.662745
0.717647 0.717647 0.721569
0.776471 0.776471 0.776471
0.858824 0.858824 0.858824
0.909804 0.909804 0.909804
0.811765 0.811765 0.811765
0.811765 0.811765 0.811765
0.803922 0.803922 0.803922
0.792157 0.792157 0.792157
0.780392 0.780392 0.780392
0.827451 0.827451 0.827451
0.874510 0.874510 0.874510
0.913725 0.913725 0.913725
0.960784 0.960784 0.960784
0.937255 0.937255 0.941176
0.941176 0.941176 0.941176
0.933333 0.933333 0.937255
0.933333 0.933333 0.933333
0.925490 0.925490 0.925490
0.941176 0.941176 0.941176
0.964706 0.964706 0.964706
0.984314 0.984314 0.984314
0.996078 0.996078 0.996078
0.152941 0.152941 0.152941
0.180392 0.180392 0.180392
0.231373 0.231373 0.231373
0.290196 0.290196 0.290196
0.364706 0.364706 0.364706
0.447059 0.447059 0.447059
0.458824 0.458824 0.458824
0.486275 0.486275 0.486275
0.529412 0.529412 0.529412
0.200000 0.200000 0.200000
0.219608 0.219608 0.219608
0.262745 0.262745 0.262745
0.309804 0.309804 0.309804
0.388235 0.388235 0.388235
0.447059 0.447059 0.447059
0.458824 0.458824 0.458824
0.490196 0.490196 0.490196
0.533333 0.533333 0.533333
0.231373 0.231373 0.231373
0.254902 0.254902 0.254902
0.309804 0.309804 0.309804
0.360784 0.360784 0.360784
0.427451 0.427451 0.431373
0.443137 0.443137 0.443137
0.462745 0.462745 0.462745
0.490196 0.490196 0.490196
0.576471 0.576471 0.576471
0.372549 0.372549 0.372549
0.384314 0.384314 0.384314
0.396078 0.396078 0.396078
0.415686 0.415686 0.415686
0.443137 0.443137 0.443137
0.474510 0.474510 0.474510
0.521569 0.521569 0.521569
0.576471 0.576471 0.576471
0.658824 0.658824 0.658824
0.525490 0.525490 0.525490
0.529412 0.529412 0.529412
0.517647 0.517647 0.517647
0.498039 0.498039 0.498039
0.533333 0.533333 0.533333
0.588235 0.588235 0.588235
0.635294 0.635294 0.635294
0.686275 0.686275 0.686275
0.752941 0.752941 0.752941
0.619608 0.619608 0.619608
0.623529 0.623529 0.623529
0.611765 0.611765 0.615686
0.592157 0.592157 0.592157
0.600000 0.600000 0.600000
0.654902 0.654902 0.654902
0.733333 0.733333 0.733333
0.780392 0.780392 0.780392
0.850980 0.850980 0.850980
0.721569 0.721569 0.721569
0.721569 0.721569 0.721569
0.713725 0.713725 0.713725
0.698039 0.698039 0.698039
0.678431 0.678431 0.678431
0.729412 0.729412 0.729412
0.788235 0.788235 0.788235
0.862745 0.862745 0.862745
0.913725 0.913725 0.913725
0.839216 0.839216 0.839216
0.839216 0.839216 0.839216
0.835294 0.835294 0.835294
0.823529 0.823529 0.823529
0.807843 0.807843 0.807843
0.831373 0.831373 0.831373
0.878431 0.878431 0.878431
0.921569 0.921569 0.921569
0.964706 0.964706 0.964706
0.949020 0.949020 0.952941
0.949020 0.949020 0.952941
0.949020 0.949020 0.949020
0.945098 0.945098 0.949020
0.937255 0.937255 0.937255
0.941176 0.941176 0.941176
0.964706 0.964706 0.964706
0.980392 0.980392 0.984314
0.992157 0.992157 0.996078
0.254902 0.254902 0.254902
0.274510 0.274510 0.274510
0.313725 0.313725 0.313725
0.368627 0.368627 0.368627
0.419608 0.419608 0.419608
0.474510 0.474510 0.474510
0.588235 0.588235 0.588235
0.631373 0.631373 0.631373
0.674510 0.674510 0.674510
0.286275 0.286275 0.286275
0.301961 0.301961 0.301961
0.337255 0.337255 0.337255
0.388235 0.388235 0.388235
0.435294 0.435294 0.435294
0.490196 0.490196 0.490196
0.603922 0.603922 0.603922
0.631373 0.631373 0.631373
0.678431 0.678431 0.678431
0.333333 0.333333 0.333333
0.352941 0.352941 0.352941
0.380392 0.380392 0.380392
0.423529 0.423529 0.423529
0.466667 0.466667 0.466667
0.521569 0.521569 0.521569
0.607843 0.607843 0.607843
0.631373 0.631373 0.631373
0.674510 0.674510 0.674510
0.380392 0.380392 0.380392
0.396078 0.396078 0.396078
0.407843 0.407843 0.411765
0.466667 0.466667 0.466667
0.509804 0.509804 0.509804
0.572549 0.572549 0.572549
0.600000 0.600000 0.600000
0.619608 0.619608 0.619608
0.658824 0.658824 0.658824
0.517647 0.517647 0.517647
0.521569 0.521569 0.525490
0.529412 0.529412 0.529412
0.545098 0.545098 0.545098
0.560784 0.560784 0.560784
0.588235 0.588235 0.588235
0.623529 0.623529 0.623529
0.670588 0.670588 0.670588
0.733333 0.733333 0.733333
0.674510 0.674510 0.674510
0.682353 0.682353 0.682353
0.674510 0.674510 0.674510
0.666667 0.666667 0.666667
0.643137 0.643137 0.643137
0.678431 0.678431 0.678431
0.737255 0.737255 0.737255
0.784314 0.784314 0.784314
0.839216 0.839216 0.839216
0.768627 0.768627 0.768627
0.772549 0.772549 0.772549
0.772549 0.772549 0.772549
0.756863 0.756863 0.760784
0.737255 0.737255 0.737255
0.745098 0.745098 0.745098
0.800000 0.800000 0.800000
0.866667 0.866667 0.866667
0.917647 0.917647 0.917647
0.874510 0.874510 0.874510
0.878431 0.878431 0.878431
0.870588 0.870588 0.870588
0.862745 0.862745 0.862745
0.850980 0.850980 0.850980
0.835294 0.835294 0.839216
0.882353 0.882353 0.882353
0.925490 0.925490 0.925490
0.968627 0.968627 0.972549
0.964706 0.964706 0.964706
0.964706 0.964706 0.968627
0.964706 0.964706 0.964706
0.960784 0.960784 0.960784
0.952941 0.952941 0.956863
0.945098 0.945098 0.949020
0.964706 0.964706 0.964706
0.984314 0.984314 0.984314
0.992157 0.992157 0.996078
0.356863 0.356863 0.356863
0.372549 0.372549 0.372549
0.400000 0.400000 0.400000
0.447059 0.447059 0.447059
0.498039 0.498039 0.498039
0.541176 0.541176 0.541176
0.584314 0.584314 0.584314
0.701961 0.701961 0.705882
0.807843 0.807843 0.807843
0.380392 0.380392 0.380392
0.396078 0.396078 0.396078
0.423529 0.423529 0.423529
0.462745 0.462745 0.462745
0.513725 0.513725 0.513725
0.556863 0.556863 0.556863
0.600000 0.600000 0.600000
0.713725 0.713725 0.713725
0.807843 0.807843 0.807843
0.427451 0.427451 0.427451
0.435294 0.435294 0.435294
0.458824 0.458824 0.458824
0.490196 0.490196 0.490196
0.537255 0.537255 0.537255
0.580392 0.580392 0.580392
0.627451 0.627451 0.627451
0.737255 0.737255 0.737255
0.803922 0.803922 0.803922
0.435294 0.435294 0.435294
0.458824 0.458824 0.458824
0.498039 0.498039 0.498039
0.529412 0.529412 0.529412
0.572549 0.572549 0.572549
0.615686 0.615686 0.615686
0.666667 0.666667 0.666667
0.760784 0.760784 0.760784
0.803922 0.803922 0.803922
0.529412 0.529412 0.529412
0.533333 0.533333 0.533333
0.545098 0.545098 0.545098
0.556863 0.556863 0.556863
0.615686 0.615686 0.615686
0.654902 0.654902 0.654902
0.717647 0.717647 0.717647
0.749020 0.749020 0.749020
0.776471 0.776471 0.780392
0.650980 0.650980 0.650980
0.662745 0.662745 0.662745
0.666667 0.666667 0.666667
0.674510 0.674510 0.674510
0.686275 0.686275 0.686275
0.701961 0.701961 0.701961
0.733333 0.733333 0.733333
0.768627 0.768627 0.768627
0.823529 0.823529 0.823529
0.819608 0.819608 0.819608
0.819608 0.819608 0.819608
0.819608 0.819608 0.819608
0.811765 0.811765 0.811765
0.803922 0.803922 0.803922
0.784314 0.784314 0.784314
0.819608 0.819608 0.819608
0.870588 0.870588 0.870588
0.917647 0.917647 0.917647
0.905882 0.905882 0.905882
0.909804 0.909804 0.909804
0.905882 0.905882 0.905882
0.905882 0.905882 0.905882
0.898039 0.898039 0.898039
0.878431 0.878431 0.882353
0.890196 0.890196 0.890196
0.929412 0.929412 0.933333
0.972549 0.972549 0.972549
0.980392 0.980392 0.980392
0.976471 0.976471 0.980392
0.980392 0.980392 0.980392
0.976471 0.976471 0.976471
0.972549 0.972549 0.976471
0.968627 0.968627 0.968627
0.964706 0.964706 0.968627
0.984314 0.984314 0.988235
0.996078 0.996078 1.000000
0.478431 0.478431 0.478431
0.486275 0.486275 0.486275
0.509804 0.509804 0.509804
0.545098 0.545098 0.545098
0.592157 0.592157 0.592157
0.647059 0.647059 0.647059
0.682353 0.682353 0.682353
0.709804 0.709804 0.709804
0.831373 0.831373 0.831373
0.490196 0.490196 0.494118
0.505882 0.505882 0.505882
0.525490 0.525490 0.525490
0.560784 0.560784 0.560784
0.603922 0.603922 0.603922
0.658824 0.658824 0.658824
0.690196 0.690196 0.690196
0.713725 0.713725 0.713725
0.835294 0.835294 0.835294
0.525490 0.525490 0.525490
0.533333 0.533333 0.537255
0.552941 0.552941 0.552941
0.584314 0.584314 0.584314
0.627451 0.627451 0.627451
0.674510 0.674510 0.674510
0.709804 0.709804 0.709804
0.737255 0.737255 0.737255
0.850980 0.850980 0.850980
0.552941 0.552941 0.552941
0.572549 0.572549 0.576471
0.592157 0.592157 0.592157
0.615686 0.615686 0.615686
0.654902 0.654902 0.654902
0.698039 0.698039 0.698039
0.729412 0.729412 0.729412
0.764706 0.764706 0.764706
0.870588 0.870588 0.870588
0.549020 0.549020 0.549020
0.564706 0.564706 0.564706
0.596078 0.596078 0.596078
0.647059 0.647059 0.647059
0.686275 0.686275 0.686275
0.725490 0.725490 0.725490
0.756863 0.756863 0.756863
0.803922 0.803922 0.803922
0.894118 0.894118 0.894118
0.674510 0.674510 0.674510
0.682353 0.682353 0.682353
0.690196 0.690196 0.690196
0.694118 0.694118 0.694118
0.701961 0.701961 0.701961
0.756863 0.756863 0.756863
0.796078 0.796078 0.796078
0.850980 0.850980 0.850980
0.890196 0.890196 0.890196
0.792157 0.792157 0.792157
0.800000 0.800000 0.800000
0.800000 0.800000 0.800000
0.803922 0.803922 0.803922
0.811765 0.811765 0.811765
0.823529 0.823529 0.827451
0.843137 0.843137 0.843137
0.866667 0.866667 0.866667
0.905882 0.905882 0.905882
0.937255 0.937255 0.937255
0.937255 0.937255 0.937255
0.937255 0.937255 0.937255
0.937255 0.937255 0.937255
0.937255 0.937255 0.937255
0.929412 0.929412 0.929412
0.917647 0.917647 0.917647
0.941176 0.941176 0.941176
0.972549 0.972549 0.976471
0.988235 0.988235 0.992157
0.988235 0.988235 0.992157
0.988235 0.988235 0.988235
0.988235 0.988235 0.992157
0.988235 0.988235 0.988235
0.988235 0.988235 0.988235
0.980392 0.980392 0.980392
0.988235 0.988235 0.988235
1.000000 1.000000 1.000000
0.631373 0.631373 0.631373
0.635294 0.635294 0.635294
0.654902 0.654902 0.654902
0.678431 0.678431 0.678431
0.713725 0.713725 0.713725
0.756863 0.756863 0.756863
0.800000 0.800000 0.800000
0.823529 0.823529 0.827451
0.850980 0.850980 0.850980
0.635294 0.635294 0.635294
0.647059 0.647059 0.647059
0.662745 0.662745 0.662745
0.686275 0.686275 0.690196
0.725490 0.725490 0.725490
0.760784 0.760784 0.760784
0.803922 0.803922 0.807843
0.827451 0.827451 0.827451
0.850980 0.850980 0.854902
0.658824 0.658824 0.658824
0.666667 0.666667 0.666667
0.682353 0.682353 0.682353
0.705882 0.705882 0.705882
0.737255 0.737255 0.737255
0.776471 0.776471 0.776471
0.815686 0.815686 0.815686
0.839216 0.839216 0.839216
0.858824 0.858824 0.858824
0.682353 0.682353 0.682353
0.690196 0.690196 0.690196
0.705882 0.705882 0.705882
0.729412 0.729412 0.729412
0.756863 0.756863 0.756863
0.792157 0.792157 0.792157
0.827451 0.827451 0.827451
0.850980 0.850980 0.854902
0.870588 0.870588 0.874510
0.686275 0.686275 0.686275
0.698039 0.698039 0.698039
0.717647 0.717647 0.717647
0.749020 0.749020 0.749020
0.776471 0.776471 0.776471
0.807843 0.807843 0.807843
0.843137 0.843137 0.843137
0.870588 0.870588 0.870588
0.894118 0.894118 0.894118
0.709804 0.709804 0.709804
0.717647 0.717647 0.717647
0.717647 0.717647 0.717647
0.733333 0.733333 0.733333
0.788235 0.788235 0.788235
0.827451 0.827451 0.827451
0.862745 0.862745 0.862745
0.890196 0.890196 0.894118
0.929412 0.929412 0.929412
0.827451 0.827451 0.827451
0.831373 0.831373 0.831373
0.835294 0.835294 0.835294
0.835294 0.835294 0.835294
0.839216 0.839216 0.839216
0.843137 0.843137 0.843137
0.890196 0.890196 0.890196
0.921569 0.921569 0.921569
0.960784 0.960784 0.960784
0.921569 0.921569 0.921569
0.921569 0.921569 0.925490
0.921569 0.921569 0.925490
0.925490 0.925490 0.925490
0.929412 0.929412 0.929412
0.937255 0.937255 0.937255
0.945098 0.945098 0.945098
0.956863 0.956863 0.956863
0.972549 0.972549 0.972549
0.996078 0.996078 0.996078
0.996078 0.996078 0.996078
0.996078 0.996078 0.996078
0.996078 0.996078 1.000000
0.996078 0.996078 1.000000
0.996078 0.996078 0.996078
0.996078 0.996078 1.000000
0.992157 0.992157 0.992157
1.000000 1.000000 1.000000
0.811765 0.811765 0.811765
0.815686 0.815686 0.815686
0.823529 0.823529 0.827451
0.843137 0.843137 0.843137
0.862745 0.862745 0.862745
0.890196 0.890196 0.890196
0.913725 0.913725 0.913725
0.937255 0.937255 0.937255
0.949020 0.949020 0.949020
0.811765 0.811765 0.811765
0.819608 0.819608 0.819608
0.831373 0.831373 0.831373
0.847059 0.847059 0.847059
0.862745 0.862745 0.862745
0.890196 0.890196 0.890196
0.913725 0.913725 0.913725
0.937255 0.937255 0.937255
0.952941 0.952941 0.952941
0.827451 0.827451 0.827451
0.831373 0.831373 0.831373
0.839216 0.839216 0.839216
0.854902 0.854902 0.854902
0.874510 0.874510 0.874510
0.894118 0.894118 0.894118
0.921569 0.921569 0.921569
0.945098 0.945098 0.945098
0.952941 0.952941 0.952941
0.831373 0.831373 0.831373
0.839216 0.839216 0.839216
0.850980 0.850980 0.850980
0.862745 0.862745 0.862745
0.882353 0.882353 0.882353
0.901961 0.901961 0.905882
0.925490 0.925490 0.925490
0.945098 0.945098 0.949020
0.960784 0.960784 0.960784
0.843137 0.843137 0.843137
0.850980 0.850980 0.850980
0.858824 0.858824 0.858824
0.870588 0.870588 0.870588
0.890196 0.890196 0.890196
0.913725 0.913725 0.913725
0.933333 0.933333 0.933333
0.952941 0.952941 0.956863
0.968627 0.968627 0.968627
0.815686 0.815686 0.815686
0.827451 0.827451 0.827451
0.843137 0.843137 0.843137
0.866667 0.866667 0.870588
0.894118 0.894118 0.894118
0.917647 0.917647 0.917647
0.941176 0.941176 0.941176
0.964706 0.964706 0.964706
0.976471 0.976471 0.980392
0.886275 0.886275 0.886275
0.890196 0.890196 0.890196
0.882353 0.882353 0.882353
0.882353 0.882353 0.882353
0.882353 0.882353 0.882353
0.921569 0.921569 0.921569
0.952941 0.952941 0.952941
0.976471 0.976471 0.976471
0.984314 0.984314 0.988235
0.964706 0.964706 0.968627
0.964706 0.964706 0.964706
0.964706 0.964706 0.964706
0.964706 0.964706 0.964706
0.964706 0.964706 0.964706
0.964706 0.964706 0.964706
0.964706 0.964706 0.964706
0.984314 0.984314 0.988235
0.996078 0.996078 1.000000
0.996078 0.996078 0.996078
0.996078 0.996078 0.996078
0.996078 0.996078 1.000000
0.996078 0.996078 0.996078
0.996078 0.996078 1.000000
0.996078 0.996078 1.000000
0.996078 0.996078 1.000000
1.000000 1.000000 1.000000
1.000000 1.000000 1.000000
