luts/PictureFX Yellow Orange IR Mod.cube
#Generated with IWLTBAP LUT Generator
#Website: http://luts.iwltbap.com
TITLE "PictureFX Yellow Orange IR Mod"
#LUT size
LUT_3D_SIZE 5
#LUT data points
0.000000 0.000000 0.000000
0.039216 0.039216 0.023529
0.090196 0.101961 0.070588
0.141176 0.164706 0.121569
0.192157 0.223529 0.176471
0.596078 0.329412 0.164706
0.521569 0.262745 0.152941
0.168627 0.184314 0.117647
0.200000 0.223529 0.160784
0.235294 0.266667 0.207843
0.890196 0.603922 0.333333
0.874510 0.600000 0.325490
0.815686 0.552941 0.298039
0.654902 0.321569 0.262745
0.329412 0.368627 0.274510
1.000000 0.780392 0.407843
1.000000 0.784314 0.407843
1.000000 0.803922 0.407843
1.000000 0.827451 0.407843
0.886275 0.470588 0.305882
1.000000 0.807843 0.552941
1.000000 0.811765 0.552941
1.000000 0.827451 0.552941
1.000000 0.827451 0.529412
1.000000 0.764706 0.466667
0.000000 0.133333 0.254902
0.000000 0.152941 0.262745
0.000000 0.117647 0.282353
0.000000 0.168627 0.305882
0.000000 0.231373 0.333333
0.431373 0.352941 0.333333
0.301961 0.301961 0.325490
0.000000 0.188235 0.309804
0.000000 0.227451 0.329412
0.015686 0.270588 0.352941
0.882353 0.615686 0.486275
0.866667 0.611765 0.478431
0.803922 0.560784 0.454902
0.596078 0.321569 0.415686
0.231373 0.368627 0.407843
1.000000 0.780392 0.549020
1.000000 0.788235 0.549020
1.000000 0.803922 0.549020
1.000000 0.827451 0.552941
0.874510 0.458824 0.458824
1.000000 0.815686 0.615686
1.000000 0.819608 0.611765
1.000000 0.831373 0.611765
1.000000 0.839216 0.596078
1.000000 0.780392 0.545098
0.000000 0.286275 0.513725
0.000000 0.301961 0.513725
0.000000 0.321569 0.525490
0.000000 0.313725 0.541176
0.000000 0.247059 0.560784
0.133333 0.376471 0.537255
0.000000 0.321569 0.533333
0.000000 0.282353 0.549020
0.000000 0.243137 0.560784
0.000000 0.286275 0.576471
0.835294 0.662745 0.658824
0.796078 0.666667 0.650980
0.619608 0.596078 0.639216
0.125490 0.345098 0.600000
0.000000 0.388235 0.611765
1.000000 0.788235 0.701961
1.000000 0.792157 0.701961
1.000000 0.807843 0.701961
0.988235 0.835294 0.705882
0.847059 0.462745 0.686275
1.000000 0.839216 0.729412
1.000000 0.843137 0.729412
1.000000 0.854902 0.729412
1.000000 0.870588 0.725490
1.000000 0.827451 0.694118
0.000000 0.443137 0.768627
0.000000 0.450980 0.768627
0.000000 0.474510 0.776471
0.000000 0.494118 0.784314
0.000000 0.494118 0.800000
0.000000 0.486275 0.780392
0.000000 0.490196 0.784314
0.000000 0.494118 0.788235
0.000000 0.494118 0.800000
0.000000 0.462745 0.815686
0.376471 0.678431 0.843137
0.352941 0.686275 0.850980
0.262745 0.619608 0.839216
0.000000 0.364706 0.831373
0.000000 0.407843 0.843137
1.000000 0.796078 0.850980
1.000000 0.800000 0.850980
1.000000 0.815686 0.850980
0.941176 0.843137 0.854902
0.368627 0.498039 0.854902
1.000000 0.890196 0.862745
1.000000 0.890196 0.862745
1.000000 0.898039 0.862745
1.000000 0.905882 0.862745
1.000000 0.901961 0.862745
0.000000 0.541176 1.000000
0.000000 0.552941 1.000000
0.000000 0.580392 1.000000
0.000000 0.615686 1.000000
0.000000 0.631373 1.000000
0.000000 0.607843 1.000000
0.000000 0.615686 1.000000
0.000000 0.623529 1.000000
0.000000 0.631373 1.000000
0.000000 0.635294 1.000000
0.231373 0.682353 1.000000
0.184314 0.666667 1.000000
0.000000 0.635294 1.000000
0.000000 0.619608 1.000000
0.000000 0.580392 1.000000
0.592157 0.807843 0.988235
0.584314 0.811765 0.988235
0.545098 0.827451 1.000000
0.450980 0.807843 1.000000
0.211765 0.509804 1.000000
0.905882 0.925490 0.980392
0.901961 0.925490 0.980392
0.890196 0.929412 0.984314
0.870588 0.925490 0.992157
0.862745 0.925490 1.000000
