luts/PictureFX Acros 100 II + Red Filter (Picture comparison is between normal Acros and Acros + Filter).cube
#Generated with IWLTBAP LUT Generator
#Website: http://luts.iwltbap.com
TITLE "PictureFX-Acros-100-II-RedFilter"
#LUT size
LUT_3D_SIZE 5
#LUT data points
0.000000 0.000000 0.000000
0.137255 0.137255 0.137255
0.490196 0.490196 0.490196
0.733333 0.733333 0.733333
0.890196 0.890196 0.890196
0.137255 0.137255 0.137255
0.262745 0.262745 0.262745
0.529412 0.529412 0.529412
0.749020 0.749020 0.749020
0.898039 0.898039 0.898039
0.376471 0.376471 0.376471
0.450980 0.450980 0.450980
0.623529 0.623529 0.623529
0.792157 0.792157 0.792157
0.921569 0.921569 0.921569
0.560784 0.560784 0.560784
0.596078 0.596078 0.596078
0.698039 0.698039 0.698039
0.839216 0.839216 0.839216
0.956863 0.956863 0.956863
0.701961 0.701961 0.701961
0.721569 0.721569 0.721569
0.776471 0.776471 0.776471
0.866667 0.866667 0.866667
0.980392 0.980392 0.980392
0.078431 0.078431 0.078431
0.215686 0.215686 0.215686
0.505882 0.505882 0.505882
0.737255 0.737255 0.737255
0.894118 0.894118 0.894118
0.121569 0.121569 0.121569
0.290196 0.290196 0.290196
0.545098 0.545098 0.545098
0.752941 0.752941 0.752941
0.898039 0.898039 0.901961
0.400000 0.400000 0.400000
0.474510 0.474510 0.474510
0.635294 0.635294 0.635294
0.796078 0.796078 0.796078
0.921569 0.921569 0.921569
0.592157 0.592157 0.592157
0.623529 0.623529 0.623529
0.713725 0.713725 0.713725
0.847059 0.847059 0.847059
0.956863 0.956863 0.956863
0.729412 0.729412 0.729412
0.749020 0.749020 0.749020
0.800000 0.800000 0.800000
0.882353 0.882353 0.882353
0.988235 0.988235 0.988235
0.243137 0.243137 0.243137
0.341176 0.341176 0.341176
0.549020 0.549020 0.549020
0.756863 0.756863 0.756863
0.901961 0.901961 0.901961
0.270588 0.270588 0.270588
0.376471 0.376471 0.376471
0.584314 0.584314 0.584314
0.772549 0.772549 0.772549
0.909804 0.909804 0.909804
0.466667 0.466667 0.466667
0.529412 0.529412 0.529412
0.670588 0.670588 0.670588
0.811765 0.811765 0.811765
0.929412 0.929412 0.933333
0.662745 0.662745 0.662745
0.694118 0.694118 0.694118
0.764706 0.764706 0.764706
0.866667 0.866667 0.866667
0.964706 0.964706 0.964706
0.792157 0.792157 0.796078
0.807843 0.807843 0.807843
0.847059 0.847059 0.847059
0.913725 0.913725 0.913725
1.000000 1.000000 1.000000
0.345098 0.345098 0.345098
0.403922 0.403922 0.403922
0.556863 0.556863 0.556863
0.756863 0.756863 0.756863
0.917647 0.917647 0.917647
0.403922 0.403922 0.403922
0.462745 0.462745 0.462745
0.600000 0.600000 0.600000
0.780392 0.780392 0.780392
0.925490 0.925490 0.925490
0.560784 0.560784 0.560784
0.611765 0.611765 0.611765
0.709804 0.709804 0.709804
0.831373 0.831373 0.831373
0.945098 0.945098 0.945098
0.709804 0.709804 0.709804
0.737255 0.737255 0.737255
0.803922 0.803922 0.803922
0.890196 0.890196 0.894118
0.976471 0.976471 0.976471
0.835294 0.835294 0.835294
0.850980 0.850980 0.850980
0.890196 0.890196 0.890196
0.949020 0.949020 0.949020
1.000000 1.000000 1.000000
0.419608 0.419608 0.419608
0.462745 0.462745 0.462745
0.580392 0.580392 0.580392
0.737255 0.737255 0.737255
0.898039 0.898039 0.898039
0.498039 0.498039 0.498039
0.533333 0.533333 0.533333
0.631373 0.631373 0.631373
0.764706 0.764706 0.764706
0.913725 0.913725 0.913725
0.666667 0.666667 0.666667
0.690196 0.690196 0.690196
0.749020 0.749020 0.749020
0.839216 0.839216 0.839216
0.949020 0.949020 0.949020
0.768627 0.768627 0.768627
0.792157 0.792157 0.792157
0.843137 0.843137 0.843137
0.913725 0.913725 0.913725
0.992157 0.992157 0.992157
0.870588 0.870588 0.870588
0.882353 0.882353 0.882353
0.917647 0.917647 0.917647
0.972549 0.972549 0.972549
1.000000 1.000000 1.000000
