luts/PictureFX Creative - Kodak Wratten 82A.cube
#Generated with IWLTBAP LUT Generator
#Website: http://luts.iwltbap.com
TITLE "PictureFX Creative - Kodak Wratten 82A"
#LUT size
LUT_3D_SIZE 9
#LUT data points
0.000000 0.000000 0.000000
0.098039 0.000000 0.000000
0.203922 0.000000 0.000000
0.313725 0.000000 0.000000
0.431373 0.000000 0.000000
0.560784 0.000000 0.000000
0.701961 0.000000 0.000000
0.847059 0.000000 0.000000
1.000000 0.000000 0.000000
0.000000 0.121569 0.000000
0.098039 0.121569 0.000000
0.203922 0.121569 0.000000
0.313725 0.121569 0.000000
0.431373 0.121569 0.000000
0.560784 0.121569 0.000000
0.701961 0.121569 0.000000
0.847059 0.121569 0.000000
1.000000 0.121569 0.000000
0.000000 0.247059 0.000000
0.098039 0.247059 0.000000
0.203922 0.247059 0.000000
0.313725 0.247059 0.000000
0.431373 0.247059 0.000000
0.560784 0.247059 0.000000
0.701961 0.247059 0.000000
0.847059 0.247059 0.000000
1.000000 0.247059 0.000000
0.000000 0.372549 0.000000
0.098039 0.372549 0.000000
0.203922 0.372549 0.000000
0.313725 0.372549 0.000000
0.431373 0.372549 0.000000
0.560784 0.372549 0.000000
0.701961 0.372549 0.000000
0.847059 0.372549 0.000000
1.000000 0.372549 0.000000
0.000000 0.498039 0.000000
0.098039 0.498039 0.000000
0.203922 0.498039 0.000000
0.313725 0.498039 0.000000
0.431373 0.498039 0.000000
0.560784 0.498039 0.000000
0.701961 0.498039 0.000000
0.847059 0.498039 0.000000
1.000000 0.498039 0.000000
0.000000 0.623529 0.000000
0.098039 0.623529 0.000000
0.203922 0.623529 0.000000
0.313725 0.623529 0.000000
0.431373 0.623529 0.000000
0.560784 0.623529 0.000000
0.701961 0.623529 0.000000
0.847059 0.623529 0.000000
1.000000 0.623529 0.000000
0.000000 0.749020 0.000000
0.098039 0.749020 0.000000
0.203922 0.749020 0.000000
0.313725 0.749020 0.000000
0.431373 0.749020 0.000000
0.560784 0.749020 0.000000
0.701961 0.749020 0.000000
0.847059 0.749020 0.000000
1.000000 0.749020 0.000000
0.000000 0.874510 0.000000
0.098039 0.874510 0.000000
0.203922 0.874510 0.000000
0.313725 0.874510 0.000000
0.431373 0.874510 0.000000
0.560784 0.874510 0.000000
0.701961 0.874510 0.000000
0.847059 0.874510 0.000000
1.000000 0.874510 0.000000
0.000000 1.000000 0.000000
0.098039 1.000000 0.000000
0.203922 1.000000 0.000000
0.313725 1.000000 0.000000
0.431373 1.000000 0.000000
0.560784 1.000000 0.000000
0.701961 1.000000 0.000000
0.847059 1.000000 0.000000
1.000000 1.000000 0.000000
0.000000 0.000000 0.149020
0.098039 0.000000 0.149020
0.203922 0.000000 0.149020
0.313725 0.000000 0.149020
0.431373 0.000000 0.149020
0.560784 0.000000 0.149020
0.701961 0.000000 0.149020
0.847059 0.000000 0.149020
1.000000 0.000000 0.149020
0.000000 0.121569 0.149020
0.098039 0.121569 0.149020
0.203922 0.121569 0.149020
0.313725 0.121569 0.149020
0.431373 0.121569 0.149020
0.560784 0.121569 0.149020
0.701961 0.121569 0.149020
0.847059 0.121569 0.149020
1.000000 0.121569 0.149020
0.000000 0.247059 0.149020
0.098039 0.247059 0.149020
0.203922 0.247059 0.149020
0.313725 0.247059 0.149020
0.431373 0.247059 0.149020
0.560784 0.247059 0.149020
0.701961 0.247059 0.149020
0.847059 0.247059 0.149020
1.000000 0.247059 0.149020
0.000000 0.372549 0.149020
0.098039 0.372549 0.149020
0.203922 0.372549 0.149020
0.313725 0.372549 0.149020
0.431373 0.372549 0.149020
0.560784 0.372549 0.149020
0.701961 0.372549 0.149020
0.847059 0.372549 0.149020
1.000000 0.372549 0.149020
0.000000 0.498039 0.149020
0.098039 0.498039 0.149020
0.203922 0.498039 0.149020
0.313725 0.498039 0.149020
0.431373 0.498039 0.149020
0.560784 0.498039 0.149020
0.701961 0.498039 0.149020
0.847059 0.498039 0.149020
1.000000 0.498039 0.149020
0.000000 0.623529 0.149020
0.098039 0.623529 0.149020
0.203922 0.623529 0.149020
0.313725 0.623529 0.149020
0.431373 0.623529 0.149020
0.560784 0.623529 0.149020
0.701961 0.623529 0.149020
0.847059 0.623529 0.149020
1.000000 0.623529 0.149020
0.000000 0.749020 0.149020
0.098039 0.749020 0.149020
0.203922 0.749020 0.149020
0.313725 0.749020 0.149020
0.431373 0.749020 0.149020
0.560784 0.749020 0.149020
0.701961 0.749020 0.149020
0.847059 0.749020 0.149020
1.000000 0.749020 0.149020
0.000000 0.874510 0.149020
0.098039 0.874510 0.149020
0.203922 0.874510 0.149020
0.313725 0.874510 0.149020
0.431373 0.874510 0.149020
0.560784 0.874510 0.149020
0.701961 0.874510 0.149020
0.847059 0.874510 0.149020
1.000000 0.874510 0.149020
0.000000 1.000000 0.149020
0.098039 1.000000 0.149020
0.203922 1.000000 0.149020
0.313725 1.000000 0.149020
0.431373 1.000000 0.149020
0.560784 1.000000 0.149020
0.701961 1.000000 0.149020
0.847059 1.000000 0.149020
1.000000 1.000000 0.149020
0.000000 0.000000 0.301961
0.098039 0.000000 0.301961
0.203922 0.000000 0.301961
0.313725 0.000000 0.301961
0.431373 0.000000 0.301961
0.560784 0.000000 0.301961
0.701961 0.000000 0.301961
0.847059 0.000000 0.301961
1.000000 0.000000 0.301961
0.000000 0.121569 0.301961
0.098039 0.121569 0.301961
0.203922 0.121569 0.301961
0.313725 0.121569 0.301961
0.431373 0.121569 0.301961
0.560784 0.121569 0.301961
0.701961 0.121569 0.301961
0.847059 0.121569 0.301961
1.000000 0.121569 0.301961
0.000000 0.247059 0.301961
0.098039 0.247059 0.301961
0.203922 0.247059 0.301961
0.313725 0.247059 0.301961
0.431373 0.247059 0.301961
0.560784 0.247059 0.301961
0.701961 0.247059 0.301961
0.847059 0.247059 0.301961
1.000000 0.247059 0.301961
0.000000 0.372549 0.301961
0.098039 0.372549 0.301961
0.203922 0.372549 0.301961
0.313725 0.372549 0.301961
0.431373 0.372549 0.301961
0.560784 0.372549 0.301961
0.701961 0.372549 0.301961
0.847059 0.372549 0.301961
1.000000 0.372549 0.301961
0.000000 0.498039 0.301961
0.098039 0.498039 0.301961
0.203922 0.498039 0.301961
0.313725 0.498039 0.301961
0.431373 0.498039 0.301961
0.560784 0.498039 0.301961
0.701961 0.498039 0.301961
0.847059 0.498039 0.301961
1.000000 0.498039 0.301961
0.000000 0.623529 0.301961
0.098039 0.623529 0.301961
0.203922 0.623529 0.301961
0.313725 0.623529 0.301961
0.431373 0.623529 0.301961
0.560784 0.623529 0.301961
0.701961 0.623529 0.301961
0.847059 0.623529 0.301961
1.000000 0.623529 0.301961
0.000000 0.749020 0.301961
0.098039 0.749020 0.301961
0.203922 0.749020 0.301961
0.313725 0.749020 0.301961
0.431373 0.749020 0.301961
0.560784 0.749020 0.301961
0.701961 0.749020 0.301961
0.847059 0.749020 0.301961
1.000000 0.749020 0.301961
0.000000 0.874510 0.301961
0.098039 0.874510 0.301961
0.203922 0.874510 0.301961
0.313725 0.874510 0.301961
0.431373 0.874510 0.301961
0.560784 0.874510 0.301961
0.701961 0.874510 0.301961
0.847059 0.874510 0.301961
1.000000 0.874510 0.301961
0.000000 1.000000 0.301961
0.098039 1.000000 0.301961
0.203922 1.000000 0.301961
0.313725 1.000000 0.301961
0.431373 1.000000 0.301961
0.560784 1.000000 0.301961
0.701961 1.000000 0.301961
0.847059 1.000000 0.301961
1.000000 1.000000 0.301961
0.000000 0.000000 0.443137
0.098039 0.000000 0.443137
0.203922 0.000000 0.443137
0.313725 0.000000 0.443137
0.431373 0.000000 0.443137
0.560784 0.000000 0.443137
0.701961 0.000000 0.443137
0.847059 0.000000 0.443137
1.000000 0.000000 0.443137
0.000000 0.121569 0.443137
0.098039 0.121569 0.443137
0.203922 0.121569 0.443137
0.313725 0.121569 0.443137
0.431373 0.121569 0.443137
0.560784 0.121569 0.443137
0.701961 0.121569 0.443137
0.847059 0.121569 0.443137
1.000000 0.121569 0.443137
0.000000 0.247059 0.443137
0.098039 0.247059 0.443137
0.203922 0.247059 0.443137
0.313725 0.247059 0.443137
0.431373 0.247059 0.443137
0.560784 0.247059 0.443137
0.701961 0.247059 0.443137
0.847059 0.247059 0.443137
1.000000 0.247059 0.443137
0.000000 0.372549 0.443137
0.098039 0.372549 0.443137
0.203922 0.372549 0.443137
0.313725 0.372549 0.443137
0.431373 0.372549 0.443137
0.560784 0.372549 0.443137
0.701961 0.372549 0.443137
0.847059 0.372549 0.443137
1.000000 0.372549 0.443137
0.000000 0.498039 0.443137
0.098039 0.498039 0.443137
0.203922 0.498039 0.443137
0.313725 0.498039 0.443137
0.431373 0.498039 0.443137
0.560784 0.498039 0.443137
0.701961 0.498039 0.443137
0.847059 0.498039 0.443137
1.000000 0.498039 0.443137
0.000000 0.623529 0.443137
0.098039 0.623529 0.443137
0.203922 0.623529 0.443137
0.313725 0.623529 0.443137
0.431373 0.623529 0.443137
0.560784 0.623529 0.443137
0.701961 0.623529 0.443137
0.847059 0.623529 0.443137
1.000000 0.623529 0.443137
0.000000 0.749020 0.443137
0.098039 0.749020 0.443137
0.203922 0.749020 0.443137
0.313725 0.749020 0.443137
0.431373 0.749020 0.443137
0.560784 0.749020 0.443137
0.701961 0.749020 0.443137
0.847059 0.749020 0.443137
1.000000 0.749020 0.443137
0.000000 0.874510 0.443137
0.098039 0.874510 0.443137
0.203922 0.874510 0.443137
0.313725 0.874510 0.443137
0.431373 0.874510 0.443137
0.560784 0.874510 0.443137
0.701961 0.874510 0.443137
0.847059 0.874510 0.443137
1.000000 0.874510 0.443137
0.000000 1.000000 0.443137
0.098039 1.000000 0.443137
0.203922 1.000000 0.443137
0.313725 1.000000 0.443137
0.431373 1.000000 0.443137
0.560784 1.000000 0.443137
0.701961 1.000000 0.443137
0.847059 1.000000 0.443137
1.000000 1.000000 0.443137
0.000000 0.000000 0.572549
0.098039 0.000000 0.572549
0.203922 0.000000 0.572549
0.313725 0.000000 0.572549
0.431373 0.000000 0.572549
0.560784 0.000000 0.572549
0.701961 0.000000 0.572549
0.847059 0.000000 0.572549
1.000000 0.000000 0.572549
0.000000 0.121569 0.572549
0.098039 0.121569 0.572549
0.203922 0.121569 0.572549
0.313725 0.121569 0.572549
0.431373 0.121569 0.572549
0.560784 0.121569 0.572549
0.701961 0.121569 0.572549
0.847059 0.121569 0.572549
1.000000 0.121569 0.572549
0.000000 0.247059 0.572549
0.098039 0.247059 0.572549
0.203922 0.247059 0.572549
0.313725 0.247059 0.572549
0.431373 0.247059 0.572549
0.560784 0.247059 0.572549
0.701961 0.247059 0.572549
0.847059 0.247059 0.572549
1.000000 0.247059 0.572549
0.000000 0.372549 0.572549
0.098039 0.372549 0.572549
0.203922 0.372549 0.572549
0.313725 0.372549 0.572549
0.431373 0.372549 0.572549
0.560784 0.372549 0.572549
0.701961 0.372549 0.572549
0.847059 0.372549 0.572549
1.000000 0.372549 0.572549
0.000000 0.498039 0.572549
0.098039 0.498039 0.572549
0.203922 0.498039 0.572549
0.313725 0.498039 0.572549
0.431373 0.498039 0.572549
0.560784 0.498039 0.572549
0.701961 0.498039 0.572549
0.847059 0.498039 0.572549
1.000000 0.498039 0.572549
0.000000 0.623529 0.572549
0.098039 0.623529 0.572549
0.203922 0.623529 0.572549
0.313725 0.623529 0.572549
0.431373 0.623529 0.572549
0.560784 0.623529 0.572549
0.701961 0.623529 0.572549
0.847059 0.623529 0.572549
1.000000 0.623529 0.572549
0.000000 0.749020 0.572549
0.098039 0.749020 0.572549
0.203922 0.749020 0.572549
0.313725 0.749020 0.572549
0.431373 0.749020 0.572549
0.560784 0.749020 0.572549
0.701961 0.749020 0.572549
0.847059 0.749020 0.572549
1.000000 0.749020 0.572549
0.000000 0.874510 0.572549
0.098039 0.874510 0.572549
0.203922 0.874510 0.572549
0.313725 0.874510 0.572549
0.431373 0.874510 0.572549
0.560784 0.874510 0.572549
0.701961 0.874510 0.572549
0.847059 0.874510 0.572549
1.000000 0.874510 0.572549
0.000000 1.000000 0.572549
0.098039 1.000000 0.572549
0.203922 1.000000 0.572549
0.313725 1.000000 0.572549
0.431373 1.000000 0.572549
0.560784 1.000000 0.572549
0.701961 1.000000 0.572549
0.847059 1.000000 0.572549
1.000000 1.000000 0.572549
0.000000 0.000000 0.690196
0.098039 0.000000 0.690196
0.203922 0.000000 0.690196
0.313725 0.000000 0.690196
0.431373 0.000000 0.690196
0.560784 0.000000 0.690196
0.701961 0.000000 0.690196
0.847059 0.000000 0.690196
1.000000 0.000000 0.690196
0.000000 0.121569 0.690196
0.098039 0.121569 0.690196
0.203922 0.121569 0.690196
0.313725 0.121569 0.690196
0.431373 0.121569 0.690196
0.560784 0.121569 0.690196
0.701961 0.121569 0.690196
0.847059 0.121569 0.690196
1.000000 0.121569 0.690196
0.000000 0.247059 0.690196
0.098039 0.247059 0.690196
0.203922 0.247059 0.690196
0.313725 0.247059 0.690196
0.431373 0.247059 0.690196
0.560784 0.247059 0.690196
0.701961 0.247059 0.690196
0.847059 0.247059 0.690196
1.000000 0.247059 0.690196
0.000000 0.372549 0.690196
0.098039 0.372549 0.690196
0.203922 0.372549 0.690196
0.313725 0.372549 0.690196
0.431373 0.372549 0.690196
0.560784 0.372549 0.690196
0.701961 0.372549 0.690196
0.847059 0.372549 0.690196
1.000000 0.372549 0.690196
0.000000 0.498039 0.690196
0.098039 0.498039 0.690196
0.203922 0.498039 0.690196
0.313725 0.498039 0.690196
0.431373 0.498039 0.690196
0.560784 0.498039 0.690196
0.701961 0.498039 0.690196
0.847059 0.498039 0.690196
1.000000 0.498039 0.690196
0.000000 0.623529 0.690196
0.098039 0.623529 0.690196
0.203922 0.623529 0.690196
0.313725 0.623529 0.690196
0.431373 0.623529 0.690196
0.560784 0.623529 0.690196
0.701961 0.623529 0.690196
0.847059 0.623529 0.690196
1.000000 0.623529 0.690196
0.000000 0.749020 0.690196
0.098039 0.749020 0.690196
0.203922 0.749020 0.690196
0.313725 0.749020 0.690196
0.431373 0.749020 0.690196
0.560784 0.749020 0.690196
0.701961 0.749020 0.690196
0.847059 0.749020 0.690196
1.000000 0.749020 0.690196
0.000000 0.874510 0.690196
0.098039 0.874510 0.690196
0.203922 0.874510 0.690196
0.313725 0.874510 0.690196
0.431373 0.874510 0.690196
0.560784 0.874510 0.690196
0.701961 0.874510 0.690196
0.847059 0.874510 0.690196
1.000000 0.874510 0.690196
0.000000 1.000000 0.690196
0.098039 1.000000 0.690196
0.203922 1.000000 0.690196
0.313725 1.000000 0.690196
0.431373 1.000000 0.690196
0.560784 1.000000 0.690196
0.701961 1.000000 0.690196
0.847059 1.000000 0.690196
1.000000 1.000000 0.690196
0.000000 0.000000 0.796078
0.098039 0.000000 0.796078
0.203922 0.000000 0.796078
0.313725 0.000000 0.796078
0.431373 0.000000 0.796078
0.560784 0.000000 0.796078
0.701961 0.000000 0.796078
0.847059 0.000000 0.796078
1.000000 0.000000 0.796078
0.000000 0.121569 0.796078
0.098039 0.121569 0.796078
0.203922 0.121569 0.796078
0.313725 0.121569 0.796078
0.431373 0.121569 0.796078
0.560784 0.121569 0.796078
0.701961 0.121569 0.796078
0.847059 0.121569 0.796078
1.000000 0.121569 0.796078
0.000000 0.247059 0.796078
0.098039 0.247059 0.796078
0.203922 0.247059 0.796078
0.313725 0.247059 0.796078
0.431373 0.247059 0.796078
0.560784 0.247059 0.796078
0.701961 0.247059 0.796078
0.847059 0.247059 0.796078
1.000000 0.247059 0.796078
0.000000 0.372549 0.796078
0.098039 0.372549 0.796078
0.203922 0.372549 0.796078
0.313725 0.372549 0.796078
0.431373 0.372549 0.796078
0.560784 0.372549 0.796078
0.701961 0.372549 0.796078
0.847059 0.372549 0.796078
1.000000 0.372549 0.796078
0.000000 0.498039 0.796078
0.098039 0.498039 0.796078
0.203922 0.498039 0.796078
0.313725 0.498039 0.796078
0.431373 0.498039 0.796078
0.560784 0.498039 0.796078
0.701961 0.498039 0.796078
0.847059 0.498039 0.796078
1.000000 0.498039 0.796078
0.000000 0.623529 0.796078
0.098039 0.623529 0.796078
0.203922 0.623529 0.796078
0.313725 0.623529 0.796078
0.431373 0.623529 0.796078
0.560784 0.623529 0.796078
0.701961 0.623529 0.796078
0.847059 0.623529 0.796078
1.000000 0.623529 0.796078
0.000000 0.749020 0.796078
0.098039 0.749020 0.796078
0.203922 0.749020 0.796078
0.313725 0.749020 0.796078
0.431373 0.749020 0.796078
0.560784 0.749020 0.796078
0.701961 0.749020 0.796078
0.847059 0.749020 0.796078
1.000000 0.749020 0.796078
0.000000 0.874510 0.796078
0.098039 0.874510 0.796078
0.203922 0.874510 0.796078
0.313725 0.874510 0.796078
0.431373 0.874510 0.796078
0.560784 0.874510 0.796078
0.701961 0.874510 0.796078
0.847059 0.874510 0.796078
1.000000 0.874510 0.796078
0.000000 1.000000 0.796078
0.098039 1.000000 0.796078
0.203922 1.000000 0.796078
0.313725 1.000000 0.796078
0.431373 1.000000 0.796078
0.560784 1.000000 0.796078
0.701961 1.000000 0.796078
0.847059 1.000000 0.796078
1.000000 1.000000 0.796078
0.000000 0.000000 0.898039
0.098039 0.000000 0.898039
0.203922 0.000000 0.898039
0.313725 0.000000 0.898039
0.431373 0.000000 0.898039
0.560784 0.000000 0.898039
0.701961 0.000000 0.898039
0.847059 0.000000 0.898039
1.000000 0.000000 0.898039
0.000000 0.121569 0.898039
0.098039 0.121569 0.898039
0.203922 0.121569 0.898039
0.313725 0.121569 0.898039
0.431373 0.121569 0.898039
0.560784 0.121569 0.898039
0.701961 0.121569 0.898039
0.847059 0.121569 0.898039
1.000000 0.121569 0.898039
0.000000 0.247059 0.898039
0.098039 0.247059 0.898039
0.203922 0.247059 0.898039
0.313725 0.247059 0.898039
0.431373 0.247059 0.898039
0.560784 0.247059 0.898039
0.701961 0.247059 0.898039
0.847059 0.247059 0.898039
1.000000 0.247059 0.898039
0.000000 0.372549 0.898039
0.098039 0.372549 0.898039
0.203922 0.372549 0.898039
0.313725 0.372549 0.898039
0.431373 0.372549 0.898039
0.560784 0.372549 0.898039
0.701961 0.372549 0.898039
0.847059 0.372549 0.898039
1.000000 0.372549 0.898039
0.000000 0.498039 0.898039
0.098039 0.498039 0.898039
0.203922 0.498039 0.898039
0.313725 0.498039 0.898039
0.431373 0.498039 0.898039
0.560784 0.498039 0.898039
0.701961 0.498039 0.898039
0.847059 0.498039 0.898039
1.000000 0.498039 0.898039
0.000000 0.623529 0.898039
0.098039 0.623529 0.898039
0.203922 0.623529 0.898039
0.313725 0.623529 0.898039
0.431373 0.623529 0.898039
0.560784 0.623529 0.898039
0.701961 0.623529 0.898039
0.847059 0.623529 0.898039
1.000000 0.623529 0.898039
0.000000 0.749020 0.898039
0.098039 0.749020 0.898039
0.203922 0.749020 0.898039
0.313725 0.749020 0.898039
0.431373 0.749020 0.898039
0.560784 0.749020 0.898039
0.701961 0.749020 0.898039
0.847059 0.749020 0.898039
1.000000 0.749020 0.898039
0.000000 0.874510 0.898039
0.098039 0.874510 0.898039
0.203922 0.874510 0.898039
0.313725 0.874510 0.898039
0.431373 0.874510 0.898039
0.560784 0.874510 0.898039
0.701961 0.874510 0.898039
0.847059 0.874510 0.898039
1.000000 0.874510 0.898039
0.000000 1.000000 0.898039
0.098039 1.000000 0.898039
0.203922 1.000000 0.898039
0.313725 1.000000 0.898039
0.431373 1.000000 0.898039
0.560784 1.000000 0.898039
0.701961 1.000000 0.898039
0.847059 1.000000 0.898039
1.000000 1.000000 0.898039
0.000000 0.000000 1.000000
0.098039 0.000000 1.000000
0.203922 0.000000 1.000000
0.313725 0.000000 1.000000
0.431373 0.000000 1.000000
0.560784 0.000000 1.000000
0.701961 0.000000 1.000000
0.847059 0.000000 1.000000
1.000000 0.000000 1.000000
0.000000 0.121569 1.000000
0.098039 0.121569 1.000000
0.203922 0.121569 1.000000
0.313725 0.121569 1.000000
0.431373 0.121569 1.000000
0.560784 0.121569 1.000000
0.701961 0.121569 1.000000
0.847059 0.121569 1.000000
1.000000 0.121569 1.000000
0.000000 0.247059 1.000000
0.098039 0.247059 1.000000
0.203922 0.247059 1.000000
0.313725 0.247059 1.000000
0.431373 0.247059 1.000000
0.560784 0.247059 1.000000
0.701961 0.247059 1.000000
0.847059 0.247059 1.000000
1.000000 0.247059 1.000000
0.000000 0.372549 1.000000
0.098039 0.372549 1.000000
0.203922 0.372549 1.000000
0.313725 0.372549 1.000000
0.431373 0.372549 1.000000
0.560784 0.372549 1.000000
0.701961 0.372549 1.000000
0.847059 0.372549 1.000000
1.000000 0.372549 1.000000
0.000000 0.498039 1.000000
0.098039 0.498039 1.000000
0.203922 0.498039 1.000000
0.313725 0.498039 1.000000
0.431373 0.498039 1.000000
0.560784 0.498039 1.000000
0.701961 0.498039 1.000000
0.847059 0.498039 1.000000
1.000000 0.498039 1.000000
0.000000 0.623529 1.000000
0.098039 0.623529 1.000000
0.203922 0.623529 1.000000
0.313725 0.623529 1.000000
0.431373 0.623529 1.000000
0.560784 0.623529 1.000000
0.701961 0.623529 1.000000
0.847059 0.623529 1.000000
1.000000 0.623529 1.000000
0.000000 0.749020 1.000000
0.098039 0.749020 1.000000
0.203922 0.749020 1.000000
0.313725 0.749020 1.000000
0.431373 0.749020 1.000000
0.560784 0.749020 1.000000
0.701961 0.749020 1.000000
0.847059 0.749020 1.000000
1.000000 0.749020 1.000000
0.000000 0.874510 1.000000
0.098039 0.874510 1.000000
0.203922 0.874510 1.000000
0.313725 0.874510 1.000000
0.431373 0.874510 1.000000
0.560784 0.874510 1.000000
0.701961 0.874510 1.000000
0.847059 0.874510 1.000000
1.000000 0.874510 1.000000
0.000000 1.000000 1.000000
0.098039 1.000000 1.000000
0.203922 1.000000 1.000000
0.313725 1.000000 1.000000
0.431373 1.000000 1.000000
0.560784 1.000000 1.000000
0.701961 1.000000 1.000000
0.847059 1.000000 1.000000
1.000000 1.000000 1.000000
