luts/PictureFX Ektachrome 1966 E4.cube
#Generated with IWLTBAP LUT Generator
#Website: http://luts.iwltbap.com
TITLE "Neutral-125-Ektachrome"
#LUT size
LUT_3D_SIZE 25
#LUT data points
0.000000 0.000000 0.031373
0.000000 0.000000 0.031373
0.000000 0.000000 0.031373
0.000000 0.000000 0.027451
0.043137 0.000000 0.015686
0.086275 0.003922 0.000000
0.125490 0.007843 0.003922
0.168627 0.011765 0.007843
0.215686 0.019608 0.015686
0.270588 0.027451 0.023529
0.329412 0.039216 0.039216
0.392157 0.050980 0.058824
0.450980 0.062745 0.074510
0.505882 0.074510 0.090196
0.556863 0.086275 0.105882
0.603922 0.094118 0.121569
0.647059 0.105882 0.133333
0.686275 0.113725 0.145098
0.717647 0.117647 0.152941
0.745098 0.125490 0.160784
0.768627 0.129412 0.168627
0.784314 0.133333 0.172549
0.784314 0.133333 0.172549
0.784314 0.133333 0.172549
0.784314 0.133333 0.172549
0.000000 0.003922 0.031373
0.000000 0.007843 0.031373
0.000000 0.011765 0.031373
0.015686 0.015686 0.027451
0.062745 0.011765 0.023529
0.094118 0.003922 0.015686
0.133333 0.007843 0.003922
0.176471 0.011765 0.011765
0.227451 0.039216 0.019608
0.278431 0.039216 0.027451
0.333333 0.039216 0.039216
0.392157 0.050980 0.058824
0.450980 0.062745 0.074510
0.505882 0.074510 0.090196
0.560784 0.086275 0.105882
0.603922 0.094118 0.121569
0.647059 0.105882 0.133333
0.686275 0.113725 0.145098
0.717647 0.117647 0.152941
0.745098 0.125490 0.160784
0.768627 0.129412 0.168627
0.784314 0.133333 0.172549
0.784314 0.133333 0.172549
0.784314 0.133333 0.172549
0.784314 0.133333 0.172549
0.007843 0.035294 0.035294
0.007843 0.039216 0.035294
0.007843 0.043137 0.039216
0.043137 0.047059 0.039216
0.078431 0.050980 0.039216
0.109804 0.050980 0.031373
0.149020 0.050980 0.011765
0.192157 0.054902 0.015686
0.239216 0.070588 0.023529
0.298039 0.062745 0.035294
0.356863 0.047059 0.047059
0.415686 0.054902 0.062745
0.466667 0.066667 0.078431
0.521569 0.078431 0.094118
0.560784 0.086275 0.105882
0.607843 0.098039 0.121569
0.647059 0.105882 0.133333
0.686275 0.113725 0.145098
0.717647 0.117647 0.152941
0.745098 0.125490 0.160784
0.768627 0.129412 0.168627
0.784314 0.133333 0.172549
0.784314 0.133333 0.172549
0.784314 0.133333 0.172549
0.784314 0.133333 0.172549
0.015686 0.062745 0.043137
0.015686 0.066667 0.047059
0.023529 0.070588 0.050980
0.062745 0.074510 0.050980
0.094118 0.078431 0.047059
0.121569 0.078431 0.043137
0.160784 0.082353 0.039216
0.203922 0.086275 0.023529
0.254902 0.090196 0.031373
0.313725 0.086275 0.043137
0.372549 0.078431 0.054902
0.431373 0.066667 0.070588
0.490196 0.070588 0.086275
0.545098 0.082353 0.101961
0.592157 0.094118 0.117647
0.631373 0.101961 0.129412
0.666667 0.109804 0.137255
0.698039 0.113725 0.149020
0.717647 0.117647 0.152941
0.745098 0.125490 0.160784
0.768627 0.129412 0.168627
0.784314 0.133333 0.172549
0.784314 0.133333 0.172549
0.784314 0.133333 0.172549
0.784314 0.133333 0.172549
0.027451 0.090196 0.058824
0.027451 0.094118 0.066667
0.039216 0.098039 0.070588
0.070588 0.105882 0.070588
0.109804 0.109804 0.062745
0.145098 0.109804 0.066667
0.176471 0.113725 0.066667
0.219608 0.117647 0.054902
0.274510 0.117647 0.043137
0.333333 0.113725 0.054902
0.396078 0.113725 0.066667
0.454902 0.105882 0.082353
0.509804 0.101961 0.094118
0.564706 0.098039 0.109804
0.607843 0.098039 0.121569
0.654902 0.105882 0.133333
0.694118 0.113725 0.145098
0.721569 0.121569 0.152941
0.749020 0.125490 0.160784
0.772549 0.129412 0.168627
0.784314 0.133333 0.172549
0.800000 0.137255 0.176471
0.792157 0.133333 0.176471
0.792157 0.133333 0.172549
0.792157 0.133333 0.172549
0.043137 0.125490 0.082353
0.047059 0.129412 0.082353
0.054902 0.133333 0.086275
0.082353 0.141176 0.090196
0.117647 0.145098 0.078431
0.160784 0.149020 0.078431
0.196078 0.149020 0.086275
0.239216 0.152941 0.082353
0.294118 0.152941 0.082353
0.352941 0.152941 0.066667
0.415686 0.152941 0.082353
0.474510 0.149020 0.094118
0.529412 0.145098 0.109804
0.584314 0.145098 0.121569
0.631373 0.141176 0.133333
0.674510 0.137255 0.145098
0.709804 0.133333 0.152941
0.741176 0.125490 0.160784
0.764706 0.129412 0.168627
0.784314 0.133333 0.172549
0.803922 0.137255 0.176471
0.811765 0.137255 0.180392
0.811765 0.137255 0.180392
0.811765 0.137255 0.180392
0.811765 0.137255 0.180392
0.066667 0.164706 0.098039
0.066667 0.164706 0.098039
0.078431 0.172549 0.105882
0.105882 0.180392 0.109804
0.133333 0.192157 0.105882
0.172549 0.196078 0.101961
0.219608 0.200000 0.105882
0.270588 0.200000 0.113725
0.325490 0.203922 0.117647
0.380392 0.203922 0.113725
0.439216 0.203922 0.113725
0.494118 0.200000 0.109804
0.549020 0.196078 0.121569
0.600000 0.196078 0.133333
0.647059 0.192157 0.145098
0.686275 0.192157 0.156863
0.725490 0.188235 0.164706
0.752941 0.184314 0.168627
0.780392 0.180392 0.176471
0.800000 0.176471 0.180392
0.815686 0.172549 0.184314
0.823529 0.164706 0.184314
0.823529 0.164706 0.184314
0.823529 0.164706 0.184314
0.823529 0.164706 0.184314
0.094118 0.211765 0.121569
0.094118 0.211765 0.121569
0.101961 0.219608 0.129412
0.121569 0.231373 0.133333
0.145098 0.243137 0.133333
0.180392 0.254902 0.129412
0.239216 0.258824 0.125490
0.301961 0.262745 0.133333
0.360784 0.262745 0.141176
0.415686 0.262745 0.145098
0.466667 0.262745 0.141176
0.521569 0.258824 0.141176
0.572549 0.254902 0.141176
0.619608 0.254902 0.149020
0.666667 0.250980 0.160784
0.705882 0.247059 0.168627
0.741176 0.247059 0.176471
0.772549 0.243137 0.184314
0.796078 0.239216 0.188235
0.811765 0.239216 0.192157
0.827451 0.235294 0.196078
0.835294 0.235294 0.196078
0.835294 0.231373 0.196078
0.835294 0.235294 0.196078
0.835294 0.235294 0.196078
0.129412 0.266667 0.145098
0.129412 0.266667 0.145098
0.133333 0.274510 0.149020
0.141176 0.290196 0.156863
0.160784 0.301961 0.156863
0.188235 0.313725 0.156863
0.239216 0.325490 0.149020
0.321569 0.329412 0.149020
0.400000 0.329412 0.160784
0.466667 0.333333 0.172549
0.521569 0.329412 0.176471
0.572549 0.329412 0.176471
0.615686 0.321569 0.172549
0.658824 0.317647 0.172549
0.698039 0.317647 0.180392
0.737255 0.313725 0.188235
0.768627 0.309804 0.192157
0.792157 0.305882 0.200000
0.815686 0.305882 0.203922
0.831373 0.301961 0.207843
0.843137 0.301961 0.207843
0.850980 0.301961 0.211765
0.850980 0.301961 0.211765
0.850980 0.301961 0.211765
0.854902 0.305882 0.211765
0.164706 0.329412 0.168627
0.164706 0.329412 0.168627
0.164706 0.329412 0.168627
0.176471 0.345098 0.176471
0.184314 0.356863 0.180392
0.203922 0.372549 0.180392
0.247059 0.384314 0.172549
0.329412 0.396078 0.168627
0.419608 0.403922 0.180392
0.494118 0.403922 0.192157
0.556863 0.403922 0.200000
0.611765 0.400000 0.203922
0.658824 0.396078 0.203922
0.698039 0.388235 0.200000
0.737255 0.388235 0.203922
0.768627 0.380392 0.207843
0.796078 0.380392 0.211765
0.819608 0.376471 0.219608
0.839216 0.376471 0.219608
0.850980 0.372549 0.223529
0.866667 0.372549 0.227451
0.870588 0.372549 0.227451
0.870588 0.376471 0.227451
0.874510 0.376471 0.227451
0.874510 0.380392 0.231373
0.200000 0.388235 0.192157
0.200000 0.388235 0.192157
0.200000 0.392157 0.192157
0.207843 0.403922 0.196078
0.219608 0.419608 0.200000
0.223529 0.431373 0.200000
0.243137 0.439216 0.196078
0.313725 0.458824 0.188235
0.419608 0.470588 0.192157
0.517647 0.474510 0.207843
0.592157 0.474510 0.219608
0.654902 0.470588 0.227451
0.705882 0.466667 0.231373
0.749020 0.462745 0.231373
0.788235 0.458824 0.231373
0.815686 0.454902 0.235294
0.839216 0.450980 0.239216
0.858824 0.450980 0.243137
0.874510 0.447059 0.243137
0.886275 0.447059 0.247059
0.894118 0.447059 0.247059
0.901961 0.447059 0.250980
0.901961 0.450980 0.250980
0.901961 0.450980 0.250980
0.901961 0.454902 0.250980
0.239216 0.450980 0.211765
0.239216 0.450980 0.211765
0.239216 0.450980 0.211765
0.239216 0.450980 0.211765
0.250980 0.470588 0.219608
0.254902 0.482353 0.219608
0.262745 0.494118 0.215686
0.305882 0.513725 0.203922
0.403922 0.529412 0.203922
0.521569 0.541176 0.215686
0.611765 0.541176 0.231373
0.682353 0.537255 0.243137
0.741176 0.537255 0.250980
0.792157 0.533333 0.250980
0.827451 0.529412 0.254902
0.858824 0.525490 0.258824
0.878431 0.521569 0.262745
0.894118 0.521569 0.266667
0.909804 0.521569 0.266667
0.917647 0.521569 0.270588
0.925490 0.521569 0.270588
0.933333 0.521569 0.270588
0.933333 0.521569 0.274510
0.933333 0.525490 0.274510
0.933333 0.525490 0.274510
0.274510 0.513725 0.235294
0.274510 0.513725 0.235294
0.274510 0.513725 0.235294
0.274510 0.513725 0.235294
0.282353 0.525490 0.243137
0.290196 0.541176 0.243137
0.298039 0.552941 0.235294
0.309804 0.568627 0.223529
0.388235 0.584314 0.219608
0.509804 0.600000 0.231373
0.619608 0.600000 0.247059
0.701961 0.600000 0.254902
0.764706 0.596078 0.262745
0.815686 0.592157 0.270588
0.854902 0.592157 0.278431
0.882353 0.588235 0.282353
0.901961 0.588235 0.282353
0.917647 0.584314 0.286275
0.929412 0.584314 0.290196
0.941176 0.584314 0.290196
0.949020 0.584314 0.290196
0.956863 0.584314 0.294118
0.956863 0.584314 0.294118
0.956863 0.588235 0.294118
0.960784 0.588235 0.294118
0.305882 0.568627 0.254902
0.305882 0.568627 0.254902
0.305882 0.568627 0.254902
0.309804 0.568627 0.254902
0.309804 0.568627 0.254902
0.321569 0.588235 0.262745
0.325490 0.600000 0.258824
0.333333 0.611765 0.247059
0.376471 0.631373 0.235294
0.490196 0.650980 0.247059
0.611765 0.654902 0.262745
0.705882 0.654902 0.274510
0.780392 0.650980 0.282353
0.835294 0.647059 0.290196
0.874510 0.643137 0.294118
0.901961 0.643137 0.298039
0.921569 0.643137 0.301961
0.937255 0.639216 0.305882
0.949020 0.639216 0.305882
0.960784 0.639216 0.309804
0.972549 0.639216 0.309804
0.976471 0.639216 0.309804
0.976471 0.639216 0.309804
0.976471 0.639216 0.309804
0.976471 0.643137 0.309804
0.337255 0.615686 0.274510
0.337255 0.615686 0.274510
0.337255 0.615686 0.274510
0.337255 0.615686 0.274510
0.337255 0.615686 0.274510
0.345098 0.631373 0.278431
0.352941 0.643137 0.274510
0.356863 0.654902 0.266667
0.372549 0.674510 0.247059
0.470588 0.694118 0.262745
0.596078 0.701961 0.278431
0.701961 0.698039 0.290196
0.784314 0.698039 0.298039
0.847059 0.690196 0.305882
0.886275 0.690196 0.309804
0.913725 0.690196 0.313725
0.937255 0.686275 0.317647
0.952941 0.686275 0.321569
0.964706 0.686275 0.321569
0.976471 0.686275 0.321569
0.988235 0.686275 0.325490
0.996078 0.686275 0.325490
0.996078 0.686275 0.325490
0.996078 0.686275 0.325490
0.996078 0.686275 0.325490
0.360784 0.658824 0.286275
0.360784 0.658824 0.286275
0.360784 0.658824 0.286275
0.360784 0.658824 0.286275
0.360784 0.658824 0.286275
0.364706 0.666667 0.290196
0.372549 0.682353 0.290196
0.380392 0.694118 0.278431
0.392157 0.709804 0.262745
0.466667 0.729412 0.274510
0.588235 0.737255 0.290196
0.701961 0.737255 0.301961
0.788235 0.737255 0.309804
0.850980 0.729412 0.317647
0.894118 0.725490 0.321569
0.925490 0.725490 0.325490
0.945098 0.725490 0.329412
0.960784 0.725490 0.333333
0.976471 0.725490 0.333333
0.988235 0.725490 0.337255
1.000000 0.725490 0.337255
1.000000 0.721569 0.337255
1.000000 0.725490 0.337255
1.000000 0.725490 0.337255
1.000000 0.725490 0.337255
0.380392 0.690196 0.298039
0.380392 0.690196 0.298039
0.380392 0.690196 0.298039
0.380392 0.690196 0.298039
0.380392 0.690196 0.298039
0.384314 0.698039 0.301961
0.392157 0.709804 0.301961
0.400000 0.725490 0.290196
0.407843 0.741176 0.274510
0.466667 0.760784 0.286275
0.584314 0.772549 0.301961
0.698039 0.768627 0.309804
0.788235 0.768627 0.321569
0.854902 0.760784 0.329412
0.901961 0.760784 0.333333
0.933333 0.756863 0.337255
0.952941 0.756863 0.341176
0.968627 0.756863 0.341176
0.984314 0.756863 0.345098
0.996078 0.756863 0.345098
1.000000 0.756863 0.349020
1.000000 0.756863 0.349020
1.000000 0.756863 0.349020
1.000000 0.756863 0.349020
1.000000 0.756863 0.349020
0.396078 0.721569 0.309804
0.396078 0.721569 0.309804
0.396078 0.721569 0.309804
0.396078 0.721569 0.309804
0.396078 0.721569 0.309804
0.400000 0.725490 0.309804
0.407843 0.737255 0.309804
0.415686 0.752941 0.298039
0.419608 0.768627 0.286275
0.470588 0.784314 0.294118
0.580392 0.796078 0.309804
0.694118 0.796078 0.321569
0.788235 0.792157 0.329412
0.858824 0.788235 0.337255
0.905882 0.784314 0.341176
0.937255 0.784314 0.345098
0.960784 0.784314 0.349020
0.976471 0.784314 0.352941
0.992157 0.784314 0.352941
1.000000 0.784314 0.356863
1.000000 0.784314 0.356863
1.000000 0.784314 0.356863
1.000000 0.784314 0.356863
1.000000 0.784314 0.356863
1.000000 0.784314 0.356863
0.411765 0.745098 0.317647
0.411765 0.745098 0.317647
0.411765 0.745098 0.317647
0.411765 0.745098 0.317647
0.411765 0.745098 0.317647
0.415686 0.749020 0.317647
0.419608 0.760784 0.317647
0.427451 0.772549 0.305882
0.435294 0.788235 0.294118
0.478431 0.803922 0.305882
0.588235 0.815686 0.317647
0.701961 0.815686 0.329412
0.792157 0.815686 0.337255
0.862745 0.811765 0.345098
0.909804 0.807843 0.349020
0.945098 0.807843 0.352941
0.964706 0.807843 0.356863
0.980392 0.807843 0.360784
0.996078 0.807843 0.360784
1.000000 0.803922 0.364706
1.000000 0.803922 0.364706
1.000000 0.803922 0.364706
1.000000 0.803922 0.364706
1.000000 0.803922 0.364706
1.000000 0.803922 0.364706
0.423529 0.764706 0.321569
0.423529 0.764706 0.321569
0.423529 0.764706 0.321569
0.423529 0.764706 0.321569
0.423529 0.764706 0.321569
0.427451 0.772549 0.325490
0.431373 0.780392 0.321569
0.439216 0.792157 0.309804
0.447059 0.807843 0.301961
0.486275 0.823529 0.309804
0.596078 0.835294 0.321569
0.705882 0.835294 0.333333
0.796078 0.831373 0.341176
0.866667 0.827451 0.349020
0.917647 0.823529 0.356863
0.949020 0.823529 0.360784
0.972549 0.823529 0.360784
0.988235 0.823529 0.364706
1.000000 0.823529 0.368627
1.000000 0.819608 0.368627
1.000000 0.819608 0.368627
1.000000 0.819608 0.368627
1.000000 0.819608 0.368627
1.000000 0.819608 0.368627
1.000000 0.819608 0.368627
0.431373 0.780392 0.329412
0.431373 0.780392 0.329412
0.431373 0.780392 0.329412
0.431373 0.780392 0.329412
0.431373 0.780392 0.329412
0.439216 0.788235 0.329412
0.443137 0.800000 0.321569
0.447059 0.811765 0.313725
0.454902 0.827451 0.309804
0.509804 0.843137 0.321569
0.611765 0.847059 0.329412
0.717647 0.850980 0.341176
0.807843 0.847059 0.349020
0.874510 0.839216 0.356863
0.921569 0.839216 0.360784
0.952941 0.835294 0.364706
0.976471 0.835294 0.368627
0.992157 0.835294 0.368627
1.000000 0.835294 0.372549
1.000000 0.835294 0.372549
1.000000 0.835294 0.372549
1.000000 0.831373 0.376471
1.000000 0.831373 0.376471
1.000000 0.831373 0.376471
1.000000 0.831373 0.372549
0.439216 0.788235 0.333333
0.439216 0.788235 0.333333
0.439216 0.788235 0.333333
0.439216 0.788235 0.333333
0.443137 0.796078 0.333333
0.447059 0.803922 0.329412
0.450980 0.811765 0.321569
0.454902 0.823529 0.309804
0.466667 0.839216 0.313725
0.529412 0.850980 0.325490
0.631373 0.858824 0.337255
0.733333 0.858824 0.345098
0.815686 0.854902 0.352941
0.882353 0.847059 0.360784
0.929412 0.847059 0.364706
0.960784 0.843137 0.368627
0.980392 0.843137 0.368627
0.996078 0.843137 0.372549
1.000000 0.843137 0.372549
1.000000 0.843137 0.376471
1.000000 0.843137 0.376471
1.000000 0.843137 0.376471
1.000000 0.843137 0.376471
1.000000 0.843137 0.376471
1.000000 0.839216 0.376471
0.439216 0.788235 0.333333
0.439216 0.788235 0.333333
0.439216 0.792157 0.333333
0.443137 0.796078 0.333333
0.447059 0.800000 0.329412
0.447059 0.807843 0.325490
0.454902 0.819608 0.313725
0.458824 0.831373 0.313725
0.482353 0.843137 0.317647
0.568627 0.854902 0.329412
0.666667 0.858824 0.337255
0.760784 0.858824 0.349020
0.835294 0.850980 0.352941
0.894118 0.850980 0.360784
0.933333 0.847059 0.364706
0.960784 0.843137 0.368627
0.980392 0.843137 0.368627
0.992157 0.843137 0.372549
1.000000 0.843137 0.372549
1.000000 0.843137 0.376471
1.000000 0.843137 0.376471
1.000000 0.843137 0.376471
1.000000 0.843137 0.376471
1.000000 0.843137 0.376471
1.000000 0.843137 0.376471
0.443137 0.796078 0.333333
0.443137 0.796078 0.333333
0.443137 0.800000 0.333333
0.447059 0.803922 0.329412
0.447059 0.807843 0.325490
0.450980 0.811765 0.321569
0.454902 0.823529 0.309804
0.462745 0.835294 0.313725
0.494118 0.847059 0.321569
0.572549 0.854902 0.329412
0.658824 0.858824 0.337255
0.745098 0.854902 0.345098
0.815686 0.854902 0.352941
0.874510 0.850980 0.356863
0.917647 0.847059 0.360784
0.949020 0.847059 0.364706
0.968627 0.843137 0.368627
0.984314 0.843137 0.372549
0.996078 0.843137 0.372549
1.000000 0.843137 0.372549
1.000000 0.843137 0.376471
1.000000 0.843137 0.376471
1.000000 0.843137 0.376471
1.000000 0.843137 0.376471
1.000000 0.843137 0.376471
0.447059 0.800000 0.329412
0.447059 0.803922 0.329412
0.447059 0.803922 0.329412
0.447059 0.807843 0.325490
0.450980 0.811765 0.321569
0.454902 0.819608 0.313725
0.458824 0.827451 0.309804
0.466667 0.839216 0.313725
0.505882 0.850980 0.321569
0.572549 0.854902 0.329412
0.654902 0.858824 0.337255
0.729412 0.858824 0.345098
0.800000 0.854902 0.352941
0.858824 0.850980 0.356863
0.901961 0.847059 0.360784
0.933333 0.847059 0.364706
0.956863 0.843137 0.368627
0.976471 0.843137 0.368627
0.992157 0.847059 0.372549
1.000000 0.847059 0.372549
1.000000 0.847059 0.376471
1.000000 0.847059 0.376471
1.000000 0.847059 0.376471
1.000000 0.847059 0.380392
1.000000 0.847059 0.380392
0.000000 0.000000 0.031373
0.000000 0.000000 0.031373
0.000000 0.000000 0.031373
0.000000 0.000000 0.035294
0.047059 0.000000 0.027451
0.086275 0.003922 0.023529
0.125490 0.007843 0.003922
0.172549 0.011765 0.007843
0.215686 0.019608 0.015686
0.274510 0.027451 0.023529
0.333333 0.039216 0.039216
0.392157 0.050980 0.058824
0.454902 0.062745 0.074510
0.509804 0.074510 0.090196
0.560784 0.086275 0.105882
0.607843 0.098039 0.121569
0.647059 0.105882 0.133333
0.686275 0.113725 0.145098
0.717647 0.117647 0.152941
0.745098 0.125490 0.160784
0.768627 0.129412 0.168627
0.784314 0.133333 0.172549
0.784314 0.133333 0.172549
0.784314 0.133333 0.172549
0.784314 0.133333 0.172549
0.000000 0.007843 0.035294
0.000000 0.007843 0.035294
0.003922 0.011765 0.039216
0.015686 0.015686 0.035294
0.062745 0.015686 0.035294
0.098039 0.003922 0.031373
0.133333 0.007843 0.003922
0.180392 0.011765 0.011765
0.227451 0.039216 0.019608
0.278431 0.039216 0.027451
0.333333 0.039216 0.043137
0.396078 0.050980 0.058824
0.454902 0.062745 0.074510
0.509804 0.074510 0.094118
0.560784 0.086275 0.105882
0.607843 0.098039 0.121569
0.647059 0.105882 0.133333
0.686275 0.113725 0.145098
0.717647 0.117647 0.152941
0.745098 0.125490 0.160784
0.768627 0.129412 0.168627
0.784314 0.133333 0.172549
0.784314 0.133333 0.172549
0.784314 0.133333 0.172549
0.784314 0.133333 0.172549
0.007843 0.035294 0.043137
0.007843 0.039216 0.047059
0.011765 0.043137 0.047059
0.047059 0.047059 0.047059
0.082353 0.050980 0.047059
0.113725 0.050980 0.043137
0.149020 0.050980 0.035294
0.192157 0.054902 0.015686
0.243137 0.070588 0.023529
0.298039 0.062745 0.035294
0.356863 0.047059 0.047059
0.415686 0.054902 0.062745
0.470588 0.066667 0.078431
0.525490 0.078431 0.098039
0.560784 0.086275 0.105882
0.607843 0.098039 0.121569
0.650980 0.105882 0.133333
0.686275 0.113725 0.145098
0.717647 0.117647 0.152941
0.745098 0.125490 0.160784
0.768627 0.129412 0.168627
0.784314 0.133333 0.172549
0.784314 0.133333 0.172549
0.784314 0.133333 0.172549
0.784314 0.133333 0.172549
0.015686 0.066667 0.050980
0.015686 0.066667 0.054902
0.023529 0.070588 0.054902
0.062745 0.074510 0.058824
0.094118 0.078431 0.058824
0.125490 0.082353 0.054902
0.164706 0.082353 0.050980
0.203922 0.090196 0.035294
0.254902 0.090196 0.031373
0.313725 0.086275 0.043137
0.372549 0.078431 0.054902
0.435294 0.066667 0.070588
0.490196 0.070588 0.086275
0.545098 0.082353 0.101961
0.592157 0.094118 0.117647
0.631373 0.101961 0.129412
0.666667 0.109804 0.137255
0.694118 0.113725 0.145098
0.721569 0.117647 0.152941
0.749020 0.125490 0.160784
0.768627 0.129412 0.168627
0.784314 0.133333 0.172549
0.784314 0.133333 0.172549
0.784314 0.133333 0.172549
0.784314 0.133333 0.172549
0.027451 0.094118 0.066667
0.027451 0.098039 0.070588
0.039216 0.101961 0.074510
0.074510 0.105882 0.078431
0.109804 0.109804 0.070588
0.145098 0.113725 0.074510
0.180392 0.113725 0.074510
0.223529 0.117647 0.066667
0.278431 0.117647 0.062745
0.337255 0.113725 0.054902
0.396078 0.113725 0.070588
0.454902 0.105882 0.082353
0.513725 0.101961 0.094118
0.564706 0.098039 0.109804
0.607843 0.098039 0.121569
0.654902 0.105882 0.133333
0.694118 0.113725 0.145098
0.721569 0.121569 0.152941
0.749020 0.125490 0.160784
0.772549 0.129412 0.168627
0.784314 0.133333 0.172549
0.796078 0.133333 0.176471
0.792157 0.133333 0.172549
0.792157 0.133333 0.172549
0.792157 0.133333 0.172549
0.043137 0.125490 0.086275
0.047059 0.129412 0.086275
0.054902 0.137255 0.090196
0.086275 0.141176 0.094118
0.121569 0.149020 0.086275
0.160784 0.149020 0.086275
0.200000 0.149020 0.090196
0.243137 0.152941 0.086275
0.294118 0.156863 0.086275
0.356863 0.152941 0.078431
0.415686 0.152941 0.082353
0.474510 0.149020 0.094118
0.533333 0.145098 0.109804
0.584314 0.145098 0.121569
0.631373 0.141176 0.133333
0.674510 0.137255 0.145098
0.709804 0.133333 0.152941
0.741176 0.125490 0.160784
0.764706 0.129412 0.168627
0.784314 0.133333 0.172549
0.803922 0.137255 0.176471
0.811765 0.137255 0.180392
0.811765 0.137255 0.180392
0.811765 0.137255 0.180392
0.811765 0.137255 0.180392
0.066667 0.164706 0.101961
0.066667 0.164706 0.101961
0.078431 0.176471 0.109804
0.109804 0.180392 0.113725
0.133333 0.192157 0.109804
0.172549 0.200000 0.105882
0.223529 0.200000 0.109804
0.274510 0.200000 0.117647
0.325490 0.203922 0.117647
0.384314 0.203922 0.117647
0.439216 0.200000 0.113725
0.498039 0.200000 0.113725
0.549020 0.196078 0.121569
0.600000 0.196078 0.133333
0.647059 0.192157 0.145098
0.686275 0.192157 0.156863
0.725490 0.188235 0.164706
0.752941 0.184314 0.168627
0.780392 0.176471 0.176471
0.800000 0.176471 0.180392
0.815686 0.172549 0.184314
0.823529 0.164706 0.184314
0.823529 0.164706 0.184314
0.823529 0.164706 0.184314
0.823529 0.164706 0.184314
0.094118 0.211765 0.125490
0.094118 0.211765 0.125490
0.101961 0.219608 0.129412
0.121569 0.231373 0.137255
0.145098 0.243137 0.137255
0.180392 0.254902 0.133333
0.239216 0.258824 0.125490
0.301961 0.262745 0.137255
0.360784 0.262745 0.145098
0.415686 0.262745 0.145098
0.466667 0.262745 0.141176
0.521569 0.258824 0.141176
0.572549 0.254902 0.141176
0.619608 0.250980 0.149020
0.666667 0.250980 0.160784
0.705882 0.247059 0.168627
0.741176 0.243137 0.176471
0.772549 0.243137 0.184314
0.796078 0.239216 0.188235
0.811765 0.235294 0.192157
0.827451 0.235294 0.196078
0.835294 0.231373 0.196078
0.835294 0.231373 0.196078
0.835294 0.231373 0.196078
0.835294 0.235294 0.196078
0.129412 0.266667 0.145098
0.129412 0.270588 0.145098
0.133333 0.274510 0.152941
0.141176 0.290196 0.156863
0.160784 0.301961 0.160784
0.188235 0.313725 0.156863
0.239216 0.325490 0.149020
0.321569 0.329412 0.149020
0.400000 0.329412 0.160784
0.466667 0.333333 0.172549
0.521569 0.329412 0.176471
0.572549 0.325490 0.176471
0.615686 0.321569 0.172549
0.658824 0.317647 0.172549
0.698039 0.317647 0.180392
0.737255 0.313725 0.188235
0.768627 0.309804 0.192157
0.792157 0.305882 0.200000
0.815686 0.305882 0.203922
0.831373 0.301961 0.207843
0.843137 0.301961 0.207843
0.850980 0.301961 0.211765
0.850980 0.301961 0.211765
0.850980 0.301961 0.211765
0.854902 0.305882 0.211765
0.164706 0.329412 0.168627
0.164706 0.329412 0.168627
0.164706 0.329412 0.168627
0.176471 0.345098 0.176471
0.184314 0.356863 0.180392
0.203922 0.372549 0.180392
0.247059 0.384314 0.172549
0.329412 0.396078 0.168627
0.419608 0.403922 0.180392
0.494118 0.403922 0.192157
0.556863 0.403922 0.200000
0.611765 0.400000 0.203922
0.658824 0.396078 0.203922
0.698039 0.388235 0.200000
0.737255 0.388235 0.203922
0.768627 0.380392 0.207843
0.796078 0.376471 0.211765
0.819608 0.376471 0.215686
0.839216 0.376471 0.219608
0.850980 0.372549 0.223529
0.866667 0.372549 0.227451
0.870588 0.372549 0.227451
0.870588 0.376471 0.227451
0.874510 0.376471 0.227451
0.874510 0.380392 0.231373
0.200000 0.388235 0.192157
0.200000 0.392157 0.192157
0.200000 0.392157 0.192157
0.207843 0.400000 0.196078
0.219608 0.419608 0.200000
0.223529 0.431373 0.200000
0.243137 0.439216 0.196078
0.313725 0.458824 0.188235
