luts/PictureFX Acros 100 II + Red Filter (Picture comparison is between normal Acros and Acros + Filter).cube
#Generated with IWLTBAP LUT Generator
#Website: http://luts.iwltbap.com
TITLE "PictureFX-Acros-100-II-RedFilter"
#LUT size
LUT_3D_SIZE 9
#LUT data points
0.000000 0.000000 0.000000
0.023529 0.023529 0.023529
0.137255 0.137255 0.137255
0.333333 0.333333 0.333333
0.490196 0.490196 0.490196
0.627451 0.627451 0.627451
0.733333 0.733333 0.733333
0.815686 0.815686 0.819608
0.890196 0.890196 0.890196
0.015686 0.015686 0.015686
0.050980 0.050980 0.050980
0.172549 0.172549 0.172549
0.352941 0.352941 0.352941
0.501961 0.501961 0.501961
0.635294 0.635294 0.635294
0.737255 0.737255 0.737255
0.819608 0.819608 0.819608
0.890196 0.890196 0.890196
0.137255 0.137255 0.137255
0.180392 0.180392 0.180392
0.262745 0.262745 0.262745
0.400000 0.400000 0.400000
0.529412 0.529412 0.529412
0.650980 0.650980 0.650980
0.749020 0.749020 0.749020
0.827451 0.827451 0.827451
0.898039 0.898039 0.898039
0.262745 0.262745 0.262745
0.298039 0.298039 0.298039
0.364706 0.364706 0.364706
0.462745 0.462745 0.462745
0.572549 0.572549 0.572549
0.678431 0.678431 0.678431
0.768627 0.768627 0.768627
0.843137 0.843137 0.843137
0.905882 0.905882 0.905882
0.376471 0.376471 0.376471
0.400000 0.400000 0.400000
0.450980 0.450980 0.450980
0.529412 0.529412 0.529412
0.623529 0.623529 0.623529
0.717647 0.717647 0.717647
0.792157 0.792157 0.792157
0.858824 0.858824 0.858824
0.921569 0.921569 0.921569
0.474510 0.474510 0.474510
0.490196 0.490196 0.490196
0.525490 0.525490 0.525490
0.584314 0.584314 0.584314
0.658824 0.658824 0.658824
0.745098 0.745098 0.745098
0.823529 0.823529 0.823529
0.882353 0.882353 0.882353
0.937255 0.937255 0.937255
0.560784 0.560784 0.560784
0.572549 0.572549 0.572549
0.596078 0.596078 0.596078
0.639216 0.639216 0.639216
0.698039 0.698039 0.698039
0.764706 0.764706 0.764706
0.839216 0.839216 0.839216
0.909804 0.909804 0.909804
0.956863 0.956863 0.956863
0.635294 0.635294 0.635294
0.643137 0.643137 0.643137
0.662745 0.662745 0.662745
0.694118 0.694118 0.694118
0.737255 0.737255 0.737255
0.788235 0.788235 0.788235
0.850980 0.850980 0.850980
0.917647 0.917647 0.917647
0.976471 0.976471 0.976471
0.701961 0.701961 0.701961
0.705882 0.705882 0.705882
0.721569 0.721569 0.721569
0.745098 0.745098 0.745098
0.776471 0.776471 0.776471
0.819608 0.819608 0.819608
0.866667 0.866667 0.866667
0.921569 0.921569 0.921569
0.980392 0.980392 0.980392
0.003922 0.003922 0.003922
0.035294 0.035294 0.035294
0.149020 0.149020 0.149020
0.341176 0.341176 0.341176
0.494118 0.494118 0.494118
0.627451 0.627451 0.627451
0.733333 0.733333 0.733333
0.819608 0.819608 0.819608
0.890196 0.890196 0.890196
0.019608 0.019608 0.019608
0.058824 0.058824 0.058824
0.184314 0.184314 0.184314
0.360784 0.360784 0.360784
0.505882 0.505882 0.505882
0.635294 0.635294 0.635294
0.737255 0.737255 0.737255
0.823529 0.823529 0.823529
0.890196 0.890196 0.894118
0.094118 0.094118 0.094118
0.160784 0.160784 0.160784
0.266667 0.266667 0.266667
0.403922 0.403922 0.403922
0.533333 0.533333 0.533333
0.654902 0.654902 0.654902
0.749020 0.749020 0.749020
0.827451 0.831373 0.831373
0.898039 0.898039 0.898039
0.247059 0.247059 0.247059
0.286275 0.286275 0.286275
0.360784 0.360784 0.360784
0.466667 0.466667 0.466667
0.576471 0.576471 0.576471
0.682353 0.682353 0.682353
0.768627 0.768627 0.768627
0.843137 0.843137 0.843137
0.905882 0.905882 0.905882
0.376471 0.376471 0.376471
0.400000 0.400000 0.400000
0.454902 0.454902 0.454902
0.533333 0.533333 0.533333
0.627451 0.627451 0.627451
0.717647 0.717647 0.717647
0.792157 0.792157 0.792157
0.862745 0.862745 0.862745
0.921569 0.921569 0.921569
0.482353 0.482353 0.482353
0.498039 0.498039 0.498039
0.533333 0.533333 0.533333
0.592157 0.592157 0.592157
0.662745 0.662745 0.662745
0.749020 0.749020 0.749020
0.823529 0.823529 0.823529
0.882353 0.882353 0.882353
0.937255 0.937255 0.937255
0.568627 0.568627 0.568627
0.580392 0.580392 0.580392
0.603922 0.603922 0.603922
0.647059 0.647059 0.647059
0.701961 0.701961 0.701961
0.768627 0.768627 0.768627
0.843137 0.843137 0.843137
0.909804 0.909804 0.909804
0.956863 0.956863 0.956863
0.643137 0.643137 0.643137
0.650980 0.650980 0.650980
0.670588 0.670588 0.670588
0.698039 0.698039 0.701961
0.741176 0.741176 0.741176
0.792157 0.792157 0.792157
0.854902 0.854902 0.854902
0.917647 0.917647 0.917647
0.976471 0.980392 0.980392
0.709804 0.709804 0.709804
0.713725 0.713725 0.713725
0.729412 0.729412 0.729412
0.749020 0.749020 0.749020
0.784314 0.784314 0.784314
0.823529 0.823529 0.823529
0.870588 0.870588 0.870588
0.925490 0.925490 0.925490
0.980392 0.984314 0.984314
0.078431 0.078431 0.078431
0.129412 0.129412 0.129412
0.215686 0.215686 0.215686
0.364706 0.364706 0.364706
0.505882 0.505882 0.505882
0.635294 0.635294 0.635294
0.737255 0.737255 0.737255
0.823529 0.823529 0.823529
0.894118 0.894118 0.894118
0.047059 0.047059 0.047059
0.113725 0.113725 0.113725
0.231373 0.231373 0.231373
0.380392 0.380392 0.380392
0.517647 0.517647 0.517647
0.643137 0.643137 0.643137
0.741176 0.745098 0.745098
0.823529 0.823529 0.823529
0.894118 0.894118 0.894118
0.121569 0.121569 0.121569
0.172549 0.172549 0.172549
0.290196 0.290196 0.290196
0.419608 0.419608 0.419608
0.545098 0.545098 0.545098
0.658824 0.658824 0.658824
0.752941 0.752941 0.752941
0.831373 0.831373 0.831373
0.898039 0.898039 0.901961
0.266667 0.266667 0.266667
0.305882 0.305882 0.305882
0.380392 0.380392 0.380392
0.478431 0.478431 0.478431
0.588235 0.588235 0.588235
0.686275 0.686275 0.686275
0.772549 0.772549 0.772549
0.847059 0.847059 0.847059
0.909804 0.909804 0.909804
0.400000 0.400000 0.400000
0.423529 0.423529 0.423529
0.474510 0.474510 0.474510
0.545098 0.545098 0.545098
0.635294 0.635294 0.635294
0.721569 0.721569 0.721569
0.796078 0.796078 0.796078
0.862745 0.862745 0.862745
0.921569 0.921569 0.921569
0.505882 0.505882 0.505882
0.521569 0.521569 0.521569
0.552941 0.552941 0.552941
0.607843 0.607843 0.607843
0.674510 0.674510 0.674510
0.752941 0.752941 0.752941
0.827451 0.827451 0.827451
0.886275 0.886275 0.886275
0.937255 0.937255 0.937255
0.592157 0.592157 0.592157
0.600000 0.600000 0.600000
0.623529 0.623529 0.623529
0.662745 0.662745 0.662745
0.713725 0.713725 0.713725
0.776471 0.776471 0.776471
0.847059 0.847059 0.847059
0.913725 0.913725 0.913725
0.956863 0.956863 0.956863
0.666667 0.666667 0.666667
0.670588 0.670588 0.670588
0.690196 0.690196 0.690196
0.717647 0.717647 0.717647
0.756863 0.756863 0.756863
0.803922 0.803922 0.803922
0.862745 0.862745 0.862745
0.921569 0.921569 0.921569
0.980392 0.980392 0.980392
0.729412 0.729412 0.729412
0.733333 0.733333 0.737255
0.749020 0.749020 0.749020
0.768627 0.768627 0.768627
0.800000 0.800000 0.800000
0.835294 0.835294 0.835294
0.882353 0.882353 0.882353
0.933333 0.933333 0.933333
0.988235 0.988235 0.988235
0.168627 0.168627 0.168627
0.207843 0.207843 0.207843
0.290196 0.290196 0.290196
0.400000 0.400000 0.400000
0.525490 0.525490 0.525490
0.647059 0.647059 0.650980
0.745098 0.745098 0.745098
0.827451 0.827451 0.827451
0.898039 0.898039 0.898039
0.133333 0.133333 0.133333
0.188235 0.188235 0.188235
0.286275 0.286275 0.286275
0.407843 0.407843 0.407843
0.537255 0.537255 0.537255
0.654902 0.654902 0.654902
0.752941 0.752941 0.752941
0.831373 0.831373 0.831373
0.898039 0.898039 0.898039
0.184314 0.184314 0.184314
0.235294 0.235294 0.235294
0.329412 0.329412 0.329412
0.443137 0.443137 0.443137
0.560784 0.560784 0.560784
0.670588 0.670588 0.670588
0.760784 0.760784 0.760784
0.839216 0.839216 0.839216
0.905882 0.905882 0.905882
0.309804 0.309804 0.309804
0.345098 0.345098 0.345098
0.411765 0.411765 0.411765
0.501961 0.501961 0.501961
0.603922 0.603922 0.603922
0.698039 0.698039 0.698039
0.780392 0.780392 0.780392
0.850980 0.850980 0.850980
0.913725 0.913725 0.913725
0.431373 0.431373 0.431373
0.450980 0.450980 0.450980
0.498039 0.498039 0.498039
0.568627 0.568627 0.568627
0.650980 0.650980 0.650980
0.733333 0.733333 0.733333
0.803922 0.803922 0.803922
0.866667 0.866667 0.866667
0.925490 0.925490 0.925490
0.541176 0.541176 0.541176
0.552941 0.552941 0.552941
0.584314 0.584314 0.584314
0.631373 0.631373 0.631373
0.694118 0.694118 0.694118
0.764706 0.764706 0.764706
0.831373 0.831373 0.831373
0.890196 0.890196 0.890196
0.941176 0.941176 0.941176
0.631373 0.631373 0.631373
0.639216 0.639216 0.639216
0.658824 0.658824 0.658824
0.690196 0.690196 0.690196
0.737255 0.737255 0.737255
0.792157 0.792157 0.792157
0.854902 0.858824 0.858824
0.913725 0.913725 0.913725
0.960784 0.960784 0.960784
0.701961 0.701961 0.701961
0.705882 0.705882 0.705882
0.721569 0.721569 0.721569
0.745098 0.745098 0.745098
0.780392 0.780392 0.780392
0.823529 0.823529 0.823529
0.874510 0.874510 0.874510
0.929412 0.929412 0.929412
0.980392 0.980392 0.984314
0.760784 0.760784 0.760784
0.764706 0.764706 0.764706
0.776471 0.776471 0.776471
0.796078 0.796078 0.796078
0.819608 0.819608 0.819608
0.854902 0.854902 0.854902
0.894118 0.894118 0.894118
0.941176 0.941176 0.941176
0.992157 0.992157 0.992157
0.243137 0.243137 0.243137
0.274510 0.274510 0.274510
0.341176 0.341176 0.341176
0.435294 0.435294 0.435294
0.549020 0.549020 0.549020
0.666667 0.666667 0.666667
0.756863 0.756863 0.756863
0.835294 0.835294 0.835294
0.901961 0.901961 0.901961
0.223529 0.223529 0.223529
0.258824 0.258824 0.258824
0.333333 0.333333 0.333333
0.439216 0.439216 0.439216
0.556863 0.556863 0.556863
0.674510 0.674510 0.674510
0.760784 0.760784 0.760784
0.839216 0.839216 0.839216
0.905882 0.905882 0.905882
0.270588 0.270588 0.270588
0.305882 0.305882 0.305882
0.376471 0.376471 0.376471
0.474510 0.474510 0.474510
0.584314 0.584314 0.584314
0.686275 0.686275 0.686275
0.772549 0.772549 0.772549
0.847059 0.847059 0.847059
0.909804 0.909804 0.909804
0.368627 0.368627 0.368627
0.392157 0.392157 0.392157
0.450980 0.450980 0.450980
0.529412 0.529412 0.529412
0.623529 0.623529 0.623529
0.713725 0.713725 0.713725
0.788235 0.788235 0.788235
0.858824 0.858824 0.858824
0.917647 0.917647 0.917647
0.466667 0.466667 0.466667
0.486275 0.486275 0.486275
0.529412 0.529412 0.529412
0.596078 0.596078 0.596078
0.670588 0.670588 0.670588
0.745098 0.745098 0.745098
0.811765 0.811765 0.811765
0.874510 0.874510 0.874510
0.929412 0.929412 0.933333
0.568627 0.568627 0.568627
0.580392 0.580392 0.580392
0.615686 0.615686 0.615686
0.662745 0.662745 0.662745
0.717647 0.717647 0.717647
0.780392 0.780392 0.780392
0.839216 0.839216 0.839216
0.898039 0.898039 0.898039
0.945098 0.945098 0.945098
0.662745 0.662745 0.662745
0.670588 0.670588 0.670588
0.694118 0.694118 0.694118
0.725490 0.725490 0.725490
0.764706 0.764706 0.764706
0.811765 0.811765 0.811765
0.866667 0.866667 0.866667
0.921569 0.921569 0.921569
0.964706 0.964706 0.964706
0.737255 0.737255 0.737255
0.745098 0.745098 0.745098
0.756863 0.756863 0.756863
0.776471 0.776471 0.776471
0.807843 0.807843 0.807843
0.843137 0.843137 0.843137
0.890196 0.890196 0.890196
0.937255 0.937255 0.937255
0.984314 0.984314 0.984314
0.792157 0.792157 0.796078
0.796078 0.796078 0.796078
0.807843 0.807843 0.807843
0.823529 0.823529 0.823529
0.847059 0.847059 0.847059
0.874510 0.874510 0.874510
0.913725 0.913725 0.913725
0.952941 0.952941 0.952941
1.000000 1.000000 1.000000
0.298039 0.298039 0.298039
0.321569 0.321569 0.321569
0.372549 0.372549 0.376471
0.454902 0.454902 0.454902
0.552941 0.552941 0.552941
0.666667 0.666667 0.666667
0.772549 0.772549 0.772549
0.847059 0.847059 0.847059
0.909804 0.909804 0.909804
0.290196 0.290196 0.290196
0.317647 0.317647 0.317647
0.376471 0.376471 0.376471
0.462745 0.462745 0.462745
0.564706 0.564706 0.564706
0.674510 0.674510 0.674510
0.776471 0.776471 0.776471
0.847059 0.847059 0.847059
0.909804 0.913725 0.913725
0.345098 0.345098 0.345098
0.368627 0.368627 0.368627
0.419608 0.419608 0.419608
0.498039 0.498039 0.498039
0.592157 0.592157 0.592157
0.690196 0.690196 0.690196
0.788235 0.788235 0.788235
0.854902 0.854902 0.854902
0.917647 0.917647 0.917647
0.427451 0.427451 0.427451
0.447059 0.447059 0.447059
0.498039 0.498039 0.498039
0.556863 0.556863 0.556863
0.635294 0.635294 0.635294
0.721569 0.721569 0.721569
0.803922 0.803922 0.803922
0.866667 0.866667 0.866667
0.925490 0.925490 0.925490
0.509804 0.509804 0.509804
0.525490 0.525490 0.525490
0.564706 0.564706 0.564706
0.627451 0.627451 0.627451
0.690196 0.690196 0.690196
0.756863 0.756863 0.756863
0.823529 0.823529 0.823529
0.882353 0.882353 0.886275
0.937255 0.937255 0.937255
0.600000 0.600000 0.600000
0.611765 0.615686 0.615686
0.643137 0.643137 0.643137
0.686275 0.686275 0.686275
0.737255 0.737255 0.737255
0.796078 0.796078 0.796078
0.850980 0.850980 0.850980
0.905882 0.905882 0.905882
0.952941 0.952941 0.952941
0.682353 0.682353 0.682353
0.694118 0.694118 0.694118
0.713725 0.713725 0.713725
0.745098 0.745098 0.745098
0.788235 0.788235 0.788235
0.831373 0.831373 0.831373
0.878431 0.878431 0.878431
0.929412 0.929412 0.929412
0.968627 0.972549 0.972549
0.756863 0.756863 0.756863
0.760784 0.760784 0.760784
0.776471 0.776471 0.776471
0.803922 0.803922 0.803922
0.831373 0.831373 0.831373
0.866667 0.866667 0.866667
0.905882 0.905882 0.905882
0.949020 0.949020 0.949020
0.992157 0.992157 0.992157
0.819608 0.819608 0.819608
0.823529 0.823529 0.823529
0.835294 0.835294 0.835294
0.850980 0.850980 0.850980
0.870588 0.870588 0.870588
0.898039 0.898039 0.898039
0.929412 0.929412 0.929412
0.968627 0.968627 0.968627
1.000000 1.000000 1.000000
0.345098 0.345098 0.345098
0.360784 0.360784 0.360784
0.403922 0.403922 0.403922
0.470588 0.470588 0.470588
0.556863 0.556863 0.556863
0.654902 0.654902 0.654902
0.756863 0.756863 0.756863
0.858824 0.858824 0.858824
0.917647 0.917647 0.917647
0.345098 0.345098 0.345098
0.364706 0.364706 0.364706
0.411765 0.411765 0.411765
0.482353 0.482353 0.482353
0.568627 0.568627 0.568627
0.666667 0.666667 0.666667
0.764706 0.764706 0.764706
0.862745 0.862745 0.862745
0.921569 0.921569 0.921569
0.403922 0.403922 0.403922
0.419608 0.419608 0.419608
0.462745 0.462745 0.462745
0.525490 0.525490 0.525490
0.600000 0.600000 0.600000
0.686275 0.686275 0.686275
0.780392 0.780392 0.780392
0.866667 0.866667 0.866667
0.925490 0.925490 0.925490
0.490196 0.490196 0.490196
0.505882 0.505882 0.505882
0.537255 0.537255 0.537255
0.584314 0.584314 0.584314
0.650980 0.650980 0.650980
0.725490 0.725490 0.725490
0.803922 0.803922 0.803922
0.878431 0.878431 0.878431
0.933333 0.933333 0.933333
0.560784 0.560784 0.560784
0.576471 0.576471 0.576471
0.611765 0.611765 0.611765
0.658824 0.658824 0.658824
0.709804 0.709804 0.709804
0.768627 0.768627 0.768627
0.831373 0.831373 0.831373
0.894118 0.894118 0.894118
0.945098 0.945098 0.945098
0.639216 0.639216 0.639216
0.650980 0.650980 0.650980
0.674510 0.674510 0.674510
0.713725 0.713725 0.713725
0.760784 0.760784 0.760784
0.811765 0.811765 0.811765
0.862745 0.862745 0.862745
0.913725 0.913725 0.913725
0.960784 0.960784 0.960784
0.709804 0.709804 0.709804
0.717647 0.717647 0.717647
0.737255 0.737255 0.737255
0.764706 0.764706 0.764706
0.803922 0.803922 0.803922
0.847059 0.847059 0.847059
0.890196 0.890196 0.894118
0.937255 0.937255 0.937255
0.976471 0.976471 0.976471
0.776471 0.776471 0.776471
0.780392 0.780392 0.780392
0.796078 0.796078 0.796078
0.819608 0.819608 0.819608
0.847059 0.847059 0.847059
0.882353 0.882353 0.882353
0.921569 0.921569 0.921569
0.956863 0.960784 0.960784
0.996078 0.996078 0.996078
0.835294 0.835294 0.835294
0.839216 0.839216 0.839216
0.850980 0.850980 0.850980
0.866667 0.866667 0.866667
0.890196 0.890196 0.890196
0.921569 0.921569 0.921569
0.949020 0.949020 0.949020
0.980392 0.980392 0.980392
1.000000 1.000000 1.000000
0.384314 0.384314 0.384314
0.396078 0.396078 0.400000
0.431373 0.431373 0.431373
0.490196 0.490196 0.490196
0.568627 0.568627 0.568627
0.654902 0.654902 0.654902
0.745098 0.745098 0.745098
0.835294 0.835294 0.835294
0.925490 0.925490 0.925490
0.396078 0.396078 0.396078
0.411765 0.411765 0.411765
0.447059 0.447059 0.450980
0.505882 0.505882 0.505882
0.580392 0.580392 0.580392
0.662745 0.662745 0.662745
0.752941 0.752941 0.752941
0.839216 0.839216 0.839216
0.925490 0.925490 0.925490
0.454902 0.454902 0.454902
0.466667 0.466667 0.466667
0.498039 0.498039 0.498039
0.549020 0.549020 0.549020
0.615686 0.615686 0.615686
0.690196 0.690196 0.690196
0.768627 0.768627 0.768627
0.850980 0.850980 0.850980
0.933333 0.933333 0.933333
0.537255 0.537255 0.537255
0.549020 0.549020 0.549020
0.572549 0.572549 0.572549
0.611765 0.611765 0.611765
0.666667 0.666667 0.666667
0.729412 0.729412 0.729412
0.800000 0.800000 0.800000
0.870588 0.870588 0.870588
0.945098 0.945098 0.945098
0.615686 0.615686 0.615686
0.627451 0.627451 0.627451
0.654902 0.654902 0.654902
0.690196 0.690196 0.690196
0.729412 0.729412 0.729412
0.780392 0.780392 0.780392
0.835294 0.835294 0.835294
0.894118 0.894118 0.894118
0.956863 0.956863 0.956863
0.678431 0.678431 0.678431
0.686275 0.686275 0.686275
0.709804 0.709804 0.709804
0.741176 0.741176 0.741176
0.784314 0.784314 0.784314
0.823529 0.823529 0.823529
0.870588 0.870588 0.870588
0.921569 0.921569 0.921569
0.968627 0.968627 0.968627
0.741176 0.741176 0.741176
0.745098 0.745098 0.745098
0.760784 0.760784 0.764706
0.788235 0.788235 0.788235
0.823529 0.823529 0.823529
0.862745 0.862745 0.862745
0.901961 0.901961 0.901961
0.945098 0.945098 0.945098
0.984314 0.984314 0.984314
0.796078 0.796078 0.796078
0.803922 0.803922 0.803922
0.815686 0.815686 0.815686
0.835294 0.835294 0.835294
0.862745 0.862745 0.862745
0.898039 0.898039 0.898039
0.933333 0.933333 0.933333
0.968627 0.968627 0.968627
1.000000 1.000000 1.000000
0.850980 0.850980 0.850980
0.854902 0.854902 0.854902
0.866667 0.866667 0.866667
0.882353 0.882353 0.882353
0.905882 0.905882 0.905882
0.933333 0.933333 0.933333
0.960784 0.960784 0.960784
0.992157 0.992157 0.992157
1.000000 1.000000 1.000000
0.419608 0.419608 0.419608
0.431373 0.431373 0.435294
0.462745 0.462745 0.462745
0.513725 0.513725 0.513725
0.580392 0.580392 0.580392
0.654902 0.654902 0.654902
0.737255 0.737255 0.737255
0.815686 0.815686 0.815686
0.898039 0.898039 0.898039
0.443137 0.443137 0.443137
0.454902 0.454902 0.454902
0.482353 0.482353 0.482353
0.533333 0.533333 0.533333
0.596078 0.596078 0.596078
0.666667 0.666667 0.666667
0.745098 0.745098 0.745098
0.823529 0.823529 0.823529
0.901961 0.901961 0.901961
0.498039 0.498039 0.498039
0.509804 0.509804 0.509804
0.533333 0.533333 0.533333
0.576471 0.576471 0.576471
0.631373 0.631373 0.631373
0.694118 0.694118 0.694118
0.764706 0.764706 0.764706
0.839216 0.839216 0.839216
0.913725 0.913725 0.913725
0.576471 0.576471 0.576471
0.584314 0.584314 0.584314
0.603922 0.603922 0.603922
0.639216 0.639216 0.639216
0.682353 0.682353 0.682353
0.737255 0.737255 0.737255
0.800000 0.800000 0.800000
0.862745 0.862745 0.862745
0.929412 0.929412 0.929412
0.666667 0.666667 0.666667
0.674510 0.674510 0.674510
0.690196 0.690196 0.690196
0.713725 0.713725 0.713725
0.749020 0.749020 0.749020
0.792157 0.792157 0.792157
0.839216 0.839216 0.839216
0.894118 0.894118 0.894118
0.949020 0.949020 0.949020
0.717647 0.717647 0.717647
0.725490 0.725490 0.725490
0.745098 0.745098 0.745098
0.772549 0.772549 0.772549
0.803922 0.803922 0.803922
0.839216 0.839216 0.839216
0.878431 0.878431 0.878431
0.921569 0.921569 0.921569
0.968627 0.968627 0.968627
0.768627 0.768627 0.768627
0.776471 0.776471 0.776471
0.792157 0.792157 0.792157
0.811765 0.811765 0.815686
0.843137 0.843137 0.843137
0.882353 0.882353 0.882353
0.913725 0.913725 0.913725
0.952941 0.952941 0.952941
0.992157 0.992157 0.992157
0.819608 0.819608 0.819608
0.827451 0.827451 0.827451
0.835294 0.839216 0.839216
0.854902 0.854902 0.854902
0.882353 0.882353 0.882353
0.913725 0.913725 0.913725
0.945098 0.945098 0.945098
0.976471 0.976471 0.976471
1.000000 1.000000 1.000000
0.870588 0.870588 0.870588
0.874510 0.874510 0.874510
0.882353 0.882353 0.882353
0.898039 0.898039 0.898039
0.917647 0.917647 0.917647
0.945098 0.945098 0.945098
0.972549 0.972549 0.972549
1.000000 1.000000 1.000000
1.000000 1.000000 1.000000
