luts/PictureFX J.S. Style Ethereal Purple - Adjust to taste _ strenght, exposure, bloom etc - more at Pic.cube
#Generated by lutCreator.js
#Coded by SirSerch
#https://github.com/SirSerch/LutCreatorJs
TITLE lutCreatorJs_25
LUT_3D_SIZE 9
0.000000 0.031373 0.035294
0.015686 0.027451 0.094118
0.149020 0.050980 0.109804
0.376471 0.196078 0.219608
0.482353 0.235294 0.219608
0.576471 0.270588 0.219608
0.674510 0.301961 0.227451
0.768627 0.337255 0.239216
0.858824 0.364706 0.247059
0.000000 0.101961 0.133333
0.141176 0.192157 0.235294
0.247059 0.211765 0.266667
0.372549 0.239216 0.231373
0.470588 0.262745 0.223529
0.568627 0.290196 0.223529
0.666667 0.321569 0.235294
0.760784 0.352941 0.243137
0.854902 0.380392 0.250980
0.117647 0.313725 0.235294
0.184314 0.313725 0.243137
0.274510 0.313725 0.258824
0.372549 0.321569 0.266667
0.474510 0.337255 0.258824
0.572549 0.356863 0.254902
0.670588 0.376471 0.258824
0.764706 0.400000 0.262745
0.858824 0.423529 0.270588
0.168627 0.415686 0.258824
0.215686 0.415686 0.262745
0.294118 0.415686 0.274510
0.388235 0.423529 0.290196
0.482353 0.431373 0.298039
0.580392 0.439216 0.294118
0.674510 0.450980 0.290196
0.764706 0.462745 0.286275
0.854902 0.478431 0.286275
0.219608 0.517647 0.286275
0.250980 0.517647 0.290196
0.317647 0.517647 0.298039
0.400000 0.517647 0.305882
0.490196 0.521569 0.313725
0.584314 0.529412 0.321569
0.678431 0.537255 0.321569
0.772549 0.549020 0.317647
0.866667 0.560784 0.321569
0.266667 0.619608 0.317647
0.294118 0.619608 0.317647
0.345098 0.619608 0.321569
0.419608 0.619608 0.329412
0.505882 0.619608 0.333333
0.592157 0.623529 0.341176
0.686275 0.627451 0.345098
0.780392 0.635294 0.349020
0.870588 0.647059 0.349020
0.317647 0.717647 0.345098
0.337255 0.717647 0.345098
0.380392 0.717647 0.345098
0.447059 0.717647 0.352941
0.525490 0.717647 0.356863
0.607843 0.721569 0.364706
0.698039 0.725490 0.368627
0.788235 0.729412 0.372549
0.882353 0.741176 0.380392
0.368627 0.819608 0.372549
0.384314 0.819608 0.372549
0.423529 0.819608 0.376471
0.482353 0.823529 0.380392
0.556863 0.827451 0.388235
0.639216 0.831373 0.396078
0.729412 0.839216 0.407843
0.827451 0.854902 0.423529
0.925490 0.866667 0.431373
0.439216 0.941176 0.419608
0.450980 0.937255 0.419608
0.482353 0.937255 0.419608
0.533333 0.941176 0.423529
0.600000 0.941176 0.427451
0.674510 0.945098 0.431373
0.756863 0.945098 0.439216
0.843137 0.949020 0.443137
0.929412 0.952941 0.447059
0.000000 0.035294 0.090196
0.023529 0.031373 0.133333
0.141176 0.062745 0.160784
0.356863 0.196078 0.286275
0.462745 0.231373 0.294118
0.564706 0.266667 0.294118
0.662745 0.301961 0.298039
0.756863 0.333333 0.301961
0.854902 0.368627 0.305882
0.000000 0.113725 0.133333
0.109804 0.196078 0.200000
0.223529 0.211765 0.274510
0.345098 0.235294 0.298039
0.450980 0.258824 0.294118
0.552941 0.286275 0.294118
0.654902 0.317647 0.298039
0.752941 0.349020 0.301961
0.850980 0.380392 0.305882
0.086275 0.305882 0.305882
0.168627 0.301961 0.325490
0.254902 0.305882 0.341176
0.341176 0.317647 0.372549
0.454902 0.329412 0.325490
0.560784 0.349020 0.317647
0.658824 0.372549 0.313725
0.756863 0.400000 0.317647
0.854902 0.427451 0.321569
0.141176 0.407843 0.313725
0.192157 0.407843 0.317647
0.278431 0.411765 0.333333
0.372549 0.415686 0.352941
0.470588 0.427451 0.360784
0.568627 0.435294 0.349020
0.666667 0.450980 0.341176
0.760784 0.462745 0.333333
0.850980 0.482353 0.333333
0.203922 0.513725 0.333333
0.235294 0.513725 0.333333
0.305882 0.513725 0.341176
0.388235 0.513725 0.352941
0.482353 0.517647 0.364706
0.576471 0.525490 0.368627
0.674510 0.537255 0.368627
0.772549 0.552941 0.364706
0.870588 0.568627 0.364706
0.262745 0.619608 0.356863
0.286275 0.619608 0.356863
0.341176 0.619608 0.360784
0.415686 0.619608 0.368627
0.501961 0.623529 0.376471
0.592157 0.627451 0.384314
0.686275 0.631373 0.388235
0.780392 0.643137 0.388235
0.878431 0.654902 0.388235
0.317647 0.721569 0.380392
0.337255 0.721569 0.380392
0.380392 0.721569 0.384314
0.447059 0.721569 0.388235
0.525490 0.725490 0.396078
0.611765 0.725490 0.400000
0.701961 0.733333 0.407843
0.796078 0.737255 0.411765
0.890196 0.749020 0.415686
0.372549 0.827451 0.407843
0.388235 0.827451 0.407843
0.427451 0.831373 0.411765
0.486275 0.831373 0.415686
0.560784 0.835294 0.423529
0.647059 0.839216 0.431373
0.737255 0.850980 0.443137
0.835294 0.862745 0.458824
0.933333 0.874510 0.466667
0.443137 0.945098 0.447059
0.454902 0.945098 0.447059
0.486275 0.945098 0.447059
0.537255 0.945098 0.450980
0.603922 0.945098 0.454902
0.678431 0.949020 0.458824
0.760784 0.949020 0.466667
0.847059 0.952941 0.470588
0.933333 0.956863 0.474510
0.000000 0.035294 0.239216
0.000000 0.047059 0.247059
0.211765 0.160784 0.349020
0.333333 0.203922 0.372549
0.443137 0.235294 0.380392
0.545098 0.266667 0.384314
0.647059 0.301961 0.392157
0.745098 0.337255 0.396078
0.847059 0.368627 0.400000
0.000000 0.180392 0.258824
0.105882 0.192157 0.274510
0.207843 0.211765 0.321569
0.321569 0.231373 0.356863
0.427451 0.254902 0.372549
0.529412 0.282353 0.380392
0.639216 0.313725 0.388235
0.741176 0.349020 0.392157
0.843137 0.384314 0.396078
0.066667 0.301961 0.337255
0.149020 0.301961 0.325490
0.223529 0.309804 0.317647
0.321569 0.317647 0.380392
0.431373 0.329412 0.400000
0.541176 0.349020 0.400000
0.647059 0.372549 0.403922
0.749020 0.400000 0.403922
0.850980 0.427451 0.407843
0.105882 0.400000 0.392157
0.168627 0.400000 0.400000
0.270588 0.400000 0.435294
0.356863 0.407843 0.450980
0.435294 0.423529 0.498039
0.552941 0.435294 0.443137
0.654902 0.450980 0.427451
0.752941 0.466667 0.419608
0.847059 0.482353 0.415686
0.176471 0.509804 0.407843
0.215686 0.509804 0.411765
0.286275 0.509804 0.419608
0.376471 0.509804 0.439216
0.466667 0.517647 0.454902
0.564706 0.525490 0.462745
0.666667 0.541176 0.454902
0.768627 0.552941 0.447059
0.866667 0.572549 0.443137
0.247059 0.619608 0.431373
0.274510 0.619608 0.431373
0.329412 0.619608 0.435294
0.407843 0.619608 0.443137
0.494118 0.623529 0.454902
0.588235 0.627451 0.466667
0.682353 0.635294 0.470588
0.780392 0.647059 0.470588
0.878431 0.662745 0.466667
0.309804 0.725490 0.450980
0.329412 0.725490 0.450980
0.376471 0.725490 0.450980
0.443137 0.725490 0.458824
0.525490 0.729412 0.466667
0.611765 0.733333 0.474510
0.701961 0.737255 0.482353
0.796078 0.745098 0.486275
0.894118 0.756863 0.486275
0.368627 0.835294 0.470588
0.388235 0.835294 0.474510
0.427451 0.839216 0.478431
0.490196 0.839216 0.482353
0.564706 0.843137 0.490196
0.647059 0.850980 0.498039
0.741176 0.858824 0.509804
0.839216 0.870588 0.521569
0.937255 0.882353 0.533333
0.443137 0.952941 0.505882
0.454902 0.949020 0.505882
0.486275 0.949020 0.505882
0.533333 0.949020 0.505882
0.600000 0.952941 0.509804
0.678431 0.952941 0.517647
0.760784 0.956863 0.521569
0.847059 0.960784 0.529412
0.933333 0.960784 0.529412
0.000000 0.054902 0.352941
0.000000 0.070588 0.352941
0.188235 0.176471 0.458824
0.313725 0.211765 0.470588
0.423529 0.239216 0.474510
0.525490 0.270588 0.478431
0.631373 0.305882 0.486275
0.733333 0.341176 0.494118
0.835294 0.376471 0.498039
0.000000 0.188235 0.411765
0.011765 0.196078 0.415686
0.180392 0.215686 0.431373
0.298039 0.235294 0.443137
0.407843 0.258824 0.454902
0.513725 0.286275 0.466667
0.619608 0.317647 0.478431
0.729412 0.352941 0.490196
0.831373 0.388235 0.494118
0.070588 0.305882 0.388235
0.141176 0.305882 0.372549
0.227451 0.309804 0.380392
0.313725 0.317647 0.431373
0.415686 0.333333 0.462745
0.525490 0.352941 0.482353
0.631373 0.376471 0.494118
0.737255 0.403922 0.501961
0.839216 0.431373 0.505882
0.090196 0.400000 0.443137
0.156863 0.400000 0.439216
0.250980 0.407843 0.427451
0.329412 0.419608 0.423529
0.423529 0.427451 0.490196
0.533333 0.439216 0.517647
0.639216 0.450980 0.513725
0.741176 0.466667 0.513725
0.839216 0.486275 0.509804
0.152941 0.505882 0.494118
0.196078 0.505882 0.498039
0.274510 0.505882 0.509804
0.376471 0.505882 0.549020
0.462745 0.513725 0.564706
0.529412 0.529412 0.623529
0.650980 0.541176 0.560784
0.756863 0.556863 0.545098
0.862745 0.576471 0.537255
0.227451 0.619608 0.517647
0.254902 0.619608 0.521569
0.317647 0.619608 0.525490
0.396078 0.619608 0.537255
0.486275 0.623529 0.552941
0.576471 0.631373 0.572549
0.670588 0.639216 0.580392
0.772549 0.650980 0.572549
0.874510 0.666667 0.560784
0.294118 0.729412 0.537255
0.313725 0.729412 0.537255
0.364706 0.729412 0.541176
0.431373 0.729412 0.545098
0.513725 0.733333 0.556863
0.603922 0.733333 0.564706
0.694118 0.741176 0.576471
0.788235 0.749020 0.580392
0.886275 0.760784 0.580392
0.360784 0.839216 0.552941
0.380392 0.839216 0.556863
0.419608 0.843137 0.560784
0.482353 0.843137 0.564706
0.556863 0.847059 0.572549
0.643137 0.854902 0.584314
0.737255 0.862745 0.596078
0.835294 0.874510 0.611765
0.933333 0.886275 0.619608
0.431373 0.952941 0.580392
0.443137 0.952941 0.580392
0.478431 0.952941 0.580392
0.529412 0.952941 0.584314
0.596078 0.952941 0.588235
0.670588 0.956863 0.592157
0.752941 0.956863 0.600000
0.843137 0.960784 0.603922
0.929412 0.964706 0.607843
0.000000 0.082353 0.462745
0.000000 0.168627 0.564706
0.149020 0.192157 0.568627
0.290196 0.223529 0.572549
0.400000 0.250980 0.572549
0.509804 0.278431 0.576471
0.615686 0.313725 0.584314
0.721569 0.345098 0.592157
0.823529 0.380392 0.600000
0.000000 0.200000 0.533333
0.000000 0.207843 0.537255
0.137255 0.223529 0.541176
0.270588 0.243137 0.545098
0.384314 0.262745 0.549020
0.494118 0.290196 0.560784
0.603922 0.325490 0.572549
0.713725 0.356863 0.584314
0.819608 0.392157 0.592157
0.000000 0.305882 0.529412
0.039216 0.305882 0.525490
0.180392 0.309804 0.529412
0.294118 0.321569 0.537255
0.400000 0.337255 0.552941
0.509804 0.356863 0.568627
0.615686 0.380392 0.584314
0.725490 0.407843 0.596078
0.831373 0.439216 0.603922
0.086275 0.400000 0.501961
0.156863 0.403922 0.490196
0.247059 0.411765 0.470588
0.337255 0.419608 0.482353
0.423529 0.431373 0.545098
0.521569 0.443137 0.580392
0.627451 0.458824 0.596078
0.729412 0.474510 0.600000
0.827451 0.490196 0.603922
0.141176 0.505882 0.560784
0.188235 0.509804 0.556863
0.266667 0.509804 0.549020
0.360784 0.513725 0.533333
0.435294 0.529412 0.533333
0.529412 0.537255 0.600000
0.639216 0.549020 0.631373
0.745098 0.564706 0.635294
0.850980 0.580392 0.635294
0.207843 0.619608 0.607843
0.239216 0.619608 0.607843
0.305882 0.619608 0.615686
0.388235 0.623529 0.631373
0.494118 0.619608 0.674510
0.576471 0.627451 0.682353
0.635294 0.643137 0.756863
0.756863 0.654902 0.686275
0.862745 0.670588 0.662745
0.278431 0.729412 0.631373
0.301961 0.729412 0.631373
0.349020 0.729412 0.635294
0.423529 0.729412 0.639216
0.509804 0.733333 0.654902
0.600000 0.737255 0.670588
0.686275 0.745098 0.690196
0.776471 0.752941 0.701961
0.878431 0.764706 0.690196
0.345098 0.839216 0.647059
0.364706 0.843137 0.650980
0.407843 0.847059 0.654902
0.474510 0.847059 0.658824
0.549020 0.850980 0.670588
0.639216 0.858824 0.682353
0.729412 0.866667 0.698039
0.827451 0.878431 0.713725
0.925490 0.890196 0.721569
0.419608 0.956863 0.670588
0.431373 0.956863 0.670588
0.466667 0.952941 0.670588
0.517647 0.952941 0.674510
0.584314 0.956863 0.678431
0.662745 0.956863 0.682353
0.749020 0.960784 0.690196
0.835294 0.964706 0.698039
0.925490 0.964706 0.701961
0.000000 0.192157 0.682353
0.000000 0.196078 0.682353
0.098039 0.215686 0.682353
0.258824 0.239216 0.682353
0.380392 0.262745 0.678431
0.494118 0.290196 0.682353
0.603922 0.321569 0.686275
0.709804 0.356863 0.694118
0.811765 0.388235 0.698039
0.000000 0.219608 0.650980
0.000000 0.227451 0.654902
0.062745 0.239216 0.654902
0.243137 0.254902 0.654902
0.364706 0.274510 0.658824
0.482353 0.301961 0.666667
0.592157 0.333333 0.674510
0.701961 0.368627 0.686275
0.807843 0.400000 0.694118
0.000000 0.313725 0.654902
0.000000 0.317647 0.650980
0.129412 0.321569 0.650980
0.266667 0.329412 0.654902
0.384314 0.345098 0.658824
0.494118 0.364706 0.670588
0.603922 0.388235 0.682353
0.713725 0.415686 0.690196
0.819608 0.443137 0.701961
0.000000 0.407843 0.631373
0.074510 0.411765 0.631373
0.196078 0.415686 0.631373
0.305882 0.423529 0.639216
0.407843 0.435294 0.650980
0.509804 0.447059 0.670588
0.615686 0.462745 0.682353
0.713725 0.478431 0.690196
0.815686 0.494118 0.698039
0.137255 0.513725 0.631373
0.184314 0.513725 0.627451
0.266667 0.517647 0.607843
0.360784 0.521569 0.572549
0.447059 0.533333 0.584314
0.529412 0.541176 0.650980
0.627451 0.552941 0.690196
0.733333 0.568627 0.709804
0.839216 0.584314 0.721569
0.196078 0.623529 0.682353
0.231373 0.623529 0.682353
0.298039 0.623529 0.678431
0.384314 0.627451 0.666667
0.474510 0.631373 0.650980
0.549020 0.643137 0.647059
0.635294 0.650980 0.713725
0.745098 0.658824 0.745098
0.850980 0.670588 0.749020
0.258824 0.729412 0.717647
0.282353 0.729412 0.717647
0.337255 0.729412 0.717647
0.411765 0.729412 0.725490
0.498039 0.729412 0.741176
0.603922 0.725490 0.788235
0.682353 0.737255 0.800000
0.737255 0.749020 0.878431
0.858824 0.764706 0.800000
0.325490 0.839216 0.737255
0.345098 0.839216 0.741176
0.392157 0.843137 0.745098
0.458824 0.843137 0.749020
0.537255 0.847059 0.760784
0.627451 0.854902 0.776471
0.721569 0.862745 0.800000
0.811765 0.874510 0.823529
0.905882 0.886275 0.839216
0.403922 0.956863 0.760784
0.415686 0.952941 0.760784
0.450980 0.952941 0.760784
0.501961 0.952941 0.764706
0.572549 0.952941 0.768627
0.650980 0.956863 0.776471
0.737255 0.956863 0.784314
0.823529 0.960784 0.796078
0.909804 0.964706 0.803922
0.000000 0.223529 0.800000
0.000000 0.227451 0.796078
0.000000 0.239216 0.792157
0.223529 0.254902 0.788235
0.360784 0.278431 0.788235
0.478431 0.305882 0.788235
0.588235 0.333333 0.792157
0.694118 0.364706 0.796078
0.800000 0.396078 0.800000
0.000000 0.239216 0.764706
0.000000 0.243137 0.764706
0.000000 0.254902 0.764706
0.203922 0.270588 0.764706
0.345098 0.290196 0.764706
0.466667 0.317647 0.772549
0.580392 0.345098 0.780392
0.690196 0.376471 0.788235
0.796078 0.407843 0.792157
0.000000 0.325490 0.768627
0.000000 0.325490 0.768627
0.023529 0.329412 0.768627
0.235294 0.341176 0.768627
0.364706 0.356863 0.772549
0.482353 0.376471 0.776471
0.592157 0.400000 0.784314
0.698039 0.423529 0.792157
0.803922 0.450980 0.800000
0.000000 0.415686 0.756863
0.000000 0.419608 0.756863
0.137255 0.423529 0.760784
0.270588 0.431373 0.764706
0.388235 0.443137 0.768627
0.494118 0.454902 0.776471
0.600000 0.466667 0.780392
0.701961 0.482353 0.788235
0.800000 0.501961 0.792157
0.050980 0.517647 0.745098
0.125490 0.517647 0.745098
0.219608 0.521569 0.741176
0.321569 0.525490 0.737255
0.419608 0.533333 0.745098
0.517647 0.545098 0.760784
0.619608 0.556863 0.780392
0.721569 0.572549 0.796078
0.823529 0.588235 0.807843
0.184314 0.623529 0.756863
0.219608 0.623529 0.752941
0.290196 0.627451 0.745098
0.380392 0.631373 0.721569
0.474510 0.635294 0.682353
0.556863 0.643137 0.690196
0.639216 0.650980 0.760784
0.733333 0.662745 0.800000
0.835294 0.674510 0.819608
0.247059 0.729412 0.796078
0.270588 0.729412 0.792157
0.325490 0.729412 0.792157
0.403922 0.729412 0.784314
0.490196 0.733333 0.776471
0.584314 0.737255 0.756863
0.654902 0.752941 0.756863
0.741176 0.756863 0.819608
0.847059 0.764706 0.854902
0.305882 0.835294 0.823529
0.329412 0.835294 0.827451
0.376471 0.839216 0.831373
0.443137 0.843137 0.835294
0.525490 0.847059 0.843137
0.619608 0.850980 0.866667
0.729412 0.850980 0.921569
0.815686 0.866667 0.933333
0.866667 0.882353 1.000000
0.384314 0.952941 0.854902
0.400000 0.952941 0.850980
0.435294 0.952941 0.854902
0.490196 0.952941 0.854902
0.560784 0.952941 0.858824
0.639216 0.952941 0.870588
0.725490 0.952941 0.882353
0.815686 0.956863 0.901961
0.898039 0.960784 0.913725
0.000000 0.250980 0.909804
0.000000 0.254902 0.905882
0.000000 0.262745 0.901961
0.184314 0.278431 0.901961
0.337255 0.298039 0.898039
0.458824 0.321569 0.898039
0.572549 0.349020 0.898039
0.682353 0.376471 0.898039
0.784314 0.407843 0.898039
0.000000 0.262745 0.878431
0.000000 0.266667 0.878431
0.000000 0.278431 0.878431
0.156863 0.290196 0.878431
0.321569 0.309804 0.882353
0.450980 0.333333 0.886275
0.568627 0.360784 0.886275
0.674510 0.388235 0.890196
0.780392 0.415686 0.894118
0.000000 0.341176 0.886275
0.000000 0.345098 0.882353
0.000000 0.349020 0.882353
0.196078 0.356863 0.882353
0.341176 0.372549 0.886275
0.462745 0.388235 0.890196
0.576471 0.411765 0.890196
0.686275 0.431373 0.894118
0.792157 0.458824 0.898039
0.000000 0.427451 0.874510
0.000000 0.431373 0.878431
0.031373 0.435294 0.878431
0.235294 0.443137 0.878431
0.364706 0.450980 0.882353
0.478431 0.462745 0.882353
0.584314 0.474510 0.886275
0.686275 0.490196 0.886275
0.788235 0.505882 0.890196
0.000000 0.525490 0.866667
0.000000 0.525490 0.866667
0.156863 0.529412 0.866667
0.282353 0.533333 0.866667
0.392157 0.541176 0.866667
0.498039 0.549020 0.874510
0.600000 0.560784 0.882353
0.705882 0.572549 0.890196
0.807843 0.588235 0.901961
0.125490 0.623529 0.858824
0.172549 0.627451 0.858824
0.247059 0.627451 0.854902
0.341176 0.631373 0.847059
0.435294 0.635294 0.843137
0.525490 0.643137 0.847059
0.619608 0.650980 0.862745
0.717647 0.658824 0.882353
0.819608 0.670588 0.898039
0.223529 0.725490 0.870588
0.250980 0.725490 0.870588
0.309804 0.725490 0.862745
0.392157 0.729412 0.850980
0.482353 0.733333 0.823529
0.576471 0.741176 0.776471
0.658824 0.749020 0.788235
0.737255 0.752941 0.862745
0.835294 0.764706 0.905882
0.286275 0.827451 0.901961
0.309804 0.831373 0.901961
0.356863 0.831373 0.901961
0.427451 0.835294 0.901961
0.513725 0.839216 0.898039
0.607843 0.847059 0.890196
0.701961 0.862745 0.878431
0.780392 0.878431 0.882353
0.866667 0.886275 0.949020
0.364706 0.949020 0.937255
0.380392 0.949020 0.937255
0.415686 0.949020 0.937255
0.474510 0.949020 0.937255
0.545098 0.949020 0.941176
0.627451 0.949020 0.949020
0.717647 0.949020 0.968627
0.823529 0.945098 1.000000
0.898039 0.949020 1.000000
0.000000 0.278431 1.000000
0.000000 0.278431 1.000000
0.000000 0.286275 1.000000
0.117647 0.301961 1.000000
0.309804 0.317647 1.000000
0.439216 0.341176 1.000000
0.556863 0.364706 1.000000
0.666667 0.388235 1.000000
0.768627 0.415686 1.000000
0.000000 0.290196 0.992157
0.000000 0.294118 0.992157
0.000000 0.301961 0.992157
0.090196 0.313725 0.992157
0.298039 0.333333 0.996078
0.431373 0.352941 0.996078
0.552941 0.376471 0.996078
0.662745 0.400000 0.996078
0.764706 0.423529 0.996078
0.000000 0.360784 1.000000
0.000000 0.364706 1.000000
0.000000 0.368627 1.000000
0.145098 0.376471 1.000000
0.317647 0.388235 1.000000
0.443137 0.403922 0.996078
0.560784 0.419608 0.996078
0.666667 0.443137 0.996078
0.772549 0.462745 1.000000
0.000000 0.443137 0.992157
0.000000 0.443137 0.992157
0.000000 0.447059 0.992157
0.188235 0.450980 0.992157
0.333333 0.462745 0.992157
0.454902 0.470588 0.992157
0.564706 0.482353 0.988235
0.670588 0.494118 0.988235
0.772549 0.509804 0.988235
0.000000 0.533333 0.984314
0.000000 0.533333 0.980392
0.043137 0.533333 0.980392
0.235294 0.537255 0.980392
0.360784 0.545098 0.980392
0.474510 0.552941 0.984314
0.580392 0.560784 0.984314
0.686275 0.572549 0.988235
0.788235 0.588235 0.996078
0.000000 0.627451 0.968627
0.050980 0.627451 0.968627
0.180392 0.627451 0.968627
0.294118 0.631373 0.968627
0.396078 0.635294 0.964706
0.498039 0.639216 0.968627
0.600000 0.647059 0.972549
0.698039 0.654902 0.980392
0.800000 0.666667 0.988235
0.168627 0.721569 0.964706
0.203922 0.721569 0.964706
0.266667 0.725490 0.960784
0.352941 0.725490 0.952941
0.443137 0.729412 0.945098
0.537255 0.733333 0.937255
0.627451 0.741176 0.941176
0.721569 0.749020 0.960784
0.823529 0.764706 0.988235
0.258824 0.823529 0.976471
0.282353 0.823529 0.976471
0.337255 0.827451 0.976471
0.411765 0.831373 0.972549
0.498039 0.839216 0.960784
0.596078 0.847059 0.937255
0.698039 0.862745 0.894118
0.784314 0.874510 0.913725
0.862745 0.882353 0.992157
0.345098 0.945098 1.000000
0.360784 0.945098 1.000000
0.400000 0.945098 1.000000
0.462745 0.945098 1.000000
0.537255 0.945098 1.000000
0.619608 0.949020 1.000000
0.709804 0.952941 0.992157
0.796078 0.956863 0.972549
0.878431 0.980392 0.984314
