luts/PictureFX J.S. Style Wildflowers - Typical J.S. color palette and tonal repartition - add bloom, exp.cube
#Generated by lutCreator.js
#Coded by SirSerch
#https://github.com/SirSerch/LutCreatorJs
TITLE lutCreatorJs_25
LUT_3D_SIZE 5
0.000000 0.039216 0.074510
0.235294 0.000000 0.086275
0.639216 0.105882 0.141176
0.898039 0.074510 0.101961
1.000000 0.000000 0.043137
0.007843 0.345098 0.192157
0.325490 0.333333 0.239216
0.607843 0.329412 0.164706
0.874510 0.305882 0.113725
1.000000 0.266667 0.047059
0.000000 0.588235 0.176471
0.278431 0.584314 0.184314
0.564706 0.572549 0.196078
0.839216 0.564706 0.145098
1.000000 0.549020 0.047059
0.000000 0.835294 0.113725
0.203922 0.831373 0.113725
0.521569 0.823529 0.117647
0.792157 0.803922 0.090196
1.000000 0.780392 0.000000
0.000000 1.000000 0.000000
0.000000 1.000000 0.000000
0.400000 1.000000 0.000000
0.698039 1.000000 0.000000
0.960784 0.980392 0.000000
0.000000 0.050980 0.450980
0.184314 0.000000 0.392157
0.615686 0.086275 0.443137
0.886275 0.035294 0.392157
1.000000 0.000000 0.341176
0.000000 0.345098 0.443137
0.266667 0.341176 0.368627
0.588235 0.317647 0.415686
0.862745 0.294118 0.376471
1.000000 0.258824 0.337255
0.000000 0.584314 0.403922
0.239216 0.576471 0.411765
0.545098 0.564706 0.454902
0.827451 0.560784 0.384314
1.000000 0.545098 0.329412
0.000000 0.831373 0.349020
0.172549 0.827451 0.349020
0.517647 0.819608 0.352941
0.796078 0.807843 0.349020
1.000000 0.788235 0.298039
0.000000 1.000000 0.227451
0.000000 1.000000 0.223529
0.415686 1.000000 0.211765
0.713725 1.000000 0.196078
0.976471 0.992157 0.152941
0.000000 0.062745 0.784314
0.000000 0.121569 0.862745
0.549020 0.101961 0.803922
0.858824 0.003922 0.741176
1.000000 0.000000 0.682353
0.000000 0.341176 0.811765
0.000000 0.333333 0.792157
0.533333 0.317647 0.756863
0.843137 0.286275 0.713725
1.000000 0.247059 0.666667
0.000000 0.584314 0.709804
0.000000 0.584314 0.698039
0.498039 0.576471 0.611765
0.815686 0.556863 0.670588
1.000000 0.541176 0.639216
0.000000 0.831373 0.654902
0.000000 0.827451 0.654902
0.486275 0.819608 0.662745
0.776471 0.803922 0.713725
1.000000 0.792157 0.627451
0.000000 1.000000 0.568627
0.000000 1.000000 0.564706
0.400000 1.000000 0.556863
0.713725 1.000000 0.552941
0.980392 1.000000 0.541176
0.000000 0.168627 1.000000
0.000000 0.160784 1.000000
0.415686 0.137255 1.000000
0.800000 0.047059 1.000000
1.000000 0.000000 1.000000
0.000000 0.349020 1.000000
0.000000 0.341176 1.000000
0.400000 0.325490 1.000000
0.784314 0.290196 1.000000
1.000000 0.247059 1.000000
0.000000 0.588235 1.000000
0.000000 0.584314 1.000000
0.388235 0.572549 1.000000
0.772549 0.560784 1.000000
1.000000 0.533333 0.972549
0.000000 0.835294 0.976471
0.000000 0.831373 0.972549
0.352941 0.827451 0.949020
0.733333 0.815686 0.850980
1.000000 0.784314 0.901961
0.000000 1.000000 0.878431
0.000000 1.000000 0.874510
0.301961 1.000000 0.862745
0.674510 1.000000 0.862745
0.956863 0.992157 0.921569
0.000000 0.203922 1.000000
0.000000 0.200000 1.000000
0.000000 0.172549 1.000000
0.694118 0.094118 1.000000
1.000000 0.000000 1.000000
0.000000 0.360784 1.000000
0.000000 0.356863 1.000000
0.000000 0.337255 1.000000
0.682353 0.298039 1.000000
1.000000 0.258824 1.000000
0.000000 0.592157 1.000000
0.000000 0.588235 1.000000
0.000000 0.580392 1.000000
0.682353 0.564706 1.000000
1.000000 0.529412 1.000000
0.000000 0.835294 1.000000
0.000000 0.831373 1.000000
0.000000 0.819608 1.000000
0.643137 0.800000 1.000000
0.976471 0.768627 1.000000
0.000000 1.000000 1.000000
0.000000 1.000000 1.000000
0.000000 1.000000 1.000000
0.549020 0.996078 1.000000
0.901961 0.988235 1.000000
