luts/PictureFX Alaska - set strength or opacity to taste - sample at 100% opacity.cube
#Generated with IWLTBAP LUT Generator
#Website: http://luts.iwltbap.com
TITLE "PictureFX-Alaska-3DL25"
#LUT size
LUT_3D_SIZE 25
#LUT data points
0.000000 0.019608 0.000000
0.000000 0.011765 0.000000
0.023529 0.000000 0.000000
0.090196 0.000000 0.000000
0.137255 0.000000 0.000000
0.207843 0.031373 0.035294
0.247059 0.031373 0.047059
0.290196 0.027451 0.058824
0.329412 0.023529 0.066667
0.372549 0.023529 0.070588
0.411765 0.027451 0.078431
0.450980 0.031373 0.082353
0.490196 0.035294 0.082353
0.525490 0.039216 0.086275
0.560784 0.039216 0.086275
0.600000 0.043137 0.090196
0.635294 0.039216 0.090196
0.670588 0.035294 0.094118
0.705882 0.031373 0.098039
0.741176 0.027451 0.101961
0.776471 0.019608 0.105882
0.811765 0.011765 0.109804
0.847059 0.000000 0.113725
0.882353 0.000000 0.121569
0.917647 0.000000 0.125490
0.000000 0.031373 0.000000
0.000000 0.031373 0.000000
0.003922 0.031373 0.000000
0.105882 0.062745 0.011765
0.149020 0.062745 0.023529
0.192157 0.062745 0.035294
0.239216 0.058824 0.047059
0.282353 0.054902 0.058824
0.325490 0.050980 0.066667
0.364706 0.050980 0.074510
0.407843 0.050980 0.078431
0.443137 0.054902 0.078431
0.482353 0.058824 0.082353
0.517647 0.058824 0.082353
0.556863 0.062745 0.086275
0.592157 0.062745 0.086275
0.627451 0.062745 0.090196
0.666667 0.058824 0.094118
0.701961 0.058824 0.098039
0.737255 0.054902 0.101961
0.772549 0.047059 0.105882
0.807843 0.043137 0.109804
0.847059 0.035294 0.117647
0.882353 0.023529 0.121569
0.917647 0.011765 0.125490
0.000000 0.090196 0.000000
0.011765 0.090196 0.000000
0.062745 0.090196 0.003922
0.109804 0.090196 0.031373
0.145098 0.094118 0.043137
0.184314 0.094118 0.043137
0.231373 0.090196 0.054902
0.278431 0.082353 0.066667
0.321569 0.078431 0.074510
0.364706 0.078431 0.078431
0.403922 0.082353 0.078431
0.439216 0.082353 0.082353
0.478431 0.086275 0.082353
0.513725 0.086275 0.082353
0.552941 0.090196 0.086275
0.588235 0.090196 0.086275
0.623529 0.090196 0.090196
0.662745 0.086275 0.094118
0.698039 0.086275 0.098039
0.733333 0.082353 0.101961
0.772549 0.078431 0.105882
0.807843 0.074510 0.113725
0.843137 0.070588 0.117647
0.882353 0.062745 0.121569
0.917647 0.050980 0.125490
0.000000 0.125490 0.000000
0.031373 0.125490 0.007843
0.074510 0.125490 0.015686
0.117647 0.125490 0.035294
0.152941 0.125490 0.054902
0.184314 0.129412 0.054902
0.231373 0.125490 0.070588
0.282353 0.117647 0.086275
0.329412 0.117647 0.090196
0.368627 0.117647 0.094118
0.403922 0.117647 0.090196
0.443137 0.121569 0.090196
0.478431 0.121569 0.090196
0.513725 0.125490 0.090196
0.552941 0.125490 0.090196
0.588235 0.125490 0.094118
0.623529 0.125490 0.094118
0.662745 0.121569 0.098039
0.698039 0.121569 0.101961
0.733333 0.117647 0.105882
0.768627 0.117647 0.109804
0.803922 0.113725 0.113725
0.843137 0.105882 0.117647
0.878431 0.101961 0.121569
0.913725 0.094118 0.125490
0.003922 0.164706 0.015686
0.043137 0.164706 0.019608
0.082353 0.164706 0.027451
0.125490 0.164706 0.035294
0.160784 0.164706 0.047059
0.196078 0.168627 0.058824
0.235294 0.172549 0.074510
0.286275 0.164706 0.109804
0.337255 0.156863 0.121569
0.376471 0.156863 0.117647
0.411765 0.160784 0.109804
0.447059 0.160784 0.105882
0.482353 0.164706 0.101961
0.517647 0.164706 0.101961
0.556863 0.164706 0.101961
0.592157 0.164706 0.101961
0.627451 0.164706 0.105882
0.662745 0.160784 0.105882
0.698039 0.160784 0.109804
0.733333 0.156863 0.109804
0.768627 0.152941 0.113725
0.803922 0.149020 0.117647
0.839216 0.145098 0.121569
0.874510 0.137255 0.125490
0.909804 0.133333 0.125490
0.027451 0.211765 0.035294
0.066667 0.211765 0.035294
0.101961 0.211765 0.039216
0.141176 0.211765 0.043137
0.176471 0.211765 0.047059
0.211765 0.211765 0.047059
0.243137 0.215686 0.054902
0.278431 0.215686 0.086275
0.329412 0.207843 0.129412
0.376471 0.203922 0.141176
0.411765 0.200000 0.129412
0.447059 0.203922 0.121569
0.482353 0.203922 0.117647
0.517647 0.203922 0.113725
0.552941 0.203922 0.113725
0.588235 0.203922 0.113725
0.623529 0.200000 0.113725
0.662745 0.200000 0.113725
0.698039 0.200000 0.117647
0.733333 0.196078 0.117647
0.768627 0.196078 0.121569
0.803922 0.192157 0.125490
0.839216 0.188235 0.129412
0.878431 0.184314 0.129412
0.913725 0.180392 0.133333
0.043137 0.247059 0.031373
0.074510 0.247059 0.031373
0.109804 0.243137 0.035294
0.145098 0.243137 0.035294
0.180392 0.243137 0.031373
0.215686 0.243137 0.027451
0.250980 0.243137 0.011765
0.282353 0.243137 0.007843
0.309804 0.247059 0.058824
0.352941 0.243137 0.117647
0.396078 0.239216 0.133333
0.439216 0.239216 0.133333
0.474510 0.235294 0.125490
0.509804 0.235294 0.121569
0.545098 0.235294 0.121569
0.584314 0.235294 0.117647
0.619608 0.235294 0.117647
0.654902 0.235294 0.121569
0.690196 0.235294 0.121569
0.729412 0.231373 0.125490
0.764706 0.231373 0.125490
0.800000 0.227451 0.129412
0.839216 0.227451 0.133333
0.874510 0.223529 0.137255
0.909804 0.219608 0.137255
0.050980 0.278431 0.031373
0.082353 0.278431 0.031373
0.109804 0.278431 0.031373
0.145098 0.278431 0.031373
0.184314 0.274510 0.031373
0.219608 0.274510 0.023529
0.258824 0.274510 0.011765
0.290196 0.274510 0.000000
0.317647 0.278431 0.000000
0.345098 0.282353 0.027451
0.380392 0.282353 0.098039
0.423529 0.278431 0.125490
0.466667 0.274510 0.133333
0.501961 0.274510 0.129412
0.541176 0.274510 0.129412
0.576471 0.270588 0.129412
0.615686 0.270588 0.125490
0.650980 0.270588 0.129412
0.686275 0.270588 0.129412
0.725490 0.270588 0.129412
0.760784 0.266667 0.133333
0.796078 0.266667 0.133333
0.835294 0.262745 0.137255
0.870588 0.262745 0.141176
0.905882 0.258824 0.141176
0.058824 0.317647 0.039216
0.086275 0.313725 0.039216
0.113725 0.313725 0.039216
0.149020 0.313725 0.039216
0.184314 0.313725 0.039216
0.223529 0.313725 0.035294
0.258824 0.309804 0.023529
0.298039 0.309804 0.003922
0.329412 0.309804 0.000000
0.356863 0.313725 0.000000
0.380392 0.317647 0.011765
0.415686 0.317647 0.082353
0.454902 0.317647 0.117647
0.494118 0.313725 0.129412
0.533333 0.309804 0.133333
0.572549 0.309804 0.137255
0.607843 0.309804 0.137255
0.647059 0.309804 0.137255
0.682353 0.305882 0.137255
0.717647 0.305882 0.137255
0.756863 0.305882 0.137255
0.792157 0.301961 0.141176
0.827451 0.298039 0.141176
0.862745 0.298039 0.141176
0.898039 0.294118 0.145098
0.066667 0.352941 0.047059
0.090196 0.352941 0.050980
0.117647 0.352941 0.050980
0.152941 0.352941 0.050980
0.188235 0.352941 0.047059
0.223529 0.352941 0.047059
0.262745 0.349020 0.039216
0.298039 0.349020 0.027451
0.333333 0.349020 0.003922
0.368627 0.349020 0.000000
0.392157 0.352941 0.000000
0.419608 0.352941 0.019608
0.450980 0.356863 0.078431
0.490196 0.352941 0.113725
0.529412 0.352941 0.129412
0.564706 0.349020 0.137255
0.603922 0.349020 0.141176
0.639216 0.345098 0.141176
0.678431 0.345098 0.141176
0.713725 0.341176 0.141176
0.749020 0.341176 0.141176
0.784314 0.337255 0.145098
0.819608 0.333333 0.145098
0.854902 0.329412 0.145098
0.890196 0.325490 0.145098
0.074510 0.396078 0.062745
0.098039 0.396078 0.062745
0.125490 0.396078 0.062745
0.156863 0.392157 0.062745
0.188235 0.392157 0.058824
0.227451 0.392157 0.058824
0.262745 0.388235 0.054902
0.301961 0.388235 0.047059
0.337255 0.388235 0.031373
0.372549 0.384314 0.011765
0.403922 0.388235 0.000000
0.427451 0.388235 0.000000
0.454902 0.392157 0.035294
0.486275 0.392157 0.082353
0.521569 0.392157 0.113725
0.560784 0.388235 0.133333
0.600000 0.388235 0.141176
0.639216 0.384314 0.145098
0.674510 0.384314 0.149020
0.713725 0.380392 0.152941
0.749020 0.380392 0.152941
0.784314 0.376471 0.152941
0.823529 0.376471 0.156863
0.858824 0.372549 0.156863
0.894118 0.372549 0.156863
0.066667 0.427451 0.062745
0.090196 0.427451 0.062745
0.117647 0.427451 0.062745
0.149020 0.427451 0.062745
0.184314 0.423529 0.062745
0.219608 0.423529 0.062745
0.258824 0.423529 0.058824
0.294118 0.423529 0.054902
0.333333 0.419608 0.047059
0.368627 0.419608 0.035294
0.400000 0.419608 0.019608
0.431373 0.419608 0.007843
0.462745 0.423529 0.015686
0.490196 0.423529 0.047059
0.521569 0.427451 0.086275
0.556863 0.427451 0.113725
0.592157 0.423529 0.133333
0.631373 0.423529 0.145098
0.670588 0.423529 0.152941
0.709804 0.419608 0.156863
0.745098 0.419608 0.156863
0.784314 0.415686 0.160784
0.819608 0.415686 0.160784
0.858824 0.411765 0.164706
0.898039 0.411765 0.168627
0.054902 0.462745 0.070588
0.082353 0.462745 0.070588
0.109804 0.458824 0.070588
0.141176 0.458824 0.070588
0.176471 0.458824 0.066667
0.215686 0.458824 0.066667
0.250980 0.458824 0.066667
0.290196 0.454902 0.062745
0.325490 0.454902 0.058824
0.364706 0.454902 0.050980
0.400000 0.454902 0.043137
0.431373 0.454902 0.031373
0.462745 0.454902 0.027451
0.494118 0.458824 0.039216
0.521569 0.458824 0.062745
0.556863 0.458824 0.094118
0.592157 0.458824 0.117647
0.627451 0.458824 0.133333
0.662745 0.458824 0.145098
0.701961 0.454902 0.152941
0.741176 0.454902 0.160784
0.776471 0.454902 0.164706
0.815686 0.450980 0.168627
0.854902 0.450980 0.172549
0.894118 0.450980 0.176471
0.043137 0.494118 0.074510
0.074510 0.494118 0.074510
0.101961 0.494118 0.074510
0.137255 0.494118 0.074510
0.172549 0.494118 0.074510
0.207843 0.494118 0.074510
0.247059 0.494118 0.074510
0.282353 0.490196 0.070588
0.321569 0.490196 0.070588
0.360784 0.490196 0.066667
0.396078 0.490196 0.058824
0.431373 0.490196 0.050980
0.462745 0.490196 0.047059
0.494118 0.490196 0.043137
0.525490 0.490196 0.054902
0.556863 0.490196 0.074510
0.588235 0.490196 0.098039
0.619608 0.490196 0.117647
0.654902 0.490196 0.133333
0.694118 0.490196 0.145098
0.729412 0.490196 0.156863
0.768627 0.486275 0.164706
0.807843 0.490196 0.168627
0.850980 0.490196 0.176471
0.890196 0.490196 0.180392
0.023529 0.529412 0.078431
0.054902 0.529412 0.078431
0.090196 0.529412 0.078431
0.125490 0.529412 0.078431
0.160784 0.529412 0.078431
0.200000 0.529412 0.078431
0.239216 0.525490 0.078431
0.278431 0.525490 0.078431
0.313725 0.525490 0.074510
0.352941 0.521569 0.074510
0.388235 0.521569 0.070588
0.423529 0.521569 0.062745
0.458824 0.521569 0.058824
0.490196 0.521569 0.054902
0.521569 0.521569 0.054902
0.552941 0.521569 0.062745
0.584314 0.521569 0.078431
0.615686 0.521569 0.098039
0.647059 0.521569 0.117647
0.686275 0.521569 0.133333
0.725490 0.521569 0.149020
0.760784 0.521569 0.156863
0.803922 0.525490 0.168627
0.843137 0.525490 0.176471
0.886275 0.525490 0.184314
0.000000 0.564706 0.086275
0.035294 0.564706 0.086275
0.074510 0.564706 0.086275
0.113725 0.564706 0.086275
0.152941 0.564706 0.086275
0.192157 0.564706 0.086275
0.231373 0.560784 0.086275
0.270588 0.560784 0.086275
0.309804 0.560784 0.086275
0.349020 0.560784 0.082353
0.384314 0.560784 0.082353
0.419608 0.556863 0.078431
0.458824 0.556863 0.074510
0.490196 0.556863 0.070588
0.525490 0.556863 0.070588
0.556863 0.556863 0.074510
0.588235 0.560784 0.086275
0.623529 0.560784 0.101961
0.658824 0.564706 0.117647
0.694118 0.564706 0.137255
0.733333 0.568627 0.152941
0.772549 0.568627 0.168627
0.815686 0.572549 0.180392
0.854902 0.576471 0.192157
0.898039 0.580392 0.203922
0.000000 0.600000 0.094118
0.011765 0.600000 0.094118
0.058824 0.600000 0.098039
0.101961 0.600000 0.098039
0.145098 0.600000 0.098039
0.188235 0.600000 0.098039
0.227451 0.600000 0.098039
0.266667 0.600000 0.098039
0.305882 0.600000 0.098039
0.345098 0.596078 0.094118
0.384314 0.596078 0.094118
0.419608 0.596078 0.094118
0.458824 0.596078 0.094118
0.494118 0.596078 0.090196
0.529412 0.596078 0.090196
0.564706 0.600000 0.094118
0.600000 0.600000 0.101961
0.631373 0.603922 0.109804
0.666667 0.607843 0.125490
0.705882 0.607843 0.141176
0.741176 0.611765 0.156863
0.780392 0.615686 0.172549
0.823529 0.619608 0.188235
0.862745 0.623529 0.203922
0.909804 0.627451 0.215686
0.000000 0.639216 0.105882
0.000000 0.639216 0.105882
0.035294 0.639216 0.105882
0.090196 0.639216 0.105882
0.137255 0.639216 0.105882
0.180392 0.639216 0.105882
0.219608 0.639216 0.105882
0.262745 0.635294 0.105882
0.301961 0.635294 0.109804
0.341176 0.635294 0.109804
0.380392 0.635294 0.109804
0.419608 0.635294 0.109804
0.458824 0.639216 0.109804
0.498039 0.639216 0.109804
0.533333 0.639216 0.109804
0.568627 0.639216 0.113725
0.603922 0.643137 0.117647
0.639216 0.643137 0.125490
0.674510 0.647059 0.137255
0.713725 0.650980 0.149020
0.749020 0.654902 0.164706
0.788235 0.658824 0.180392
0.831373 0.662745 0.196078
0.870588 0.666667 0.207843
0.909804 0.670588 0.219608
0.000000 0.674510 0.117647
0.000000 0.674510 0.117647
0.007843 0.674510 0.117647
0.074510 0.674510 0.117647
0.125490 0.674510 0.117647
0.172549 0.674510 0.117647
0.215686 0.674510 0.117647
0.258824 0.674510 0.117647
0.298039 0.674510 0.121569
0.337255 0.674510 0.121569
0.380392 0.674510 0.121569
0.419608 0.674510 0.121569
0.458824 0.678431 0.121569
0.498039 0.678431 0.125490
0.533333 0.678431 0.125490
0.572549 0.678431 0.129412
0.607843 0.682353 0.133333
0.647059 0.686275 0.141176
0.682353 0.690196 0.149020
0.721569 0.694118 0.160784
0.760784 0.698039 0.172549
0.796078 0.701961 0.188235
0.835294 0.701961 0.200000
0.874510 0.705882 0.211765
0.913725 0.709804 0.223529
0.000000 0.713725 0.129412
0.000000 0.713725 0.129412
0.000000 0.713725 0.129412
0.054902 0.713725 0.129412
0.113725 0.713725 0.129412
0.164706 0.713725 0.129412
0.207843 0.713725 0.129412
0.250980 0.713725 0.129412
0.294118 0.713725 0.133333
0.333333 0.713725 0.133333
0.376471 0.713725 0.133333
0.415686 0.717647 0.137255
0.458824 0.717647 0.137255
0.498039 0.717647 0.141176
0.537255 0.721569 0.145098
0.576471 0.725490 0.149020
0.615686 0.725490 0.152941
0.654902 0.729412 0.160784
0.690196 0.733333 0.164706
0.729412 0.733333 0.172549
0.764706 0.737255 0.180392
0.800000 0.741176 0.192157
0.839216 0.741176 0.203922
0.874510 0.745098 0.215686
0.913725 0.745098 0.227451
0.000000 0.760784 0.149020
0.000000 0.760784 0.149020
0.000000 0.760784 0.149020
0.058824 0.760784 0.149020
0.117647 0.760784 0.152941
0.168627 0.760784 0.152941
0.215686 0.764706 0.152941
0.258824 0.764706 0.156863
0.301961 0.764706 0.156863
0.345098 0.764706 0.160784
0.388235 0.768627 0.164706
0.427451 0.768627 0.164706
0.470588 0.772549 0.168627
0.509804 0.772549 0.172549
0.549020 0.772549 0.176471
0.588235 0.776471 0.176471
0.627451 0.776471 0.180392
0.662745 0.776471 0.184314
0.701961 0.780392 0.188235
0.737255 0.780392 0.192157
0.776471 0.784314 0.200000
0.811765 0.784314 0.207843
0.847059 0.788235 0.215686
0.886275 0.788235 0.227451
0.921569 0.792157 0.235294
0.000000 0.815686 0.180392
0.000000 0.815686 0.180392
0.035294 0.815686 0.180392
0.090196 0.815686 0.180392
0.141176 0.815686 0.180392
0.184314 0.815686 0.180392
0.227451 0.815686 0.184314
0.270588 0.815686 0.184314
0.313725 0.815686 0.184314
0.352941 0.815686 0.184314
0.392157 0.815686 0.188235
0.435294 0.815686 0.188235
0.474510 0.819608 0.192157
0.513725 0.819608 0.192157
0.552941 0.819608 0.192157
0.592157 0.819608 0.196078
0.631373 0.819608 0.196078
0.670588 0.819608 0.200000
0.705882 0.823529 0.203922
0.745098 0.823529 0.207843
0.780392 0.823529 0.211765
0.815686 0.823529 0.219608
0.850980 0.827451 0.223529
0.886275 0.827451 0.231373
0.921569 0.827451 0.239216
0.000000 0.858824 0.196078
0.000000 0.858824 0.196078
0.031373 0.858824 0.196078
0.090196 0.858824 0.196078
0.141176 0.858824 0.200000
0.184314 0.858824 0.200000
0.227451 0.858824 0.200000
0.270588 0.858824 0.200000
0.309804 0.858824 0.200000
0.352941 0.858824 0.203922
0.392157 0.858824 0.203922
0.435294 0.858824 0.203922
0.474510 0.858824 0.207843
0.513725 0.858824 0.207843
0.552941 0.858824 0.207843
0.592157 0.858824 0.211765
0.631373 0.862745 0.211765
0.670588 0.862745 0.215686
0.705882 0.862745 0.215686
0.745098 0.862745 0.219608
0.780392 0.862745 0.223529
0.815686 0.862745 0.227451
0.850980 0.862745 0.231373
0.886275 0.862745 0.239216
0.921569 0.862745 0.243137
0.000000 0.901961 0.211765
0.000000 0.901961 0.211765
0.007843 0.901961 0.211765
0.078431 0.901961 0.211765
0.129412 0.901961 0.211765
0.176471 0.901961 0.211765
0.223529 0.901961 0.211765
0.266667 0.901961 0.211765
0.305882 0.898039 0.215686
0.349020 0.898039 0.215686
0.392157 0.898039 0.215686
0.431373 0.898039 0.215686
0.470588 0.898039 0.219608
0.509804 0.898039 0.219608
0.549020 0.898039 0.219608
0.588235 0.898039 0.219608
0.627451 0.898039 0.223529
0.666667 0.898039 0.223529
0.701961 0.898039 0.223529
0.741176 0.898039 0.227451
0.776471 0.898039 0.231373
0.811765 0.898039 0.231373
0.850980 0.898039 0.235294
0.886275 0.898039 0.243137
0.921569 0.898039 0.250980
0.000000 0.937255 0.223529
0.000000 0.937255 0.223529
0.000000 0.937255 0.223529
0.043137 0.937255 0.223529
0.109804 0.937255 0.223529
0.160784 0.937255 0.223529
0.207843 0.937255 0.223529
0.254902 0.937255 0.223529
0.298039 0.937255 0.223529
0.341176 0.937255 0.223529
0.380392 0.937255 0.223529
0.423529 0.933333 0.223529
0.462745 0.933333 0.227451
0.501961 0.933333 0.227451
0.545098 0.933333 0.227451
0.584314 0.933333 0.227451
0.619608 0.933333 0.227451
0.658824 0.933333 0.231373
0.698039 0.929412 0.231373
0.737255 0.933333 0.235294
0.772549 0.933333 0.235294
0.811765 0.933333 0.239216
0.847059 0.933333 0.243137
0.886275 0.933333 0.250980
0.925490 0.937255 0.258824
0.000000 0.011765 0.000000
0.000000 0.003922 0.000000
0.035294 0.000000 0.000000
0.098039 0.000000 0.000000
0.164706 0.031373 0.043137
0.207843 0.027451 0.054902
0.247059 0.031373 0.062745
0.286275 0.027451 0.070588
0.329412 0.027451 0.078431
0.368627 0.023529 0.086275
0.411765 0.027451 0.090196
0.450980 0.027451 0.098039
0.486275 0.031373 0.098039
0.525490 0.031373 0.101961
0.560784 0.035294 0.105882
0.596078 0.035294 0.109804
0.635294 0.031373 0.113725
0.670588 0.027451 0.113725
0.705882 0.023529 0.117647
0.741176 0.019608 0.121569
0.776471 0.011765 0.125490
0.811765 0.003922 0.129412
0.847059 0.000000 0.133333
0.882353 0.000000 0.137255
0.921569 0.000000 0.141176
0.000000 0.031373 0.000000
0.000000 0.031373 0.000000
0.003922 0.027451 0.000000
0.105882 0.062745 0.027451
0.152941 0.062745 0.039216
0.192157 0.062745 0.050980
0.231373 0.058824 0.058824
0.274510 0.054902 0.070588
0.317647 0.050980 0.078431
0.360784 0.050980 0.086275
0.403922 0.050980 0.090196
0.443137 0.050980 0.094118
0.478431 0.050980 0.098039
0.517647 0.054902 0.101961
0.552941 0.054902 0.105882
0.592157 0.054902 0.105882
0.627451 0.054902 0.109804
0.662745 0.054902 0.113725
0.701961 0.050980 0.117647
0.737255 0.047059 0.121569
0.772549 0.043137 0.125490
0.811765 0.035294 0.129412
0.847059 0.027451 0.133333
0.882353 0.019608 0.137255
0.917647 0.007843 0.141176
0.000000 0.090196 0.007843
0.000000 0.090196 0.011765
0.039216 0.094118 0.019608
0.098039 0.090196 0.035294
0.141176 0.090196 0.054902
0.180392 0.094118 0.058824
0.223529 0.090196 0.066667
0.270588 0.086275 0.074510
0.317647 0.082353 0.082353
0.356863 0.082353 0.090196
0.400000 0.078431 0.094118
0.439216 0.078431 0.094118
0.474510 0.082353 0.098039
0.513725 0.082353 0.101961
0.549020 0.082353 0.105882
0.588235 0.082353 0.109804
0.623529 0.082353 0.109804
0.658824 0.082353 0.113725
0.698039 0.082353 0.117647
0.733333 0.078431 0.121569
0.772549 0.074510 0.125490
0.807843 0.070588 0.129412
0.843137 0.066667 0.133333
0.882353 0.058824 0.137255
0.917647 0.050980 0.141176
0.000000 0.125490 0.023529
0.019608 0.125490 0.027451
0.066667 0.125490 0.039216
0.109804 0.121569 0.054902
0.149020 0.121569 0.074510
0.180392 0.129412 0.074510
0.223529 0.129412 0.074510
0.274510 0.125490 0.086275
0.321569 0.121569 0.098039
0.364706 0.117647 0.101961
0.403922 0.117647 0.105882
0.439216 0.117647 0.105882
0.478431 0.121569 0.105882
0.513725 0.121569 0.109804
0.549020 0.121569 0.109804
0.588235 0.121569 0.113725
0.623529 0.121569 0.117647
0.658824 0.117647 0.117647
0.698039 0.117647 0.121569
0.733333 0.113725 0.125490
0.768627 0.113725 0.129412
0.803922 0.109804 0.133333
0.843137 0.105882 0.133333
0.878431 0.098039 0.137255
0.913725 0.094118 0.141176
0.000000 0.164706 0.043137
0.035294 0.164706 0.047059
0.078431 0.164706 0.050980
0.117647 0.164706 0.062745
0.160784 0.164706 0.074510
0.196078 0.164706 0.082353
0.231373 0.172549 0.090196
0.278431 0.168627 0.105882
0.329412 0.160784 0.125490
0.372549 0.156863 0.125490
0.407843 0.156863 0.125490
0.447059 0.160784 0.121569
0.482353 0.160784 0.121569
0.517647 0.160784 0.121569
0.552941 0.164706 0.121569
0.588235 0.160784 0.121569
0.627451 0.160784 0.125490
0.662745 0.160784 0.125490
0.698039 0.156863 0.129412
0.733333 0.156863 0.129412
0.768627 0.152941 0.133333
0.803922 0.149020 0.133333
0.839216 0.145098 0.137255
0.874510 0.137255 0.141176
0.909804 0.129412 0.141176
0.015686 0.211765 0.062745
0.058824 0.211765 0.062745
0.094118 0.211765 0.066667
0.133333 0.211765 0.070588
0.172549 0.211765 0.074510
0.207843 0.211765 0.082353
0.243137 0.211765 0.090196
0.278431 0.215686 0.105882
0.325490 0.207843 0.141176
0.376471 0.200000 0.156863
0.415686 0.196078 0.152941
0.450980 0.200000 0.145098
0.486275 0.200000 0.137255
0.517647 0.200000 0.133333
0.552941 0.200000 0.133333
0.588235 0.200000 0.133333
0.623529 0.200000 0.133333
0.662745 0.200000 0.133333
0.698039 0.196078 0.133333
0.733333 0.196078 0.137255
0.768627 0.192157 0.137255
0.803922 0.192157 0.141176
0.843137 0.188235 0.145098
0.878431 0.184314 0.145098
0.913725 0.180392 0.149020
0.027451 0.243137 0.062745
0.062745 0.243137 0.062745
0.098039 0.243137 0.062745
0.137255 0.243137 0.066667
0.172549 0.243137 0.066667
0.207843 0.239216 0.066667
0.243137 0.243137 0.070588
0.274510 0.243137 0.074510
0.305882 0.247059 0.105882
0.352941 0.239216 0.152941
0.400000 0.231373 0.164706
0.439216 0.231373 0.160784
0.478431 0.231373 0.149020
0.513725 0.231373 0.145098
0.549020 0.235294 0.141176
0.584314 0.235294 0.137255
0.619608 0.235294 0.137255
0.654902 0.231373 0.137255
0.694118 0.231373 0.141176
0.729412 0.231373 0.141176
0.764706 0.231373 0.141176
0.803922 0.227451 0.145098
0.839216 0.227451 0.149020
0.874510 0.223529 0.152941
0.913725 0.219608 0.152941
0.035294 0.278431 0.062745
0.070588 0.278431 0.062745
0.101961 0.274510 0.062745
0.137255 0.274510 0.062745
0.176471 0.274510 0.066667
0.211765 0.274510 0.062745
0.250980 0.274510 0.058824
0.286275 0.274510 0.043137
0.313725 0.278431 0.035294
0.341176 0.278431 0.078431
0.380392 0.278431 0.137255
0.427451 0.270588 0.160784
0.466667 0.270588 0.160784
0.505882 0.270588 0.152941
0.541176 0.270588 0.149020
0.576471 0.270588 0.145098
0.615686 0.270588 0.145098
0.650980 0.270588 0.145098
0.686275 0.270588 0.145098
0.725490 0.266667 0.145098
0.760784 0.266667 0.149020
0.800000 0.266667 0.149020
0.835294 0.262745 0.152941
0.870588 0.262745 0.156863
0.909804 0.258824 0.156863
0.047059 0.313725 0.066667
0.078431 0.313725 0.066667
0.105882 0.313725 0.066667
0.141176 0.313725 0.066667
0.180392 0.313725 0.066667
0.219608 0.309804 0.066667
0.254902 0.309804 0.062745
0.294118 0.309804 0.047059
0.329412 0.309804 0.019608
0.356863 0.313725 0.000000
0.380392 0.317647 0.050980
0.415686 0.317647 0.117647
0.454902 0.313725 0.149020
0.498039 0.309804 0.156863
0.537255 0.309804 0.156863
0.572549 0.309804 0.156863
0.611765 0.305882 0.152941
0.647059 0.305882 0.152941
0.682353 0.305882 0.152941
0.721569 0.305882 0.152941
0.756863 0.301961 0.152941
0.792157 0.301961 0.152941
0.827451 0.298039 0.156863
0.866667 0.298039 0.156863
0.901961 0.294118 0.160784
0.058824 0.352941 0.074510
0.086275 0.352941 0.074510
0.113725 0.352941 0.074510
0.149020 0.352941 0.074510
0.184314 0.352941 0.074510
0.219608 0.349020 0.074510
0.258824 0.349020 0.070588
0.298039 0.349020 0.058824
0.333333 0.345098 0.039216
0.368627 0.349020 0.011765
0.392157 0.349020 0.000000
0.419608 0.352941 0.043137
0.450980 0.352941 0.105882
0.490196 0.352941 0.137255
0.529412 0.349020 0.152941
0.568627 0.349020 0.156863
0.603922 0.345098 0.160784
0.643137 0.345098 0.160784
0.678431 0.341176 0.156863
0.713725 0.341176 0.156863
0.749020 0.337255 0.156863
0.784314 0.337255 0.156863
0.819608 0.333333 0.156863
0.854902 0.329412 0.156863
0.890196 0.325490 0.160784
0.070588 0.396078 0.086275
0.094118 0.396078 0.086275
0.121569 0.392157 0.086275
0.152941 0.392157 0.086275
0.188235 0.392157 0.082353
0.223529 0.392157 0.082353
0.262745 0.388235 0.078431
0.298039 0.388235 0.074510
