luts/PictureFX Villefranche sur Mer - Cote d'Azur - set blend opacity to taste - sample picture at 70% @.cube
#Generated with IWLTBAP LUT Generator
#Website: http://luts.iwltbap.com
TITLE "PictureFX-Villefranche-sur-Mer-N125"
#LUT size
LUT_3D_SIZE 9
#LUT data points
0.043137 0.000000 0.000000
0.125490 0.000000 0.000000
0.243137 0.000000 0.000000
0.392157 0.000000 0.000000
0.549020 0.000000 0.000000
0.725490 0.000000 0.000000
0.894118 0.000000 0.000000
1.000000 0.000000 0.000000
1.000000 0.000000 0.000000
0.000000 0.086275 0.000000
0.137255 0.050980 0.000000
0.211765 0.062745 0.000000
0.364706 0.000000 0.000000
0.533333 0.000000 0.000000
0.709804 0.000000 0.000000
0.874510 0.000000 0.000000
1.000000 0.000000 0.000000
1.000000 0.000000 0.000000
0.000000 0.203922 0.000000
0.078431 0.200000 0.000000
0.227451 0.192157 0.000000
0.360784 0.184314 0.000000
0.521569 0.149020 0.000000
0.686275 0.000000 0.000000
0.843137 0.000000 0.000000
0.988235 0.000000 0.000000
1.000000 0.000000 0.000000
0.000000 0.349020 0.000000
0.000000 0.349020 0.000000
0.176471 0.345098 0.000000
0.352941 0.337255 0.000000
0.501961 0.321569 0.000000
0.647059 0.282353 0.000000
0.796078 0.200000 0.000000
0.937255 0.000000 0.000000
1.000000 0.000000 0.000000
0.000000 0.478431 0.000000
0.000000 0.474510 0.000000
0.000000 0.470588 0.000000
0.262745 0.458824 0.000000
0.439216 0.443137 0.000000
0.592157 0.419608 0.000000
0.737255 0.380392 0.000000
0.882353 0.317647 0.000000
1.000000 0.203922 0.000000
0.000000 0.588235 0.000000
0.000000 0.584314 0.000000
0.000000 0.580392 0.000000
0.000000 0.572549 0.000000
0.345098 0.560784 0.000000
0.521569 0.541176 0.000000
0.678431 0.517647 0.000000
0.827451 0.482353 0.000000
0.976471 0.431373 0.000000
0.000000 0.682353 0.000000
0.000000 0.682353 0.000000
0.000000 0.678431 0.000000
0.000000 0.674510 0.000000
0.125490 0.666667 0.000000
0.419608 0.654902 0.000000
0.603922 0.635294 0.000000
0.764706 0.615686 0.000000
0.917647 0.584314 0.000000
0.000000 0.788235 0.000000
0.000000 0.788235 0.000000
0.000000 0.788235 0.000000
0.000000 0.788235 0.000000
0.000000 0.780392 0.000000
0.254902 0.776471 0.000000
0.517647 0.764706 0.000000
0.705882 0.752941 0.000000
0.874510 0.733333 0.000000
0.000000 0.901961 0.000000
0.000000 0.901961 0.000000
0.000000 0.898039 0.000000
0.000000 0.894118 0.000000
0.000000 0.890196 0.000000
0.000000 0.886275 0.000000
0.360784 0.882353 0.000000
0.607843 0.874510 0.000000
0.800000 0.862745 0.000000
0.043137 0.000000 0.133333
0.172549 0.000000 0.098039
0.270588 0.000000 0.043137
0.392157 0.000000 0.000000
0.545098 0.000000 0.000000
0.721569 0.000000 0.000000
0.886275 0.000000 0.000000
1.000000 0.000000 0.000000
1.000000 0.000000 0.000000
0.000000 0.098039 0.000000
0.101961 0.066667 0.039216
0.180392 0.078431 0.054902
0.341176 0.000000 0.000000
0.521569 0.000000 0.000000
0.698039 0.000000 0.000000
0.862745 0.000000 0.000000
1.000000 0.000000 0.000000
1.000000 0.000000 0.000000
0.000000 0.203922 0.000000
0.082353 0.196078 0.000000
0.250980 0.172549 0.101961
0.341176 0.188235 0.011765
0.501961 0.156863 0.000000
0.674510 0.000000 0.000000
0.831373 0.000000 0.000000
0.980392 0.000000 0.000000
1.000000 0.000000 0.000000
0.000000 0.345098 0.000000
0.000000 0.345098 0.000000
0.192157 0.337255 0.000000
0.360784 0.329412 0.000000
0.494118 0.317647 0.000000
0.639216 0.282353 0.000000
0.788235 0.203922 0.000000
0.933333 0.000000 0.000000
1.000000 0.000000 0.000000
0.000000 0.470588 0.000000
0.000000 0.470588 0.000000
0.000000 0.462745 0.000000
0.274510 0.450980 0.000000
0.443137 0.435294 0.000000
0.588235 0.415686 0.000000
0.733333 0.380392 0.000000
0.882353 0.321569 0.000000
1.000000 0.207843 0.000000
0.000000 0.584314 0.000000
0.000000 0.584314 0.000000
0.000000 0.580392 0.000000
0.000000 0.572549 0.000000
0.352941 0.556863 0.000000
0.529412 0.541176 0.000000
0.682353 0.517647 0.000000
0.831373 0.486275 0.000000
0.980392 0.435294 0.000000
0.000000 0.686275 0.000000
0.000000 0.682353 0.000000
0.000000 0.682353 0.000000
0.000000 0.678431 0.000000
0.152941 0.670588 0.000000
0.431373 0.654902 0.000000
0.611765 0.639216 0.000000
0.772549 0.619608 0.000000
0.925490 0.588235 0.000000
0.000000 0.796078 0.000000
0.000000 0.796078 0.000000
0.000000 0.796078 0.000000
0.000000 0.792157 0.000000
0.000000 0.788235 0.000000
0.278431 0.780392 0.000000
0.529412 0.772549 0.000000
0.717647 0.760784 0.000000
0.886275 0.741176 0.000000
0.000000 0.909804 0.000000
0.000000 0.905882 0.000000
0.000000 0.905882 0.000000
0.000000 0.901961 0.000000
0.000000 0.894118 0.000000
0.000000 0.890196 0.000000
0.376471 0.886275 0.000000
0.619608 0.878431 0.000000
0.807843 0.866667 0.000000
0.000000 0.000000 0.356863
0.168627 0.000000 0.309804
0.313725 0.000000 0.243137
0.439216 0.000000 0.188235
0.572549 0.000000 0.160784
0.733333 0.000000 0.145098
0.890196 0.000000 0.125490
1.000000 0.000000 0.098039
1.000000 0.000000 0.066667
0.000000 0.078431 0.243137
0.105882 0.047059 0.227451
0.270588 0.000000 0.192157
0.396078 0.000000 0.164706
0.541176 0.000000 0.145098
0.705882 0.000000 0.129412
0.862745 0.000000 0.105882
1.000000 0.000000 0.078431
1.000000 0.000000 0.043137
0.000000 0.207843 0.145098
0.000000 0.203922 0.137255
0.219608 0.188235 0.168627
0.317647 0.200000 0.176471
0.482353 0.172549 0.160784
0.662745 0.000000 0.121569
0.827451 0.000000 0.078431
0.980392 0.000000 0.031373
1.000000 0.000000 0.000000
0.000000 0.341176 0.078431
0.000000 0.341176 0.090196
0.219608 0.329412 0.133333
0.396078 0.305882 0.239216
0.474510 0.321569 0.160784
0.619608 0.294118 0.105882
0.776471 0.211765 0.015686
0.929412 0.000000 0.000000
1.000000 0.000000 0.000000
0.000000 0.466667 0.000000
0.000000 0.462745 0.000000
0.000000 0.454902 0.000000
0.305882 0.443137 0.027451
0.462745 0.427451 0.086275
0.588235 0.411765 0.000000
0.729412 0.384314 0.000000
0.882353 0.325490 0.000000
1.000000 0.219608 0.000000
0.000000 0.584314 0.000000
0.000000 0.584314 0.000000
0.000000 0.576471 0.000000
0.109804 0.568627 0.000000
0.380392 0.552941 0.000000
0.545098 0.537255 0.000000
0.690196 0.517647 0.000000
0.835294 0.490196 0.000000
0.988235 0.443137 0.000000
0.000000 0.686275 0.000000
0.000000 0.686275 0.000000
0.000000 0.682353 0.000000
0.000000 0.678431 0.000000
0.203922 0.670588 0.000000
0.454902 0.658824 0.000000
0.631373 0.643137 0.000000
0.784314 0.619608 0.000000
0.937255 0.592157 0.000000
0.000000 0.800000 0.000000
0.000000 0.800000 0.000000
0.000000 0.800000 0.000000
0.000000 0.800000 0.000000
0.000000 0.792157 0.000000
0.313725 0.788235 0.000000
0.552941 0.776471 0.000000
0.737255 0.764706 0.000000
0.901961 0.745098 0.000000
0.000000 0.913725 0.000000
0.000000 0.913725 0.000000
0.000000 0.909804 0.000000
0.000000 0.905882 0.000000
0.000000 0.901961 0.000000
0.000000 0.894118 0.000000
0.403922 0.890196 0.000000
0.635294 0.882353 0.000000
0.823529 0.866667 0.000000
0.000000 0.000000 0.541176
0.090196 0.000000 0.509804
0.305882 0.000000 0.450980
0.466667 0.000000 0.388235
0.611765 0.000000 0.345098
0.768627 0.000000 0.313725
0.913725 0.000000 0.286275
1.000000 0.000000 0.247059
1.000000 0.000000 0.215686
0.000000 0.047059 0.470588
0.000000 0.000000 0.447059
0.270588 0.000000 0.407843
0.435294 0.000000 0.356863
0.588235 0.000000 0.321569
0.737255 0.000000 0.294118
0.886275 0.000000 0.266667
1.000000 0.000000 0.235294
1.000000 0.000000 0.200000
0.000000 0.211765 0.372549
0.000000 0.203922 0.356863
0.231373 0.172549 0.345098
0.415686 0.117647 0.321569
0.552941 0.039216 0.298039
0.694118 0.000000 0.278431
0.843137 0.000000 0.250980
0.992157 0.000000 0.215686
1.000000 0.000000 0.184314
0.000000 0.349020 0.278431
0.000000 0.349020 0.274510
0.117647 0.345098 0.266667
0.356863 0.321569 0.298039
0.458824 0.325490 0.298039
0.600000 0.301961 0.282353
0.776471 0.207843 0.231373
0.933333 0.000000 0.188235
1.000000 0.000000 0.141176
0.000000 0.466667 0.200000
0.000000 0.462745 0.200000
0.000000 0.454902 0.203922
0.329412 0.435294 0.243137
0.501961 0.403922 0.341176
0.572549 0.415686 0.258824
0.709804 0.396078 0.215686
0.874510 0.333333 0.152941
1.000000 0.223529 0.090196
0.000000 0.584314 0.082353
0.000000 0.580392 0.086275
0.000000 0.576471 0.094118
0.172549 0.564706 0.121569
0.419608 0.545098 0.176471
0.572549 0.529412 0.211765
0.694118 0.517647 0.164706
0.835294 0.490196 0.086275
0.988235 0.447059 0.000000
0.000000 0.686275 0.000000
0.000000 0.686275 0.000000
0.000000 0.682353 0.000000
0.000000 0.678431 0.000000
0.258824 0.666667 0.000000
0.486275 0.650980 0.000000
0.650980 0.639216 0.000000
0.796078 0.619608 0.000000
0.941176 0.596078 0.000000
0.000000 0.800000 0.000000
0.000000 0.803922 0.000000
0.000000 0.803922 0.000000
0.000000 0.800000 0.000000
0.000000 0.796078 0.000000
0.356863 0.784314 0.000000
0.580392 0.776471 0.000000
0.756863 0.764706 0.000000
0.913725 0.745098 0.000000
0.000000 0.917647 0.000000
0.000000 0.913725 0.000000
0.000000 0.913725 0.000000
0.000000 0.905882 0.000000
0.000000 0.901961 0.000000
0.000000 0.894118 0.000000
0.439216 0.890196 0.000000
0.658824 0.878431 0.000000
0.839216 0.866667 0.000000
0.000000 0.000000 0.725490
0.000000 0.000000 0.701961
0.266667 0.000000 0.658824
0.462745 0.000000 0.603922
0.631373 0.000000 0.552941
0.796078 0.000000 0.509804
0.941176 0.000000 0.466667
1.000000 0.000000 0.419608
1.000000 0.000000 0.376471
0.000000 0.000000 0.670588
0.000000 0.000000 0.654902
0.227451 0.000000 0.619608
0.435294 0.000000 0.572549
0.607843 0.000000 0.529412
0.768627 0.000000 0.486275
0.913725 0.000000 0.447059
1.000000 0.000000 0.403922
1.000000 0.000000 0.364706
0.000000 0.200000 0.611765
0.000000 0.188235 0.600000
0.184314 0.152941 0.576471
0.415686 0.054902 0.541176
0.592157 0.000000 0.501961
0.741176 0.000000 0.458824
0.878431 0.000000 0.419608
1.000000 0.000000 0.384314
1.000000 0.000000 0.349020
0.000000 0.352941 0.513725
0.000000 0.352941 0.505882
0.000000 0.345098 0.486275
0.368627 0.309804 0.474510
0.552941 0.262745 0.447059
0.678431 0.219608 0.415686
0.811765 0.121569 0.388235
0.956863 0.000000 0.352941
1.000000 0.000000 0.317647
0.000000 0.470588 0.403922
0.000000 0.466667 0.396078
0.000000 0.462745 0.384314
0.239216 0.447059 0.368627
0.458824 0.419608 0.396078
0.564706 0.419608 0.388235
0.690196 0.403922 0.384314
0.874510 0.333333 0.333333
1.000000 0.207843 0.294118
0.000000 0.584314 0.317647
0.000000 0.584314 0.313725
0.000000 0.576471 0.309804
0.149020 0.564706 0.309804
0.439216 0.541176 0.349020
0.611765 0.505882 0.450980
0.678431 0.521569 0.368627
0.811765 0.505882 0.329412
0.980392 0.454902 0.274510
0.000000 0.686275 0.211765
0.000000 0.686275 0.211765
0.000000 0.682353 0.211765
0.000000 0.674510 0.219608
0.298039 0.662745 0.239216
0.525490 0.643137 0.290196
0.678431 0.627451 0.321569
0.800000 0.619608 0.282353
0.941176 0.600000 0.227451
0.000000 0.803922 0.000000
0.000000 0.803922 0.000000
0.000000 0.803922 0.000000
0.000000 0.800000 0.000000
0.000000 0.792157 0.039216
0.400000 0.784314 0.098039
0.611765 0.772549 0.152941
0.776471 0.760784 0.172549
0.925490 0.745098 0.137255
0.000000 0.917647 0.000000
0.000000 0.917647 0.000000
0.000000 0.913725 0.000000
0.000000 0.909804 0.000000
0.000000 0.901961 0.000000
0.062745 0.894118 0.000000
0.474510 0.886275 0.000000
0.686275 0.874510 0.000000
0.858824 0.862745 0.000000
0.000000 0.000000 0.913725
0.000000 0.000000 0.898039
0.176471 0.000000 0.862745
0.439216 0.000000 0.815686
0.635294 0.000000 0.768627
0.811765 0.000000 0.725490
0.960784 0.000000 0.670588
1.000000 0.000000 0.611765
1.000000 0.000000 0.556863
0.000000 0.000000 0.866667
0.000000 0.000000 0.854902
0.105882 0.000000 0.827451
0.411765 0.000000 0.788235
0.611765 0.000000 0.745098
0.784314 0.000000 0.698039
0.937255 0.000000 0.647059
1.000000 0.000000 0.592157
1.000000 0.000000 0.545098
0.000000 0.180392 0.827451
0.000000 0.164706 0.815686
0.007843 0.117647 0.796078
0.392157 0.000000 0.764706
0.596078 0.000000 0.721569
0.760784 0.000000 0.670588
0.909804 0.000000 0.619608
1.000000 0.000000 0.572549
1.000000 0.000000 0.525490
0.000000 0.345098 0.756863
0.000000 0.341176 0.752941
0.000000 0.325490 0.741176
0.341176 0.290196 0.713725
0.556863 0.231373 0.670588
0.717647 0.125490 0.619608
0.858824 0.000000 0.572549
0.992157 0.000000 0.529412
1.000000 0.000000 0.490196
0.000000 0.474510 0.639216
0.000000 0.474510 0.631373
0.000000 0.466667 0.619608
0.117647 0.450980 0.584314
0.470588 0.411765 0.568627
0.650980 0.364706 0.541176
0.780392 0.333333 0.513725
0.917647 0.274510 0.490196
1.000000 0.117647 0.458824
0.000000 0.588235 0.521569
0.000000 0.588235 0.517647
0.000000 0.584314 0.509804
0.000000 0.576471 0.490196
0.352941 0.556863 0.470588
0.564706 0.525490 0.501961
0.674510 0.521569 0.490196
0.788235 0.509804 0.490196
0.980392 0.450980 0.443137
0.000000 0.690196 0.423529
0.000000 0.686275 0.419608
0.000000 0.686275 0.415686
0.000000 0.678431 0.407843
0.274510 0.662745 0.407843
0.537255 0.639216 0.447059
0.717647 0.603922 0.549020
0.780392 0.623529 0.466667
0.909804 0.607843 0.435294
0.000000 0.800000 0.333333
0.000000 0.800000 0.333333
0.000000 0.800000 0.329412
0.000000 0.796078 0.329412
0.000000 0.788235 0.337255
0.427451 0.776471 0.360784
0.647059 0.760784 0.411765
0.800000 0.745098 0.447059
0.925490 0.737255 0.407843
0.000000 0.913725 0.207843
0.000000 0.913725 0.203922
0.000000 0.909804 0.200000
0.000000 0.905882 0.200000
0.000000 0.898039 0.200000
0.172549 0.890196 0.215686
0.509804 0.882353 0.247059
0.713725 0.866667 0.282353
0.878431 0.854902 0.294118
0.000000 0.000000 1.000000
0.000000 0.000000 1.000000
0.000000 0.000000 1.000000
0.392157 0.000000 1.000000
0.619608 0.000000 0.988235
0.807843 0.000000 0.941176
0.968627 0.000000 0.882353
1.000000 0.000000 0.815686
1.000000 0.000000 0.752941
0.000000 0.000000 1.000000
0.000000 0.000000 1.000000
0.000000 0.000000 1.000000
0.360784 0.000000 1.000000
0.596078 0.000000 0.964706
0.784314 0.000000 0.917647
0.945098 0.000000 0.858824
1.000000 0.000000 0.796078
1.000000 0.000000 0.737255
0.000000 0.145098 1.000000
0.000000 0.125490 1.000000
0.000000 0.050980 1.000000
0.341176 0.000000 0.980392
0.576471 0.000000 0.941176
0.760784 0.000000 0.886275
0.921569 0.000000 0.831373
1.000000 0.000000 0.772549
1.000000 0.000000 0.717647
0.000000 0.333333 0.976471
0.000000 0.325490 0.972549
0.000000 0.309804 0.960784
0.274510 0.270588 0.933333
0.533333 0.196078 0.890196
0.717647 0.000000 0.839216
0.878431 0.000000 0.780392
1.000000 0.000000 0.725490
1.000000 0.000000 0.678431
0.000000 0.466667 0.878431
0.000000 0.462745 0.874510
0.000000 0.454902 0.862745
0.000000 0.431373 0.839216
0.447059 0.396078 0.807843
0.654902 0.341176 0.764706
0.819608 0.270588 0.717647
0.964706 0.156863 0.674510
1.000000 0.000000 0.635294
0.000000 0.592157 0.752941
0.000000 0.588235 0.749020
0.000000 0.584314 0.741176
0.000000 0.576471 0.721569
0.254902 0.560784 0.682353
0.576471 0.513725 0.666667
0.756863 0.470588 0.643137
0.886275 0.443137 0.615686
1.000000 0.396078 0.592157
0.000000 0.690196 0.627451
0.000000 0.690196 0.623529
0.000000 0.690196 0.619608
0.000000 0.682353 0.603922
0.000000 0.674510 0.588235
0.454902 0.654902 0.568627
0.666667 0.623529 0.600000
0.780392 0.619608 0.584314
0.886275 0.615686 0.592157
0.000000 0.800000 0.533333
0.000000 0.800000 0.533333
0.000000 0.800000 0.529412
0.000000 0.796078 0.521569
0.000000 0.788235 0.517647
0.400000 0.776471 0.517647
0.654902 0.752941 0.560784
0.835294 0.721569 0.662745
0.898039 0.741176 0.588235
0.000000 0.913725 0.447059
0.000000 0.909804 0.443137
0.000000 0.905882 0.439216
0.000000 0.901961 0.435294
0.000000 0.894118 0.431373
0.192157 0.886275 0.439216
0.533333 0.874510 0.462745
0.745098 0.854902 0.513725
0.901961 0.843137 0.549020
0.000000 0.000000 1.000000
0.000000 0.000000 1.000000
0.000000 0.000000 1.000000
0.321569 0.000000 1.000000
0.592157 0.000000 1.000000
0.796078 0.000000 1.000000
0.964706 0.000000 1.000000
1.000000 0.000000 1.000000
1.000000 0.000000 0.956863
0.000000 0.000000 1.000000
0.000000 0.000000 1.000000
0.000000 0.000000 1.000000
0.286275 0.000000 1.000000
0.568627 0.000000 1.000000
0.772549 0.000000 1.000000
0.945098 0.000000 1.000000
1.000000 0.000000 1.000000
1.000000 0.000000 0.941176
0.000000 0.082353 1.000000
0.000000 0.039216 1.000000
0.000000 0.000000 1.000000
0.250980 0.000000 1.000000
0.541176 0.000000 1.000000
0.745098 0.000000 1.000000
0.917647 0.000000 1.000000
1.000000 0.000000 0.984314
1.000000 0.000000 0.921569
0.000000 0.317647 1.000000
0.000000 0.309804 1.000000
0.000000 0.286275 1.000000
0.121569 0.243137 1.000000
0.490196 0.149020 1.000000
0.701961 0.000000 1.000000
0.874510 0.000000 0.996078
1.000000 0.000000 0.937255
1.000000 0.000000 0.878431
0.000000 0.458824 1.000000
0.000000 0.454902 1.000000
0.000000 0.439216 1.000000
0.000000 0.415686 1.000000
0.396078 0.376471 1.000000
0.635294 0.317647 0.984314
0.819608 0.215686 0.933333
0.980392 0.000000 0.882353
1.000000 0.000000 0.831373
0.000000 0.584314 0.988235
0.000000 0.580392 0.984314
0.000000 0.572549 0.976471
0.000000 0.560784 0.960784
0.227451 0.537255 0.937255
0.549020 0.498039 0.901961
0.756863 0.447059 0.858824
0.921569 0.388235 0.811765
1.000000 0.313725 0.772549
0.000000 0.690196 0.854902
0.000000 0.690196 0.850980
0.000000 0.686275 0.847059
0.000000 0.682353 0.835294
0.000000 0.674510 0.811765
0.360784 0.654902 0.768627
0.670588 0.607843 0.760784
0.854902 0.568627 0.733333
0.988235 0.545098 0.709804
0.000000 0.796078 0.737255
0.000000 0.800000 0.737255
0.000000 0.796078 0.729412
0.000000 0.796078 0.721569
0.000000 0.792157 0.709804
0.231373 0.784314 0.690196
0.568627 0.764706 0.674510
0.776471 0.733333 0.709804
0.898039 0.729412 0.694118
0.000000 0.905882 0.643137
0.000000 0.905882 0.639216
0.000000 0.901961 0.635294
0.000000 0.898039 0.627451
0.000000 0.894118 0.619608
0.000000 0.886275 0.611765
0.505882 0.874510 0.615686
0.752941 0.847059 0.654902
0.937255 0.819608 0.764706
0.000000 0.000000 1.000000
0.000000 0.000000 1.000000
0.000000 0.000000 1.000000
0.192157 0.000000 1.000000
0.549020 0.000000 1.000000
0.768627 0.000000 1.000000
0.949020 0.000000 1.000000
1.000000 0.000000 1.000000
1.000000 0.000000 1.000000
0.000000 0.000000 1.000000
0.000000 0.000000 1.000000
0.000000 0.000000 1.000000
0.109804 0.000000 1.000000
0.521569 0.000000 1.000000
0.745098 0.000000 1.000000
0.929412 0.000000 1.000000
1.000000 0.000000 1.000000
1.000000 0.000000 1.000000
0.000000 0.000000 1.000000
0.000000 0.000000 1.000000
0.000000 0.000000 1.000000
0.000000 0.000000 1.000000
0.486275 0.000000 1.000000
0.717647 0.000000 1.000000
0.901961 0.000000 1.000000
1.000000 0.000000 1.000000
1.000000 0.000000 1.000000
0.000000 0.290196 1.000000
0.000000 0.282353 1.000000
0.000000 0.254902 1.000000
0.000000 0.200000 1.000000
0.415686 0.043137 1.000000
0.662745 0.000000 1.000000
0.854902 0.000000 1.000000
1.000000 0.000000 1.000000
1.000000 0.000000 1.000000
0.000000 0.443137 1.000000
0.000000 0.439216 1.000000
0.000000 0.423529 1.000000
0.000000 0.400000 1.000000
0.298039 0.352941 1.000000
0.592157 0.282353 1.000000
0.800000 0.149020 1.000000
0.976471 0.000000 1.000000
1.000000 0.000000 1.000000
0.000000 0.568627 1.000000
0.000000 0.568627 1.000000
0.000000 0.556863 1.000000
0.000000 0.541176 1.000000
0.000000 0.517647 1.000000
0.501961 0.474510 1.000000
0.733333 0.419608 1.000000
0.917647 0.345098 1.000000
1.000000 0.231373 0.976471
0.000000 0.682353 1.000000
0.000000 0.682353 1.000000
0.000000 0.678431 1.000000
0.000000 0.670588 1.000000
0.000000 0.654902 1.000000
0.349020 0.627451 1.000000
0.647059 0.588235 0.992157
0.854902 0.545098 0.949020
1.000000 0.498039 0.909804
0.000000 0.792157 0.956863
0.000000 0.792157 0.956863
0.000000 0.792157 0.952941
0.000000 0.792157 0.945098
0.000000 0.788235 0.933333
0.000000 0.780392 0.913725
0.474510 0.764706 0.870588
0.780392 0.717647 0.862745
0.968627 0.682353 0.843137
0.000000 0.901961 0.843137
0.000000 0.901961 0.843137
0.000000 0.901961 0.835294
0.000000 0.898039 0.831373
0.000000 0.898039 0.819608
0.000000 0.894118 0.807843
0.364706 0.882353 0.788235
0.670588 0.862745 0.772549
1.000000 0.964706 0.937255
