luts/PictureFX Faux Infrared 2024 mod.cube
#Generated with IWLTBAP LUT Generator
#Website: http://luts.iwltbap.com
TITLE "PictureFX-Faux-Infrared-2024-mod"
#LUT size
LUT_3D_SIZE 25
#LUT data points
0.000000 0.000000 0.000000
0.105882 0.078431 0.023529
0.180392 0.137255 0.058824
0.250980 0.196078 0.094118
0.325490 0.254902 0.129412
0.396078 0.313725 0.164706
0.470588 0.372549 0.196078
0.541176 0.431373 0.231373
0.615686 0.494118 0.266667
0.686275 0.552941 0.301961
0.760784 0.611765 0.337255
0.831373 0.670588 0.372549
0.905882 0.729412 0.407843
0.976471 0.788235 0.443137
1.000000 0.847059 0.478431
1.000000 0.905882 0.513725
1.000000 0.921569 0.564706
1.000000 0.929412 0.615686
1.000000 0.933333 0.666667
1.000000 0.941176 0.717647
1.000000 0.952941 0.764706
1.000000 0.960784 0.811765
1.000000 0.968627 0.858824
1.000000 0.980392 0.901961
1.000000 0.980392 0.901961
0.070588 0.000000 0.027451
0.160784 0.000000 0.062745
0.219608 0.066667 0.086275
0.282353 0.156863 0.113725
0.345098 0.227451 0.145098
0.415686 0.294118 0.176471
0.482353 0.356863 0.207843
0.552941 0.419608 0.243137
0.623529 0.478431 0.274510
0.698039 0.541176 0.309804
0.768627 0.600000 0.345098
0.839216 0.662745 0.380392
0.909804 0.721569 0.411765
0.984314 0.780392 0.447059
1.000000 0.843137 0.482353
1.000000 0.901961 0.517647
1.000000 0.913725 0.568627
1.000000 0.921569 0.619608
1.000000 0.933333 0.670588
1.000000 0.941176 0.717647
1.000000 0.949020 0.764706
1.000000 0.960784 0.811765
1.000000 0.968627 0.858824
1.000000 0.980392 0.905882
1.000000 0.980392 0.905882
0.125490 0.000000 0.066667
0.192157 0.000000 0.090196
0.258824 0.000000 0.117647
0.313725 0.070588 0.141176
0.372549 0.180392 0.164706
0.435294 0.258824 0.192157
0.501961 0.329412 0.223529
0.568627 0.396078 0.254902
0.639216 0.462745 0.286275
0.709804 0.525490 0.321569
0.776471 0.588235 0.352941
0.847059 0.650980 0.388235
0.917647 0.713725 0.419608
0.992157 0.772549 0.454902
1.000000 0.835294 0.490196
1.000000 0.894118 0.521569
1.000000 0.909804 0.572549
1.000000 0.917647 0.623529
1.000000 0.925490 0.670588
1.000000 0.937255 0.721569
1.000000 0.949020 0.768627
1.000000 0.956863 0.815686
1.000000 0.968627 0.862745
1.000000 0.976471 0.905882
1.000000 0.976471 0.905882
0.180392 0.000000 0.101961
0.231373 0.000000 0.121569
0.286275 0.000000 0.141176
0.356863 0.000000 0.168627
0.411765 0.054902 0.192157
0.466667 0.196078 0.215686
0.529412 0.286275 0.243137
0.592157 0.364706 0.274510
0.658824 0.435294 0.301961
0.725490 0.501961 0.333333
0.792157 0.568627 0.364706
0.862745 0.631373 0.396078
0.933333 0.694118 0.431373
1.000000 0.756863 0.462745
1.000000 0.819608 0.498039
1.000000 0.882353 0.529412
1.000000 0.898039 0.580392
1.000000 0.909804 0.627451
1.000000 0.921569 0.678431
1.000000 0.933333 0.725490
1.000000 0.945098 0.772549
1.000000 0.952941 0.819608
1.000000 0.964706 0.862745
1.000000 0.976471 0.909804
1.000000 0.976471 0.909804
0.235294 0.000000 0.137255
0.274510 0.000000 0.152941
0.321569 0.000000 0.168627
0.384314 0.000000 0.196078
0.450980 0.000000 0.223529
0.505882 0.003922 0.247059
0.564706 0.203922 0.270588
0.623529 0.305882 0.294118
0.686275 0.392157 0.321569
0.749020 0.466667 0.352941
0.815686 0.537255 0.380392
0.882353 0.607843 0.411765
0.949020 0.674510 0.443137
1.000000 0.737255 0.474510
1.000000 0.803922 0.509804
1.000000 0.862745 0.541176
1.000000 0.882353 0.588235
1.000000 0.898039 0.635294
1.000000 0.909804 0.682353
1.000000 0.925490 0.729412
1.000000 0.937255 0.776471
1.000000 0.952941 0.823529
1.000000 0.964706 0.866667
1.000000 0.976471 0.913725
1.000000 0.976471 0.913725
0.290196 0.000000 0.176471
0.321569 0.000000 0.184314
0.364706 0.000000 0.200000
0.415686 0.000000 0.219608
0.478431 0.000000 0.247059
0.549020 0.000000 0.278431
0.603922 0.000000 0.298039
0.658824 0.207843 0.321569
0.717647 0.321569 0.345098
0.776471 0.415686 0.372549
0.839216 0.494118 0.400000
0.905882 0.568627 0.431373
0.968627 0.643137 0.458824
1.000000 0.709804 0.490196
1.000000 0.776471 0.521569
1.000000 0.839216 0.556863
1.000000 0.862745 0.600000
1.000000 0.882353 0.647059
1.000000 0.898039 0.694118
1.000000 0.917647 0.737255
1.000000 0.933333 0.784314
1.000000 0.949020 0.827451
1.000000 0.960784 0.874510
1.000000 0.976471 0.917647
1.000000 0.976471 0.917647
0.345098 0.000000 0.211765
0.372549 0.000000 0.219608
0.407843 0.000000 0.231373
0.454902 0.000000 0.250980
0.509804 0.000000 0.274510
0.576471 0.000000 0.301961
0.643137 0.000000 0.329412
0.701961 0.000000 0.352941
0.756863 0.203922 0.372549
0.811765 0.333333 0.400000
0.870588 0.435294 0.423529
0.933333 0.521569 0.450980
0.996078 0.600000 0.478431
1.000000 0.674510 0.509804
1.000000 0.745098 0.537255
1.000000 0.807843 0.572549
1.000000 0.835294 0.615686
1.000000 0.862745 0.658824
1.000000 0.886275 0.701961
1.000000 0.905882 0.745098
1.000000 0.925490 0.792157
1.000000 0.941176 0.835294
1.000000 0.960784 0.878431
1.000000 0.976471 0.921569
1.000000 0.976471 0.921569
0.400000 0.000000 0.247059
0.423529 0.000000 0.254902
0.454902 0.000000 0.266667
0.494118 0.000000 0.282353
0.545098 0.000000 0.301961
0.603922 0.000000 0.325490
0.670588 0.000000 0.352941
0.741176 0.000000 0.384314
0.796078 0.000000 0.403922
0.850980 0.188235 0.427451
0.905882 0.341176 0.450980
0.964706 0.450980 0.474510
1.000000 0.541176 0.501961
1.000000 0.627451 0.529412
1.000000 0.701961 0.556863
1.000000 0.768627 0.592157
1.000000 0.807843 0.631373
1.000000 0.839216 0.674510
1.000000 0.870588 0.713725
1.000000 0.894118 0.756863
1.000000 0.917647 0.800000
1.000000 0.937255 0.843137
1.000000 0.956863 0.886275
1.000000 0.972549 0.929412
1.000000 0.972549 0.929412
0.454902 0.000000 0.286275
0.474510 0.000000 0.290196
0.501961 0.000000 0.301961
0.537255 0.000000 0.313725
0.584314 0.000000 0.333333
0.639216 0.000000 0.352941
0.701961 0.000000 0.376471
0.768627 0.000000 0.403922
0.835294 0.000000 0.435294
0.894118 0.000000 0.458824
0.949020 0.160784 0.478431
1.000000 0.345098 0.501961
1.000000 0.462745 0.529412
1.000000 0.560784 0.552941
1.000000 0.650980 0.580392
1.000000 0.721569 0.611765
1.000000 0.772549 0.650980
1.000000 0.815686 0.690196
1.000000 0.850980 0.729412
1.000000 0.882353 0.768627
1.000000 0.909804 0.811765
1.000000 0.933333 0.850980
1.000000 0.952941 0.894118
1.000000 0.972549 0.937255
1.000000 0.972549 0.937255
0.509804 0.000000 0.321569
0.525490 0.000000 0.325490
0.549020 0.000000 0.333333
0.584314 0.000000 0.345098
0.627451 0.000000 0.364706
0.678431 0.000000 0.380392
0.733333 0.000000 0.403922
0.796078 0.000000 0.431373
0.862745 0.000000 0.458824
0.933333 0.000000 0.490196
0.992157 0.000000 0.509804
1.000000 0.113725 0.533333
1.000000 0.341176 0.556863
1.000000 0.474510 0.580392
1.000000 0.576471 0.603922
1.000000 0.666667 0.635294
1.000000 0.737255 0.670588
1.000000 0.788235 0.705882
1.000000 0.831373 0.745098
1.000000 0.866667 0.784314
1.000000 0.898039 0.823529
1.000000 0.925490 0.862745
1.000000 0.952941 0.905882
1.000000 0.972549 0.945098
1.000000 0.972549 0.945098
0.564706 0.000000 0.356863
0.580392 0.000000 0.364706
0.600000 0.000000 0.368627
0.631373 0.000000 0.380392
0.670588 0.000000 0.396078
0.717647 0.000000 0.411765
0.768627 0.000000 0.431373
0.827451 0.000000 0.458824
0.890196 0.000000 0.482353
0.960784 0.000000 0.509804
1.000000 0.000000 0.541176
1.000000 0.000000 0.564706
1.000000 0.000000 0.584314
1.000000 0.337255 0.607843
1.000000 0.478431 0.631373
1.000000 0.607843 0.658824
1.000000 0.694118 0.690196
1.000000 0.760784 0.725490
1.000000 0.811765 0.760784
1.000000 0.854902 0.796078
1.000000 0.890196 0.835294
1.000000 0.921569 0.874510
1.000000 0.949020 0.913725
1.000000 0.976471 0.956863
1.000000 0.976471 0.956863
0.619608 0.000000 0.396078
0.631373 0.000000 0.400000
0.650980 0.000000 0.403922
0.678431 0.000000 0.415686
0.713725 0.000000 0.427451
0.756863 0.000000 0.443137
0.807843 0.000000 0.462745
0.862745 0.000000 0.486275
0.921569 0.000000 0.509804
0.988235 0.000000 0.537255
1.000000 0.000000 0.564706
1.000000 0.000000 0.596078
1.000000 0.000000 0.615686
1.000000 0.000000 0.639216
1.000000 0.333333 0.658824
1.000000 0.521569 0.678431
1.000000 0.647059 0.713725
1.000000 0.729412 0.745098
1.000000 0.792157 0.776471
1.000000 0.843137 0.811765
1.000000 0.882353 0.850980
1.000000 0.921569 0.890196
1.000000 0.952941 0.925490
1.000000 0.980392 0.968627
1.000000 0.980392 0.968627
0.674510 0.000000 0.431373
0.686275 0.000000 0.435294
0.701961 0.000000 0.439216
0.729412 0.000000 0.450980
0.760784 0.000000 0.462745
0.800000 0.000000 0.474510
0.847059 0.000000 0.494118
0.898039 0.000000 0.513725
0.956863 0.000000 0.537255
1.000000 0.000000 0.560784
1.000000 0.000000 0.588235
1.000000 0.000000 0.619608
1.000000 0.000000 0.647059
1.000000 0.000000 0.670588
1.000000 0.000000 0.674510
1.000000 0.380392 0.686275
1.000000 0.564706 0.713725
1.000000 0.698039 0.764706
1.000000 0.772549 0.796078
1.000000 0.831373 0.831373
1.000000 0.878431 0.866667
1.000000 0.917647 0.901961
1.000000 0.952941 0.941176
1.000000 0.984314 0.976471
1.000000 0.984314 0.976471
0.729412 0.000000 0.466667
0.741176 0.000000 0.470588
0.756863 0.000000 0.478431
0.776471 0.000000 0.486275
0.807843 0.000000 0.494118
0.847059 0.000000 0.509804
0.890196 0.000000 0.525490
0.937255 0.000000 0.545098
0.992157 0.000000 0.564706
1.000000 0.000000 0.588235
1.000000 0.000000 0.615686
1.000000 0.000000 0.643137
1.000000 0.000000 0.670588
1.000000 0.000000 0.701961
1.000000 0.000000 0.694118
1.000000 0.000000 0.690196
1.000000 0.423529 0.709804
1.000000 0.603922 0.745098
1.000000 0.741176 0.803922
1.000000 0.823529 0.847059
1.000000 0.874510 0.882353
1.000000 0.921569 0.917647
1.000000 0.960784 0.952941
1.000000 0.992157 0.992157
1.000000 0.992157 0.992157
0.784314 0.000000 0.505882
0.796078 0.000000 0.505882
0.807843 0.000000 0.513725
0.827451 0.000000 0.517647
0.854902 0.000000 0.529412
0.890196 0.000000 0.541176
0.933333 0.000000 0.556863
0.980392 0.000000 0.572549
1.000000 0.000000 0.596078
1.000000 0.000000 0.615686
1.000000 0.000000 0.639216
1.000000 0.000000 0.666667
1.000000 0.000000 0.694118
1.000000 0.000000 0.713725
1.000000 0.000000 0.705882
1.000000 0.000000 0.698039
1.000000 0.101961 0.705882
1.000000 0.462745 0.729412
1.000000 0.639216 0.776471
1.000000 0.776471 0.835294
1.000000 0.878431 0.898039
1.000000 0.925490 0.933333
1.000000 0.968627 0.968627
1.000000 1.000000 1.000000
1.000000 1.000000 1.000000
0.839216 0.000000 0.541176
0.847059 0.000000 0.545098
0.862745 0.000000 0.549020
0.878431 0.000000 0.552941
0.905882 0.000000 0.564706
0.937255 0.000000 0.576471
0.976471 0.000000 0.588235
1.000000 0.000000 0.603922
1.000000 0.000000 0.623529
1.000000 0.000000 0.647059
1.000000 0.000000 0.666667
1.000000 0.000000 0.694118
1.000000 0.000000 0.717647
1.000000 0.000000 0.721569
1.000000 0.000000 0.713725
1.000000 0.000000 0.705882
1.000000 0.000000 0.701961
1.000000 0.176471 0.717647
1.000000 0.498039 0.749020
1.000000 0.674510 0.800000
1.000000 0.811765 0.866667
1.000000 0.933333 0.945098
1.000000 0.980392 0.984314
1.000000 1.000000 1.000000
1.000000 1.000000 1.000000
0.894118 0.000000 0.576471
0.901961 0.000000 0.580392
0.913725 0.000000 0.584314
0.933333 0.000000 0.592157
0.956863 0.000000 0.600000
0.984314 0.000000 0.607843
1.000000 0.000000 0.623529
1.000000 0.000000 0.639216
1.000000 0.000000 0.654902
1.000000 0.000000 0.674510
1.000000 0.000000 0.698039
1.000000 0.000000 0.721569
1.000000 0.000000 0.737255
1.000000 0.000000 0.729412
1.000000 0.000000 0.721569
1.000000 0.000000 0.713725
1.000000 0.000000 0.705882
1.000000 0.000000 0.705882
1.000000 0.231373 0.725490
1.000000 0.529412 0.764706
1.000000 0.705882 0.823529
1.000000 0.847059 0.894118
1.000000 0.968627 0.976471
1.000000 1.000000 1.000000
1.000000 1.000000 1.000000
0.949020 0.000000 0.615686
0.956863 0.000000 0.615686
0.968627 0.000000 0.619608
0.984314 0.000000 0.627451
1.000000 0.000000 0.635294
1.000000 0.000000 0.643137
1.000000 0.000000 0.654902
1.000000 0.000000 0.670588
1.000000 0.000000 0.686275
1.000000 0.000000 0.705882
1.000000 0.000000 0.725490
1.000000 0.000000 0.749020
1.000000 0.000000 0.745098
1.000000 0.000000 0.737255
1.000000 0.000000 0.729412
1.000000 0.000000 0.721569
1.000000 0.000000 0.713725
1.000000 0.000000 0.705882
1.000000 0.000000 0.709804
1.000000 0.270588 0.737255
1.000000 0.560784 0.780392
1.000000 0.737255 0.843137
1.000000 0.878431 0.917647
1.000000 1.000000 1.000000
1.000000 1.000000 1.000000
1.000000 0.000000 0.650980
1.000000 0.000000 0.654902
1.000000 0.000000 0.654902
1.000000 0.000000 0.662745
1.000000 0.000000 0.670588
1.000000 0.000000 0.678431
1.000000 0.000000 0.690196
1.000000 0.000000 0.701961
1.000000 0.000000 0.717647
1.000000 0.000000 0.737255
1.000000 0.000000 0.756863
1.000000 0.000000 0.760784
1.000000 0.000000 0.752941
1.000000 0.000000 0.741176
1.000000 0.000000 0.733333
1.000000 0.000000 0.725490
1.000000 0.000000 0.717647
1.000000 0.000000 0.713725
1.000000 0.000000 0.705882
1.000000 0.000000 0.709804
1.000000 0.305882 0.745098
1.000000 0.588235 0.796078
1.000000 0.764706 0.862745
1.000000 0.909804 0.937255
1.000000 0.909804 0.937255
1.000000 0.000000 0.686275
1.000000 0.000000 0.690196
1.000000 0.000000 0.694118
1.000000 0.000000 0.698039
1.000000 0.000000 0.705882
1.000000 0.000000 0.713725
1.000000 0.000000 0.725490
1.000000 0.000000 0.737255
1.000000 0.000000 0.752941
1.000000 0.000000 0.768627
1.000000 0.000000 0.776471
1.000000 0.000000 0.768627
1.000000 0.000000 0.756863
1.000000 0.000000 0.749020
1.000000 0.000000 0.741176
1.000000 0.000000 0.733333
1.000000 0.000000 0.725490
1.000000 0.000000 0.717647
1.000000 0.000000 0.713725
1.000000 0.000000 0.705882
1.000000 0.000000 0.713725
1.000000 0.333333 0.752941
1.000000 0.611765 0.811765
1.000000 0.792157 0.878431
1.000000 0.792157 0.878431
1.000000 0.000000 0.725490
1.000000 0.000000 0.725490
1.000000 0.000000 0.729412
1.000000 0.000000 0.733333
1.000000 0.000000 0.741176
1.000000 0.000000 0.749020
1.000000 0.000000 0.756863
1.000000 0.000000 0.768627
1.000000 0.000000 0.784314
1.000000 0.000000 0.792157
1.000000 0.000000 0.784314
1.000000 0.000000 0.772549
1.000000 0.000000 0.764706
1.000000 0.000000 0.756863
1.000000 0.000000 0.745098
1.000000 0.000000 0.737255
1.000000 0.000000 0.729412
1.000000 0.000000 0.725490
1.000000 0.000000 0.717647
1.000000 0.000000 0.713725
1.000000 0.000000 0.705882
1.000000 0.000000 0.713725
1.000000 0.360784 0.760784
1.000000 0.635294 0.823529
1.000000 0.635294 0.823529
1.000000 0.000000 0.760784
1.000000 0.000000 0.760784
1.000000 0.000000 0.764706
1.000000 0.000000 0.768627
1.000000 0.000000 0.776471
1.000000 0.000000 0.784314
1.000000 0.000000 0.792157
1.000000 0.000000 0.803922
1.000000 0.000000 0.807843
1.000000 0.000000 0.800000
1.000000 0.000000 0.788235
1.000000 0.000000 0.780392
1.000000 0.000000 0.768627
1.000000 0.000000 0.760784
1.000000 0.000000 0.752941
1.000000 0.000000 0.745098
1.000000 0.000000 0.737255
1.000000 0.000000 0.729412
1.000000 0.000000 0.721569
1.000000 0.000000 0.717647
1.000000 0.000000 0.713725
1.000000 0.000000 0.705882
1.000000 0.000000 0.717647
1.000000 0.380392 0.768627
1.000000 0.380392 0.768627
1.000000 0.000000 0.796078
1.000000 0.000000 0.800000
1.000000 0.000000 0.800000
1.000000 0.000000 0.803922
1.000000 0.000000 0.811765
1.000000 0.000000 0.819608
1.000000 0.000000 0.827451
1.000000 0.000000 0.819608
1.000000 0.000000 0.811765
1.000000 0.000000 0.803922
1.000000 0.000000 0.792157
1.000000 0.000000 0.784314
1.000000 0.000000 0.776471
1.000000 0.000000 0.764706
1.000000 0.000000 0.756863
1.000000 0.000000 0.749020
1.000000 0.000000 0.741176
1.000000 0.000000 0.737255
1.000000 0.000000 0.729412
1.000000 0.000000 0.721569
1.000000 0.000000 0.717647
1.000000 0.000000 0.709804
1.000000 0.000000 0.705882
1.000000 0.000000 0.717647
1.000000 0.000000 0.717647
1.000000 0.000000 0.835294
1.000000 0.000000 0.835294
1.000000 0.000000 0.839216
1.000000 0.000000 0.843137
1.000000 0.000000 0.843137
1.000000 0.000000 0.835294
1.000000 0.000000 0.831373
1.000000 0.000000 0.823529
1.000000 0.000000 0.815686
1.000000 0.000000 0.807843
1.000000 0.000000 0.796078
1.000000 0.000000 0.788235
1.000000 0.000000 0.780392
1.000000 0.000000 0.772549
1.000000 0.000000 0.764706
1.000000 0.000000 0.756863
1.000000 0.000000 0.749020
1.000000 0.000000 0.741176
1.000000 0.000000 0.733333
1.000000 0.000000 0.729412
1.000000 0.000000 0.721569
1.000000 0.000000 0.717647
1.000000 0.000000 0.709804
1.000000 0.000000 0.705882
1.000000 0.000000 0.705882
1.000000 0.000000 0.854902
1.000000 0.000000 0.850980
1.000000 0.000000 0.850980
1.000000 0.000000 0.847059
1.000000 0.000000 0.843137
1.000000 0.000000 0.839216
1.000000 0.000000 0.831373
1.000000 0.000000 0.823529
1.000000 0.000000 0.819608
1.000000 0.000000 0.811765
1.000000 0.000000 0.800000
1.000000 0.000000 0.792157
1.000000 0.000000 0.784314
1.000000 0.000000 0.776471
1.000000 0.000000 0.768627
1.000000 0.000000 0.760784
1.000000 0.000000 0.752941
1.000000 0.000000 0.745098
1.000000 0.000000 0.737255
1.000000 0.000000 0.733333
1.000000 0.000000 0.725490
1.000000 0.000000 0.721569
1.000000 0.000000 0.717647
1.000000 0.000000 0.709804
1.000000 0.000000 0.709804
0.000000 0.062745 0.047059
0.000000 0.121569 0.066667
0.011765 0.168627 0.090196
0.172549 0.219608 0.117647
0.270588 0.274510 0.145098
0.356863 0.329412 0.176471
0.439216 0.384314 0.211765
0.517647 0.443137 0.243137
0.592157 0.501961 0.278431
0.666667 0.560784 0.309804
0.741176 0.615686 0.345098
0.815686 0.674510 0.380392
0.890196 0.733333 0.415686
0.964706 0.792157 0.447059
1.000000 0.850980 0.482353
1.000000 0.909804 0.517647
1.000000 0.925490 0.568627
1.000000 0.933333 0.619608
1.000000 0.941176 0.670588
1.000000 0.945098 0.717647
1.000000 0.952941 0.764706
1.000000 0.960784 0.811765
1.000000 0.972549 0.858824
1.000000 0.980392 0.905882
1.000000 0.980392 0.905882
0.000000 0.000000 0.074510
0.000000 0.047059 0.094118
0.117647 0.121569 0.113725
0.215686 0.184314 0.133333
0.298039 0.247059 0.160784
0.376471 0.309804 0.192157
0.454902 0.368627 0.219608
0.529412 0.427451 0.250980
0.603922 0.490196 0.286275
0.678431 0.549020 0.317647
0.752941 0.607843 0.352941
0.823529 0.666667 0.384314
0.898039 0.725490 0.419608
0.972549 0.788235 0.454902
1.000000 0.847059 0.486275
1.000000 0.905882 0.521569
1.000000 0.921569 0.572549
1.000000 0.929412 0.623529
1.000000 0.937255 0.670588
1.000000 0.945098 0.721569
1.000000 0.952941 0.768627
1.000000 0.960784 0.815686
1.000000 0.968627 0.862745
1.000000 0.980392 0.905882
1.000000 0.980392 0.905882
0.000000 0.000000 0.098039
0.086275 0.000000 0.117647
0.188235 0.000000 0.137255
0.258824 0.121569 0.156863
0.329412 0.203922 0.180392
0.400000 0.278431 0.207843
0.474510 0.345098 0.235294
0.545098 0.407843 0.262745
0.615686 0.470588 0.294118
0.690196 0.533333 0.325490
0.760784 0.596078 0.360784
0.835294 0.654902 0.392157
0.905882 0.717647 0.423529
0.980392 0.776471 0.458824
1.000000 0.839216 0.494118
1.000000 0.898039 0.525490
1.000000 0.913725 0.576471
1.000000 0.921569 0.627451
1.000000 0.933333 0.674510
1.000000 0.941176 0.721569
1.000000 0.949020 0.768627
1.000000 0.960784 0.815686
1.000000 0.968627 0.862745
1.000000 0.980392 0.909804
1.000000 0.980392 0.909804
0.054902 0.000000 0.125490
0.156863 0.000000 0.141176
0.231373 0.000000 0.160784
0.313725 0.000000 0.184314
0.372549 0.113725 0.203922
0.435294 0.219608 0.227451
0.501961 0.301961 0.254902
0.568627 0.376471 0.282353
0.639216 0.443137 0.309804
0.705882 0.509804 0.341176
0.776471 0.576471 0.372549
0.847059 0.639216 0.403922
0.917647 0.701961 0.435294
0.992157 0.764706 0.466667
1.000000 0.823529 0.501961
1.000000 0.886275 0.533333
1.000000 0.901961 0.584314
1.000000 0.913725 0.631373
1.000000 0.925490 0.678431
1.000000 0.937255 0.725490
1.000000 0.945098 0.772549
1.000000 0.956863 0.819608
1.000000 0.968627 0.866667
1.000000 0.980392 0.909804
1.000000 0.980392 0.909804
0.160784 0.000000 0.156863
0.215686 0.000000 0.168627
0.278431 0.000000 0.184314
0.345098 0.000000 0.207843
0.423529 0.000000 0.235294
0.478431 0.086275 0.254902
0.537255 0.227451 0.278431
0.600000 0.321569 0.301961
0.666667 0.400000 0.329412
0.733333 0.474510 0.356863
0.800000 0.545098 0.388235
0.866667 0.611765 0.415686
0.937255 0.678431 0.447059
1.000000 0.745098 0.478431
1.000000 0.807843 0.513725
1.000000 0.870588 0.545098
1.000000 0.886275 0.592157
1.000000 0.901961 0.639216
1.000000 0.913725 0.686275
1.000000 0.929412 0.733333
1.000000 0.941176 0.780392
1.000000 0.952941 0.823529
1.000000 0.964706 0.870588
1.000000 0.976471 0.913725
1.000000 0.976471 0.913725
0.235294 0.000000 0.192157
0.274510 0.000000 0.200000
0.325490 0.000000 0.215686
0.384314 0.000000 0.235294
0.450980 0.000000 0.258824
0.525490 0.000000 0.286275
0.580392 0.019608 0.305882
0.639216 0.231373 0.329412
0.698039 0.337255 0.352941
0.760784 0.423529 0.380392
0.827451 0.501961 0.407843
0.890196 0.576471 0.435294
0.956863 0.647059 0.466667
1.000000 0.717647 0.494118
1.000000 0.784314 0.525490
1.000000 0.847059 0.556863
1.000000 0.866667 0.603922
1.000000 0.886275 0.650980
1.000000 0.901961 0.694118
1.000000 0.921569 0.741176
1.000000 0.933333 0.784314
1.000000 0.949020 0.831373
1.000000 0.964706 0.874510
1.000000 0.976471 0.917647
1.000000 0.976471 0.917647
0.301961 0.000000 0.223529
0.333333 0.000000 0.231373
0.372549 0.000000 0.243137
0.423529 0.000000 0.262745
0.486275 0.000000 0.282353
0.552941 0.000000 0.309804
0.623529 0.000000 0.337255
0.682353 0.000000 0.356863
0.737255 0.227451 0.380392
0.796078 0.349020 0.403922
0.858824 0.443137 0.431373
0.921569 0.529412 0.454902
0.984314 0.607843 0.486275
1.000000 0.678431 0.513725
1.000000 0.749020 0.541176
1.000000 0.811765 0.576471
1.000000 0.843137 0.619608
1.000000 0.866667 0.662745
1.000000 0.890196 0.705882
1.000000 0.909804 0.749020
1.000000 0.929412 0.792157
1.000000 0.945098 0.839216
1.000000 0.960784 0.882353
1.000000 0.976471 0.925490
1.000000 0.976471 0.925490
0.364706 0.000000 0.258824
0.392157 0.000000 0.266667
0.423529 0.000000 0.274510
0.466667 0.000000 0.290196
0.521569 0.000000 0.309804
0.584314 0.000000 0.333333
0.654902 0.000000 0.360784
0.725490 0.000000 0.388235
0.780392 0.000000 0.407843
0.835294 0.211765 0.431373
0.894118 0.356863 0.454902
0.952941 0.458824 0.482353
1.000000 0.549020 0.505882
1.000000 0.631373 0.533333
1.000000 0.709804 0.560784
1.000000 0.772549 0.596078
1.000000 0.811765 0.635294
1.000000 0.847059 0.674510
1.000000 0.874510 0.717647
1.000000 0.898039 0.760784
1.000000 0.917647 0.803922
1.000000 0.941176 0.847059
1.000000 0.956863 0.890196
1.000000 0.976471 0.933333
1.000000 0.976471 0.933333
0.427451 0.000000 0.294118
0.447059 0.000000 0.301961
0.474510 0.000000 0.309804
0.513725 0.000000 0.321569
0.564706 0.000000 0.341176
0.619608 0.000000 0.360784
0.686275 0.000000 0.384314
0.752941 0.000000 0.411765
0.823529 0.000000 0.443137
0.882353 0.000000 0.462745
0.933333 0.192157 0.482353
0.992157 0.356863 0.505882
1.000000 0.474510 0.533333
1.000000 0.568627 0.556863
1.000000 0.654902 0.584314
1.000000 0.729412 0.615686
1.000000 0.780392 0.650980
1.000000 0.819608 0.690196
1.000000 0.854902 0.729412
1.000000 0.886275 0.772549
1.000000 0.909804 0.811765
1.000000 0.933333 0.854902
1.000000 0.956863 0.898039
1.000000 0.976471 0.941176
1.000000 0.976471 0.941176
0.486275 0.000000 0.329412
0.501961 0.000000 0.333333
0.525490 0.000000 0.341176
0.560784 0.000000 0.352941
0.607843 0.000000 0.368627
0.658824 0.000000 0.388235
0.717647 0.000000 0.411765
0.784314 0.000000 0.435294
0.850980 0.000000 0.462745
0.921569 0.000000 0.494118
0.980392 0.000000 0.513725
1.000000 0.152941 0.537255
1.000000 0.356863 0.560784
1.000000 0.482353 0.584314
1.000000 0.584314 0.607843
1.000000 0.674510 0.639216
1.000000 0.741176 0.670588
1.000000 0.792157 0.709804
1.000000 0.835294 0.745098
1.000000 0.870588 0.784314
1.000000 0.901961 0.823529
1.000000 0.929412 0.866667
1.000000 0.952941 0.905882
1.000000 0.976471 0.949020
1.000000 0.976471 0.949020
0.541176 0.000000 0.364706
0.556863 0.000000 0.368627
0.580392 0.000000 0.376471
0.611765 0.000000 0.388235
0.650980 0.000000 0.400000
0.701961 0.000000 0.419608
0.756863 0.000000 0.439216
0.815686 0.000000 0.462745
