luts/PictureFX Villefranche sur Mer - Cote d'Azur - set blend opacity to taste - sample picture at 70% @.cube
#Generated with IWLTBAP LUT Generator
#Website: http://luts.iwltbap.com
TITLE "PictureFX-Villefranche-sur-Mer-N125"
#LUT size
LUT_3D_SIZE 5
#LUT data points
0.043137 0.000000 0.000000
0.243137 0.000000 0.000000
0.549020 0.000000 0.000000
0.894118 0.000000 0.000000
1.000000 0.000000 0.000000
0.000000 0.203922 0.000000
0.227451 0.192157 0.000000
0.521569 0.149020 0.000000
0.843137 0.000000 0.000000
1.000000 0.000000 0.000000
0.000000 0.478431 0.000000
0.000000 0.470588 0.000000
0.439216 0.443137 0.000000
0.737255 0.380392 0.000000
1.000000 0.203922 0.000000
0.000000 0.682353 0.000000
0.000000 0.678431 0.000000
0.125490 0.666667 0.000000
0.603922 0.635294 0.000000
0.917647 0.584314 0.000000
0.000000 0.901961 0.000000
0.000000 0.898039 0.000000
0.000000 0.890196 0.000000
0.360784 0.882353 0.000000
0.800000 0.862745 0.000000
0.000000 0.000000 0.356863
0.313725 0.000000 0.243137
0.572549 0.000000 0.160784
0.890196 0.000000 0.125490
1.000000 0.000000 0.066667
0.000000 0.207843 0.145098
0.219608 0.188235 0.168627
0.482353 0.172549 0.160784
0.827451 0.000000 0.078431
1.000000 0.000000 0.000000
0.000000 0.466667 0.000000
0.000000 0.454902 0.000000
0.462745 0.427451 0.086275
0.729412 0.384314 0.000000
1.000000 0.219608 0.000000
0.000000 0.686275 0.000000
0.000000 0.682353 0.000000
0.203922 0.670588 0.000000
0.631373 0.643137 0.000000
0.937255 0.592157 0.000000
0.000000 0.913725 0.000000
0.000000 0.909804 0.000000
0.000000 0.901961 0.000000
0.403922 0.890196 0.000000
0.823529 0.866667 0.000000
0.000000 0.000000 0.725490
0.266667 0.000000 0.658824
0.631373 0.000000 0.552941
0.941176 0.000000 0.466667
1.000000 0.000000 0.376471
0.000000 0.200000 0.611765
0.184314 0.152941 0.576471
0.592157 0.000000 0.501961
0.878431 0.000000 0.419608
1.000000 0.000000 0.349020
0.000000 0.470588 0.403922
0.000000 0.462745 0.384314
0.458824 0.419608 0.396078
0.690196 0.403922 0.384314
1.000000 0.207843 0.294118
0.000000 0.686275 0.211765
0.000000 0.682353 0.211765
0.298039 0.662745 0.239216
0.678431 0.627451 0.321569
0.941176 0.600000 0.227451
0.000000 0.917647 0.000000
0.000000 0.913725 0.000000
0.000000 0.901961 0.000000
0.474510 0.886275 0.000000
0.858824 0.862745 0.000000
0.000000 0.000000 1.000000
0.000000 0.000000 1.000000
0.619608 0.000000 0.988235
0.968627 0.000000 0.882353
1.000000 0.000000 0.752941
0.000000 0.145098 1.000000
0.000000 0.050980 1.000000
0.576471 0.000000 0.941176
0.921569 0.000000 0.831373
1.000000 0.000000 0.717647
0.000000 0.466667 0.878431
0.000000 0.454902 0.862745
0.447059 0.396078 0.807843
0.819608 0.270588 0.717647
1.000000 0.000000 0.635294
0.000000 0.690196 0.627451
0.000000 0.690196 0.619608
0.000000 0.674510 0.588235
0.666667 0.623529 0.600000
0.886275 0.615686 0.592157
0.000000 0.913725 0.447059
0.000000 0.905882 0.439216
0.000000 0.894118 0.431373
0.533333 0.874510 0.462745
0.901961 0.843137 0.549020
0.000000 0.000000 1.000000
0.000000 0.000000 1.000000
0.549020 0.000000 1.000000
0.949020 0.000000 1.000000
1.000000 0.000000 1.000000
0.000000 0.000000 1.000000
0.000000 0.000000 1.000000
0.486275 0.000000 1.000000
0.901961 0.000000 1.000000
1.000000 0.000000 1.000000
0.000000 0.443137 1.000000
0.000000 0.423529 1.000000
0.298039 0.352941 1.000000
0.800000 0.149020 1.000000
1.000000 0.000000 1.000000
0.000000 0.682353 1.000000
0.000000 0.678431 1.000000
0.000000 0.654902 1.000000
0.647059 0.588235 0.992157
1.000000 0.498039 0.909804
0.000000 0.901961 0.843137
0.000000 0.901961 0.835294
0.000000 0.898039 0.819608
0.364706 0.882353 0.788235
1.000000 0.964706 0.937255
