luts/PictureFX Creative - Kodak Wratten 81A.cube
#Generated with IWLTBAP LUT Generator
#LutCreator: https://marcrphoto.wordpress.com/
TITLE "PictureFX Creative - Kodak Wratten 81AB"
#LUT size
LUT_3D_SIZE 25
#LUT data points
0.000000 0.000000 0.000000
0.047059 0.000000 0.000000
0.101961 0.000000 0.000000
0.149020 0.000000 0.000000
0.203922 0.000000 0.000000
0.254902 0.000000 0.000000
0.301961 0.000000 0.000000
0.352941 0.000000 0.000000
0.400000 0.000000 0.000000
0.443137 0.000000 0.000000
0.490196 0.000000 0.000000
0.533333 0.000000 0.000000
0.572549 0.000000 0.000000
0.611765 0.000000 0.000000
0.654902 0.000000 0.000000
0.690196 0.000000 0.000000
0.725490 0.000000 0.000000
0.764706 0.000000 0.000000
0.796078 0.000000 0.000000
0.831373 0.000000 0.000000
0.866667 0.000000 0.000000
0.898039 0.000000 0.000000
0.933333 0.000000 0.000000
0.968627 0.000000 0.000000
1.000000 0.000000 0.000000
0.000000 0.039216 0.000000
0.047059 0.039216 0.000000
0.101961 0.039216 0.000000
0.149020 0.039216 0.000000
0.203922 0.039216 0.000000
0.254902 0.039216 0.000000
0.301961 0.039216 0.000000
0.352941 0.039216 0.000000
0.400000 0.039216 0.000000
0.443137 0.039216 0.000000
0.490196 0.039216 0.000000
0.533333 0.039216 0.000000
0.572549 0.039216 0.000000
0.611765 0.039216 0.000000
0.654902 0.039216 0.000000
0.690196 0.039216 0.000000
0.725490 0.039216 0.000000
0.764706 0.039216 0.000000
0.796078 0.039216 0.000000
0.831373 0.039216 0.000000
0.866667 0.039216 0.000000
0.898039 0.039216 0.000000
0.933333 0.039216 0.000000
0.968627 0.039216 0.000000
1.000000 0.039216 0.000000
0.000000 0.082353 0.000000
0.047059 0.082353 0.000000
0.101961 0.082353 0.000000
0.149020 0.082353 0.000000
0.203922 0.082353 0.000000
0.254902 0.082353 0.000000
0.301961 0.082353 0.000000
0.352941 0.082353 0.000000
0.400000 0.082353 0.000000
0.443137 0.082353 0.000000
0.490196 0.082353 0.000000
0.533333 0.082353 0.000000
0.572549 0.082353 0.000000
0.611765 0.082353 0.000000
0.654902 0.082353 0.000000
0.690196 0.082353 0.000000
0.725490 0.082353 0.000000
0.764706 0.082353 0.000000
0.796078 0.082353 0.000000
0.831373 0.082353 0.000000
0.866667 0.082353 0.000000
0.898039 0.082353 0.000000
0.933333 0.082353 0.000000
0.968627 0.082353 0.000000
1.000000 0.082353 0.000000
0.000000 0.121569 0.000000
0.047059 0.121569 0.000000
0.101961 0.121569 0.000000
0.149020 0.121569 0.000000
0.203922 0.121569 0.000000
0.254902 0.121569 0.000000
0.301961 0.121569 0.000000
0.352941 0.121569 0.000000
0.400000 0.121569 0.000000
0.443137 0.121569 0.000000
0.490196 0.121569 0.000000
0.533333 0.121569 0.000000
0.572549 0.121569 0.000000
0.611765 0.121569 0.000000
0.654902 0.121569 0.000000
0.690196 0.121569 0.000000
0.725490 0.121569 0.000000
0.764706 0.121569 0.000000
0.796078 0.121569 0.000000
0.831373 0.121569 0.000000
0.866667 0.121569 0.000000
0.898039 0.121569 0.000000
0.933333 0.121569 0.000000
0.968627 0.121569 0.000000
1.000000 0.121569 0.000000
0.000000 0.164706 0.000000
0.047059 0.164706 0.000000
0.101961 0.164706 0.000000
0.149020 0.164706 0.000000
0.203922 0.164706 0.000000
0.254902 0.164706 0.000000
0.301961 0.164706 0.000000
0.352941 0.164706 0.000000
0.400000 0.164706 0.000000
0.443137 0.164706 0.000000
0.490196 0.164706 0.000000
0.533333 0.164706 0.000000
0.572549 0.164706 0.000000
0.611765 0.164706 0.000000
0.654902 0.164706 0.000000
0.690196 0.164706 0.000000
0.725490 0.164706 0.000000
0.764706 0.164706 0.000000
0.796078 0.164706 0.000000
0.831373 0.164706 0.000000
0.866667 0.164706 0.000000
0.898039 0.164706 0.000000
0.933333 0.164706 0.000000
0.968627 0.164706 0.000000
1.000000 0.164706 0.000000
0.000000 0.207843 0.000000
0.047059 0.207843 0.000000
0.101961 0.207843 0.000000
0.149020 0.207843 0.000000
0.203922 0.207843 0.000000
0.254902 0.207843 0.000000
0.301961 0.207843 0.000000
0.352941 0.207843 0.000000
0.400000 0.207843 0.000000
0.443137 0.207843 0.000000
0.490196 0.207843 0.000000
0.533333 0.207843 0.000000
0.572549 0.207843 0.000000
0.611765 0.207843 0.000000
0.654902 0.207843 0.000000
0.690196 0.207843 0.000000
0.725490 0.207843 0.000000
0.764706 0.207843 0.000000
0.796078 0.207843 0.000000
0.831373 0.207843 0.000000
0.866667 0.207843 0.000000
0.898039 0.207843 0.000000
0.933333 0.207843 0.000000
0.968627 0.207843 0.000000
1.000000 0.207843 0.000000
0.000000 0.247059 0.000000
0.047059 0.247059 0.000000
0.101961 0.247059 0.000000
0.149020 0.247059 0.000000
0.203922 0.247059 0.000000
0.254902 0.247059 0.000000
0.301961 0.247059 0.000000
0.352941 0.247059 0.000000
0.400000 0.247059 0.000000
0.443137 0.247059 0.000000
0.490196 0.247059 0.000000
0.533333 0.247059 0.000000
0.572549 0.247059 0.000000
0.611765 0.247059 0.000000
0.654902 0.247059 0.000000
0.690196 0.247059 0.000000
0.725490 0.247059 0.000000
0.764706 0.247059 0.000000
0.796078 0.247059 0.000000
0.831373 0.247059 0.000000
0.866667 0.247059 0.000000
0.898039 0.247059 0.000000
0.933333 0.247059 0.000000
0.968627 0.247059 0.000000
1.000000 0.247059 0.000000
0.000000 0.290196 0.000000
0.047059 0.290196 0.000000
0.101961 0.290196 0.000000
0.149020 0.290196 0.000000
0.203922 0.290196 0.000000
0.254902 0.290196 0.000000
0.301961 0.290196 0.000000
0.352941 0.290196 0.000000
0.400000 0.290196 0.000000
0.443137 0.290196 0.000000
0.490196 0.290196 0.000000
0.533333 0.290196 0.000000
0.572549 0.290196 0.000000
0.611765 0.290196 0.000000
0.654902 0.290196 0.000000
0.690196 0.290196 0.000000
0.725490 0.290196 0.000000
0.764706 0.290196 0.000000
0.796078 0.290196 0.000000
0.831373 0.290196 0.000000
0.866667 0.290196 0.000000
0.898039 0.290196 0.000000
0.933333 0.290196 0.000000
0.968627 0.290196 0.000000
1.000000 0.290196 0.000000
0.000000 0.333333 0.000000
0.047059 0.333333 0.000000
0.101961 0.333333 0.000000
0.149020 0.333333 0.000000
0.203922 0.333333 0.000000
0.254902 0.333333 0.000000
0.301961 0.333333 0.000000
0.352941 0.333333 0.000000
0.400000 0.333333 0.000000
0.443137 0.333333 0.000000
0.490196 0.333333 0.000000
0.533333 0.333333 0.000000
0.572549 0.333333 0.000000
0.611765 0.333333 0.000000
0.654902 0.333333 0.000000
0.690196 0.333333 0.000000
0.725490 0.333333 0.000000
0.764706 0.333333 0.000000
0.796078 0.333333 0.000000
0.831373 0.333333 0.000000
0.866667 0.333333 0.000000
0.898039 0.333333 0.000000
0.933333 0.333333 0.000000
0.968627 0.333333 0.000000
1.000000 0.333333 0.000000
0.000000 0.372549 0.000000
0.047059 0.372549 0.000000
0.101961 0.372549 0.000000
0.149020 0.372549 0.000000
0.203922 0.372549 0.000000
0.254902 0.372549 0.000000
0.301961 0.372549 0.000000
0.352941 0.372549 0.000000
0.400000 0.372549 0.000000
0.443137 0.372549 0.000000
0.490196 0.372549 0.000000
0.533333 0.372549 0.000000
0.572549 0.372549 0.000000
0.611765 0.372549 0.000000
0.654902 0.372549 0.000000
0.690196 0.372549 0.000000
0.725490 0.372549 0.000000
0.764706 0.372549 0.000000
0.796078 0.372549 0.000000
0.831373 0.372549 0.000000
0.866667 0.372549 0.000000
0.898039 0.372549 0.000000
0.933333 0.372549 0.000000
0.968627 0.372549 0.000000
1.000000 0.372549 0.000000
0.000000 0.415686 0.000000
0.047059 0.415686 0.000000
0.101961 0.415686 0.000000
0.149020 0.415686 0.000000
0.203922 0.415686 0.000000
0.254902 0.415686 0.000000
0.301961 0.415686 0.000000
0.352941 0.415686 0.000000
0.400000 0.415686 0.000000
0.443137 0.415686 0.000000
0.490196 0.415686 0.000000
0.533333 0.415686 0.000000
0.572549 0.415686 0.000000
0.611765 0.415686 0.000000
0.654902 0.415686 0.000000
0.690196 0.415686 0.000000
0.725490 0.415686 0.000000
0.764706 0.415686 0.000000
0.796078 0.415686 0.000000
0.831373 0.415686 0.000000
0.866667 0.415686 0.000000
0.898039 0.415686 0.000000
0.933333 0.415686 0.000000
0.968627 0.415686 0.000000
1.000000 0.415686 0.000000
0.000000 0.458824 0.000000
0.047059 0.458824 0.000000
0.101961 0.458824 0.000000
0.149020 0.458824 0.000000
0.203922 0.458824 0.000000
0.254902 0.458824 0.000000
0.301961 0.458824 0.000000
0.352941 0.458824 0.000000
0.400000 0.458824 0.000000
0.443137 0.458824 0.000000
0.490196 0.458824 0.000000
0.533333 0.458824 0.000000
0.572549 0.458824 0.000000
0.611765 0.458824 0.000000
0.654902 0.458824 0.000000
0.690196 0.458824 0.000000
0.725490 0.458824 0.000000
0.764706 0.458824 0.000000
0.796078 0.458824 0.000000
0.831373 0.458824 0.000000
0.866667 0.458824 0.000000
0.898039 0.458824 0.000000
0.933333 0.458824 0.000000
0.968627 0.458824 0.000000
1.000000 0.458824 0.000000
0.000000 0.498039 0.000000
0.047059 0.498039 0.000000
0.101961 0.498039 0.000000
0.149020 0.498039 0.000000
0.203922 0.498039 0.000000
0.254902 0.498039 0.000000
0.301961 0.498039 0.000000
0.352941 0.498039 0.000000
0.400000 0.498039 0.000000
0.443137 0.498039 0.000000
0.490196 0.498039 0.000000
0.533333 0.498039 0.000000
0.572549 0.498039 0.000000
0.611765 0.498039 0.000000
0.654902 0.498039 0.000000
0.690196 0.498039 0.000000
0.725490 0.498039 0.000000
0.764706 0.498039 0.000000
0.796078 0.498039 0.000000
0.831373 0.498039 0.000000
0.866667 0.498039 0.000000
0.898039 0.498039 0.000000
0.933333 0.498039 0.000000
0.968627 0.498039 0.000000
1.000000 0.498039 0.000000
0.000000 0.541176 0.000000
0.047059 0.541176 0.000000
0.101961 0.541176 0.000000
0.149020 0.541176 0.000000
0.203922 0.541176 0.000000
0.254902 0.541176 0.000000
0.301961 0.541176 0.000000
0.352941 0.541176 0.000000
0.400000 0.541176 0.000000
0.443137 0.541176 0.000000
0.490196 0.541176 0.000000
0.533333 0.541176 0.000000
0.572549 0.541176 0.000000
0.611765 0.541176 0.000000
0.654902 0.541176 0.000000
0.690196 0.541176 0.000000
0.725490 0.541176 0.000000
0.764706 0.541176 0.000000
0.796078 0.541176 0.000000
0.831373 0.541176 0.000000
0.866667 0.541176 0.000000
0.898039 0.541176 0.000000
0.933333 0.541176 0.000000
0.968627 0.541176 0.000000
1.000000 0.541176 0.000000
0.000000 0.584314 0.000000
0.047059 0.584314 0.000000
0.101961 0.584314 0.000000
0.149020 0.584314 0.000000
0.203922 0.584314 0.000000
0.254902 0.584314 0.000000
0.301961 0.584314 0.000000
0.352941 0.584314 0.000000
0.400000 0.584314 0.000000
0.443137 0.584314 0.000000
0.490196 0.584314 0.000000
0.533333 0.584314 0.000000
0.572549 0.584314 0.000000
0.611765 0.584314 0.000000
0.654902 0.584314 0.000000
0.690196 0.584314 0.000000
0.725490 0.584314 0.000000
0.764706 0.584314 0.000000
0.796078 0.584314 0.000000
0.831373 0.584314 0.000000
0.866667 0.584314 0.000000
0.898039 0.584314 0.000000
0.933333 0.584314 0.000000
0.968627 0.584314 0.000000
1.000000 0.584314 0.000000
0.000000 0.623529 0.000000
0.047059 0.623529 0.000000
0.101961 0.623529 0.000000
0.149020 0.623529 0.000000
0.203922 0.623529 0.000000
0.254902 0.623529 0.000000
0.301961 0.623529 0.000000
0.352941 0.623529 0.000000
0.400000 0.623529 0.000000
0.443137 0.623529 0.000000
0.490196 0.623529 0.000000
0.533333 0.623529 0.000000
0.572549 0.623529 0.000000
0.611765 0.623529 0.000000
0.654902 0.623529 0.000000
0.690196 0.623529 0.000000
0.725490 0.623529 0.000000
0.764706 0.623529 0.000000
0.796078 0.623529 0.000000
0.831373 0.623529 0.000000
0.866667 0.623529 0.000000
0.898039 0.623529 0.000000
0.933333 0.623529 0.000000
0.968627 0.623529 0.000000
1.000000 0.623529 0.000000
0.000000 0.666667 0.000000
0.047059 0.666667 0.000000
0.101961 0.666667 0.000000
0.149020 0.666667 0.000000
0.203922 0.666667 0.000000
0.254902 0.666667 0.000000
0.301961 0.666667 0.000000
0.352941 0.666667 0.000000
0.400000 0.666667 0.000000
0.443137 0.666667 0.000000
0.490196 0.666667 0.000000
0.533333 0.666667 0.000000
0.572549 0.666667 0.000000
0.611765 0.666667 0.000000
0.654902 0.666667 0.000000
0.690196 0.666667 0.000000
0.725490 0.666667 0.000000
0.764706 0.666667 0.000000
0.796078 0.666667 0.000000
0.831373 0.666667 0.000000
0.866667 0.666667 0.000000
0.898039 0.666667 0.000000
0.933333 0.666667 0.000000
0.968627 0.666667 0.000000
1.000000 0.666667 0.000000
0.000000 0.709804 0.000000
0.047059 0.709804 0.000000
0.101961 0.709804 0.000000
0.149020 0.709804 0.000000
0.203922 0.709804 0.000000
0.254902 0.709804 0.000000
0.301961 0.709804 0.000000
0.352941 0.709804 0.000000
0.400000 0.709804 0.000000
0.443137 0.709804 0.000000
0.490196 0.709804 0.000000
0.533333 0.709804 0.000000
0.572549 0.709804 0.000000
0.611765 0.709804 0.000000
0.654902 0.709804 0.000000
0.690196 0.709804 0.000000
0.725490 0.709804 0.000000
0.764706 0.709804 0.000000
0.796078 0.709804 0.000000
0.831373 0.709804 0.000000
0.866667 0.709804 0.000000
0.898039 0.709804 0.000000
0.933333 0.709804 0.000000
0.968627 0.709804 0.000000
1.000000 0.709804 0.000000
0.000000 0.749020 0.000000
0.047059 0.749020 0.000000
0.101961 0.749020 0.000000
0.149020 0.749020 0.000000
0.203922 0.749020 0.000000
0.254902 0.749020 0.000000
0.301961 0.749020 0.000000
0.352941 0.749020 0.000000
0.400000 0.749020 0.000000
0.443137 0.749020 0.000000
0.490196 0.749020 0.000000
0.533333 0.749020 0.000000
0.572549 0.749020 0.000000
0.611765 0.749020 0.000000
0.654902 0.749020 0.000000
0.690196 0.749020 0.000000
0.725490 0.749020 0.000000
0.764706 0.749020 0.000000
0.796078 0.749020 0.000000
0.831373 0.749020 0.000000
0.866667 0.749020 0.000000
0.898039 0.749020 0.000000
0.933333 0.749020 0.000000
0.968627 0.749020 0.000000
1.000000 0.749020 0.000000
0.000000 0.792157 0.000000
0.047059 0.792157 0.000000
0.101961 0.792157 0.000000
0.149020 0.792157 0.000000
0.203922 0.792157 0.000000
0.254902 0.792157 0.000000
0.301961 0.792157 0.000000
0.352941 0.792157 0.000000
0.400000 0.792157 0.000000
0.443137 0.792157 0.000000
0.490196 0.792157 0.000000
0.533333 0.792157 0.000000
0.572549 0.792157 0.000000
0.611765 0.792157 0.000000
0.654902 0.792157 0.000000
0.690196 0.792157 0.000000
0.725490 0.792157 0.000000
0.764706 0.792157 0.000000
0.796078 0.792157 0.000000
0.831373 0.792157 0.000000
0.866667 0.792157 0.000000
0.898039 0.792157 0.000000
0.933333 0.792157 0.000000
0.968627 0.792157 0.000000
1.000000 0.792157 0.000000
0.000000 0.835294 0.000000
0.047059 0.835294 0.000000
0.101961 0.835294 0.000000
0.149020 0.835294 0.000000
0.203922 0.835294 0.000000
0.254902 0.835294 0.000000
0.301961 0.835294 0.000000
0.352941 0.835294 0.000000
0.400000 0.835294 0.000000
0.443137 0.835294 0.000000
0.490196 0.835294 0.000000
0.533333 0.835294 0.000000
0.572549 0.835294 0.000000
0.611765 0.835294 0.000000
0.654902 0.835294 0.000000
0.690196 0.835294 0.000000
0.725490 0.835294 0.000000
0.764706 0.835294 0.000000
0.796078 0.835294 0.000000
0.831373 0.835294 0.000000
0.866667 0.835294 0.000000
0.898039 0.835294 0.000000
0.933333 0.835294 0.000000
0.968627 0.835294 0.000000
1.000000 0.835294 0.000000
0.000000 0.874510 0.000000
0.047059 0.874510 0.000000
0.101961 0.874510 0.000000
0.149020 0.874510 0.000000
0.203922 0.874510 0.000000
0.254902 0.874510 0.000000
0.301961 0.874510 0.000000
0.352941 0.874510 0.000000
0.400000 0.874510 0.000000
0.443137 0.874510 0.000000
0.490196 0.874510 0.000000
0.533333 0.874510 0.000000
0.572549 0.874510 0.000000
0.611765 0.874510 0.000000
0.654902 0.874510 0.000000
0.690196 0.874510 0.000000
0.725490 0.874510 0.000000
0.764706 0.874510 0.000000
0.796078 0.874510 0.000000
0.831373 0.874510 0.000000
0.866667 0.874510 0.000000
0.898039 0.874510 0.000000
0.933333 0.874510 0.000000
0.968627 0.874510 0.000000
1.000000 0.874510 0.000000
0.000000 0.917647 0.000000
0.047059 0.917647 0.000000
0.101961 0.917647 0.000000
0.149020 0.917647 0.000000
0.203922 0.917647 0.000000
0.254902 0.917647 0.000000
0.301961 0.917647 0.000000
0.352941 0.917647 0.000000
0.400000 0.917647 0.000000
0.443137 0.917647 0.000000
0.490196 0.917647 0.000000
0.533333 0.917647 0.000000
0.572549 0.917647 0.000000
0.611765 0.917647 0.000000
0.654902 0.917647 0.000000
0.690196 0.917647 0.000000
0.725490 0.917647 0.000000
0.764706 0.917647 0.000000
0.796078 0.917647 0.000000
0.831373 0.917647 0.000000
0.866667 0.917647 0.000000
0.898039 0.917647 0.000000
0.933333 0.917647 0.000000
0.968627 0.917647 0.000000
1.000000 0.917647 0.000000
0.000000 0.960784 0.000000
0.047059 0.960784 0.000000
0.101961 0.960784 0.000000
0.149020 0.960784 0.000000
0.203922 0.960784 0.000000
0.254902 0.960784 0.000000
0.301961 0.960784 0.000000
0.352941 0.960784 0.000000
0.400000 0.960784 0.000000
0.443137 0.960784 0.000000
0.490196 0.960784 0.000000
0.533333 0.960784 0.000000
0.572549 0.960784 0.000000
0.611765 0.960784 0.000000
0.654902 0.960784 0.000000
0.690196 0.960784 0.000000
0.725490 0.960784 0.000000
0.764706 0.960784 0.000000
0.796078 0.960784 0.000000
0.831373 0.960784 0.000000
0.866667 0.960784 0.000000
0.898039 0.960784 0.000000
0.933333 0.960784 0.000000
0.968627 0.960784 0.000000
1.000000 0.960784 0.000000
0.000000 1.000000 0.000000
0.047059 1.000000 0.000000
0.101961 1.000000 0.000000
0.149020 1.000000 0.000000
0.203922 1.000000 0.000000
0.254902 1.000000 0.000000
0.301961 1.000000 0.000000
0.352941 1.000000 0.000000
0.400000 1.000000 0.000000
0.443137 1.000000 0.000000
0.490196 1.000000 0.000000
0.533333 1.000000 0.000000
0.572549 1.000000 0.000000
0.611765 1.000000 0.000000
0.654902 1.000000 0.000000
0.690196 1.000000 0.000000
0.725490 1.000000 0.000000
0.764706 1.000000 0.000000
0.796078 1.000000 0.000000
0.831373 1.000000 0.000000
0.866667 1.000000 0.000000
0.898039 1.000000 0.000000
0.933333 1.000000 0.000000
0.968627 1.000000 0.000000
1.000000 1.000000 0.000000
0.000000 0.000000 0.031373
0.047059 0.000000 0.031373
0.101961 0.000000 0.031373
0.149020 0.000000 0.031373
0.203922 0.000000 0.031373
0.254902 0.000000 0.031373
0.301961 0.000000 0.031373
0.352941 0.000000 0.031373
0.400000 0.000000 0.031373
0.443137 0.000000 0.031373
0.490196 0.000000 0.031373
0.533333 0.000000 0.031373
0.572549 0.000000 0.031373
0.611765 0.000000 0.031373
0.654902 0.000000 0.031373
0.690196 0.000000 0.031373
0.725490 0.000000 0.031373
0.764706 0.000000 0.031373
0.796078 0.000000 0.031373
0.831373 0.000000 0.031373
0.866667 0.000000 0.031373
0.898039 0.000000 0.031373
0.933333 0.000000 0.031373
0.968627 0.000000 0.031373
1.000000 0.000000 0.031373
0.000000 0.039216 0.031373
0.047059 0.039216 0.031373
0.101961 0.039216 0.031373
0.149020 0.039216 0.031373
0.203922 0.039216 0.031373
0.254902 0.039216 0.031373
0.301961 0.039216 0.031373
0.352941 0.039216 0.031373
0.400000 0.039216 0.031373
0.443137 0.039216 0.031373
0.490196 0.039216 0.031373
0.533333 0.039216 0.031373
0.572549 0.039216 0.031373
0.611765 0.039216 0.031373
0.654902 0.039216 0.031373
0.690196 0.039216 0.031373
0.725490 0.039216 0.031373
0.764706 0.039216 0.031373
0.796078 0.039216 0.031373
0.831373 0.039216 0.031373
0.866667 0.039216 0.031373
0.898039 0.039216 0.031373
0.933333 0.039216 0.031373
0.968627 0.039216 0.031373
1.000000 0.039216 0.031373
0.000000 0.082353 0.031373
0.047059 0.082353 0.031373
0.101961 0.082353 0.031373
0.149020 0.082353 0.031373
0.203922 0.082353 0.031373
0.254902 0.082353 0.031373
0.301961 0.082353 0.031373
0.352941 0.082353 0.031373
0.400000 0.082353 0.031373
0.443137 0.082353 0.031373
0.490196 0.082353 0.031373
0.533333 0.082353 0.031373
0.572549 0.082353 0.031373
0.611765 0.082353 0.031373
0.654902 0.082353 0.031373
0.690196 0.082353 0.031373
0.725490 0.082353 0.031373
0.764706 0.082353 0.031373
0.796078 0.082353 0.031373
0.831373 0.082353 0.031373
0.866667 0.082353 0.031373
0.898039 0.082353 0.031373
0.933333 0.082353 0.031373
0.968627 0.082353 0.031373
1.000000 0.082353 0.031373
0.000000 0.121569 0.031373
0.047059 0.121569 0.031373
0.101961 0.121569 0.031373
0.149020 0.121569 0.031373
0.203922 0.121569 0.031373
0.254902 0.121569 0.031373
0.301961 0.121569 0.031373
0.352941 0.121569 0.031373
0.400000 0.121569 0.031373
0.443137 0.121569 0.031373
0.490196 0.121569 0.031373
0.533333 0.121569 0.031373
0.572549 0.121569 0.031373
0.611765 0.121569 0.031373
0.654902 0.121569 0.031373
0.690196 0.121569 0.031373
0.725490 0.121569 0.031373
0.764706 0.121569 0.031373
0.796078 0.121569 0.031373
0.831373 0.121569 0.031373
0.866667 0.121569 0.031373
0.898039 0.121569 0.031373
0.933333 0.121569 0.031373
0.968627 0.121569 0.031373
1.000000 0.121569 0.031373
0.000000 0.164706 0.031373
0.047059 0.164706 0.031373
0.101961 0.164706 0.031373
0.149020 0.164706 0.031373
0.203922 0.164706 0.031373
0.254902 0.164706 0.031373
0.301961 0.164706 0.031373
0.352941 0.164706 0.031373
0.400000 0.164706 0.031373
0.443137 0.164706 0.031373
0.490196 0.164706 0.031373
0.533333 0.164706 0.031373
0.572549 0.164706 0.031373
0.611765 0.164706 0.031373
0.654902 0.164706 0.031373
0.690196 0.164706 0.031373
0.725490 0.164706 0.031373
0.764706 0.164706 0.031373
0.796078 0.164706 0.031373
0.831373 0.164706 0.031373
0.866667 0.164706 0.031373
0.898039 0.164706 0.031373
0.933333 0.164706 0.031373
0.968627 0.164706 0.031373
1.000000 0.164706 0.031373
0.000000 0.207843 0.031373
0.047059 0.207843 0.031373
0.101961 0.207843 0.031373
0.149020 0.207843 0.031373
0.203922 0.207843 0.031373
0.254902 0.207843 0.031373
0.301961 0.207843 0.031373
0.352941 0.207843 0.031373
0.400000 0.207843 0.031373
0.443137 0.207843 0.031373
0.490196 0.207843 0.031373
0.533333 0.207843 0.031373
0.572549 0.207843 0.031373
0.611765 0.207843 0.031373
0.654902 0.207843 0.031373
0.690196 0.207843 0.031373
0.725490 0.207843 0.031373
0.764706 0.207843 0.031373
0.796078 0.207843 0.031373
0.831373 0.207843 0.031373
0.866667 0.207843 0.031373
0.898039 0.207843 0.031373
0.933333 0.207843 0.031373
0.968627 0.207843 0.031373
1.000000 0.207843 0.031373
0.000000 0.247059 0.031373
0.047059 0.247059 0.031373
0.101961 0.247059 0.031373
0.149020 0.247059 0.031373
0.203922 0.247059 0.031373
0.254902 0.247059 0.031373
0.301961 0.247059 0.031373
0.352941 0.247059 0.031373
0.400000 0.247059 0.031373
0.443137 0.247059 0.031373
0.490196 0.247059 0.031373
0.533333 0.247059 0.031373
0.572549 0.247059 0.031373
0.611765 0.247059 0.031373
0.654902 0.247059 0.031373
0.690196 0.247059 0.031373
0.725490 0.247059 0.031373
0.764706 0.247059 0.031373
0.796078 0.247059 0.031373
0.831373 0.247059 0.031373
0.866667 0.247059 0.031373
0.898039 0.247059 0.031373
0.933333 0.247059 0.031373
0.968627 0.247059 0.031373
1.000000 0.247059 0.031373
0.000000 0.290196 0.031373
0.047059 0.290196 0.031373
0.101961 0.290196 0.031373
0.149020 0.290196 0.031373
0.203922 0.290196 0.031373
0.254902 0.290196 0.031373
0.301961 0.290196 0.031373
0.352941 0.290196 0.031373
0.400000 0.290196 0.031373
0.443137 0.290196 0.031373
0.490196 0.290196 0.031373
0.533333 0.290196 0.031373
0.572549 0.290196 0.031373
0.611765 0.290196 0.031373
0.654902 0.290196 0.031373
0.690196 0.290196 0.031373
0.725490 0.290196 0.031373
0.764706 0.290196 0.031373
0.796078 0.290196 0.031373
0.831373 0.290196 0.031373
0.866667 0.290196 0.031373
0.898039 0.290196 0.031373
0.933333 0.290196 0.031373
0.968627 0.290196 0.031373
1.000000 0.290196 0.031373
0.000000 0.333333 0.031373
0.047059 0.333333 0.031373
0.101961 0.333333 0.031373
0.149020 0.333333 0.031373
0.203922 0.333333 0.031373
0.254902 0.333333 0.031373
0.301961 0.333333 0.031373
0.352941 0.333333 0.031373
0.400000 0.333333 0.031373
0.443137 0.333333 0.031373
0.490196 0.333333 0.031373
0.533333 0.333333 0.031373
0.572549 0.333333 0.031373
0.611765 0.333333 0.031373
0.654902 0.333333 0.031373
0.690196 0.333333 0.031373
0.725490 0.333333 0.031373
0.764706 0.333333 0.031373
0.796078 0.333333 0.031373
0.831373 0.333333 0.031373
0.866667 0.333333 0.031373
0.898039 0.333333 0.031373
0.933333 0.333333 0.031373
0.968627 0.333333 0.031373
1.000000 0.333333 0.031373
0.000000 0.372549 0.031373
0.047059 0.372549 0.031373
0.101961 0.372549 0.031373
0.149020 0.372549 0.031373
0.203922 0.372549 0.031373
0.254902 0.372549 0.031373
0.301961 0.372549 0.031373
0.352941 0.372549 0.031373
0.400000 0.372549 0.031373
0.443137 0.372549 0.031373
0.490196 0.372549 0.031373
0.533333 0.372549 0.031373
0.572549 0.372549 0.031373
0.611765 0.372549 0.031373
0.654902 0.372549 0.031373
0.690196 0.372549 0.031373
0.725490 0.372549 0.031373
0.764706 0.372549 0.031373
0.796078 0.372549 0.031373
0.831373 0.372549 0.031373
0.866667 0.372549 0.031373
0.898039 0.372549 0.031373
0.933333 0.372549 0.031373
0.968627 0.372549 0.031373
1.000000 0.372549 0.031373
0.000000 0.415686 0.031373
0.047059 0.415686 0.031373
0.101961 0.415686 0.031373
0.149020 0.415686 0.031373
0.203922 0.415686 0.031373
0.254902 0.415686 0.031373
0.301961 0.415686 0.031373
