luts/PictureFX Discovery Style - for Log and ORF.cube
#Generated with IWLTBAP LUT Generator
#Website: http://luts.iwltbap.com
TITLE "Grutto-Edit-Neutral-125"
#LUT size
LUT_3D_SIZE 25
#LUT data points
0.000000 0.000000 0.000000
0.000000 0.000000 0.000000
0.000000 0.000000 0.000000
0.035294 0.000000 0.000000
0.082353 0.000000 0.000000
0.117647 0.003922 0.000000
0.156863 0.003922 0.000000
0.200000 0.003922 0.000000
0.247059 0.000000 0.000000
0.294118 0.000000 0.000000
0.349020 0.000000 0.003922
0.403922 0.000000 0.003922
0.466667 0.000000 0.000000
0.533333 0.000000 0.000000
0.607843 0.000000 0.000000
0.686275 0.000000 0.000000
0.772549 0.000000 0.000000
0.854902 0.000000 0.000000
0.933333 0.000000 0.000000
1.000000 0.000000 0.000000
1.000000 0.000000 0.000000
1.000000 0.000000 0.000000
1.000000 0.000000 0.000000
1.000000 0.000000 0.000000
1.000000 0.000000 0.000000
0.000000 0.000000 0.000000
0.003922 0.003922 0.000000
0.023529 0.007843 0.000000
0.058824 0.015686 0.000000
0.090196 0.019608 0.000000
0.125490 0.023529 0.000000
0.164706 0.023529 0.000000
0.203922 0.019608 0.000000
0.250980 0.015686 0.000000
0.298039 0.007843 0.003922
0.352941 0.000000 0.003922
0.407843 0.000000 0.003922
0.470588 0.000000 0.000000
0.537255 0.000000 0.000000
0.611765 0.000000 0.000000
0.690196 0.000000 0.000000
0.772549 0.000000 0.000000
0.858824 0.000000 0.000000
0.933333 0.000000 0.000000
1.000000 0.000000 0.000000
1.000000 0.000000 0.000000
1.000000 0.000000 0.000000
1.000000 0.000000 0.000000
1.000000 0.000000 0.000000
1.000000 0.000000 0.000000
0.000000 0.031373 0.000000
0.015686 0.035294 0.000000
0.039216 0.039216 0.000000
0.066667 0.039216 0.000000
0.098039 0.043137 0.000000
0.133333 0.047059 0.000000
0.168627 0.047059 0.000000
0.211765 0.047059 0.000000
0.254902 0.043137 0.003922
0.301961 0.035294 0.003922
0.356863 0.023529 0.003922
0.411765 0.000000 0.003922
0.474510 0.000000 0.000000
0.541176 0.000000 0.000000
0.615686 0.000000 0.000000
0.694118 0.000000 0.000000
0.776471 0.000000 0.000000
0.858824 0.000000 0.000000
0.937255 0.000000 0.000000
1.000000 0.000000 0.000000
1.000000 0.000000 0.000000
1.000000 0.000000 0.000000
1.000000 0.000000 0.000000
1.000000 0.000000 0.000000
1.000000 0.000000 0.000000
0.007843 0.066667 0.000000
0.023529 0.070588 0.000000
0.047059 0.070588 0.000000
0.074510 0.074510 0.000000
0.105882 0.074510 0.000000
0.137255 0.078431 0.003922
0.176471 0.078431 0.003922
0.215686 0.078431 0.003922
0.262745 0.078431 0.003922
0.309804 0.074510 0.003922
0.360784 0.066667 0.003922
0.419608 0.054902 0.000000
0.482353 0.027451 0.000000
0.549020 0.000000 0.000000
0.619608 0.000000 0.000000
0.698039 0.000000 0.000000
0.784314 0.000000 0.000000
0.866667 0.000000 0.000000
0.941176 0.000000 0.000000
1.000000 0.000000 0.000000
1.000000 0.000000 0.000000
1.000000 0.000000 0.000000
1.000000 0.000000 0.000000
1.000000 0.000000 0.000000
1.000000 0.000000 0.000000
0.003922 0.105882 0.003922
0.023529 0.105882 0.003922
0.047059 0.105882 0.003922
0.078431 0.109804 0.003922
0.109804 0.109804 0.003922
0.145098 0.113725 0.003922
0.184314 0.113725 0.003922
0.223529 0.117647 0.003922
0.270588 0.117647 0.003922
0.317647 0.113725 0.003922
0.368627 0.109804 0.000000
0.427451 0.101961 0.000000
0.490196 0.090196 0.000000
0.556863 0.062745 0.000000
0.627451 0.011765 0.000000
0.705882 0.000000 0.000000
0.792157 0.000000 0.000000
0.870588 0.000000 0.000000
0.945098 0.000000 0.000000
1.000000 0.000000 0.000000
1.000000 0.000000 0.000000
1.000000 0.000000 0.000000
1.000000 0.000000 0.000000
1.000000 0.000000 0.000000
1.000000 0.000000 0.000000
0.000000 0.145098 0.003922
0.015686 0.149020 0.003922
0.047059 0.149020 0.003922
0.078431 0.149020 0.003922
0.113725 0.152941 0.003922
0.149020 0.152941 0.003922
0.188235 0.152941 0.003922
0.231373 0.156863 0.000000
0.278431 0.156863 0.000000
0.325490 0.156863 0.000000
0.380392 0.152941 0.000000
0.435294 0.149020 0.000000
0.498039 0.141176 0.000000
0.564706 0.129412 0.000000
0.639216 0.105882 0.000000
0.717647 0.058824 0.000000
0.800000 0.000000 0.000000
0.878431 0.000000 0.000000
0.952941 0.000000 0.000000
1.000000 0.000000 0.000000
1.000000 0.000000 0.000000
1.000000 0.000000 0.000000
1.000000 0.000000 0.000000
1.000000 0.000000 0.000000
1.000000 0.000000 0.000000
0.000000 0.192157 0.000000
0.003922 0.192157 0.000000
0.035294 0.192157 0.000000
0.074510 0.192157 0.000000
0.113725 0.196078 0.000000
0.152941 0.196078 0.000000
0.196078 0.200000 0.000000
0.239216 0.200000 0.000000
0.286275 0.200000 0.000000
0.333333 0.203922 0.000000
0.388235 0.200000 0.000000
0.447059 0.200000 0.000000
0.509804 0.196078 0.000000
0.576471 0.184314 0.000000
0.650980 0.172549 0.000000
0.729412 0.149020 0.000000
0.811765 0.113725 0.000000
0.886275 0.062745 0.000000
0.960784 0.000000 0.000000
1.000000 0.000000 0.000000
1.000000 0.000000 0.000000
1.000000 0.000000 0.000000
1.000000 0.000000 0.000000
1.000000 0.000000 0.000000
1.000000 0.000000 0.000000
0.000000 0.239216 0.000000
0.000000 0.239216 0.000000
0.007843 0.243137 0.000000
0.058824 0.243137 0.000000
0.105882 0.243137 0.000000
0.152941 0.247059 0.000000
0.196078 0.247059 0.000000
0.243137 0.250980 0.000000
0.290196 0.250980 0.000000
0.341176 0.250980 0.000000
0.396078 0.250980 0.000000
0.454902 0.250980 0.000000
0.517647 0.247059 0.000000
0.588235 0.243137 0.000000
0.662745 0.235294 0.000000
0.741176 0.219608 0.000000
0.819608 0.200000 0.000000
0.894118 0.180392 0.000000
0.964706 0.160784 0.000000
1.000000 0.137255 0.000000
1.000000 0.117647 0.000000
1.000000 0.105882 0.000000
1.000000 0.109804 0.000000
1.000000 0.129412 0.000000
1.000000 0.160784 0.000000
0.000000 0.294118 0.000000
0.000000 0.294118 0.000000
0.000000 0.294118 0.000000
0.023529 0.298039 0.000000
0.090196 0.298039 0.000000
0.145098 0.298039 0.000000
0.192157 0.301961 0.000000
0.243137 0.301961 0.000000
0.294118 0.305882 0.000000
0.349020 0.305882 0.000000
0.403922 0.305882 0.000000
0.462745 0.305882 0.000000
0.529412 0.305882 0.000000
0.600000 0.301961 0.000000
0.674510 0.298039 0.000000
0.752941 0.286275 0.000000
0.831373 0.278431 0.000000
0.901961 0.266667 0.000000
0.972549 0.258824 0.000000
1.000000 0.250980 0.000000
1.000000 0.243137 0.000000
1.000000 0.247059 0.000000
1.000000 0.250980 0.000000
1.000000 0.266667 0.000000
1.000000 0.290196 0.000000
0.000000 0.352941 0.000000
0.000000 0.352941 0.000000
0.000000 0.352941 0.000000
0.000000 0.356863 0.000000
0.047059 0.356863 0.000000
0.121569 0.356863 0.000000
0.184314 0.360784 0.000000
0.239216 0.360784 0.000000
0.294118 0.364706 0.000000
0.349020 0.364706 0.000000
0.411765 0.368627 0.000000
0.474510 0.368627 0.000000
0.541176 0.368627 0.000000
0.611765 0.364706 0.000000
0.686275 0.364706 0.000000
0.764706 0.356863 0.000000
0.839216 0.352941 0.000000
0.909804 0.349020 0.000000
0.980392 0.345098 0.000000
1.000000 0.341176 0.000000
1.000000 0.345098 0.000000
1.000000 0.349020 0.000000
1.000000 0.356863 0.000000
1.000000 0.372549 0.000000
1.000000 0.392157 0.000000
0.000000 0.419608 0.000000
0.000000 0.419608 0.000000
0.000000 0.419608 0.000000
0.000000 0.419608 0.000000
0.000000 0.419608 0.000000
0.074510 0.423529 0.000000
0.160784 0.423529 0.000000
0.227451 0.427451 0.000000
0.286275 0.427451 0.000000
0.349020 0.431373 0.000000
0.411765 0.435294 0.000000
0.478431 0.435294 0.000000
0.549020 0.435294 0.000000
0.619608 0.435294 0.000000
0.698039 0.435294 0.000000
0.776471 0.431373 0.000000
0.847059 0.431373 0.000000
0.917647 0.427451 0.000000
0.980392 0.427451 0.000000
1.000000 0.431373 0.000000
1.000000 0.435294 0.000000
1.000000 0.443137 0.000000
1.000000 0.454902 0.000000
1.000000 0.466667 0.000000
1.000000 0.482353 0.000000
0.000000 0.490196 0.000000
0.000000 0.490196 0.000000
0.000000 0.490196 0.000000
0.000000 0.490196 0.000000
0.000000 0.494118 0.000000
0.000000 0.494118 0.000000
0.105882 0.498039 0.000000
0.196078 0.498039 0.000000
0.270588 0.501961 0.000000
0.341176 0.501961 0.000000
0.407843 0.505882 0.000000
0.478431 0.509804 0.000000
0.552941 0.509804 0.000000
0.631373 0.509804 0.000000
0.705882 0.509804 0.000000
0.780392 0.509804 0.000000
0.850980 0.513725 0.000000
0.917647 0.513725 0.000000
0.984314 0.517647 0.000000
1.000000 0.517647 0.000000
1.000000 0.525490 0.000000
1.000000 0.529412 0.000000
1.000000 0.537255 0.000000
1.000000 0.549020 0.000000
1.000000 0.564706 0.000000
0.000000 0.568627 0.000000
0.000000 0.568627 0.000000
0.000000 0.568627 0.000000
0.000000 0.568627 0.000000
0.000000 0.572549 0.000000
0.000000 0.572549 0.000000
0.000000 0.576471 0.000000
0.137255 0.576471 0.000000
0.239216 0.580392 0.000000
0.321569 0.584314 0.000000
0.400000 0.584314 0.000000
0.474510 0.588235 0.000000
0.552941 0.588235 0.000000
0.635294 0.592157 0.000000
0.709804 0.592157 0.000000
0.784314 0.592157 0.000000
0.854902 0.592157 0.000000
0.921569 0.596078 0.000000
0.984314 0.596078 0.000000
1.000000 0.600000 0.000000
1.000000 0.603922 0.000000
1.000000 0.611765 0.000000
1.000000 0.615686 0.000000
1.000000 0.627451 0.000000
1.000000 0.639216 0.000000
0.000000 0.650980 0.000000
0.000000 0.650980 0.000000
0.000000 0.650980 0.000000
0.000000 0.654902 0.000000
0.000000 0.654902 0.000000
0.000000 0.654902 0.000000
0.000000 0.658824 0.000000
0.000000 0.658824 0.000000
0.188235 0.662745 0.000000
0.294118 0.662745 0.000000
0.388235 0.666667 0.000000
0.470588 0.666667 0.000000
0.556863 0.666667 0.000000
0.639216 0.666667 0.000000
0.713725 0.666667 0.000000
0.788235 0.670588 0.000000
0.854902 0.670588 0.000000
0.921569 0.670588 0.000000
0.980392 0.674510 0.000000
1.000000 0.674510 0.000000
1.000000 0.678431 0.000000
1.000000 0.682353 0.000000
1.000000 0.690196 0.000000
1.000000 0.698039 0.000000
1.000000 0.705882 0.000000
0.000000 0.729412 0.000000
0.000000 0.729412 0.000000
0.000000 0.729412 0.000000
0.000000 0.729412 0.000000
0.000000 0.733333 0.000000
0.000000 0.733333 0.000000
0.000000 0.733333 0.000000
0.000000 0.737255 0.000000
0.133333 0.737255 0.000000
0.274510 0.737255 0.000000
0.380392 0.737255 0.000000
0.474510 0.741176 0.000000
0.564706 0.741176 0.000000
0.643137 0.741176 0.000000
0.717647 0.741176 0.000000
0.792157 0.741176 0.000000
0.858824 0.741176 0.000000
0.921569 0.741176 0.000000
0.980392 0.741176 0.000000
1.000000 0.745098 0.000000
1.000000 0.749020 0.000000
1.000000 0.752941 0.000000
1.000000 0.756863 0.000000
1.000000 0.764706 0.000000
1.000000 0.760784 0.000000
0.000000 0.803922 0.000000
0.000000 0.803922 0.000000
0.000000 0.803922 0.000000
0.000000 0.803922 0.000000
0.000000 0.803922 0.000000
0.000000 0.803922 0.000000
0.000000 0.803922 0.000000
0.000000 0.803922 0.000000
0.090196 0.807843 0.000000
0.270588 0.807843 0.000000
0.388235 0.807843 0.000000
0.486275 0.807843 0.000000
0.572549 0.807843 0.000000
0.650980 0.807843 0.000000
0.725490 0.807843 0.000000
0.796078 0.807843 0.000000
0.858824 0.807843 0.000000
0.921569 0.807843 0.000000
0.980392 0.807843 0.000000
1.000000 0.807843 0.000000
1.000000 0.811765 0.000000
1.000000 0.815686 0.000000
1.000000 0.819608 0.000000
1.000000 0.823529 0.000000
1.000000 0.807843 0.000000
0.000000 0.866667 0.000000
0.000000 0.866667 0.000000
0.000000 0.866667 0.000000
0.000000 0.866667 0.000000
0.000000 0.870588 0.000000
0.000000 0.870588 0.000000
0.000000 0.870588 0.000000
0.000000 0.870588 0.000000
0.113725 0.870588 0.000000
0.294118 0.870588 0.000000
0.407843 0.870588 0.000000
0.501961 0.866667 0.000000
0.584314 0.866667 0.000000
0.662745 0.866667 0.000000
0.733333 0.866667 0.000000
0.800000 0.866667 0.000000
0.866667 0.866667 0.000000
0.925490 0.866667 0.000000
0.980392 0.866667 0.000000
1.000000 0.866667 0.000000
1.000000 0.866667 0.000000
1.000000 0.870588 0.000000
1.000000 0.874510 0.000000
1.000000 0.874510 0.000000
1.000000 0.850980 0.000000
0.000000 0.925490 0.000000
0.000000 0.925490 0.000000
0.000000 0.925490 0.000000
0.000000 0.925490 0.000000
0.000000 0.925490 0.000000
0.000000 0.925490 0.000000
0.000000 0.925490 0.000000
0.000000 0.925490 0.000000
0.188235 0.925490 0.000000
0.329412 0.925490 0.000000
0.435294 0.925490 0.000000
0.521569 0.921569 0.000000
0.600000 0.921569 0.000000
0.674510 0.921569 0.000000
0.745098 0.921569 0.000000
0.811765 0.917647 0.000000
0.870588 0.917647 0.000000
0.929412 0.917647 0.000000
0.980392 0.917647 0.000000
1.000000 0.917647 0.000000
1.000000 0.917647 0.000000
1.000000 0.917647 0.000000
1.000000 0.921569 0.000000
1.000000 0.909804 0.000000
1.000000 0.886275 0.000000
0.000000 0.976471 0.000000
0.000000 0.976471 0.000000
0.000000 0.976471 0.000000
0.000000 0.976471 0.000000
0.000000 0.976471 0.000000
0.000000 0.976471 0.000000
0.000000 0.976471 0.000000
0.090196 0.976471 0.000000
0.270588 0.976471 0.000000
0.380392 0.972549 0.000000
0.470588 0.972549 0.000000
0.552941 0.972549 0.000000
0.627451 0.968627 0.000000
0.698039 0.968627 0.000000
0.760784 0.968627 0.000000
0.823529 0.964706 0.000000
0.882353 0.964706 0.000000
0.937255 0.964706 0.000000
0.988235 0.960784 0.000000
1.000000 0.960784 0.000000
1.000000 0.960784 0.000000
1.000000 0.960784 0.000000
1.000000 0.964706 0.000000
1.000000 0.941176 0.000000
1.000000 0.921569 0.000000
0.000000 1.000000 0.000000
0.000000 1.000000 0.000000
0.000000 1.000000 0.000000
0.000000 1.000000 0.000000
0.000000 1.000000 0.000000
0.000000 1.000000 0.000000
0.078431 1.000000 0.000000
0.250980 1.000000 0.000000
0.352941 1.000000 0.000000
0.439216 1.000000 0.000000
0.517647 1.000000 0.000000
0.592157 1.000000 0.000000
0.658824 1.000000 0.000000
0.721569 1.000000 0.000000
0.784314 1.000000 0.000000
0.843137 1.000000 0.000000
0.898039 1.000000 0.000000
0.949020 1.000000 0.000000
0.996078 0.996078 0.000000
1.000000 0.996078 0.000000
1.000000 0.996078 0.000000
1.000000 0.996078 0.000000
1.000000 0.988235 0.000000
1.000000 0.968627 0.000000
1.000000 0.949020 0.000000
0.000000 1.000000 0.000000
0.000000 1.000000 0.000000
0.000000 1.000000 0.000000
0.000000 1.000000 0.000000
0.000000 1.000000 0.000000
0.188235 1.000000 0.000000
0.286275 1.000000 0.000000
0.364706 1.000000 0.000000
0.439216 1.000000 0.000000
0.505882 1.000000 0.000000
0.572549 1.000000 0.000000
0.635294 1.000000 0.000000
0.698039 1.000000 0.000000
0.756863 1.000000 0.000000
0.811765 1.000000 0.000000
0.862745 1.000000 0.000000
0.909804 1.000000 0.000000
0.952941 1.000000 0.000000
0.992157 1.000000 0.000000
1.000000 1.000000 0.000000
1.000000 1.000000 0.000000
1.000000 1.000000 0.000000
1.000000 1.000000 0.000000
1.000000 0.988235 0.000000
1.000000 0.972549 0.000000
0.000000 1.000000 0.000000
0.000000 1.000000 0.000000
0.090196 1.000000 0.000000
0.164706 1.000000 0.000000
0.231373 1.000000 0.000000
0.294118 1.000000 0.000000
0.352941 1.000000 0.000000
0.411765 1.000000 0.000000
0.470588 1.000000 0.000000
0.525490 1.000000 0.000000
0.580392 1.000000 0.000000
0.635294 1.000000 0.000000
0.686275 1.000000 0.000000
0.737255 1.000000 0.000000
0.788235 1.000000 0.000000
0.835294 1.000000 0.000000
0.878431 1.000000 0.000000
0.921569 1.000000 0.000000
0.960784 1.000000 0.000000
0.996078 1.000000 0.000000
1.000000 1.000000 0.000000
1.000000 1.000000 0.000000
1.000000 1.000000 0.000000
1.000000 1.000000 0.000000
1.000000 0.992157 0.000000
0.156863 1.000000 0.000000
0.180392 1.000000 0.000000
0.207843 1.000000 0.000000
0.247059 1.000000 0.000000
0.286275 1.000000 0.000000
0.333333 1.000000 0.000000
0.380392 1.000000 0.000000
0.427451 1.000000 0.000000
0.478431 1.000000 0.000000
0.525490 1.000000 0.000000
0.576471 1.000000 0.000000
0.623529 1.000000 0.000000
0.674510 1.000000 0.000000
0.721569 1.000000 0.000000
0.764706 1.000000 0.000000
0.811765 1.000000 0.000000
0.850980 1.000000 0.000000
0.894118 1.000000 0.000000
0.933333 1.000000 0.000000
0.968627 1.000000 0.000000
1.000000 1.000000 0.000000
1.000000 1.000000 0.000000
1.000000 1.000000 0.000000
1.000000 1.000000 0.000000
1.000000 1.000000 0.000000
0.250980 1.000000 0.000000
0.266667 1.000000 0.000000
0.282353 1.000000 0.000000
0.305882 1.000000 0.000000
0.337255 1.000000 0.000000
0.368627 1.000000 0.000000
0.407843 1.000000 0.000000
0.447059 1.000000 0.000000
0.490196 1.000000 0.000000
0.533333 1.000000 0.000000
0.576471 1.000000 0.000000
0.619608 1.000000 0.000000
0.662745 1.000000 0.000000
0.705882 1.000000 0.000000
0.749020 1.000000 0.000000
0.792157 1.000000 0.000000
0.831373 1.000000 0.000000
0.870588 1.000000 0.000000
0.905882 1.000000 0.000000
0.941176 1.000000 0.000000
0.972549 1.000000 0.000000
1.000000 1.000000 0.000000
1.000000 1.000000 0.000000
1.000000 1.000000 0.000000
1.000000 1.000000 0.000000
0.321569 1.000000 0.000000
0.329412 1.000000 0.000000
0.341176 1.000000 0.000000
0.356863 1.000000 0.000000
0.380392 1.000000 0.000000
0.407843 1.000000 0.000000
0.435294 1.000000 0.000000
0.470588 1.000000 0.000000
0.505882 1.000000 0.000000
0.541176 1.000000 0.000000
0.580392 1.000000 0.000000
0.619608 1.000000 0.000000
0.658824 1.000000 0.000000
0.698039 1.000000 0.000000
0.737255 1.000000 0.000000
0.776471 1.000000 0.000000
0.811765 1.000000 0.000000
0.847059 1.000000 0.000000
0.882353 1.000000 0.019608
0.917647 1.000000 0.043137
0.949020 1.000000 0.066667
0.980392 1.000000 0.082353
1.000000 1.000000 0.101961
1.000000 1.000000 0.117647
1.000000 1.000000 0.129412
0.000000 0.000000 0.000000
0.000000 0.000000 0.000000
0.003922 0.000000 0.000000
0.047059 0.000000 0.007843
0.082353 0.000000 0.015686
0.121569 0.003922 0.019608
0.160784 0.003922 0.023529
0.200000 0.003922 0.023529
0.247059 0.000000 0.027451
0.298039 0.000000 0.027451
0.349020 0.000000 0.027451
0.407843 0.000000 0.027451
0.466667 0.000000 0.023529
0.537255 0.000000 0.023529
0.607843 0.000000 0.019608
0.686275 0.000000 0.011765
0.772549 0.000000 0.007843
0.854902 0.000000 0.000000
0.933333 0.000000 0.000000
1.000000 0.000000 0.000000
1.000000 0.000000 0.000000
1.000000 0.000000 0.000000
1.000000 0.000000 0.000000
1.000000 0.000000 0.000000
1.000000 0.000000 0.000000
0.000000 0.003922 0.003922
0.007843 0.007843 0.007843
0.027451 0.011765 0.011765
0.058824 0.015686 0.015686
0.090196 0.019608 0.019608
0.125490 0.023529 0.019608
0.164706 0.023529 0.023529
0.207843 0.019608 0.023529
0.250980 0.015686 0.027451
0.301961 0.007843 0.027451
0.352941 0.000000 0.027451
0.411765 0.000000 0.027451
0.470588 0.000000 0.023529
0.537255 0.000000 0.019608
0.611765 0.000000 0.015686
0.690196 0.000000 0.011765
0.776471 0.000000 0.003922
0.858824 0.000000 0.000000
0.937255 0.000000 0.000000
1.000000 0.000000 0.000000
1.000000 0.000000 0.000000
1.000000 0.000000 0.000000
1.000000 0.000000 0.000000
1.000000 0.000000 0.000000
1.000000 0.000000 0.000000
0.000000 0.035294 0.015686
0.015686 0.035294 0.015686
0.039216 0.039216 0.015686
0.066667 0.043137 0.019608
0.098039 0.043137 0.023529
0.133333 0.047059 0.023529
0.168627 0.047059 0.023529
0.211765 0.047059 0.027451
0.254902 0.043137 0.027451
0.305882 0.035294 0.027451
0.356863 0.023529 0.027451
0.415686 0.000000 0.023529
0.474510 0.000000 0.023529
0.541176 0.000000 0.019608
0.615686 0.000000 0.015686
0.694118 0.000000 0.011765
0.780392 0.000000 0.003922
0.862745 0.000000 0.000000
0.937255 0.000000 0.000000
1.000000 0.000000 0.000000
1.000000 0.000000 0.000000
1.000000 0.000000 0.000000
1.000000 0.000000 0.000000
1.000000 0.000000 0.000000
1.000000 0.000000 0.000000
0.007843 0.070588 0.019608
0.023529 0.070588 0.023529
0.047059 0.070588 0.023529
0.074510 0.074510 0.023529
0.105882 0.074510 0.023529
0.141176 0.078431 0.023529
0.176471 0.078431 0.027451
0.219608 0.078431 0.027451
0.262745 0.078431 0.027451
0.309804 0.074510 0.027451
0.364706 0.066667 0.023529
0.419608 0.050980 0.023529
0.482353 0.023529 0.019608
0.549020 0.000000 0.019608
0.619608 0.000000 0.011765
0.701961 0.000000 0.007843
0.784314 0.000000 0.000000
0.866667 0.000000 0.000000
0.941176 0.000000 0.000000
1.000000 0.000000 0.000000
1.000000 0.000000 0.000000
1.000000 0.000000 0.000000
1.000000 0.000000 0.000000
1.000000 0.000000 0.000000
1.000000 0.000000 0.000000
0.003922 0.105882 0.023529
0.023529 0.105882 0.023529
0.047059 0.109804 0.023529
0.078431 0.109804 0.023529
0.109804 0.113725 0.023529
0.145098 0.113725 0.027451
0.184314 0.113725 0.027451
0.227451 0.117647 0.027451
0.270588 0.117647 0.023529
0.317647 0.113725 0.023529
0.372549 0.109804 0.023529
0.427451 0.101961 0.019608
0.490196 0.090196 0.019608
0.556863 0.062745 0.015686
0.631373 0.011765 0.007843
0.709804 0.000000 0.003922
0.792157 0.000000 0.000000
0.870588 0.000000 0.000000
0.949020 0.000000 0.000000
1.000000 0.000000 0.000000
1.000000 0.000000 0.000000
1.000000 0.000000 0.000000
1.000000 0.000000 0.000000
1.000000 0.000000 0.000000
1.000000 0.000000 0.000000
0.000000 0.149020 0.023529
0.015686 0.149020 0.023529
0.047059 0.149020 0.023529
0.078431 0.149020 0.023529
0.113725 0.152941 0.023529
0.152941 0.152941 0.023529
0.192157 0.156863 0.023529
0.231373 0.156863 0.023529
0.278431 0.156863 0.023529
0.325490 0.156863 0.019608
0.380392 0.152941 0.019608
0.435294 0.149020 0.015686
0.498039 0.141176 0.011765
0.564706 0.129412 0.007843
0.639216 0.105882 0.000000
0.717647 0.058824 0.000000
0.800000 0.000000 0.000000
0.878431 0.000000 0.000000
0.952941 0.000000 0.000000
1.000000 0.000000 0.000000
1.000000 0.000000 0.000000
1.000000 0.000000 0.000000
1.000000 0.000000 0.000000
1.000000 0.000000 0.000000
1.000000 0.000000 0.000000
0.000000 0.192157 0.019608
0.003922 0.192157 0.019608
0.035294 0.192157 0.019608
0.074510 0.196078 0.019608
0.113725 0.196078 0.019608
0.152941 0.196078 0.019608
0.196078 0.200000 0.019608
0.239216 0.200000 0.019608
0.286275 0.200000 0.015686
0.333333 0.203922 0.015686
0.388235 0.200000 0.011765
0.447059 0.200000 0.007843
0.509804 0.196078 0.003922
0.576471 0.184314 0.000000
0.650980 0.172549 0.000000
0.729412 0.149020 0.000000
0.811765 0.113725 0.000000
0.886275 0.062745 0.000000
0.960784 0.000000 0.000000
1.000000 0.000000 0.000000
1.000000 0.000000 0.000000
1.000000 0.000000 0.000000
1.000000 0.000000 0.000000
1.000000 0.000000 0.000000
1.000000 0.000000 0.000000
0.000000 0.239216 0.011765
0.000000 0.239216 0.011765
0.007843 0.243137 0.011765
0.062745 0.243137 0.011765
0.109804 0.243137 0.011765
0.152941 0.247059 0.011765
0.196078 0.247059 0.007843
0.243137 0.250980 0.007843
0.290196 0.250980 0.003922
0.341176 0.250980 0.003922
0.396078 0.250980 0.000000
0.454902 0.250980 0.000000
0.521569 0.247059 0.000000
0.588235 0.243137 0.000000
0.662745 0.235294 0.000000
0.741176 0.219608 0.000000
0.819608 0.200000 0.000000
0.898039 0.180392 0.000000
0.968627 0.160784 0.000000
1.000000 0.137255 0.000000
1.000000 0.117647 0.000000
1.000000 0.105882 0.000000
1.000000 0.109804 0.000000
1.000000 0.129412 0.000000
1.000000 0.160784 0.000000
0.000000 0.294118 0.000000
0.000000 0.294118 0.000000
0.000000 0.294118 0.000000
0.023529 0.298039 0.000000
0.090196 0.298039 0.000000
0.145098 0.298039 0.000000
0.192157 0.301961 0.000000
0.243137 0.301961 0.000000
0.294118 0.305882 0.000000
0.349020 0.305882 0.000000
0.403922 0.305882 0.000000
0.466667 0.305882 0.000000
0.529412 0.305882 0.000000
0.600000 0.301961 0.000000
0.674510 0.298039 0.000000
0.756863 0.286275 0.000000
0.831373 0.278431 0.000000
0.905882 0.266667 0.000000
0.972549 0.258824 0.000000
1.000000 0.250980 0.000000
1.000000 0.243137 0.000000
1.000000 0.247059 0.000000
1.000000 0.250980 0.000000
1.000000 0.266667 0.000000
1.000000 0.290196 0.000000
0.000000 0.352941 0.000000
0.000000 0.352941 0.000000
0.000000 0.352941 0.000000
0.000000 0.356863 0.000000
0.047059 0.356863 0.000000
0.125490 0.356863 0.000000
0.184314 0.360784 0.000000
0.239216 0.360784 0.000000
0.294118 0.364706 0.000000
0.352941 0.364706 0.000000
0.411765 0.368627 0.000000
0.474510 0.368627 0.000000
0.541176 0.368627 0.000000
0.611765 0.364706 0.000000
0.690196 0.364706 0.000000
0.768627 0.356863 0.000000
0.843137 0.352941 0.000000
0.913725 0.349020 0.000000
0.980392 0.345098 0.000000
1.000000 0.341176 0.000000
1.000000 0.345098 0.000000
1.000000 0.349020 0.000000
1.000000 0.356863 0.000000
1.000000 0.372549 0.000000
1.000000 0.392157 0.000000
0.000000 0.419608 0.000000
0.000000 0.419608 0.000000
0.000000 0.419608 0.000000
0.000000 0.419608 0.000000
0.000000 0.423529 0.000000
0.078431 0.423529 0.000000
0.160784 0.423529 0.000000
0.227451 0.427451 0.000000
