luts/PictureFX Alaska - set strength or opacity to taste - sample at 100% opacity.cube
#Generated with IWLTBAP LUT Generator
#Website: http://luts.iwltbap.com
TITLE "PictureFX-Alaska-3DL25"
#LUT size
LUT_3D_SIZE 5
#LUT data points
0.000000 0.019608 0.000000
0.247059 0.031373 0.047059
0.490196 0.035294 0.082353
0.705882 0.031373 0.098039
0.917647 0.000000 0.125490
0.043137 0.247059 0.031373
0.250980 0.243137 0.011765
0.474510 0.235294 0.125490
0.690196 0.235294 0.121569
0.909804 0.219608 0.137255
0.054902 0.462745 0.070588
0.250980 0.458824 0.066667
0.462745 0.454902 0.027451
0.662745 0.458824 0.145098
0.894118 0.450980 0.176471
0.000000 0.674510 0.117647
0.215686 0.674510 0.117647
0.458824 0.678431 0.121569
0.682353 0.690196 0.149020
0.913725 0.709804 0.223529
0.000000 0.937255 0.223529
0.207843 0.937255 0.223529
0.462745 0.933333 0.227451
0.698039 0.929412 0.231373
0.925490 0.937255 0.258824
0.105882 0.000000 0.137255
0.278431 0.000000 0.184314
0.486275 0.000000 0.223529
0.705882 0.000000 0.247059
0.929412 0.000000 0.270588
0.000000 0.243137 0.180392
0.192157 0.243137 0.207843
0.454902 0.239216 0.239216
0.694118 0.223529 0.262745
0.921569 0.219608 0.278431
0.000000 0.458824 0.231373
0.231373 0.458824 0.235294
0.466667 0.454902 0.227451
0.682353 0.454902 0.325490
0.909804 0.458824 0.313725
0.000000 0.686275 0.258824
0.227451 0.686275 0.262745
0.474510 0.682353 0.262745
0.698039 0.694118 0.262745
0.913725 0.709804 0.333333
0.000000 0.941176 0.321569
0.215686 0.937255 0.321569
0.470588 0.937255 0.325490
0.705882 0.933333 0.325490
0.929412 0.941176 0.345098
0.227451 0.000000 0.364706
0.333333 0.000000 0.372549
0.525490 0.000000 0.396078
0.729412 0.000000 0.419608
0.945098 0.000000 0.443137
0.172549 0.227451 0.352941
0.309804 0.211765 0.360784
0.505882 0.203922 0.392157
0.713725 0.203922 0.423529
0.937255 0.196078 0.454902
0.000000 0.470588 0.396078
0.149020 0.470588 0.392157
0.415686 0.470588 0.431373
0.674510 0.466667 0.458824
0.921569 0.454902 0.482353
0.000000 0.694118 0.454902
0.188235 0.694118 0.454902
0.458824 0.690196 0.466667
0.701961 0.694118 0.474510
0.929412 0.698039 0.580392
0.000000 0.941176 0.501961
0.207843 0.941176 0.501961
0.474510 0.937255 0.505882
0.721569 0.929412 0.505882
0.945098 0.937255 0.501961
0.337255 0.000000 0.572549
0.407843 0.000000 0.576471
0.572549 0.000000 0.588235
0.764706 0.000000 0.603922
0.972549 0.000000 0.623529
0.294118 0.207843 0.572549
0.376471 0.200000 0.572549
0.552941 0.176471 0.584314
0.756863 0.152941 0.603922
0.964706 0.129412 0.627451
0.117647 0.466667 0.568627
0.286275 0.462745 0.564706
0.529412 0.443137 0.572549
0.737255 0.435294 0.611765
0.949020 0.435294 0.643137
0.000000 0.701961 0.623529
0.000000 0.701961 0.619608
0.396078 0.701961 0.619608
0.650980 0.709804 0.666667
0.913725 0.709804 0.701961
0.000000 0.945098 0.690196
0.101961 0.941176 0.690196
0.439216 0.937255 0.694118
0.701961 0.933333 0.705882
0.945098 0.941176 0.725490
0.447059 0.000000 0.784314
0.498039 0.000000 0.784314
0.627451 0.000000 0.784314
0.803922 0.000000 0.792157
0.996078 0.000000 0.800000
0.407843 0.184314 0.780392
0.466667 0.176471 0.780392
0.607843 0.149020 0.784314
0.792157 0.094118 0.792157
0.988235 0.000000 0.803922
0.321569 0.447059 0.780392
0.400000 0.443137 0.780392
0.568627 0.427451 0.784314
0.768627 0.407843 0.792157
0.984314 0.400000 0.819608
0.000000 0.694118 0.788235
0.172549 0.694118 0.788235
0.474510 0.694118 0.784314
0.768627 0.686275 0.803922
0.988235 0.682353 0.854902
0.000000 0.949020 0.866667
0.000000 0.949020 0.862745
0.345098 0.949020 0.858824
0.643137 0.949020 0.858824
0.905882 0.972549 0.925490
