luts/PictureFX Yellow Orange IR Mod.cube
#Generated with IWLTBAP LUT Generator
#Website: http://luts.iwltbap.com
TITLE "PictureFX Yellow Orange IR Mod"
#LUT size
LUT_3D_SIZE 9
#LUT data points
0.000000 0.000000 0.000000
0.011765 0.011765 0.007843
0.039216 0.039216 0.023529
0.062745 0.070588 0.047059
0.090196 0.101961 0.070588
0.117647 0.133333 0.094118
0.141176 0.164706 0.121569
0.168627 0.192157 0.149020
0.192157 0.223529 0.176471
0.329412 0.168627 0.086275
0.286275 0.125490 0.078431
0.086275 0.090196 0.054902
0.101961 0.109804 0.070588
0.117647 0.129412 0.090196
0.137255 0.156863 0.109804
0.160784 0.180392 0.133333
0.184314 0.207843 0.160784
0.207843 0.239216 0.184314
0.596078 0.329412 0.164706
0.576471 0.313725 0.160784
0.521569 0.262745 0.152941
0.388235 0.156863 0.133333
0.168627 0.184314 0.117647
0.180392 0.200000 0.141176
0.200000 0.223529 0.160784
0.215686 0.243137 0.184314
0.235294 0.266667 0.207843
0.776471 0.482353 0.243137
0.768627 0.478431 0.239216
0.752941 0.458824 0.235294
0.717647 0.396078 0.227451
0.650980 0.227451 0.211765
0.352941 0.250980 0.172549
0.247059 0.278431 0.200000
0.262745 0.294118 0.219608
0.278431 0.313725 0.239216
0.890196 0.603922 0.333333
0.886275 0.603922 0.333333
0.874510 0.600000 0.325490
0.854902 0.588235 0.313725
0.815686 0.552941 0.298039
0.756863 0.317647 0.278431
0.654902 0.321569 0.262745
0.317647 0.345098 0.235294
0.329412 0.368627 0.274510
1.000000 0.713725 0.403922
1.000000 0.713725 0.403922
0.996078 0.721569 0.403922
0.980392 0.729412 0.403922
0.952941 0.729412 0.392157
0.913725 0.717647 0.372549
0.858824 0.592157 0.313725
0.776471 0.388235 0.305882
0.615686 0.411765 0.309804
1.000000 0.780392 0.407843
1.000000 0.780392 0.407843
1.000000 0.784314 0.407843
1.000000 0.792157 0.407843
1.000000 0.803922 0.407843
1.000000 0.815686 0.407843
1.000000 0.827451 0.407843
0.960784 0.780392 0.368627
0.886275 0.470588 0.305882
1.000000 0.800000 0.486275
1.000000 0.800000 0.486275
1.000000 0.807843 0.482353
1.000000 0.815686 0.482353
1.000000 0.827451 0.474510
1.000000 0.823529 0.450980
1.000000 0.803922 0.403922
1.000000 0.756863 0.337255
1.000000 0.701961 0.321569
1.000000 0.807843 0.552941
1.000000 0.811765 0.552941
1.000000 0.811765 0.552941
1.000000 0.819608 0.552941
1.000000 0.827451 0.552941
1.000000 0.827451 0.541176
1.000000 0.827451 0.529412
1.000000 0.807843 0.501961
1.000000 0.764706 0.466667
0.000000 0.066667 0.129412
0.000000 0.066667 0.133333
0.000000 0.054902 0.141176
0.000000 0.074510 0.152941
0.000000 0.105882 0.164706
0.000000 0.133333 0.180392
0.039216 0.164706 0.200000
0.090196 0.196078 0.219608
0.137255 0.223529 0.239216
0.227451 0.184314 0.176471
0.149020 0.152941 0.168627
0.000000 0.094118 0.156863
0.000000 0.109804 0.168627
0.000000 0.133333 0.180392
0.027451 0.156863 0.192157
0.074510 0.184314 0.211765
0.117647 0.211765 0.227451
0.156863 0.239216 0.247059
0.556863 0.337255 0.243137
0.537255 0.321569 0.239216
0.478431 0.274510 0.235294
0.321569 0.160784 0.215686
0.090196 0.184314 0.207843
0.113725 0.203922 0.219608
0.145098 0.223529 0.231373
0.168627 0.243137 0.247059
0.196078 0.266667 0.266667
0.772549 0.490196 0.313725
0.764706 0.482353 0.313725
0.749020 0.462745 0.309804
0.713725 0.403922 0.301961
0.619608 0.227451 0.290196
0.282353 0.250980 0.247059
0.211765 0.278431 0.262745
0.231373 0.294118 0.278431
0.247059 0.313725 0.294118
0.890196 0.603922 0.400000
0.886275 0.603922 0.400000
0.874510 0.603922 0.396078
0.850980 0.592157 0.388235
0.811765 0.552941 0.372549
0.752941 0.298039 0.360784
0.650980 0.321569 0.333333
0.290196 0.345098 0.301961
0.305882 0.368627 0.329412
1.000000 0.713725 0.462745
1.000000 0.717647 0.466667
0.992157 0.721569 0.466667
0.976471 0.733333 0.470588
0.952941 0.733333 0.462745
0.913725 0.717647 0.443137
0.858824 0.592157 0.388235
0.772549 0.388235 0.380392
0.607843 0.415686 0.372549
1.000000 0.780392 0.458824
1.000000 0.784314 0.462745
1.000000 0.784314 0.462745
1.000000 0.792157 0.462745
1.000000 0.803922 0.466667
1.000000 0.815686 0.470588
1.000000 0.827451 0.474510
0.960784 0.780392 0.439216
0.882353 0.466667 0.376471
1.000000 0.800000 0.521569
1.000000 0.803922 0.521569
1.000000 0.807843 0.517647
1.000000 0.815686 0.517647
1.000000 0.827451 0.513725
1.000000 0.823529 0.494118
1.000000 0.807843 0.458824
1.000000 0.760784 0.403922
1.000000 0.709804 0.396078
1.000000 0.811765 0.572549
1.000000 0.811765 0.572549
1.000000 0.815686 0.572549
1.000000 0.819608 0.572549
1.000000 0.827451 0.572549
1.000000 0.831373 0.564706
1.000000 0.831373 0.549020
1.000000 0.811765 0.525490
1.000000 0.768627 0.494118
0.000000 0.133333 0.254902
0.000000 0.141176 0.258824
0.000000 0.152941 0.262745
0.000000 0.145098 0.270588
0.000000 0.117647 0.282353
0.000000 0.137255 0.294118
0.000000 0.168627 0.305882
0.000000 0.200000 0.317647
0.000000 0.231373 0.333333
0.078431 0.200000 0.274510
0.023529 0.160784 0.270588
0.000000 0.113725 0.278431
0.000000 0.121569 0.282353
0.000000 0.137255 0.290196
0.000000 0.160784 0.298039
0.000000 0.188235 0.309804
0.000000 0.215686 0.325490
0.000000 0.243137 0.341176
0.431373 0.352941 0.333333
0.403922 0.341176 0.333333
0.301961 0.301961 0.325490
0.078431 0.164706 0.309804
0.000000 0.188235 0.309804
0.000000 0.207843 0.317647
0.000000 0.227451 0.329412
0.000000 0.250980 0.341176
0.015686 0.270588 0.352941
0.760784 0.501961 0.403922
0.756863 0.494118 0.400000
0.725490 0.474510 0.396078
0.662745 0.419608 0.388235
0.529412 0.235294 0.376471
0.003922 0.258824 0.337255
0.043137 0.278431 0.356863
0.090196 0.294118 0.364706
0.129412 0.313725 0.376471
0.882353 0.615686 0.486275
0.878431 0.615686 0.482353
0.866667 0.611765 0.478431
0.843137 0.600000 0.470588
0.803922 0.560784 0.454902
0.745098 0.356863 0.447059
0.596078 0.321569 0.415686
0.207843 0.345098 0.388235
0.231373 0.368627 0.407843
1.000000 0.717647 0.552941
0.996078 0.721569 0.552941
0.988235 0.725490 0.552941
0.972549 0.733333 0.552941
0.945098 0.737255 0.545098
0.905882 0.721569 0.525490
0.850980 0.592157 0.470588
0.764706 0.392157 0.478431
0.568627 0.415686 0.447059
1.000000 0.780392 0.549020
1.000000 0.784314 0.549020
1.000000 0.788235 0.549020
1.000000 0.792157 0.549020
1.000000 0.803922 0.549020
1.000000 0.815686 0.552941
1.000000 0.827451 0.552941
0.952941 0.780392 0.517647
0.874510 0.458824 0.458824
1.000000 0.803922 0.576471
1.000000 0.807843 0.576471
1.000000 0.811765 0.576471
1.000000 0.819608 0.576471
1.000000 0.827451 0.572549
1.000000 0.831373 0.560784
1.000000 0.819608 0.533333
1.000000 0.776471 0.494118
1.000000 0.733333 0.482353
1.000000 0.815686 0.615686
1.000000 0.815686 0.615686
1.000000 0.819608 0.611765
1.000000 0.827451 0.611765
1.000000 0.831373 0.611765
1.000000 0.839216 0.607843
1.000000 0.839216 0.596078
1.000000 0.819608 0.572549
1.000000 0.780392 0.545098
0.000000 0.211765 0.384314
0.000000 0.215686 0.384314
0.000000 0.227451 0.388235
0.000000 0.235294 0.396078
0.000000 0.239216 0.403922
0.000000 0.211765 0.411765
0.000000 0.180392 0.423529
0.000000 0.203922 0.431373
0.000000 0.235294 0.443137
0.000000 0.235294 0.392157
0.000000 0.239216 0.392157
0.000000 0.239216 0.400000
0.000000 0.235294 0.403922
0.000000 0.211765 0.411765
0.000000 0.184314 0.419608
0.000000 0.192157 0.427451
0.000000 0.219608 0.435294
0.000000 0.250980 0.447059
0.196078 0.372549 0.435294
0.180392 0.360784 0.431373
0.137255 0.313725 0.427451
0.000000 0.180392 0.419608
0.000000 0.196078 0.427451
0.000000 0.211765 0.431373
0.000000 0.231373 0.439216
0.000000 0.254902 0.450980
0.000000 0.278431 0.458824
0.639216 0.517647 0.494118
0.619608 0.513725 0.494118
0.568627 0.494118 0.490196
0.462745 0.447059 0.482353
0.203922 0.282353 0.470588
0.000000 0.266667 0.450980
0.000000 0.290196 0.458824
0.000000 0.305882 0.470588
0.000000 0.325490 0.478431
0.870588 0.631373 0.572549
0.866667 0.631373 0.568627
0.854902 0.631373 0.564706
0.831373 0.619608 0.556863
0.792157 0.568627 0.545098
0.705882 0.400000 0.533333
0.388235 0.325490 0.505882
0.000000 0.360784 0.490196
0.000000 0.380392 0.505882
0.992157 0.721569 0.627451
0.988235 0.725490 0.627451
0.980392 0.729412 0.627451
0.964706 0.737255 0.627451
0.937255 0.745098 0.627451
0.898039 0.725490 0.603922
0.839216 0.584314 0.564706
0.745098 0.392157 0.580392
0.372549 0.415686 0.533333
1.000000 0.784314 0.627451
1.000000 0.784314 0.627451
1.000000 0.788235 0.627451
1.000000 0.796078 0.627451
1.000000 0.803922 0.627451
1.000000 0.815686 0.627451
1.000000 0.831373 0.631373
0.945098 0.780392 0.596078
0.862745 0.470588 0.560784
1.000000 0.811765 0.643137
1.000000 0.811765 0.643137
1.000000 0.815686 0.643137
1.000000 0.823529 0.643137
1.000000 0.835294 0.639216
1.000000 0.847059 0.635294
1.000000 0.835294 0.611765
1.000000 0.803922 0.580392
1.000000 0.768627 0.572549
1.000000 0.823529 0.666667
1.000000 0.827451 0.666667
1.000000 0.827451 0.666667
1.000000 0.835294 0.666667
1.000000 0.843137 0.666667
1.000000 0.850980 0.666667
1.000000 0.847059 0.654902
1.000000 0.835294 0.639216
1.000000 0.800000 0.615686
0.000000 0.286275 0.513725
0.000000 0.294118 0.513725
0.000000 0.301961 0.513725
0.000000 0.313725 0.517647
0.000000 0.321569 0.525490
0.000000 0.325490 0.533333
0.000000 0.313725 0.541176
0.000000 0.270588 0.552941
0.000000 0.247059 0.560784
0.000000 0.313725 0.517647
0.000000 0.317647 0.521569
0.000000 0.321569 0.521569
0.000000 0.325490 0.525490
0.000000 0.325490 0.529412
0.000000 0.317647 0.537255
0.000000 0.290196 0.549020
0.000000 0.243137 0.556863
0.000000 0.254902 0.564706
0.133333 0.376471 0.537255
0.109804 0.364706 0.537255
0.000000 0.321569 0.533333
0.000000 0.313725 0.541176
0.000000 0.282353 0.549020
0.000000 0.254902 0.552941
0.000000 0.243137 0.560784
0.000000 0.262745 0.564706
0.000000 0.286275 0.576471
0.305882 0.545098 0.592157
0.298039 0.537255 0.592157
0.274510 0.517647 0.588235
0.227451 0.466667 0.580392
0.121569 0.278431 0.572549
0.000000 0.274510 0.568627
0.000000 0.294118 0.576471
0.000000 0.313725 0.580392
0.000000 0.333333 0.588235
0.835294 0.662745 0.658824
0.823529 0.666667 0.658824
0.796078 0.666667 0.650980
0.733333 0.643137 0.647059
0.619608 0.596078 0.639216
0.356863 0.462745 0.627451
0.125490 0.345098 0.600000
0.000000 0.368627 0.600000
0.000000 0.388235 0.611765
0.980392 0.725490 0.701961
0.976471 0.725490 0.701961
0.964706 0.733333 0.701961
0.949020 0.741176 0.705882
0.921569 0.752941 0.705882
0.878431 0.729412 0.686275
0.819608 0.588235 0.690196
0.639216 0.396078 0.670588
0.000000 0.439216 0.627451
1.000000 0.788235 0.701961
1.000000 0.788235 0.701961
1.000000 0.792157 0.701961
1.000000 0.796078 0.701961
1.000000 0.807843 0.701961
1.000000 0.819608 0.701961
0.988235 0.835294 0.705882
0.929412 0.776471 0.674510
0.847059 0.462745 0.686275
1.000000 0.819608 0.713725
1.000000 0.823529 0.713725
1.000000 0.827451 0.713725
1.000000 0.831373 0.709804
1.000000 0.843137 0.709804
1.000000 0.854902 0.709804
1.000000 0.862745 0.698039
1.000000 0.835294 0.674510
1.000000 0.807843 0.666667
1.000000 0.839216 0.729412
1.000000 0.839216 0.729412
1.000000 0.843137 0.729412
1.000000 0.847059 0.729412
1.000000 0.854902 0.729412
1.000000 0.862745 0.729412
1.000000 0.870588 0.725490
1.000000 0.858824 0.713725
1.000000 0.827451 0.694118
0.000000 0.364706 0.639216
0.000000 0.368627 0.639216
0.000000 0.376471 0.643137
0.000000 0.388235 0.647059
0.000000 0.400000 0.650980
0.000000 0.407843 0.654902
0.000000 0.411765 0.662745
0.000000 0.403922 0.670588
0.000000 0.376471 0.682353
0.000000 0.388235 0.647059
0.000000 0.392157 0.647059
0.000000 0.396078 0.647059
0.000000 0.400000 0.650980
0.000000 0.407843 0.654902
0.000000 0.411765 0.658824
0.000000 0.407843 0.666667
0.000000 0.396078 0.674510
0.000000 0.352941 0.686275
0.000000 0.407843 0.654902
0.000000 0.407843 0.654902
0.000000 0.411765 0.658824
0.000000 0.411765 0.662745
0.000000 0.407843 0.666667
0.000000 0.400000 0.674510
0.000000 0.380392 0.678431
0.000000 0.337255 0.686275
0.000000 0.301961 0.694118
0.262745 0.552941 0.694118
0.250980 0.545098 0.694118
0.223529 0.521569 0.690196
0.156863 0.466667 0.686275
0.000000 0.360784 0.682353
0.000000 0.301961 0.690196
0.000000 0.305882 0.694118
0.000000 0.321569 0.701961
0.000000 0.341176 0.705882
0.419608 0.670588 0.741176
0.411765 0.674510 0.745098
0.396078 0.678431 0.749020
0.368627 0.670588 0.745098
0.317647 0.619608 0.737255
0.235294 0.482353 0.729412
0.000000 0.352941 0.709804
0.000000 0.376471 0.717647
0.000000 0.396078 0.725490
0.960784 0.729412 0.776471
0.956863 0.733333 0.776471
0.945098 0.737255 0.776471
0.929412 0.745098 0.780392
0.894118 0.756863 0.780392
0.780392 0.737255 0.780392
0.533333 0.635294 0.780392
0.258824 0.423529 0.764706
0.000000 0.447059 0.741176
1.000000 0.788235 0.776471
1.000000 0.792157 0.776471
1.000000 0.796078 0.776471
1.000000 0.800000 0.776471
1.000000 0.811765 0.776471
1.000000 0.823529 0.780392
0.968627 0.839216 0.780392
0.905882 0.772549 0.780392
0.811765 0.470588 0.780392
1.000000 0.835294 0.784314
1.000000 0.835294 0.784314
1.000000 0.839216 0.784314
1.000000 0.847059 0.784314
1.000000 0.854902 0.780392
1.000000 0.866667 0.780392
1.000000 0.878431 0.776471
1.000000 0.874510 0.768627
1.000000 0.854902 0.764706
1.000000 0.858824 0.796078
1.000000 0.858824 0.796078
1.000000 0.862745 0.796078
1.000000 0.866667 0.796078
1.000000 0.870588 0.796078
1.000000 0.878431 0.796078
1.000000 0.882353 0.796078
1.000000 0.886275 0.792157
1.000000 0.862745 0.784314
0.000000 0.443137 0.768627
0.000000 0.447059 0.768627
0.000000 0.450980 0.768627
0.000000 0.462745 0.772549
0.000000 0.474510 0.776471
0.000000 0.486275 0.780392
0.000000 0.494118 0.784314
0.000000 0.498039 0.792157
0.000000 0.494118 0.800000
0.000000 0.462745 0.772549
0.000000 0.466667 0.772549
0.000000 0.470588 0.772549
0.000000 0.478431 0.776471
0.000000 0.482353 0.780392
0.000000 0.490196 0.784314
0.000000 0.498039 0.788235
0.000000 0.498039 0.796078
0.000000 0.490196 0.803922
0.000000 0.486275 0.780392
0.000000 0.486275 0.780392
0.000000 0.490196 0.784314
0.000000 0.494118 0.788235
0.000000 0.494118 0.788235
0.000000 0.498039 0.796078
0.000000 0.494118 0.800000
0.000000 0.486275 0.807843
0.000000 0.462745 0.815686
0.180392 0.556863 0.803922
0.164706 0.545098 0.800000
0.113725 0.521569 0.800000
0.000000 0.494118 0.796078
0.000000 0.490196 0.803922
0.000000 0.474510 0.811765
0.000000 0.447059 0.815686
0.000000 0.396078 0.823529
0.000000 0.356863 0.827451
0.376471 0.678431 0.843137
0.368627 0.678431 0.850980
0.352941 0.686275 0.850980
0.321569 0.678431 0.847059
0.262745 0.619608 0.839216
0.137255 0.474510 0.831373
0.000000 0.364706 0.831373
0.000000 0.388235 0.839216
0.000000 0.407843 0.843137
0.866667 0.733333 0.839216
0.847059 0.737255 0.839216
0.780392 0.741176 0.839216
0.647059 0.749020 0.843137
0.458824 0.760784 0.854902
0.407843 0.745098 0.854902
0.333333 0.650980 0.854902
0.180392 0.431373 0.854902
0.000000 0.454902 0.854902
1.000000 0.796078 0.850980
1.000000 0.796078 0.850980
1.000000 0.800000 0.850980
1.000000 0.803922 0.850980
1.000000 0.815686 0.850980
0.988235 0.827451 0.854902
0.941176 0.843137 0.854902
0.764706 0.780392 0.854902
0.368627 0.498039 0.854902
1.000000 0.854902 0.854902
1.000000 0.858824 0.854902
1.000000 0.858824 0.854902
1.000000 0.862745 0.854902
1.000000 0.870588 0.854902
1.000000 0.878431 0.854902
1.000000 0.894118 0.854902
1.000000 0.905882 0.854902
0.996078 0.905882 0.854902
1.000000 0.890196 0.862745
1.000000 0.890196 0.862745
1.000000 0.890196 0.862745
1.000000 0.894118 0.862745
1.000000 0.898039 0.862745
1.000000 0.901961 0.862745
1.000000 0.905882 0.862745
1.000000 0.913725 0.862745
1.000000 0.901961 0.862745
0.000000 0.517647 0.894118
0.000000 0.521569 0.898039
0.000000 0.529412 0.898039
0.000000 0.537255 0.898039
0.000000 0.549020 0.901961
0.000000 0.560784 0.905882
0.000000 0.568627 0.909804
0.000000 0.580392 0.917647
0.000000 0.584314 0.921569
0.000000 0.537255 0.898039
0.000000 0.541176 0.898039
0.000000 0.545098 0.901961
0.000000 0.549020 0.901961
0.000000 0.560784 0.905882
0.000000 0.568627 0.909804
0.000000 0.576471 0.913725
0.000000 0.580392 0.921569
0.000000 0.584314 0.925490
0.000000 0.560784 0.905882
0.000000 0.564706 0.905882
0.000000 0.568627 0.909804
0.000000 0.572549 0.909804
0.000000 0.576471 0.913725
0.000000 0.580392 0.917647
0.000000 0.584314 0.921569
0.000000 0.584314 0.929412
0.000000 0.576471 0.929412
0.000000 0.576471 0.913725
0.000000 0.576471 0.917647
0.000000 0.580392 0.917647
0.000000 0.580392 0.921569
0.000000 0.580392 0.925490
0.000000 0.576471 0.929412
0.000000 0.572549 0.929412
0.000000 0.564706 0.929412
0.000000 0.545098 0.929412
0.321569 0.686275 0.929412
0.313725 0.686275 0.929412
0.290196 0.686275 0.929412
0.250980 0.666667 0.929412
0.160784 0.615686 0.929412
0.000000 0.552941 0.929412
0.000000 0.521569 0.929412
0.000000 0.411765 0.929412
0.000000 0.419608 0.929412
0.486275 0.741176 0.905882
0.482353 0.745098 0.909804
0.470588 0.749020 0.917647
0.450980 0.756863 0.929412
0.415686 0.760784 0.929412
0.360784 0.725490 0.929412
0.262745 0.631373 0.929412
0.000000 0.439216 0.929412
0.000000 0.462745 0.929412
0.886275 0.800000 0.917647
0.886275 0.800000 0.917647
0.890196 0.803922 0.921569
0.898039 0.811765 0.921569
0.898039 0.819608 0.925490
0.752941 0.831373 0.925490
0.498039 0.819608 0.929412
0.427451 0.752941 0.929412
0.309804 0.505882 0.929412
0.988235 0.874510 0.917647
0.988235 0.878431 0.917647
0.988235 0.878431 0.917647
0.988235 0.882353 0.921569
0.992157 0.886275 0.921569
0.992157 0.890196 0.925490
1.000000 0.898039 0.925490
1.000000 0.913725 0.929412
0.949020 0.917647 0.929412
0.996078 0.925490 0.929412
0.996078 0.925490 0.933333
0.996078 0.929412 0.933333
0.996078 0.929412 0.933333
0.992157 0.929412 0.933333
0.992157 0.933333 0.933333
0.992157 0.937255 0.933333
0.992157 0.941176 0.933333
0.988235 0.941176 0.933333
0.000000 0.541176 1.000000
0.000000 0.545098 1.000000
0.000000 0.552941 1.000000
0.000000 0.564706 1.000000
0.000000 0.580392 1.000000
0.000000 0.596078 1.000000
0.000000 0.615686 1.000000
0.000000 0.627451 1.000000
0.000000 0.631373 1.000000
0.000000 0.564706 1.000000
0.000000 0.568627 1.000000
0.000000 0.572549 1.000000
0.000000 0.584314 1.000000
0.000000 0.596078 1.000000
0.000000 0.611765 1.000000
0.000000 0.623529 1.000000
0.000000 0.631373 1.000000
0.000000 0.635294 1.000000
0.000000 0.607843 1.000000
0.000000 0.611765 1.000000
0.000000 0.615686 1.000000
0.000000 0.619608 1.000000
0.000000 0.623529 1.000000
0.000000 0.627451 1.000000
0.000000 0.631373 1.000000
0.000000 0.635294 1.000000
0.000000 0.635294 1.000000
0.000000 0.627451 1.000000
0.000000 0.627451 1.000000
0.000000 0.631373 1.000000
0.000000 0.631373 1.000000
0.000000 0.635294 1.000000
0.000000 0.635294 1.000000
0.000000 0.635294 1.000000
0.000000 0.631373 1.000000
0.000000 0.627451 1.000000
0.231373 0.682353 1.000000
0.219608 0.678431 1.000000
0.184314 0.666667 1.000000
0.086275 0.643137 1.000000
0.000000 0.635294 1.000000
0.000000 0.627451 1.000000
0.000000 0.619608 1.000000
0.000000 0.600000 1.000000
0.000000 0.580392 1.000000
0.443137 0.749020 1.000000
0.435294 0.752941 1.000000
0.423529 0.756863 1.000000
0.400000 0.760784 1.000000
0.356863 0.749020 1.000000
0.286275 0.705882 1.000000
0.125490 0.611765 1.000000
0.000000 0.505882 1.000000
0.000000 0.478431 1.000000
0.592157 0.807843 0.988235
0.592157 0.807843 0.988235
0.584314 0.811765 0.988235
0.568627 0.815686 0.992157
0.545098 0.827451 1.000000
0.505882 0.835294 1.000000
0.450980 0.807843 1.000000
0.368627 0.737255 1.000000
0.211765 0.509804 1.000000
0.721569 0.870588 0.968627
0.717647 0.874510 0.968627
0.705882 0.874510 0.968627
0.682353 0.874510 0.972549
0.658824 0.874510 0.980392
0.647059 0.878431 0.988235
0.596078 0.882353 1.000000
0.588235 0.886275 1.000000
0.517647 0.843137 1.000000
0.905882 0.925490 0.980392
0.901961 0.925490 0.980392
0.901961 0.925490 0.980392
0.894118 0.925490 0.980392
0.890196 0.929412 0.984314
0.882353 0.925490 0.988235
0.870588 0.925490 0.992157
0.862745 0.925490 0.996078
0.862745 0.925490 1.000000
