luts/PictureFX J.S. Style Ethereal Purple - Adjust to taste _ strenght, exposure, bloom etc - more at Pic.cube
#Generated by lutCreator.js
#Coded by SirSerch
#https://github.com/SirSerch/LutCreatorJs
TITLE lutCreatorJs_25
LUT_3D_SIZE 5
0.000000 0.031373 0.035294
0.149020 0.050980 0.109804
0.482353 0.235294 0.219608
0.674510 0.301961 0.227451
0.858824 0.364706 0.247059
0.117647 0.313725 0.235294
0.274510 0.313725 0.258824
0.474510 0.337255 0.258824
0.670588 0.376471 0.258824
0.858824 0.423529 0.270588
0.219608 0.517647 0.286275
0.317647 0.517647 0.298039
0.490196 0.521569 0.313725
0.678431 0.537255 0.321569
0.866667 0.560784 0.321569
0.317647 0.717647 0.345098
0.380392 0.717647 0.345098
0.525490 0.717647 0.356863
0.698039 0.725490 0.368627
0.882353 0.741176 0.380392
0.439216 0.941176 0.419608
0.482353 0.937255 0.419608
0.600000 0.941176 0.427451
0.756863 0.945098 0.439216
0.929412 0.952941 0.447059
0.000000 0.035294 0.239216
0.211765 0.160784 0.349020
0.443137 0.235294 0.380392
0.647059 0.301961 0.392157
0.847059 0.368627 0.400000
0.066667 0.301961 0.337255
0.223529 0.309804 0.317647
0.431373 0.329412 0.400000
0.647059 0.372549 0.403922
0.850980 0.427451 0.407843
0.176471 0.509804 0.407843
0.286275 0.509804 0.419608
0.466667 0.517647 0.454902
0.666667 0.541176 0.454902
0.866667 0.572549 0.443137
0.309804 0.725490 0.450980
0.376471 0.725490 0.450980
0.525490 0.729412 0.466667
0.701961 0.737255 0.482353
0.894118 0.756863 0.486275
0.443137 0.952941 0.505882
0.486275 0.949020 0.505882
0.600000 0.952941 0.509804
0.760784 0.956863 0.521569
0.933333 0.960784 0.529412
0.000000 0.082353 0.462745
0.149020 0.192157 0.568627
0.400000 0.250980 0.572549
0.615686 0.313725 0.584314
0.823529 0.380392 0.600000
0.000000 0.305882 0.529412
0.180392 0.309804 0.529412
0.400000 0.337255 0.552941
0.615686 0.380392 0.584314
0.831373 0.439216 0.603922
0.141176 0.505882 0.560784
0.266667 0.509804 0.549020
0.435294 0.529412 0.533333
0.639216 0.549020 0.631373
0.850980 0.580392 0.635294
0.278431 0.729412 0.631373
0.349020 0.729412 0.635294
0.509804 0.733333 0.654902
0.686275 0.745098 0.690196
0.878431 0.764706 0.690196
0.419608 0.956863 0.670588
0.466667 0.952941 0.670588
0.584314 0.956863 0.678431
0.749020 0.960784 0.690196
0.925490 0.964706 0.701961
0.000000 0.223529 0.800000
0.000000 0.239216 0.792157
0.360784 0.278431 0.788235
0.588235 0.333333 0.792157
0.800000 0.396078 0.800000
0.000000 0.325490 0.768627
0.023529 0.329412 0.768627
0.364706 0.356863 0.772549
0.592157 0.400000 0.784314
0.803922 0.450980 0.800000
0.050980 0.517647 0.745098
0.219608 0.521569 0.741176
0.419608 0.533333 0.745098
0.619608 0.556863 0.780392
0.823529 0.588235 0.807843
0.247059 0.729412 0.796078
0.325490 0.729412 0.792157
0.490196 0.733333 0.776471
0.654902 0.752941 0.756863
0.847059 0.764706 0.854902
0.384314 0.952941 0.854902
0.435294 0.952941 0.854902
0.560784 0.952941 0.858824
0.725490 0.952941 0.882353
0.898039 0.960784 0.913725
0.000000 0.278431 1.000000
0.000000 0.286275 1.000000
0.309804 0.317647 1.000000
0.556863 0.364706 1.000000
0.768627 0.415686 1.000000
0.000000 0.360784 1.000000
0.000000 0.368627 1.000000
0.317647 0.388235 1.000000
0.560784 0.419608 0.996078
0.772549 0.462745 1.000000
0.000000 0.533333 0.984314
0.043137 0.533333 0.980392
0.360784 0.545098 0.980392
0.580392 0.560784 0.984314
0.788235 0.588235 0.996078
0.168627 0.721569 0.964706
0.266667 0.725490 0.960784
0.443137 0.729412 0.945098
0.627451 0.741176 0.941176
0.823529 0.764706 0.988235
0.345098 0.945098 1.000000
0.400000 0.945098 1.000000
0.537255 0.945098 1.000000
0.709804 0.952941 0.992157
0.878431 0.980392 0.984314
