luts/PictureFX NTFLX DRK II.cube
#Generated by lutCreator.js
#Coded by SirSerch
#https://github.com/SirSerch/LutCreatorJs
TITLE lutCreatorJs_25
LUT_3D_SIZE 5
0.000000 0.003922 0.062745
0.290196 0.000000 0.000000
0.580392 0.000000 0.000000
0.905882 0.000000 0.000000
1.000000 0.000000 0.000000
0.000000 0.192157 0.000000
0.156863 0.156863 0.000000
0.521569 0.000000 0.000000
0.878431 0.000000 0.000000
1.000000 0.000000 0.000000
0.000000 0.392157 0.000000
0.000000 0.403922 0.000000
0.341176 0.400000 0.000000
0.768627 0.329412 0.000000
1.000000 0.000000 0.000000
0.000000 0.654902 0.000000
0.000000 0.666667 0.000000
0.000000 0.678431 0.000000
0.596078 0.690196 0.000000
1.000000 0.694118 0.000000
0.000000 1.000000 0.000000
0.000000 1.000000 0.000000
0.000000 1.000000 0.000000
0.000000 1.000000 0.000000
0.905882 1.000000 0.000000
0.000000 0.000000 0.349020
0.278431 0.000000 0.223529
0.584314 0.000000 0.082353
0.917647 0.000000 0.000000
1.000000 0.000000 0.000000
0.000000 0.176471 0.172549
0.121569 0.152941 0.188235
0.529412 0.000000 0.000000
0.890196 0.000000 0.000000
1.000000 0.000000 0.000000
0.000000 0.403922 0.000000
0.000000 0.411765 0.000000
0.356863 0.407843 0.000000
0.780392 0.337255 0.000000
1.000000 0.000000 0.000000
0.000000 0.666667 0.000000
0.000000 0.674510 0.000000
0.000000 0.682353 0.000000
0.603922 0.686275 0.000000
1.000000 0.678431 0.000000
0.000000 1.000000 0.000000
0.000000 1.000000 0.000000
0.000000 1.000000 0.000000
0.000000 1.000000 0.000000
0.901961 1.000000 0.000000
0.000000 0.000000 0.745098
0.105882 0.000000 0.654902
0.596078 0.000000 0.517647
0.945098 0.000000 0.403922
1.000000 0.000000 0.313725
0.000000 0.168627 0.576471
0.000000 0.129412 0.549020
0.552941 0.000000 0.470588
0.917647 0.000000 0.376471
1.000000 0.000000 0.294118
0.000000 0.415686 0.435294
0.000000 0.419608 0.423529
0.368627 0.400000 0.443137
0.803922 0.329412 0.258824
1.000000 0.000000 0.192157
0.000000 0.674510 0.258824
0.000000 0.678431 0.250980
0.000000 0.682353 0.211765
0.643137 0.686275 0.152941
1.000000 0.670588 0.000000
0.000000 1.000000 0.000000
0.000000 1.000000 0.000000
0.000000 1.000000 0.000000
0.003922 1.000000 0.000000
0.929412 0.996078 0.000000
0.000000 0.000000 1.000000
0.000000 0.000000 1.000000
0.529412 0.000000 0.941176
0.941176 0.000000 0.831373
1.000000 0.000000 0.729412
0.000000 0.152941 1.000000
0.000000 0.086275 0.976471
0.490196 0.000000 0.898039
0.917647 0.000000 0.807843
1.000000 0.000000 0.709804
0.000000 0.423529 0.827451
0.000000 0.419608 0.811765
0.356863 0.380392 0.772549
0.823529 0.282353 0.721569
1.000000 0.000000 0.650980
0.000000 0.682353 0.709804
0.000000 0.686275 0.701961
0.000000 0.682353 0.674510
0.654902 0.690196 0.737255
1.000000 0.682353 0.580392
0.000000 1.000000 0.623529
0.000000 1.000000 0.623529
0.000000 1.000000 0.607843
0.137255 1.000000 0.576471
0.952941 0.992157 0.501961
0.000000 0.000000 1.000000
0.000000 0.000000 1.000000
0.286275 0.000000 1.000000
0.886275 0.000000 1.000000
1.000000 0.000000 1.000000
0.000000 0.098039 1.000000
0.000000 0.000000 1.000000
0.227451 0.000000 1.000000
0.862745 0.000000 1.000000
1.000000 0.000000 1.000000
0.000000 0.419608 1.000000
0.000000 0.411765 1.000000
0.000000 0.356863 1.000000
0.784314 0.215686 1.000000
1.000000 0.000000 1.000000
0.000000 0.690196 1.000000
0.000000 0.686275 1.000000
0.000000 0.682353 1.000000
0.694118 0.698039 1.000000
1.000000 0.670588 1.000000
0.000000 1.000000 1.000000
0.000000 1.000000 1.000000
0.000000 1.000000 1.000000
0.000000 1.000000 1.000000
0.949020 0.984314 1.000000
