luts/PictureFX Papaver Field  - color filter - set strength to taste - sample at 100%.cube
#Generated with IWLTBAP LUT Generator
#Website: http://luts.iwltbap.com
TITLE "PictureFX-Papaver-Field-N125"
#LUT size
LUT_3D_SIZE 5
#LUT data points
0.176471 0.000000 0.000000
0.286275 0.000000 0.000000
0.678431 0.000000 0.000000
1.000000 0.000000 0.000000
1.000000 0.000000 0.000000
0.000000 0.243137 0.000000
0.290196 0.215686 0.000000
0.611765 0.168627 0.000000
1.000000 0.000000 0.000000
1.000000 0.000000 0.000000
0.000000 0.611765 0.000000
0.000000 0.623529 0.000000
0.600000 0.643137 0.000000
0.874510 0.631373 0.129412
1.000000 0.450980 0.000000
0.000000 0.980392 0.000000
0.000000 0.976471 0.000000
0.000000 0.952941 0.000000
0.780392 0.890196 0.000000
1.000000 0.827451 0.000000
0.000000 1.000000 0.000000
0.000000 1.000000 0.000000
0.000000 1.000000 0.000000
0.000000 1.000000 0.000000
0.901961 1.000000 0.000000
0.223529 0.000000 0.360784
0.505882 0.000000 0.172549
0.745098 0.000000 0.035294
1.000000 0.000000 0.101961
1.000000 0.000000 0.145098
0.000000 0.262745 0.160784
0.396078 0.188235 0.050980
0.560784 0.266667 0.000000
1.000000 0.000000 0.000000
1.000000 0.000000 0.062745
0.000000 0.615686 0.000000
0.000000 0.627451 0.000000
0.678431 0.600000 0.000000
1.000000 0.545098 0.000000
1.000000 0.403922 0.011765
0.000000 0.964706 0.000000
0.000000 0.960784 0.000000
0.000000 0.937255 0.000000
0.803922 0.878431 0.000000
1.000000 0.843137 0.215686
0.000000 1.000000 0.000000
0.000000 1.000000 0.000000
0.000000 1.000000 0.000000
0.000000 1.000000 0.000000
0.921569 1.000000 0.000000
0.392157 0.000000 0.772549
0.596078 0.000000 0.658824
0.964706 0.000000 0.525490
1.000000 0.000000 0.443137
1.000000 0.000000 0.423529
0.000000 0.211765 0.686275
0.490196 0.003922 0.635294
0.913725 0.000000 0.486275
1.000000 0.000000 0.384314
1.000000 0.000000 0.376471
0.000000 0.631373 0.498039
0.000000 0.635294 0.505882
0.800000 0.545098 0.384314
0.905882 0.607843 0.172549
1.000000 0.196078 0.254902
0.000000 0.956863 0.117647
0.000000 0.952941 0.101961
0.223529 0.921569 0.082353
0.941176 0.839216 0.000000
1.000000 0.764706 0.164706
0.000000 1.000000 0.000000
0.000000 1.000000 0.000000
0.000000 1.000000 0.000000
0.266667 1.000000 0.000000
0.976471 1.000000 0.000000
0.431373 0.000000 1.000000
0.686275 0.000000 1.000000
1.000000 0.000000 1.000000
1.000000 0.000000 0.933333
1.000000 0.000000 0.862745
0.254902 0.000000 1.000000
0.576471 0.000000 1.000000
1.000000 0.000000 1.000000
1.000000 0.000000 0.941176
1.000000 0.000000 0.811765
0.000000 0.639216 1.000000
0.050980 0.611765 1.000000
0.854902 0.486275 0.988235
1.000000 0.141176 0.803922
1.000000 0.000000 0.670588
0.000000 0.956863 0.803922
0.000000 0.949020 0.796078
0.337255 0.909804 0.768627
1.000000 0.788235 0.619608
1.000000 0.831373 0.407843
0.000000 1.000000 0.435294
0.000000 1.000000 0.427451
0.000000 1.000000 0.400000
0.525490 1.000000 0.380392
1.000000 0.996078 0.243137
0.572549 0.000000 1.000000
0.768627 0.000000 1.000000
1.000000 0.000000 1.000000
1.000000 0.000000 1.000000
1.000000 0.000000 1.000000
0.431373 0.000000 1.000000
0.678431 0.000000 1.000000
1.000000 0.000000 1.000000
1.000000 0.000000 1.000000
1.000000 0.000000 1.000000
0.000000 0.572549 1.000000
0.349020 0.529412 1.000000
0.921569 0.356863 1.000000
1.000000 0.000000 1.000000
1.000000 0.000000 1.000000
0.000000 0.945098 1.000000
0.000000 0.933333 1.000000
0.372549 0.878431 1.000000
1.000000 0.737255 1.000000
1.000000 0.513725 1.000000
0.000000 1.000000 1.000000
0.000000 1.000000 1.000000
0.000000 1.000000 0.980392
0.552941 1.000000 0.937255
1.000000 0.937255 0.760784
