luts/PictureFX Silberra Color 100 - Adjust strength or opacity to taste.cube
#Generated with IWLTBAP LUT Generator
#Website: http://luts.iwltbap.com
TITLE "Neutral-125_01"
#LUT size
LUT_3D_SIZE 5
#LUT data points
0.000000 0.000000 0.000000
0.133333 0.000000 0.000000
0.556863 0.000000 0.000000
0.980392 0.000000 0.000000
1.000000 0.000000 0.152941
0.000000 0.176471 0.000000
0.188235 0.188235 0.000000
0.584314 0.235294 0.000000
0.984314 0.168627 0.000000
1.000000 0.109804 0.149020
0.000000 0.623529 0.000000
0.203922 0.627451 0.000000
0.627451 0.631373 0.000000
0.980392 0.611765 0.000000
1.000000 0.568627 0.152941
0.000000 0.941176 0.000000
0.152941 0.941176 0.000000
0.603922 0.933333 0.000000
0.929412 0.921569 0.000000
1.000000 0.858824 0.227451
0.294118 1.000000 0.113725
0.403922 1.000000 0.145098
0.611765 1.000000 0.215686
0.835294 1.000000 0.309804
1.000000 1.000000 0.411765
0.039216 0.000000 0.145098
0.188235 0.000000 0.156863
0.592157 0.000000 0.239216
0.996078 0.000000 0.262745
1.000000 0.000000 0.325490
0.000000 0.184314 0.160784
0.231373 0.184314 0.160784
0.623529 0.152941 0.188235
1.000000 0.031373 0.243137
1.000000 0.129412 0.325490
0.000000 0.627451 0.058824
0.192157 0.627451 0.082353
0.647059 0.631373 0.137255
0.988235 0.603922 0.227451
1.000000 0.572549 0.337255
0.000000 0.941176 0.062745
0.223529 0.937255 0.098039
0.619608 0.933333 0.172549
0.937255 0.921569 0.262745
1.000000 0.862745 0.388235
0.372549 1.000000 0.341176
0.458824 1.000000 0.352941
0.643137 1.000000 0.388235
0.847059 1.000000 0.443137
1.000000 1.000000 0.517647
0.211765 0.000000 0.552941
0.364706 0.000000 0.556863
0.662745 0.000000 0.580392
1.000000 0.000000 0.600000
1.000000 0.000000 0.592157
0.058824 0.156863 0.564706
0.337255 0.141176 0.568627
0.686275 0.054902 0.588235
1.000000 0.000000 0.596078
1.000000 0.200000 0.600000
0.000000 0.627451 0.568627
0.270588 0.627451 0.572549
0.705882 0.615686 0.576471
1.000000 0.600000 0.596078
1.000000 0.619608 0.635294
0.223529 0.933333 0.564706
0.403922 0.933333 0.568627
0.678431 0.925490 0.584314
0.952941 0.917647 0.615686
1.000000 0.870588 0.662745
0.552941 1.000000 0.639216
0.603922 1.000000 0.643137
0.725490 1.000000 0.658824
0.882353 1.000000 0.682353
1.000000 1.000000 0.717647
0.360784 0.000000 0.890196
0.474510 0.000000 0.890196
0.733333 0.000000 0.898039
1.000000 0.000000 0.905882
1.000000 0.000000 0.854902
0.333333 0.086275 0.890196
0.466667 0.058824 0.894118
0.737255 0.000000 0.898039
1.000000 0.000000 0.905882
1.000000 0.231373 0.854902
0.356863 0.588235 0.886275
0.494118 0.592157 0.886275
0.745098 0.592157 0.890196
1.000000 0.603922 0.894118
1.000000 0.647059 0.862745
0.450980 0.925490 0.870588
0.552941 0.925490 0.870588
0.760784 0.917647 0.878431
0.964706 0.905882 0.882353
1.000000 0.894118 0.886275
0.717647 1.000000 0.858824
0.756863 1.000000 0.866667
0.843137 1.000000 0.882353
0.933333 1.000000 0.890196
1.000000 1.000000 0.905882
0.505882 0.000000 1.000000
0.576471 0.000000 1.000000
0.752941 0.000000 1.000000
0.976471 0.000000 1.000000
1.000000 0.000000 1.000000
0.513725 0.043137 1.000000
0.584314 0.047059 1.000000
0.760784 0.078431 1.000000
0.976471 0.156863 1.000000
1.000000 0.290196 1.000000
0.596078 0.584314 1.000000
0.650980 0.588235 1.000000
0.792157 0.600000 1.000000
0.972549 0.623529 1.000000
1.000000 0.658824 1.000000
0.698039 0.874510 1.000000
0.741176 0.878431 1.000000
0.850980 0.890196 1.000000
0.968627 0.894118 1.000000
1.000000 0.905882 1.000000
0.811765 1.000000 0.992157
0.835294 1.000000 0.992157
0.905882 1.000000 0.992157
1.000000 1.000000 1.000000
1.000000 1.000000 1.000000
