luts/PictureFX Creative - Kodak Wratten 85A.cube
#Generated with IWLTBAP LUT Generator
#LutCreator: https://marcrphoto.wordpress.com/
TITLE "PictureFX Creative - Kodak Wratten 85A "
#LUT size
LUT_3D_SIZE 25
#LUT data points
0.000000 0.000000 0.000000
0.019608 0.000000 0.000000
0.043137 0.000000 0.000000
0.066667 0.000000 0.000000
0.098039 0.000000 0.000000
0.121569 0.000000 0.000000
0.156863 0.000000 0.000000
0.188235 0.000000 0.000000
0.235294 0.000000 0.000000
0.282353 0.000000 0.000000
0.337255 0.000000 0.000000
0.403922 0.000000 0.000000
0.458824 0.000000 0.000000
0.517647 0.000000 0.000000
0.568627 0.000000 0.000000
0.619608 0.000000 0.000000
0.662745 0.000000 0.000000
0.709804 0.000000 0.000000
0.752941 0.000000 0.000000
0.800000 0.000000 0.000000
0.843137 0.000000 0.000000
0.886275 0.000000 0.000000
0.929412 0.000000 0.000000
0.972549 0.000000 0.000000
1.000000 0.000000 0.000000
0.000000 0.019608 0.000000
0.023529 0.019608 0.000000
0.047059 0.019608 0.000000
0.074510 0.019608 0.000000
0.101961 0.019608 0.000000
0.137255 0.019608 0.000000
0.168627 0.019608 0.000000
0.203922 0.019608 0.000000
0.250980 0.019608 0.000000
0.301961 0.019608 0.000000
0.360784 0.019608 0.000000
0.423529 0.019608 0.000000
0.478431 0.019608 0.000000
0.541176 0.019608 0.000000
0.592157 0.019608 0.000000
0.639216 0.019608 0.000000
0.682353 0.019608 0.000000
0.729412 0.019608 0.000000
0.764706 0.019608 0.000000
0.811765 0.019608 0.000000
0.850980 0.019608 0.000000
0.894118 0.019608 0.000000
0.933333 0.019608 0.000000
0.976471 0.019608 0.000000
1.000000 0.019608 0.000000
0.000000 0.047059 0.000000
0.023529 0.047059 0.000000
0.050980 0.047059 0.000000
0.078431 0.047059 0.000000
0.105882 0.047059 0.000000
0.141176 0.047059 0.000000
0.172549 0.047059 0.000000
0.215686 0.047059 0.000000
0.262745 0.047059 0.000000
0.305882 0.047059 0.000000
0.368627 0.047059 0.000000
0.435294 0.047059 0.000000
0.490196 0.047059 0.000000
0.545098 0.047059 0.000000
0.600000 0.047059 0.000000
0.643137 0.047059 0.000000
0.690196 0.047059 0.000000
0.733333 0.047059 0.000000
0.768627 0.047059 0.000000
0.811765 0.047059 0.000000
0.854902 0.047059 0.000000
0.894118 0.047059 0.000000
0.933333 0.047059 0.000000
0.976471 0.047059 0.000000
1.000000 0.047059 0.000000
0.000000 0.066667 0.000000
0.023529 0.066667 0.000000
0.050980 0.066667 0.000000
0.074510 0.066667 0.000000
0.109804 0.066667 0.000000
0.141176 0.066667 0.000000
0.168627 0.066667 0.000000
0.211765 0.066667 0.000000
0.258824 0.066667 0.000000
0.305882 0.066667 0.000000
0.364706 0.066667 0.000000
0.423529 0.066667 0.000000
0.482353 0.066667 0.000000
0.537255 0.066667 0.000000
0.592157 0.066667 0.000000
0.631373 0.066667 0.000000
0.678431 0.066667 0.000000
0.721569 0.066667 0.000000
0.760784 0.066667 0.000000
0.803922 0.062745 0.000000
0.850980 0.062745 0.000000
0.890196 0.062745 0.000000
0.929412 0.062745 0.000000
0.972549 0.062745 0.000000
1.000000 0.062745 0.000000
0.000000 0.082353 0.000000
0.023529 0.082353 0.000000
0.047059 0.082353 0.000000
0.070588 0.082353 0.000000
0.101961 0.082353 0.000000
0.129412 0.082353 0.000000
0.160784 0.082353 0.000000
0.200000 0.082353 0.000000
0.243137 0.082353 0.000000
0.286275 0.082353 0.000000
0.345098 0.082353 0.000000
0.403922 0.082353 0.000000
0.458824 0.082353 0.000000
0.513725 0.082353 0.000000
0.568627 0.082353 0.000000
0.611765 0.078431 0.000000
0.658824 0.078431 0.000000
0.705882 0.078431 0.000000
0.745098 0.078431 0.000000
0.792157 0.078431 0.000000
0.839216 0.078431 0.000000
0.878431 0.078431 0.000000
0.921569 0.074510 0.000000
0.968627 0.074510 0.000000
1.000000 0.074510 0.000000
0.000000 0.101961 0.000000
0.019608 0.101961 0.000000
0.043137 0.101961 0.000000
0.070588 0.101961 0.000000
0.098039 0.105882 0.000000
0.121569 0.105882 0.000000
0.156863 0.105882 0.000000
0.192157 0.105882 0.000000
0.235294 0.105882 0.000000
0.282353 0.105882 0.000000
0.341176 0.109804 0.000000
0.400000 0.109804 0.000000
0.458824 0.105882 0.000000
0.517647 0.105882 0.000000
0.572549 0.105882 0.000000
0.619608 0.105882 0.000000
0.666667 0.109804 0.000000
0.709804 0.109804 0.000000
0.756863 0.109804 0.000000
0.803922 0.109804 0.000000
0.843137 0.109804 0.000000
0.886275 0.109804 0.000000
0.929412 0.113725 0.000000
0.972549 0.113725 0.000000
1.000000 0.113725 0.000000
0.000000 0.137255 0.000000
0.023529 0.137255 0.000000
0.047059 0.137255 0.000000
0.074510 0.141176 0.000000
0.105882 0.141176 0.000000
0.133333 0.141176 0.000000
0.168627 0.141176 0.000000
0.207843 0.141176 0.000000
0.254902 0.141176 0.000000
0.301961 0.141176 0.000000
0.360784 0.141176 0.000000
0.427451 0.141176 0.000000
0.482353 0.141176 0.000000
0.541176 0.141176 0.000000
0.596078 0.141176 0.000000
0.639216 0.141176 0.000000
0.686275 0.141176 0.000000
0.729412 0.141176 0.000000
0.768627 0.145098 0.000000
0.811765 0.145098 0.000000
0.850980 0.145098 0.000000
0.894118 0.145098 0.000000
0.933333 0.145098 0.000000
0.976471 0.145098 0.000000
1.000000 0.145098 0.000000
0.000000 0.176471 0.000000
0.027451 0.176471 0.000000
0.050980 0.176471 0.000000
0.078431 0.176471 0.000000
0.109804 0.176471 0.000000
0.141176 0.176471 0.000000
0.176471 0.176471 0.000000
0.215686 0.176471 0.000000
0.262745 0.176471 0.000000
0.309804 0.180392 0.000000
0.372549 0.180392 0.000000
0.439216 0.180392 0.000000
0.490196 0.180392 0.000000
0.552941 0.180392 0.000000
0.603922 0.180392 0.000000
0.647059 0.180392 0.000000
0.690196 0.180392 0.000000
0.733333 0.176471 0.000000
0.772549 0.176471 0.000000
0.815686 0.176471 0.000000
0.854902 0.176471 0.000000
0.894118 0.176471 0.000000
0.933333 0.176471 0.000000
0.976471 0.176471 0.000000
1.000000 0.176471 0.000000
0.000000 0.215686 0.000000
0.027451 0.215686 0.000000
0.050980 0.215686 0.000000
0.074510 0.211765 0.000000
0.105882 0.211765 0.000000
0.141176 0.211765 0.000000
0.172549 0.211765 0.000000
0.211765 0.211765 0.000000
0.258824 0.211765 0.000000
0.301961 0.211765 0.000000
0.360784 0.211765 0.000000
0.431373 0.211765 0.000000
0.482353 0.211765 0.000000
0.537255 0.211765 0.000000
0.592157 0.207843 0.000000
0.635294 0.207843 0.000000
0.682353 0.207843 0.000000
0.725490 0.207843 0.000000
0.760784 0.207843 0.000000
0.807843 0.203922 0.000000
0.847059 0.203922 0.000000
0.890196 0.203922 0.000000
0.933333 0.207843 0.000000
0.972549 0.207843 0.000000
1.000000 0.203922 0.000000
0.000000 0.239216 0.000000
0.023529 0.239216 0.000000
0.047059 0.235294 0.000000
0.074510 0.239216 0.000000
0.101961 0.239216 0.000000
0.133333 0.239216 0.000000
0.160784 0.235294 0.000000
0.200000 0.235294 0.000000
0.243137 0.231373 0.000000
0.286275 0.235294 0.000000
0.341176 0.235294 0.000000
0.403922 0.231373 0.000000
0.458824 0.231373 0.000000
0.513725 0.231373 0.000000
0.568627 0.227451 0.000000
0.611765 0.231373 0.000000
0.658824 0.231373 0.000000
0.701961 0.227451 0.000000
0.745098 0.227451 0.000000
0.792157 0.223529 0.000000
0.839216 0.223529 0.000000
0.882353 0.223529 0.000000
0.925490 0.223529 0.000000
0.968627 0.223529 0.000000
1.000000 0.223529 0.000000
0.000000 0.266667 0.000000
0.019608 0.270588 0.000000
0.043137 0.270588 0.000000
0.070588 0.270588 0.000000
0.098039 0.270588 0.000000
0.125490 0.270588 0.000000
0.152941 0.274510 0.000000
0.192157 0.274510 0.000000
0.235294 0.274510 0.000000
0.278431 0.274510 0.000000
0.341176 0.278431 0.000000
0.403922 0.278431 0.000000
0.458824 0.278431 0.000000
0.521569 0.278431 0.000000
0.576471 0.278431 0.000000
0.619608 0.282353 0.000000
0.670588 0.282353 0.000000
0.713725 0.282353 0.000000
0.752941 0.282353 0.000000
0.803922 0.286275 0.000000
0.843137 0.286275 0.000000
0.886275 0.286275 0.000000
0.929412 0.290196 0.000000
0.972549 0.286275 0.000000
1.000000 0.286275 0.000000
0.000000 0.341176 0.000000
0.023529 0.345098 0.000000
0.047059 0.341176 0.000000
0.074510 0.341176 0.000000
0.105882 0.345098 0.000000
0.133333 0.345098 0.000000
0.168627 0.345098 0.000000
0.207843 0.345098 0.000000
0.254902 0.345098 0.000000
0.301961 0.349020 0.000000
0.364706 0.349020 0.000000
0.427451 0.349020 0.000000
0.486275 0.349020 0.000000
0.541176 0.349020 0.000000
0.596078 0.349020 0.000000
0.639216 0.352941 0.000000
0.686275 0.352941 0.000000
0.729412 0.352941 0.000000
0.768627 0.352941 0.000000
0.815686 0.352941 0.000000
0.854902 0.352941 0.000000
0.894118 0.352941 0.000000
0.933333 0.352941 0.000000
0.976471 0.352941 0.000000
1.000000 0.356863 0.000000
0.000000 0.403922 0.000000
0.027451 0.407843 0.000000
0.050980 0.407843 0.000000
0.078431 0.407843 0.000000
0.109804 0.407843 0.000000
0.141176 0.407843 0.000000
0.176471 0.407843 0.000000
0.219608 0.407843 0.000000
0.262745 0.407843 0.000000
0.309804 0.407843 0.000000
0.372549 0.407843 0.000000
0.439216 0.407843 0.000000
0.494118 0.407843 0.000000
0.552941 0.407843 0.000000
0.603922 0.407843 0.000000
0.647059 0.407843 0.000000
0.694118 0.407843 0.000000
0.733333 0.407843 0.000000
0.772549 0.407843 0.000000
0.815686 0.407843 0.000000
0.858824 0.407843 0.000000
0.894118 0.407843 0.000000
0.933333 0.407843 0.000000
0.972549 0.407843 0.000000
1.000000 0.407843 0.000000
0.000000 0.462745 0.000000
0.027451 0.462745 0.000000
0.050980 0.458824 0.000000
0.078431 0.458824 0.000000
0.105882 0.458824 0.000000
0.141176 0.458824 0.000000
0.172549 0.458824 0.000000
0.211765 0.458824 0.000000
0.258824 0.458824 0.000000
0.305882 0.458824 0.000000
0.364706 0.454902 0.000000
0.427451 0.454902 0.000000
0.486275 0.454902 0.000000
0.545098 0.454902 0.000000
0.596078 0.454902 0.000000
0.639216 0.450980 0.000000
0.682353 0.450980 0.000000
0.725490 0.454902 0.000000
0.764706 0.450980 0.000000
0.807843 0.450980 0.000000
0.847059 0.447059 0.000000
0.886275 0.447059 0.000000
0.933333 0.447059 0.000000
0.972549 0.443137 0.000000
1.000000 0.447059 0.000000
0.000000 0.501961 0.000000
0.023529 0.498039 0.000000
0.047059 0.498039 0.000000
0.074510 0.498039 0.000000
0.101961 0.494118 0.000000
0.133333 0.498039 0.000000
0.164706 0.494118 0.000000
0.203922 0.494118 0.000000
0.247059 0.494118 0.000000
0.290196 0.490196 0.000000
0.345098 0.490196 0.000000
0.407843 0.490196 0.000000
0.462745 0.486275 0.000000
0.517647 0.486275 0.000000
0.572549 0.486275 0.000000
0.615686 0.482353 0.000000
0.662745 0.482353 0.000000
0.705882 0.478431 0.000000
0.749020 0.482353 0.000000
0.796078 0.478431 0.000000
0.835294 0.478431 0.000000
0.882353 0.478431 0.000000
0.925490 0.474510 0.000000
0.968627 0.474510 0.000000
1.000000 0.470588 0.000000
0.000000 0.525490 0.000000
0.019608 0.525490 0.000000
0.043137 0.529412 0.000000
0.070588 0.525490 0.000000
0.094118 0.529412 0.000000
0.125490 0.529412 0.000000
0.156863 0.533333 0.000000
0.192157 0.533333 0.000000
0.239216 0.533333 0.000000
0.282353 0.537255 0.000000
0.341176 0.537255 0.000000
0.403922 0.537255 0.000000
0.462745 0.537255 0.000000
0.521569 0.541176 0.000000
0.576471 0.541176 0.000000
0.623529 0.541176 0.000000
0.666667 0.545098 0.000000
0.717647 0.541176 0.000000
0.756863 0.549020 0.000000
0.800000 0.545098 0.000000
0.843137 0.549020 0.000000
0.886275 0.549020 0.000000
0.929412 0.549020 0.000000
0.972549 0.552941 0.000000
1.000000 0.552941 0.000000
0.000000 0.603922 0.000000
0.023529 0.607843 0.000000
0.047059 0.603922 0.000000
0.078431 0.607843 0.000000
0.105882 0.607843 0.000000
0.137255 0.607843 0.000000
0.172549 0.611765 0.000000
0.211765 0.611765 0.000000
0.254902 0.611765 0.000000
0.305882 0.611765 0.000000
0.360784 0.611765 0.000000
0.427451 0.615686 0.000000
0.486275 0.611765 0.000000
0.545098 0.611765 0.000000
0.596078 0.615686 0.000000
0.643137 0.615686 0.000000
0.690196 0.615686 0.000000
0.733333 0.615686 0.000000
0.768627 0.615686 0.000000
0.811765 0.615686 0.000000
0.854902 0.619608 0.000000
0.894118 0.619608 0.000000
0.933333 0.623529 0.000000
0.972549 0.623529 0.000000
1.000000 0.619608 0.000000
0.000000 0.670588 0.000000
0.027451 0.670588 0.000000
0.050980 0.670588 0.000000
0.078431 0.670588 0.000000
0.109804 0.670588 0.000000
0.141176 0.670588 0.000000
0.180392 0.670588 0.000000
0.215686 0.670588 0.000000
0.262745 0.670588 0.000000
0.313725 0.670588 0.000000
0.372549 0.670588 0.000000
0.439216 0.670588 0.000000
0.494118 0.670588 0.000000
0.552941 0.670588 0.000000
0.607843 0.670588 0.000000
0.647059 0.670588 0.000000
0.694118 0.670588 0.000000
0.733333 0.670588 0.000000
0.772549 0.670588 0.000000
0.819608 0.670588 0.000000
0.854902 0.670588 0.000000
0.894118 0.670588 0.000000
0.933333 0.670588 0.000000
0.972549 0.670588 0.000000
1.000000 0.670588 0.000000
0.000000 0.713725 0.000000
0.027451 0.713725 0.000000
0.050980 0.713725 0.000000
0.078431 0.713725 0.000000
0.109804 0.713725 0.000000
0.141176 0.713725 0.000000
0.172549 0.713725 0.000000
0.215686 0.713725 0.000000
0.258824 0.713725 0.000000
0.309804 0.709804 0.000000
0.368627 0.709804 0.000000
0.431373 0.709804 0.000000
0.486275 0.709804 0.000000
0.545098 0.709804 0.000000
0.596078 0.709804 0.000000
0.639216 0.705882 0.000000
0.682353 0.705882 0.000000
0.725490 0.709804 0.000000
0.768627 0.709804 0.000000
0.811765 0.705882 0.000000
0.850980 0.705882 0.000000
0.890196 0.701961 0.000000
0.933333 0.701961 0.000000
0.972549 0.701961 0.000000
1.000000 0.701961 0.000000
0.000000 0.756863 0.000000
0.023529 0.752941 0.000000
0.047059 0.756863 0.000000
0.074510 0.752941 0.000000
0.101961 0.752941 0.000000
0.133333 0.752941 0.000000
0.164706 0.749020 0.000000
0.200000 0.749020 0.000000
0.243137 0.749020 0.000000
0.290196 0.749020 0.000000
0.349020 0.749020 0.000000
0.407843 0.745098 0.000000
0.462745 0.749020 0.000000
0.517647 0.749020 0.000000
0.568627 0.745098 0.000000
0.611765 0.745098 0.000000
0.662745 0.741176 0.000000
0.709804 0.745098 0.000000
0.749020 0.741176 0.000000
0.796078 0.741176 0.000000
0.839216 0.741176 0.000000
0.882353 0.741176 0.000000
0.925490 0.737255 0.000000
0.968627 0.737255 0.000000
1.000000 0.733333 0.000000
0.000000 0.792157 0.000000
0.019608 0.792157 0.000000
0.047059 0.792157 0.000000
0.070588 0.792157 0.000000
0.098039 0.796078 0.000000
0.125490 0.796078 0.000000
0.156863 0.796078 0.000000
0.196078 0.796078 0.000000
0.239216 0.796078 0.000000
0.282353 0.796078 0.000000
0.345098 0.800000 0.000000
0.407843 0.800000 0.000000
0.462745 0.796078 0.000000
0.525490 0.800000 0.000000
0.576471 0.800000 0.000000
0.623529 0.803922 0.000000
0.670588 0.803922 0.000000
0.713725 0.803922 0.000000
0.756863 0.800000 0.000000
0.803922 0.803922 0.000000
0.847059 0.803922 0.000000
0.890196 0.803922 0.000000
0.929412 0.807843 0.000000
0.972549 0.803922 0.000000
1.000000 0.803922 0.000000
0.000000 0.850980 0.000000
0.023529 0.854902 0.000000
0.047059 0.854902 0.000000
0.074510 0.854902 0.000000
0.105882 0.854902 0.000000
0.137255 0.850980 0.000000
0.172549 0.850980 0.000000
0.211765 0.854902 0.000000
0.258824 0.854902 0.000000
0.301961 0.854902 0.000000
0.364706 0.854902 0.000000
0.431373 0.858824 0.000000
0.486275 0.858824 0.000000
0.545098 0.858824 0.000000
0.600000 0.858824 0.000000
0.643137 0.858824 0.000000
0.690196 0.858824 0.000000
0.733333 0.854902 0.000000
0.772549 0.854902 0.000000
0.815686 0.858824 0.000000
0.858824 0.858824 0.000000
0.894118 0.858824 0.000000
0.933333 0.858824 0.000000
0.972549 0.858824 0.000000
1.000000 0.858824 0.000000
0.000000 0.909804 0.000000
0.027451 0.909804 0.000000
0.050980 0.909804 0.000000
0.078431 0.909804 0.000000
0.109804 0.909804 0.000000
0.145098 0.909804 0.000000
0.176471 0.909804 0.000000
0.219608 0.909804 0.000000
0.266667 0.909804 0.000000
0.313725 0.909804 0.000000
0.376471 0.909804 0.000000
0.439216 0.909804 0.000000
0.498039 0.909804 0.000000
0.556863 0.909804 0.000000
0.607843 0.909804 0.000000
0.650980 0.909804 0.000000
0.698039 0.909804 0.000000
0.737255 0.909804 0.000000
0.776471 0.909804 0.000000
0.815686 0.909804 0.000000
0.854902 0.909804 0.000000
0.894118 0.909804 0.000000
0.937255 0.909804 0.000000
0.972549 0.909804 0.000000
1.000000 0.909804 0.000000
0.000000 0.956863 0.000000
0.027451 0.956863 0.000000
0.050980 0.956863 0.000000
0.078431 0.956863 0.000000
0.109804 0.956863 0.000000
0.141176 0.956863 0.000000
0.176471 0.956863 0.000000
0.215686 0.956863 0.000000
0.262745 0.956863 0.000000
0.305882 0.952941 0.000000
0.368627 0.952941 0.000000
0.431373 0.952941 0.000000
0.490196 0.952941 0.000000
0.541176 0.952941 0.000000
0.596078 0.952941 0.000000
0.639216 0.952941 0.000000
0.686275 0.952941 0.000000
0.729412 0.952941 0.000000
0.764706 0.952941 0.000000
0.807843 0.952941 0.000000
0.850980 0.952941 0.000000
0.890196 0.952941 0.000000
0.929412 0.952941 0.000000
0.976471 0.952941 0.000000
1.000000 0.952941 0.000000
0.000000 1.000000 0.000000
0.023529 1.000000 0.000000
0.047059 1.000000 0.000000
0.074510 1.000000 0.000000
0.101961 1.000000 0.000000
0.133333 1.000000 0.000000
0.164706 1.000000 0.000000
0.200000 1.000000 0.000000
0.247059 1.000000 0.000000
0.290196 1.000000 0.000000
0.349020 1.000000 0.000000
0.407843 1.000000 0.000000
0.466667 1.000000 0.000000
0.521569 1.000000 0.000000
0.576471 1.000000 0.000000
0.615686 1.000000 0.000000
0.662745 1.000000 0.000000
0.709804 1.000000 0.000000
0.749020 1.000000 0.000000
0.796078 1.000000 0.000000
0.839216 1.000000 0.000000
0.882353 1.000000 0.000000
0.925490 1.000000 0.000000
0.968627 1.000000 0.000000
1.000000 1.000000 0.000000
0.000000 0.000000 0.027451
0.019608 0.000000 0.027451
0.047059 0.000000 0.027451
0.070588 0.000000 0.027451
0.098039 0.000000 0.027451
0.125490 0.000000 0.027451
0.156863 0.000000 0.027451
0.196078 0.000000 0.027451
0.239216 0.000000 0.027451
0.286275 0.000000 0.027451
0.341176 0.000000 0.027451
0.407843 0.000000 0.027451
0.466667 0.000000 0.027451
0.525490 0.000000 0.027451
0.576471 0.000000 0.027451
0.623529 0.000000 0.027451
0.674510 0.000000 0.027451
0.717647 0.000000 0.031373
0.756863 0.000000 0.031373
0.803922 0.000000 0.031373
0.847059 0.000000 0.027451
0.890196 0.000000 0.027451
0.933333 0.000000 0.027451
0.972549 0.000000 0.027451
1.000000 0.000000 0.027451
0.000000 0.019608 0.027451
0.023529 0.019608 0.027451
0.047059 0.019608 0.027451
0.074510 0.019608 0.027451
0.109804 0.019608 0.027451
0.137255 0.019608 0.027451
0.172549 0.019608 0.027451
0.211765 0.019608 0.027451
0.258824 0.019608 0.027451
0.305882 0.019608 0.027451
0.368627 0.019608 0.027451
0.435294 0.019608 0.027451
0.486275 0.019608 0.027451
0.545098 0.019608 0.027451
0.603922 0.019608 0.027451
0.643137 0.019608 0.027451
0.690196 0.019608 0.027451
0.733333 0.019608 0.027451
0.772549 0.019608 0.027451
0.815686 0.019608 0.027451
0.854902 0.019608 0.027451
0.894118 0.019608 0.027451
0.937255 0.019608 0.027451
0.972549 0.019608 0.027451
1.000000 0.019608 0.027451
0.000000 0.047059 0.027451
0.027451 0.047059 0.027451
0.054902 0.047059 0.031373
0.078431 0.047059 0.031373
0.113725 0.047059 0.031373
0.145098 0.047059 0.031373
0.176471 0.047059 0.031373
0.219608 0.047059 0.031373
0.266667 0.047059 0.031373
0.317647 0.047059 0.031373
0.376471 0.047059 0.031373
0.443137 0.047059 0.031373
0.498039 0.047059 0.031373
0.556863 0.047059 0.031373
0.607843 0.047059 0.031373
0.654902 0.047059 0.031373
0.698039 0.047059 0.031373
0.741176 0.047059 0.031373
0.772549 0.047059 0.031373
0.819608 0.047059 0.031373
0.858824 0.047059 0.031373
0.898039 0.047059 0.031373
0.937255 0.047059 0.031373
0.972549 0.047059 0.031373
1.000000 0.047059 0.027451
0.000000 0.070588 0.027451
0.027451 0.070588 0.027451
0.050980 0.070588 0.027451
0.078431 0.070588 0.027451
0.109804 0.070588 0.027451
0.141176 0.070588 0.027451
0.176471 0.070588 0.027451
0.219608 0.070588 0.027451
0.262745 0.070588 0.027451
0.309804 0.070588 0.027451
0.368627 0.070588 0.027451
0.435294 0.070588 0.027451
0.490196 0.070588 0.027451
0.549020 0.066667 0.027451
0.600000 0.066667 0.027451
0.643137 0.066667 0.027451
0.686275 0.066667 0.027451
0.729412 0.066667 0.027451
0.768627 0.066667 0.027451
0.811765 0.066667 0.027451
0.850980 0.066667 0.027451
0.890196 0.066667 0.027451
0.929412 0.066667 0.027451
0.976471 0.066667 0.027451
1.000000 0.066667 0.027451
0.000000 0.086275 0.027451
0.023529 0.086275 0.027451
0.047059 0.086275 0.027451
0.074510 0.086275 0.027451
0.101961 0.086275 0.027451
0.137255 0.086275 0.027451
0.168627 0.082353 0.031373
0.203922 0.082353 0.031373
0.247059 0.082353 0.031373
0.290196 0.082353 0.027451
0.349020 0.082353 0.027451
0.411765 0.082353 0.027451
0.466667 0.082353 0.027451
0.525490 0.082353 0.027451
0.576471 0.082353 0.027451
0.619608 0.082353 0.027451
0.666667 0.082353 0.027451
0.705882 0.082353 0.027451
0.749020 0.082353 0.027451
0.796078 0.082353 0.027451
0.839216 0.078431 0.027451
0.882353 0.078431 0.027451
0.925490 0.078431 0.027451
0.968627 0.078431 0.027451
1.000000 0.078431 0.027451
0.000000 0.105882 0.027451
0.019608 0.105882 0.027451
0.047059 0.105882 0.027451
0.070588 0.105882 0.027451
0.098039 0.105882 0.027451
0.129412 0.109804 0.027451
0.156863 0.109804 0.027451
0.200000 0.105882 0.027451
0.239216 0.105882 0.027451
0.286275 0.105882 0.027451
0.345098 0.109804 0.027451
0.407843 0.109804 0.027451
0.466667 0.109804 0.027451
0.521569 0.109804 0.027451
0.580392 0.109804 0.027451
0.623529 0.113725 0.031373
0.670588 0.113725 0.031373
0.721569 0.113725 0.031373
0.756863 0.113725 0.031373
0.807843 0.113725 0.027451
0.847059 0.113725 0.027451
0.890196 0.113725 0.027451
0.933333 0.113725 0.027451
0.972549 0.113725 0.027451
1.000000 0.113725 0.027451
0.000000 0.141176 0.027451
0.023529 0.141176 0.027451
0.050980 0.141176 0.027451
0.074510 0.141176 0.027451
0.109804 0.141176 0.027451
0.141176 0.141176 0.027451
0.172549 0.145098 0.027451
0.211765 0.145098 0.027451
0.258824 0.145098 0.027451
0.309804 0.145098 0.027451
0.368627 0.145098 0.027451
0.435294 0.145098 0.027451
0.494118 0.145098 0.027451
0.552941 0.149020 0.027451
0.603922 0.149020 0.027451
0.643137 0.149020 0.027451
0.690196 0.149020 0.027451
0.737255 0.149020 0.027451
0.772549 0.145098 0.027451
0.815686 0.145098 0.027451
0.854902 0.145098 0.027451
0.898039 0.145098 0.027451
0.937255 0.145098 0.027451
0.972549 0.149020 0.031373
1.000000 0.149020 0.031373
0.000000 0.180392 0.031373
0.027451 0.180392 0.031373
0.054902 0.180392 0.031373
0.082353 0.180392 0.031373
0.113725 0.180392 0.031373
0.145098 0.180392 0.031373
0.180392 0.180392 0.031373
0.223529 0.184314 0.031373
0.266667 0.184314 0.031373
0.317647 0.184314 0.031373
0.380392 0.184314 0.031373
0.443137 0.184314 0.031373
0.501961 0.184314 0.031373
0.556863 0.184314 0.031373
0.611765 0.184314 0.031373
0.654902 0.184314 0.031373
0.701961 0.184314 0.031373
0.737255 0.184314 0.031373
0.776471 0.184314 0.031373
0.819608 0.180392 0.031373
0.858824 0.180392 0.031373
0.898039 0.180392 0.031373
0.933333 0.180392 0.031373
0.972549 0.180392 0.031373
1.000000 0.180392 0.031373
0.000000 0.219608 0.031373
0.027451 0.219608 0.031373
0.054902 0.219608 0.031373
0.078431 0.219608 0.027451
0.113725 0.219608 0.027451
0.145098 0.215686 0.027451
0.176471 0.215686 0.027451
0.215686 0.215686 0.027451
0.262745 0.215686 0.027451
0.313725 0.215686 0.027451
0.368627 0.219608 0.027451
0.439216 0.215686 0.027451
0.490196 0.215686 0.027451
0.549020 0.215686 0.027451
0.600000 0.215686 0.027451
0.643137 0.215686 0.027451
0.690196 0.211765 0.027451
0.729412 0.211765 0.027451
0.768627 0.211765 0.027451
0.811765 0.211765 0.027451
0.850980 0.211765 0.027451
0.890196 0.211765 0.027451
0.929412 0.211765 0.027451
0.976471 0.211765 0.027451
1.000000 0.207843 0.027451
0.000000 0.243137 0.027451
0.023529 0.243137 0.027451
0.047059 0.243137 0.027451
0.074510 0.243137 0.027451
0.105882 0.243137 0.027451
0.137255 0.243137 0.027451
0.168627 0.239216 0.027451
0.203922 0.239216 0.031373
0.250980 0.239216 0.031373
0.294118 0.235294 0.031373
0.352941 0.239216 0.031373
0.411765 0.239216 0.027451
0.466667 0.235294 0.027451
0.525490 0.235294 0.027451
0.576471 0.235294 0.027451
0.619608 0.235294 0.027451
0.662745 0.235294 0.027451
0.709804 0.231373 0.027451
0.749020 0.231373 0.027451
0.796078 0.227451 0.027451
0.839216 0.227451 0.027451
0.882353 0.231373 0.027451
0.925490 0.227451 0.027451
0.968627 0.227451 0.027451
1.000000 0.223529 0.027451
0.000000 0.270588 0.027451
0.019608 0.274510 0.027451
0.047059 0.274510 0.027451
0.066667 0.274510 0.027451
0.098039 0.278431 0.027451
0.129412 0.278431 0.027451
0.160784 0.278431 0.027451
