luts/PictureFX Kodak Aerochrome V1.0.cube
#Generated by lutCreator.js
#Coded by SirSerch
#https://github.com/SirSerch/LutCreatorJs
TITLE lutCreatorJs_25
LUT_3D_SIZE 5
0.000000 0.000000 0.000000
0.207843 0.168627 0.000000
0.427451 0.352941 0.000000
0.643137 0.541176 0.000000
0.862745 0.725490 0.000000
0.317647 0.000000 0.184314
0.349020 0.000000 0.019608
0.486275 0.286275 0.000000
0.682353 0.501961 0.000000
0.890196 0.698039 0.000000
0.623529 0.000000 0.384314
0.639216 0.000000 0.333333
0.678431 0.000000 0.082353
0.792157 0.341176 0.000000
0.968627 0.607843 0.000000
0.929412 0.000000 0.584314
0.937255 0.000000 0.552941
0.964706 0.000000 0.454902
1.000000 0.000000 0.145098
1.000000 0.352941 0.000000
1.000000 0.000000 0.780392
1.000000 0.000000 0.760784
1.000000 0.000000 0.694118
1.000000 0.000000 0.560784
1.000000 0.000000 0.207843
0.000000 0.231373 0.231373
0.000000 0.231373 0.152941
0.388235 0.364706 0.000000
0.643137 0.533333 0.000000
0.858824 0.721569 0.000000
0.098039 0.074510 0.250980
0.278431 0.192157 0.250980
0.466667 0.309804 0.007843
0.678431 0.494118 0.000000
0.886275 0.694118 0.000000
0.592157 0.011765 0.458824
0.611765 0.000000 0.411765
0.670588 0.000000 0.196078
0.788235 0.329412 0.000000
0.968627 0.603922 0.000000
0.909804 0.000000 0.627451
0.921569 0.000000 0.600000
0.956863 0.000000 0.498039
1.000000 0.000000 0.149020
1.000000 0.341176 0.000000
1.000000 0.000000 0.811765
1.000000 0.000000 0.792157
1.000000 0.000000 0.725490
1.000000 0.000000 0.576471
1.000000 0.000000 0.223529
0.000000 0.466667 0.466667
0.000000 0.466667 0.454902
0.000000 0.466667 0.325490
0.407843 0.564706 0.066667
0.815686 0.745098 0.000000
0.000000 0.400000 0.474510
0.000000 0.419608 0.462745
0.000000 0.458824 0.372549
0.533333 0.568627 0.235294
0.850980 0.729412 0.000000
0.227451 0.180392 0.505882
0.333333 0.243137 0.505882
0.552941 0.396078 0.501961
0.717647 0.470588 0.301961
0.937255 0.639216 0.000000
0.847059 0.172549 0.749020
0.866667 0.243137 0.737255
0.898039 0.243137 0.650980
0.968627 0.043137 0.439216
1.000000 0.407843 0.149020
1.000000 0.000000 0.905882
1.000000 0.000000 0.890196
1.000000 0.000000 0.827451
1.000000 0.000000 0.698039
1.000000 0.000000 0.400000
0.000000 0.701961 0.701961
0.000000 0.694118 0.698039
0.000000 0.729412 0.674510
0.000000 0.701961 0.498039
0.262745 0.768627 0.133333
0.000000 0.662745 0.705882
0.000000 0.654902 0.701961
0.000000 0.701961 0.678431
0.000000 0.698039 0.525490
0.431373 0.772549 0.262745
0.000000 0.541176 0.721569
0.000000 0.552941 0.717647
0.000000 0.603922 0.694118
0.286275 0.678431 0.615686
0.741176 0.776471 0.482353
0.352941 0.286275 0.756863
0.423529 0.325490 0.760784
0.600000 0.431373 0.764706
0.827451 0.600000 0.752941
0.968627 0.627451 0.537255
1.000000 0.282353 1.000000
1.000000 0.321569 1.000000
1.000000 0.423529 1.000000
1.000000 0.462745 0.898039
1.000000 0.356863 0.686275
0.000000 0.937255 0.937255
0.000000 0.933333 0.933333
0.000000 0.933333 0.921569
0.000000 0.972549 0.874510
0.000000 0.937255 0.670588
0.000000 0.913725 0.941176
0.000000 0.905882 0.937255
0.000000 0.917647 0.925490
0.000000 0.968627 0.890196
0.000000 0.933333 0.690196
0.000000 0.823529 0.952941
0.000000 0.823529 0.949020
0.000000 0.854902 0.933333
0.000000 0.917647 0.905882
0.000000 0.921569 0.749020
0.000000 0.662745 0.972549
0.000000 0.674510 0.968627
0.000000 0.709804 0.952941
0.000000 0.780392 0.925490
0.615686 0.898039 0.870588
0.482353 0.396078 1.000000
0.533333 0.423529 1.000000
0.670588 0.501961 1.000000
0.874510 0.627451 1.000000
1.000000 0.803922 1.000000
