luts/PictureFX Faux Infrared 2024 mod.cube
#Generated with IWLTBAP LUT Generator
#Website: http://luts.iwltbap.com
TITLE "PictureFX-Faux-Infrared-2024-mod"
#LUT size
LUT_3D_SIZE 9
#LUT data points
0.000000 0.000000 0.000000
0.250980 0.196078 0.094118
0.470588 0.372549 0.196078
0.686275 0.552941 0.301961
0.905882 0.729412 0.407843
1.000000 0.905882 0.513725
1.000000 0.933333 0.666667
1.000000 0.960784 0.811765
1.000000 0.980392 0.901961
0.180392 0.000000 0.101961
0.356863 0.000000 0.168627
0.529412 0.286275 0.243137
0.725490 0.501961 0.333333
0.933333 0.694118 0.431373
1.000000 0.882353 0.529412
1.000000 0.921569 0.678431
1.000000 0.952941 0.819608
1.000000 0.976471 0.909804
0.345098 0.000000 0.211765
0.454902 0.000000 0.250980
0.643137 0.000000 0.329412
0.811765 0.333333 0.400000
0.996078 0.600000 0.478431
1.000000 0.807843 0.572549
1.000000 0.886275 0.701961
1.000000 0.941176 0.835294
1.000000 0.976471 0.921569
0.509804 0.000000 0.321569
0.584314 0.000000 0.345098
0.733333 0.000000 0.403922
0.933333 0.000000 0.490196
1.000000 0.341176 0.556863
1.000000 0.666667 0.635294
1.000000 0.831373 0.745098
1.000000 0.925490 0.862745
1.000000 0.972549 0.945098
0.674510 0.000000 0.431373
0.729412 0.000000 0.450980
0.847059 0.000000 0.494118
1.000000 0.000000 0.560784
1.000000 0.000000 0.647059
1.000000 0.380392 0.686275
1.000000 0.772549 0.796078
1.000000 0.917647 0.901961
1.000000 0.984314 0.976471
0.839216 0.000000 0.541176
0.878431 0.000000 0.552941
0.976471 0.000000 0.588235
1.000000 0.000000 0.647059
1.000000 0.000000 0.717647
1.000000 0.000000 0.705882
1.000000 0.498039 0.749020
1.000000 0.933333 0.945098
1.000000 1.000000 1.000000
1.000000 0.000000 0.650980
1.000000 0.000000 0.662745
1.000000 0.000000 0.690196
1.000000 0.000000 0.737255
1.000000 0.000000 0.752941
1.000000 0.000000 0.725490
1.000000 0.000000 0.705882
1.000000 0.588235 0.796078
1.000000 0.909804 0.937255
1.000000 0.000000 0.760784
1.000000 0.000000 0.768627
1.000000 0.000000 0.792157
1.000000 0.000000 0.800000
1.000000 0.000000 0.768627
1.000000 0.000000 0.745098
1.000000 0.000000 0.721569
1.000000 0.000000 0.705882
1.000000 0.380392 0.768627
1.000000 0.000000 0.854902
1.000000 0.000000 0.847059
1.000000 0.000000 0.831373
1.000000 0.000000 0.811765
1.000000 0.000000 0.784314
1.000000 0.000000 0.760784
1.000000 0.000000 0.737255
1.000000 0.000000 0.721569
1.000000 0.000000 0.709804
0.000000 0.160784 0.133333
0.000000 0.278431 0.172549
0.305882 0.419608 0.247059
0.600000 0.580392 0.333333
0.847059 0.752941 0.431373
1.000000 0.925490 0.529412
1.000000 0.952941 0.678431
1.000000 0.968627 0.819608
1.000000 0.984314 0.913725
0.000000 0.000000 0.188235
0.000000 0.133333 0.223529
0.396078 0.349020 0.282353
0.643137 0.537255 0.360784
0.874510 0.717647 0.450980
1.000000 0.898039 0.545098
1.000000 0.937255 0.686275
1.000000 0.964706 0.827451
1.000000 0.984314 0.917647
0.007843 0.000000 0.262745
0.305882 0.000000 0.294118
0.556863 0.000000 0.360784
0.745098 0.388235 0.419608
0.945098 0.627451 0.498039
1.000000 0.831373 0.584314
1.000000 0.901961 0.713725
1.000000 0.952941 0.843137
1.000000 0.980392 0.933333
0.388235 0.000000 0.352941
0.486275 0.000000 0.376471
0.666667 0.000000 0.431373
0.882353 0.000000 0.509804
1.000000 0.396078 0.572549
1.000000 0.690196 0.647059
1.000000 0.847059 0.752941
1.000000 0.933333 0.874510
1.000000 0.980392 0.952941
0.596078 0.000000 0.454902
0.658824 0.000000 0.470588
0.792157 0.000000 0.513725
0.976471 0.000000 0.580392
1.000000 0.000000 0.662745
1.000000 0.415686 0.701961
1.000000 0.784314 0.803922
1.000000 0.925490 0.909804
1.000000 0.992157 0.984314
0.780392 0.000000 0.560784
0.827451 0.000000 0.572549
0.929412 0.000000 0.603922
1.000000 0.000000 0.658824
1.000000 0.000000 0.733333
1.000000 0.000000 0.729412
1.000000 0.521569 0.760784
1.000000 0.941176 0.952941
1.000000 1.000000 1.000000
0.960784 0.000000 0.666667
0.996078 0.000000 0.674510
1.000000 0.000000 0.701961
1.000000 0.000000 0.749020
1.000000 0.000000 0.776471
1.000000 0.000000 0.745098
1.000000 0.000000 0.721569
1.000000 0.607843 0.807843
1.000000 0.917647 0.945098
1.000000 0.000000 0.772549
1.000000 0.000000 0.780392
1.000000 0.000000 0.803922
1.000000 0.000000 0.823529
1.000000 0.000000 0.792157
1.000000 0.000000 0.760784
1.000000 0.000000 0.737255
1.000000 0.000000 0.717647
1.000000 0.415686 0.780392
1.000000 0.000000 0.878431
1.000000 0.000000 0.874510
1.000000 0.000000 0.854902
1.000000 0.000000 0.831373
1.000000 0.000000 0.800000
1.000000 0.000000 0.772549
1.000000 0.000000 0.749020
1.000000 0.000000 0.729412
1.000000 0.000000 0.717647
0.000000 0.305882 0.262745
0.000000 0.376471 0.282353
0.000000 0.509804 0.333333
0.231373 0.647059 0.400000
0.674510 0.800000 0.482353
0.960784 0.960784 0.568627
1.000000 1.000000 0.701961
1.000000 0.988235 0.843137
1.000000 0.996078 0.933333
0.000000 0.196078 0.298039
0.000000 0.298039 0.317647
0.000000 0.458824 0.360784
0.345098 0.607843 0.423529
0.713725 0.772549 0.498039
0.988235 0.937255 0.584314
1.000000 0.984314 0.713725
1.000000 0.984314 0.850980
1.000000 0.992157 0.941176
0.000000 0.007843 0.352941
0.000000 0.007843 0.376471
0.000000 0.262745 0.419608
0.525490 0.490196 0.470588
0.800000 0.686275 0.541176
1.000000 0.878431 0.619608
1.000000 0.945098 0.737255
1.000000 0.972549 0.866667
1.000000 0.988235 0.952941
0.000000 0.011765 0.423529
0.000000 0.003922 0.443137
0.435294 0.000000 0.486275
0.725490 0.000000 0.549020
0.933333 0.494118 0.607843
1.000000 0.749020 0.674510
1.000000 0.882353 0.776471
1.000000 0.952941 0.894118
1.000000 0.992157 0.976471
0.301961 0.000000 0.509804
0.423529 0.000000 0.521569
0.623529 0.000000 0.560784
0.854902 0.000000 0.619608
1.000000 0.000000 0.690196
1.000000 0.482353 0.745098
1.000000 0.819608 0.827451
1.000000 0.949020 0.929412
1.000000 1.000000 1.000000
0.611765 0.000000 0.600000
0.670588 0.000000 0.611765
0.800000 0.000000 0.643137
0.984314 0.000000 0.694118
1.000000 0.000000 0.760784
1.000000 0.000000 0.780392
1.000000 0.572549 0.792157
1.000000 0.968627 0.976471
1.000000 1.000000 1.000000
0.835294 0.000000 0.698039
0.878431 0.000000 0.709804
0.976471 0.000000 0.733333
1.000000 0.000000 0.776471
1.000000 0.000000 0.835294
1.000000 0.000000 0.792157
1.000000 0.000000 0.756863
1.000000 0.650980 0.831373
1.000000 0.945098 0.964706
1.000000 0.000000 0.800000
1.000000 0.000000 0.807843
1.000000 0.000000 0.831373
1.000000 0.000000 0.866667
1.000000 0.000000 0.843137
1.000000 0.000000 0.800000
1.000000 0.000000 0.768627
1.000000 0.000000 0.741176
1.000000 0.482353 0.803922
1.000000 0.000000 0.905882
1.000000 0.000000 0.909804
1.000000 0.000000 0.917647
1.000000 0.000000 0.882353
1.000000 0.000000 0.847059
1.000000 0.000000 0.807843
1.000000 0.000000 0.776471
1.000000 0.000000 0.752941
1.000000 0.000000 0.737255
0.000000 0.450980 0.392157
0.000000 0.498039 0.403922
0.000000 0.603922 0.439216
0.000000 0.745098 0.490196
0.000000 0.878431 0.556863
0.686275 1.000000 0.631373
0.929412 1.000000 0.756863
1.000000 1.000000 0.886275
1.000000 1.000000 0.972549
0.000000 0.392157 0.411765
0.000000 0.447059 0.427451
0.000000 0.560784 0.458824
0.000000 0.713725 0.509804
0.000000 0.854902 0.572549
0.721569 1.000000 0.643137
0.949020 1.000000 0.764706
1.000000 1.000000 0.890196
1.000000 1.000000 0.976471
0.000000 0.121569 0.466667
0.000000 0.258824 0.478431
0.000000 0.439216 0.505882
0.000000 0.623529 0.549020
0.376471 0.780392 0.607843
0.811765 0.949020 0.674510
1.000000 1.000000 0.780392
1.000000 1.000000 0.905882
1.000000 1.000000 0.988235
0.000000 0.015686 0.521569
0.000000 0.019608 0.533333
0.000000 0.019608 0.572549
0.000000 0.392157 0.615686
0.639216 0.627451 0.666667
0.941176 0.835294 0.725490
1.000000 0.956863 0.815686
1.000000 0.984314 0.933333
1.000000 1.000000 1.000000
0.000000 0.023529 0.588235
0.000000 0.023529 0.600000
0.000000 0.003922 0.631373
0.564706 0.000000 0.682353
0.874510 0.149020 0.741176
1.000000 0.607843 0.796078
1.000000 0.870588 0.866667
1.000000 0.980392 0.964706
1.000000 1.000000 1.000000
0.000000 0.011765 0.666667
0.000000 0.000000 0.678431
0.462745 0.000000 0.705882
0.756863 0.000000 0.749020
1.000000 0.000000 0.811765
1.000000 0.000000 0.878431
1.000000 0.654902 0.847059
1.000000 1.000000 1.000000
1.000000 1.000000 1.000000
0.529412 0.000000 0.756863
0.600000 0.000000 0.764706
0.745098 0.000000 0.788235
0.941176 0.000000 0.827451
1.000000 0.000000 0.882353
1.000000 0.000000 0.886275
1.000000 0.000000 0.823529
1.000000 0.721569 0.870588
1.000000 0.988235 0.996078
0.831373 0.000000 0.847059
0.874510 0.000000 0.854902
0.972549 0.000000 0.874510
1.000000 0.000000 0.909804
1.000000 0.000000 0.952941
1.000000 0.000000 0.882353
1.000000 0.000000 0.827451
1.000000 0.000000 0.788235
1.000000 0.580392 0.843137
1.000000 0.000000 0.945098
1.000000 0.000000 0.952941
1.000000 0.000000 0.968627
1.000000 0.000000 0.996078
1.000000 0.000000 0.933333
1.000000 0.000000 0.878431
1.000000 0.000000 0.831373
1.000000 0.000000 0.792157
1.000000 0.000000 0.772549
0.000000 0.600000 0.521569
0.000000 0.635294 0.529412
0.000000 0.713725 0.552941
0.000000 0.831373 0.596078
0.000000 0.976471 0.650980
0.000000 1.000000 0.701961
0.780392 1.000000 0.831373
0.964706 1.000000 0.949020
1.000000 1.000000 1.000000
0.000000 0.556863 0.537255
0.000000 0.596078 0.545098
0.000000 0.682353 0.568627
0.000000 0.803922 0.607843
0.000000 0.956863 0.662745
0.000000 1.000000 0.717647
0.796078 1.000000 0.839216
0.972549 1.000000 0.952941
1.000000 1.000000 1.000000
0.000000 0.435294 0.576471
0.000000 0.482353 0.584314
0.000000 0.588235 0.603922
0.000000 0.733333 0.643137
0.000000 0.898039 0.694118
0.000000 1.000000 0.749020
0.831373 1.000000 0.850980
0.984314 1.000000 0.964706
1.000000 1.000000 1.000000
0.000000 0.027451 0.631373
0.000000 0.027451 0.643137
0.000000 0.352941 0.662745
0.000000 0.576471 0.694118
0.000000 0.776471 0.741176
0.407843 0.945098 0.796078
0.898039 1.000000 0.878431
1.000000 1.000000 0.988235
1.000000 1.000000 1.000000
0.000000 0.031373 0.686275
0.000000 0.031373 0.698039
0.000000 0.035294 0.725490
0.000000 0.043137 0.768627
0.098039 0.521569 0.807843
0.745098 0.764706 0.858824
1.000000 0.964706 0.917647
1.000000 1.000000 1.000000
1.000000 1.000000 1.000000
0.000000 0.039216 0.752941
0.000000 0.039216 0.764706
0.000000 0.043137 0.788235
0.000000 0.000000 0.827451
0.690196 0.000000 0.882353
1.000000 0.325490 0.933333
1.000000 0.756863 0.933333
1.000000 1.000000 1.000000
1.000000 1.000000 1.000000
0.000000 0.050980 0.831373
0.000000 0.050980 0.839216
0.000000 0.000000 0.858824
0.521569 0.000000 0.894118
0.890196 0.000000 0.945098
1.000000 0.000000 1.000000
1.000000 0.000000 0.937255
1.000000 0.811765 0.925490
1.000000 1.000000 1.000000
0.172549 0.000000 0.913725
0.349020 0.000000 0.921569
0.580392 0.000000 0.937255
0.827451 0.000000 0.968627
1.000000 0.000000 1.000000
1.000000 0.000000 1.000000
1.000000 0.000000 0.933333
1.000000 0.000000 0.870588
1.000000 0.694118 0.898039
0.752941 0.000000 1.000000
0.800000 0.000000 1.000000
0.905882 0.000000 1.000000
1.000000 0.000000 1.000000
1.000000 0.000000 1.000000
1.000000 0.000000 1.000000
1.000000 0.000000 0.921569
1.000000 0.000000 0.862745
1.000000 0.000000 0.831373
0.000000 0.745098 0.647059
0.000000 0.772549 0.654902
0.000000 0.835294 0.674510
0.000000 0.933333 0.705882
0.000000 1.000000 0.752941
0.000000 1.000000 0.733333
0.000000 1.000000 0.772549
1.000000 1.000000 1.000000
1.000000 1.000000 1.000000
0.000000 0.717647 0.662745
0.000000 0.745098 0.666667
0.000000 0.807843 0.686275
0.000000 0.913725 0.717647
0.000000 1.000000 0.764706
0.000000 1.000000 0.752941
0.000000 1.000000 0.784314
1.000000 1.000000 1.000000
1.000000 1.000000 1.000000
0.000000 0.631373 0.690196
0.000000 0.662745 0.698039
0.000000 0.737255 0.713725
0.000000 0.850980 0.745098
0.000000 0.992157 0.788235
0.000000 1.000000 0.800000
0.062745 1.000000 0.811765
1.000000 1.000000 1.000000
1.000000 1.000000 1.000000
0.000000 0.427451 0.741176
0.000000 0.478431 0.749020
0.000000 0.584314 0.764706
0.000000 0.729412 0.792157
0.000000 0.894118 0.827451
0.000000 1.000000 0.878431
0.380392 1.000000 0.862745
1.000000 1.000000 1.000000
1.000000 1.000000 1.000000
0.000000 0.047059 0.796078
0.000000 0.047059 0.807843
0.000000 0.047059 0.827451
0.000000 0.466667 0.854902
0.000000 0.717647 0.890196
0.000000 0.925490 0.933333
0.568627 1.000000 0.949020
1.000000 1.000000 1.000000
1.000000 1.000000 1.000000
0.000000 0.050980 0.854902
0.000000 0.050980 0.862745
0.000000 0.054902 0.882353
0.000000 0.058824 0.917647
0.000000 0.254902 0.960784
0.176471 0.650980 1.000000
0.854902 0.898039 1.000000
1.000000 1.000000 1.000000
1.000000 1.000000 1.000000
0.000000 0.058824 0.921569
0.000000 0.058824 0.925490
0.000000 0.062745 0.945098
0.000000 0.066667 0.976471
0.000000 0.000000 1.000000
0.807843 0.000000 1.000000
1.000000 0.505882 1.000000
1.000000 0.917647 0.992157
1.000000 1.000000 1.000000
0.000000 0.066667 0.992157
0.000000 0.070588 1.000000
0.000000 0.070588 1.000000
0.000000 0.000000 1.000000
0.588235 0.000000 1.000000
0.956863 0.000000 1.000000
1.000000 0.000000 1.000000
1.000000 0.407843 0.980392
1.000000 0.819608 0.960784
0.000000 0.078431 1.000000
0.000000 0.039216 1.000000
0.000000 0.000000 1.000000
0.541176 0.000000 1.000000
0.843137 0.000000 1.000000
1.000000 0.000000 1.000000
1.000000 0.000000 1.000000
1.000000 0.000000 0.972549
1.000000 0.000000 0.921569
0.000000 0.894118 0.776471
0.000000 0.913725 0.784314
0.000000 0.964706 0.800000
0.000000 1.000000 0.823529
0.000000 1.000000 0.815686
0.000000 1.000000 0.768627
0.000000 1.000000 0.733333
0.274510 1.000000 0.823529
0.976471 1.000000 0.988235
0.000000 0.870588 0.788235
0.000000 0.890196 0.792157
0.000000 0.945098 0.807843
0.000000 1.000000 0.835294
0.000000 1.000000 0.835294
0.000000 1.000000 0.784314
0.000000 1.000000 0.745098
0.329412 1.000000 0.831373
0.988235 1.000000 0.996078
0.000000 0.803922 0.811765
0.000000 0.827451 0.815686
0.000000 0.886275 0.831373
0.000000 0.980392 0.854902
0.000000 1.000000 0.890196
0.000000 1.000000 0.827451
0.000000 1.000000 0.776471
0.431373 1.000000 0.854902
1.000000 1.000000 1.000000
0.000000 0.670588 0.850980
0.000000 0.701961 0.858824
0.000000 0.772549 0.870588
0.000000 0.878431 0.894118
0.000000 1.000000 0.925490
0.000000 1.000000 0.909804
0.000000 1.000000 0.835294
0.564706 1.000000 0.890196
1.000000 1.000000 1.000000
0.000000 0.352941 0.909804
0.000000 0.415686 0.913725
0.000000 0.537255 0.925490
0.000000 0.694118 0.949020
0.000000 0.870588 0.980392
0.000000 1.000000 1.000000
0.000000 1.000000 0.945098
0.709804 1.000000 0.937255
1.000000 1.000000 1.000000
0.000000 0.066667 0.964706
0.000000 0.066667 0.968627
0.000000 0.066667 0.988235
0.000000 0.160784 1.000000
0.000000 0.592157 1.000000
0.000000 0.819608 1.000000
0.000000 0.968627 1.000000
0.862745 1.000000 0.996078
1.000000 1.000000 1.000000
0.000000 0.070588 1.000000
0.000000 0.070588 1.000000
0.000000 0.074510 1.000000
0.000000 0.078431 1.000000
0.000000 0.078431 1.000000
0.000000 0.400000 1.000000
0.482353 0.745098 1.000000
1.000000 1.000000 1.000000
1.000000 1.000000 1.000000
0.000000 0.078431 1.000000
0.000000 0.078431 1.000000
0.000000 0.078431 1.000000
0.000000 0.078431 1.000000
0.000000 0.078431 1.000000
0.000000 0.000000 1.000000
0.784314 0.000000 1.000000
1.000000 0.694118 1.000000
1.000000 0.952941 1.000000
0.000000 0.078431 1.000000
0.000000 0.078431 1.000000
0.000000 0.078431 1.000000
0.000000 0.078431 1.000000
0.000000 0.000000 1.000000
0.568627 0.000000 1.000000
0.917647 0.000000 1.000000
1.000000 0.000000 1.000000
1.000000 0.298039 1.000000
0.000000 1.000000 0.905882
0.000000 1.000000 0.909804
0.000000 1.000000 0.921569
0.000000 1.000000 0.886275
0.000000 1.000000 0.843137
0.000000 1.000000 0.800000
0.000000 1.000000 0.764706
0.000000 1.000000 0.733333
0.000000 1.000000 0.792157
0.000000 1.000000 0.913725
0.000000 1.000000 0.917647
0.000000 1.000000 0.933333
0.000000 1.000000 0.905882
0.000000 1.000000 0.858824
0.000000 1.000000 0.815686
0.000000 1.000000 0.776471
0.000000 1.000000 0.741176
0.000000 1.000000 0.800000
0.000000 0.968627 0.933333
0.000000 0.988235 0.937255
0.000000 1.000000 0.949020
0.000000 1.000000 0.956863
0.000000 1.000000 0.901961
0.000000 1.000000 0.850980
0.000000 1.000000 0.803922
0.000000 1.000000 0.764706
0.000000 1.000000 0.819608
0.000000 0.870588 0.968627
0.000000 0.890196 0.972549
0.000000 0.941176 0.984314
0.000000 1.000000 1.000000
0.000000 1.000000 0.992157
0.000000 1.000000 0.917647
0.000000 1.000000 0.854902
0.000000 1.000000 0.803922
0.000000 1.000000 0.858824
0.000000 0.682353 1.000000
0.000000 0.709804 1.000000
0.000000 0.780392 1.000000
0.000000 0.870588 1.000000
0.000000 0.968627 1.000000
0.000000 1.000000 1.000000
0.000000 1.000000 0.945098
0.000000 1.000000 0.874510
0.368627 1.000000 0.905882
0.000000 0.078431 1.000000
0.000000 0.223529 1.000000
0.000000 0.407843 1.000000
0.000000 0.584314 1.000000
0.000000 0.745098 1.000000
0.000000 0.890196 1.000000
0.000000 1.000000 1.000000
0.000000 1.000000 0.984314
0.639216 1.000000 0.964706
0.000000 0.078431 1.000000
0.000000 0.078431 1.000000
0.000000 0.078431 1.000000
0.000000 0.078431 1.000000
0.000000 0.278431 1.000000
0.000000 0.611765 1.000000
0.000000 0.807843 1.000000
0.000000 0.949020 1.000000
0.874510 1.000000 1.000000
0.000000 0.078431 1.000000
0.000000 0.078431 1.000000
0.000000 0.078431 1.000000
0.000000 0.078431 1.000000
0.000000 0.078431 1.000000
0.000000 0.078431 1.000000
0.000000 0.462745 1.000000
0.705882 0.835294 1.000000
1.000000 1.000000 1.000000
0.000000 0.078431 1.000000
0.000000 0.078431 1.000000
0.000000 0.078431 1.000000
0.000000 0.078431 1.000000
0.000000 0.078431 1.000000
0.000000 0.078431 1.000000
0.000000 0.000000 1.000000
0.760784 0.141176 1.000000
0.929412 0.701961 1.000000
0.000000 1.000000 0.956863
0.000000 1.000000 0.949020
0.000000 1.000000 0.929412
0.000000 1.000000 0.901961
0.000000 1.000000 0.866667
0.000000 1.000000 0.827451
0.000000 1.000000 0.792157
0.000000 1.000000 0.760784
0.000000 1.000000 0.741176
0.000000 1.000000 0.976471
0.000000 1.000000 0.968627
0.000000 1.000000 0.949020
0.000000 1.000000 0.917647
0.000000 1.000000 0.878431
0.000000 1.000000 0.839216
0.000000 1.000000 0.800000
0.000000 1.000000 0.768627
0.000000 1.000000 0.749020
0.000000 1.000000 1.000000
0.000000 1.000000 1.000000
0.000000 1.000000 0.996078
0.000000 1.000000 0.956863
0.000000 1.000000 0.913725
0.000000 1.000000 0.866667
0.000000 1.000000 0.827451
0.000000 1.000000 0.788235
0.000000 1.000000 0.764706
0.000000 0.980392 1.000000
0.000000 0.992157 1.000000
0.000000 1.000000 1.000000
0.000000 1.000000 1.000000
0.000000 1.000000 0.984314
0.000000 1.000000 0.925490
0.000000 1.000000 0.870588
0.000000 1.000000 0.823529
0.000000 1.000000 0.796078
0.000000 0.831373 1.000000
0.000000 0.847059 1.000000
0.000000 0.882353 1.000000
0.000000 0.937255 1.000000
0.000000 1.000000 1.000000
0.000000 1.000000 1.000000
0.000000 1.000000 0.949020
0.000000 1.000000 0.886275
0.000000 1.000000 0.847059
0.000000 0.580392 1.000000
0.000000 0.603922 1.000000
0.000000 0.662745 1.000000
0.000000 0.745098 1.000000
0.000000 0.839216 1.000000
0.000000 0.941176 1.000000
0.000000 1.000000 1.000000
0.000000 1.000000 0.980392
0.000000 1.000000 0.929412
0.000000 0.078431 1.000000
0.000000 0.078431 1.000000
0.000000 0.078431 1.000000
0.000000 0.380392 1.000000
0.000000 0.576471 1.000000
0.000000 0.733333 1.000000
0.000000 0.870588 1.000000
0.000000 0.984314 1.000000
0.000000 1.000000 1.000000
0.000000 0.078431 1.000000
0.000000 0.078431 1.000000
0.000000 0.078431 1.000000
0.000000 0.078431 1.000000
0.000000 0.078431 1.000000
0.000000 0.349020 1.000000
0.000000 0.623529 1.000000
0.000000 0.800000 1.000000
0.000000 0.901961 1.000000
0.000000 0.078431 1.000000
0.000000 0.078431 1.000000
0.000000 0.078431 1.000000
0.000000 0.078431 1.000000
0.000000 0.078431 1.000000
0.000000 0.078431 1.000000
0.000000 0.078431 1.000000
0.000000 0.533333 1.000000
0.658824 0.819608 1.000000
