luts/PictureFX Yellow Orange IR Mod.cube
#Generated with IWLTBAP LUT Generator
#Website: http://luts.iwltbap.com
TITLE "PictureFX Yellow Orange IR Mod"
#LUT size
LUT_3D_SIZE 25
#LUT data points
0.000000 0.000000 0.000000
0.000000 0.000000 0.000000
0.007843 0.003922 0.003922
0.011765 0.011765 0.007843
0.023529 0.019608 0.011765
0.031373 0.031373 0.015686
0.039216 0.039216 0.023529
0.047059 0.050980 0.031373
0.054902 0.062745 0.039216
0.062745 0.070588 0.047059
0.070588 0.082353 0.054902
0.078431 0.090196 0.062745
0.090196 0.101961 0.070588
0.098039 0.113725 0.078431
0.105882 0.121569 0.086275
0.117647 0.133333 0.094118
0.125490 0.141176 0.101961
0.133333 0.152941 0.113725
0.141176 0.164706 0.121569
0.152941 0.172549 0.129412
0.160784 0.184314 0.141176
0.168627 0.192157 0.149020
0.176471 0.203922 0.160784
0.184314 0.215686 0.168627
0.192157 0.223529 0.176471
0.149020 0.062745 0.035294
0.125490 0.047059 0.031373
0.078431 0.027451 0.023529
0.039216 0.035294 0.019608
0.043137 0.043137 0.023529
0.047059 0.047059 0.027451
0.050980 0.054902 0.035294
0.058824 0.062745 0.039216
0.066667 0.070588 0.047059
0.070588 0.082353 0.054902
0.078431 0.090196 0.058824
0.090196 0.098039 0.066667
0.098039 0.109804 0.074510
0.105882 0.117647 0.082353
0.113725 0.129412 0.090196
0.121569 0.137255 0.098039
0.129412 0.149020 0.105882
0.137255 0.156863 0.117647
0.145098 0.168627 0.125490
0.156863 0.176471 0.133333
0.164706 0.188235 0.141176
0.172549 0.196078 0.152941
0.180392 0.207843 0.160784
0.188235 0.215686 0.168627
0.196078 0.227451 0.180392
0.239216 0.113725 0.062745
0.227451 0.101961 0.058824
0.203922 0.082353 0.054902
0.168627 0.054902 0.050980
0.066667 0.058824 0.035294
0.062745 0.066667 0.039216
0.066667 0.070588 0.043137
0.070588 0.078431 0.050980
0.078431 0.086275 0.054902
0.086275 0.094118 0.058824
0.090196 0.101961 0.066667
0.098039 0.109804 0.074510
0.105882 0.117647 0.082353
0.113725 0.125490 0.086275
0.121569 0.137255 0.094118
0.129412 0.145098 0.101961
0.137255 0.152941 0.109804
0.145098 0.164706 0.121569
0.152941 0.172549 0.129412
0.160784 0.184314 0.137255
0.168627 0.192157 0.145098
0.176471 0.203922 0.156863
0.184314 0.211765 0.164706
0.192157 0.223529 0.172549
0.200000 0.231373 0.180392
0.329412 0.168627 0.086275
0.317647 0.160784 0.086275
0.305882 0.152941 0.082353
0.286275 0.125490 0.078431
0.250980 0.086275 0.074510
0.184314 0.082353 0.066667
0.086275 0.090196 0.054902
0.090196 0.098039 0.062745
0.094118 0.101961 0.066667
0.101961 0.109804 0.070588
0.105882 0.117647 0.078431
0.113725 0.121569 0.082353
0.117647 0.129412 0.090196
0.125490 0.137255 0.094118
0.133333 0.149020 0.101961
0.137255 0.156863 0.109804
0.145098 0.164706 0.117647
0.152941 0.172549 0.125490
0.160784 0.180392 0.133333
0.168627 0.192157 0.141176
0.176471 0.200000 0.152941
0.184314 0.207843 0.160784
0.192157 0.219608 0.168627
0.200000 0.227451 0.176471
0.207843 0.239216 0.184314
0.415686 0.223529 0.113725
0.411765 0.215686 0.109804
0.400000 0.207843 0.109804
0.388235 0.196078 0.105882
0.364706 0.168627 0.105882
0.333333 0.101961 0.098039
0.278431 0.101961 0.094118
0.172549 0.113725 0.074510
0.113725 0.121569 0.074510
0.117647 0.129412 0.082353
0.121569 0.133333 0.086275
0.129412 0.141176 0.094118
0.133333 0.145098 0.098039
0.137255 0.152941 0.105882
0.145098 0.160784 0.113725
0.152941 0.168627 0.117647
0.156863 0.176471 0.125490
0.164706 0.184314 0.133333
0.172549 0.192157 0.141176
0.176471 0.200000 0.149020
0.184314 0.211765 0.156863
0.192157 0.219608 0.164706
0.200000 0.227451 0.176471
0.207843 0.235294 0.184314
0.215686 0.247059 0.192157
0.505882 0.274510 0.137255
0.501961 0.270588 0.137255
0.494118 0.266667 0.137255
0.482353 0.258824 0.133333
0.466667 0.243137 0.133333
0.443137 0.219608 0.129412
0.411765 0.156863 0.125490
0.368627 0.125490 0.117647
0.286275 0.133333 0.105882
0.133333 0.145098 0.090196
0.141176 0.152941 0.094118
0.145098 0.156863 0.105882
0.149020 0.164706 0.109804
0.152941 0.172549 0.117647
0.160784 0.176471 0.121569
0.164706 0.184314 0.129412
0.172549 0.192157 0.137255
0.176471 0.200000 0.145098
0.184314 0.207843 0.149020
0.188235 0.215686 0.156863
0.196078 0.223529 0.164706
0.203922 0.231373 0.172549
0.211765 0.239216 0.180392
0.215686 0.247059 0.192157
0.223529 0.254902 0.200000
0.596078 0.329412 0.164706
0.592157 0.325490 0.164706
0.584314 0.321569 0.160784
0.576471 0.313725 0.160784
0.564706 0.305882 0.160784
0.545098 0.290196 0.156863
0.521569 0.262745 0.152941
0.494118 0.211765 0.149020
0.450980 0.149020 0.145098
0.388235 0.156863 0.133333
0.278431 0.164706 0.117647
0.164706 0.176471 0.109804
0.168627 0.184314 0.117647
0.172549 0.188235 0.129412
0.176471 0.196078 0.133333
0.180392 0.200000 0.141176
0.188235 0.207843 0.149020
0.192157 0.215686 0.152941
0.200000 0.223529 0.160784
0.203922 0.227451 0.168627
0.207843 0.235294 0.176471
0.215686 0.243137 0.184314
0.223529 0.250980 0.192157
0.227451 0.258824 0.200000
0.235294 0.266667 0.207843
0.686275 0.380392 0.188235
0.682353 0.380392 0.188235
0.678431 0.376471 0.188235
0.670588 0.372549 0.188235
0.658824 0.364706 0.184314
0.643137 0.352941 0.184314
0.627451 0.333333 0.180392
0.603922 0.305882 0.176471
0.572549 0.262745 0.172549
0.533333 0.188235 0.168627
0.478431 0.180392 0.160784
0.392157 0.188235 0.149020
0.235294 0.196078 0.129412
0.192157 0.207843 0.133333
0.196078 0.215686 0.149020
0.200000 0.219608 0.152941
0.203922 0.227451 0.160784
0.207843 0.231373 0.164706
0.215686 0.239216 0.172549
0.219608 0.247059 0.180392
0.223529 0.250980 0.188235
0.231373 0.258824 0.192157
0.235294 0.266667 0.200000
0.243137 0.274510 0.207843
0.247059 0.282353 0.215686
0.737255 0.435294 0.215686
0.737255 0.431373 0.215686
0.733333 0.431373 0.215686
0.729412 0.427451 0.211765
0.725490 0.419608 0.211765
0.717647 0.411765 0.211765
0.709804 0.396078 0.207843
0.694118 0.380392 0.203922
0.678431 0.352941 0.200000
0.650980 0.305882 0.196078
0.615686 0.235294 0.192157
0.568627 0.203922 0.188235
0.490196 0.211765 0.176471
0.380392 0.219608 0.160784
0.211765 0.227451 0.145098
0.219608 0.239216 0.156863
0.223529 0.247059 0.172549
0.227451 0.250980 0.180392
0.231373 0.258824 0.184314
0.235294 0.262745 0.192157
0.239216 0.270588 0.200000
0.247059 0.274510 0.203922
0.250980 0.282353 0.211765
0.258824 0.290196 0.219608
0.262745 0.298039 0.227451
0.776471 0.482353 0.243137
0.772549 0.482353 0.243137
0.772549 0.482353 0.243137
0.768627 0.478431 0.239216
0.764706 0.474510 0.239216
0.760784 0.466667 0.235294
0.752941 0.458824 0.235294
0.741176 0.443137 0.231373
0.733333 0.423529 0.227451
0.717647 0.396078 0.227451
0.701961 0.352941 0.223529
0.678431 0.266667 0.215686
0.650980 0.227451 0.211765
0.588235 0.235294 0.203922
0.494118 0.243137 0.192157
0.352941 0.250980 0.172549
0.239216 0.258824 0.168627
0.247059 0.270588 0.180392
0.247059 0.278431 0.200000
0.254902 0.282353 0.203922
0.258824 0.286275 0.211765
0.262745 0.294118 0.219608
0.266667 0.301961 0.223529
0.274510 0.305882 0.231373
0.278431 0.313725 0.239216
0.815686 0.521569 0.274510
0.811765 0.521569 0.274510
0.811765 0.521569 0.270588
0.807843 0.521569 0.270588
0.803922 0.517647 0.270588
0.800000 0.513725 0.266667
0.792157 0.509804 0.262745
0.784314 0.501961 0.262745
0.776471 0.490196 0.258824
0.764706 0.470588 0.254902
0.749020 0.443137 0.250980
0.733333 0.400000 0.247059
0.713725 0.294118 0.243137
0.690196 0.250980 0.239216
0.658824 0.258824 0.231373
0.596078 0.266667 0.219608
0.486275 0.274510 0.203922
0.262745 0.282353 0.184314
0.266667 0.290196 0.196078
0.274510 0.301961 0.203922
0.274510 0.305882 0.223529
0.282353 0.313725 0.231373
0.286275 0.317647 0.235294
0.290196 0.325490 0.243137
0.294118 0.329412 0.250980
0.854902 0.564706 0.305882
0.850980 0.560784 0.301961
0.850980 0.560784 0.301961
0.847059 0.560784 0.301961
0.843137 0.560784 0.301961
0.839216 0.556863 0.298039
0.835294 0.556863 0.294118
0.827451 0.549020 0.294118
0.819608 0.545098 0.290196
0.807843 0.533333 0.286275
0.796078 0.521569 0.278431
0.784314 0.498039 0.274510
0.768627 0.454902 0.270588
0.749020 0.372549 0.266667
0.725490 0.274510 0.262745
0.694118 0.282353 0.258824
0.658824 0.290196 0.247059
0.596078 0.298039 0.235294
0.462745 0.305882 0.219608
0.290196 0.313725 0.207843
0.294118 0.321569 0.219608
0.301961 0.333333 0.231373
0.301961 0.337255 0.250980
0.309804 0.345098 0.254902
0.313725 0.349020 0.262745
0.890196 0.603922 0.333333
0.890196 0.603922 0.333333
0.890196 0.603922 0.333333
0.886275 0.603922 0.333333
0.882353 0.600000 0.329412
0.878431 0.600000 0.329412
0.874510 0.600000 0.325490
0.870588 0.596078 0.321569
0.862745 0.592157 0.317647
0.854902 0.588235 0.313725
0.843137 0.580392 0.309804
0.831373 0.572549 0.305882
0.815686 0.552941 0.298039
0.800000 0.517647 0.290196
0.780392 0.458824 0.278431
0.756863 0.317647 0.278431
0.733333 0.305882 0.282353
0.698039 0.313725 0.278431
0.654902 0.321569 0.262745
0.588235 0.329412 0.250980
0.411765 0.337255 0.231373
0.317647 0.345098 0.235294
0.321569 0.352941 0.243137
0.329412 0.364706 0.254902
0.329412 0.368627 0.274510
0.929412 0.643137 0.364706
0.929412 0.643137 0.364706
0.929412 0.643137 0.360784
0.925490 0.643137 0.360784
0.921569 0.643137 0.360784
0.921569 0.643137 0.356863
0.913725 0.643137 0.356863
0.909804 0.643137 0.352941
0.901961 0.639216 0.349020
0.894118 0.639216 0.345098
0.886275 0.635294 0.341176
0.874510 0.631373 0.337255
0.862745 0.623529 0.329412
0.850980 0.607843 0.325490
0.835294 0.580392 0.309804
0.815686 0.529412 0.298039
0.792157 0.407843 0.286275
0.768627 0.329412 0.290196
0.737255 0.333333 0.298039
0.698039 0.341176 0.294118
0.650980 0.352941 0.278431
0.568627 0.360784 0.262745
0.337255 0.368627 0.247059
0.345098 0.376471 0.258824
0.352941 0.384314 0.270588
0.968627 0.686275 0.392157
0.968627 0.686275 0.392157
0.968627 0.686275 0.392157
0.964706 0.686275 0.392157
0.960784 0.686275 0.388235
0.960784 0.686275 0.388235
0.956863 0.686275 0.384314
0.949020 0.686275 0.384314
0.945098 0.686275 0.380392
0.937255 0.686275 0.376471
0.929412 0.682353 0.372549
0.921569 0.682353 0.368627
0.909804 0.678431 0.364706
0.898039 0.674510 0.356863
0.882353 0.662745 0.349020
0.866667 0.639216 0.333333
0.847059 0.592157 0.313725
0.827451 0.517647 0.298039
0.800000 0.376471 0.290196
0.772549 0.356863 0.298039
0.737255 0.364706 0.305882
0.694118 0.372549 0.309804
0.635294 0.380392 0.294118
0.529412 0.392157 0.278431
0.364706 0.400000 0.274510
1.000000 0.713725 0.403922
1.000000 0.713725 0.403922
1.000000 0.713725 0.403922
1.000000 0.713725 0.403922
1.000000 0.717647 0.403922
1.000000 0.717647 0.403922
0.996078 0.721569 0.403922
0.992157 0.721569 0.403922
0.984314 0.725490 0.403922
0.980392 0.729412 0.403922
0.972549 0.729412 0.403922
0.964706 0.729412 0.400000
0.952941 0.729412 0.392157
0.941176 0.729412 0.388235
0.929412 0.725490 0.380392
0.913725 0.717647 0.372549
0.898039 0.694118 0.356863
0.882353 0.654902 0.333333
0.858824 0.592157 0.313725
0.835294 0.466667 0.298039
0.807843 0.388235 0.298039
0.776471 0.388235 0.305882
0.737255 0.396078 0.317647
0.686275 0.403922 0.325490
0.615686 0.411765 0.309804
1.000000 0.737255 0.407843
1.000000 0.737255 0.407843
1.000000 0.737255 0.407843
1.000000 0.737255 0.407843
1.000000 0.741176 0.407843
1.000000 0.741176 0.407843
1.000000 0.745098 0.407843
1.000000 0.745098 0.407843
1.000000 0.749020 0.407843
1.000000 0.752941 0.407843
1.000000 0.756863 0.407843
1.000000 0.760784 0.407843
0.996078 0.764706 0.407843
0.988235 0.768627 0.407843
0.976471 0.772549 0.407843
0.964706 0.772549 0.403922
0.949020 0.768627 0.400000
0.933333 0.752941 0.384314
0.913725 0.713725 0.356863
0.894118 0.658824 0.329412
0.870588 0.556863 0.309804
0.843137 0.435294 0.298039
0.811765 0.411765 0.301961
0.776471 0.419608 0.313725
0.729412 0.427451 0.329412
1.000000 0.760784 0.407843
1.000000 0.760784 0.407843
1.000000 0.760784 0.407843
1.000000 0.760784 0.407843
1.000000 0.760784 0.407843
1.000000 0.764706 0.407843
1.000000 0.764706 0.407843
1.000000 0.768627 0.407843
1.000000 0.768627 0.407843
1.000000 0.772549 0.407843
1.000000 0.776471 0.407843
1.000000 0.780392 0.407843
1.000000 0.784314 0.407843
1.000000 0.788235 0.407843
1.000000 0.792157 0.407843
1.000000 0.796078 0.407843
0.996078 0.800000 0.407843
0.980392 0.807843 0.407843
0.964706 0.800000 0.400000
0.949020 0.772549 0.376471
0.929412 0.721569 0.345098
0.905882 0.643137 0.321569
0.878431 0.494118 0.305882
0.850980 0.435294 0.301961
0.815686 0.443137 0.313725
1.000000 0.780392 0.407843
1.000000 0.780392 0.407843
1.000000 0.780392 0.407843
1.000000 0.780392 0.407843
1.000000 0.784314 0.407843
1.000000 0.784314 0.407843
1.000000 0.784314 0.407843
1.000000 0.788235 0.407843
1.000000 0.788235 0.407843
1.000000 0.792157 0.407843
1.000000 0.796078 0.407843
1.000000 0.800000 0.407843
1.000000 0.803922 0.407843
1.000000 0.807843 0.407843
1.000000 0.811765 0.407843
1.000000 0.815686 0.407843
1.000000 0.819608 0.407843
1.000000 0.823529 0.407843
1.000000 0.827451 0.407843
1.000000 0.823529 0.400000
0.980392 0.819608 0.396078
0.960784 0.780392 0.368627
0.937255 0.709804 0.337255
0.913725 0.584314 0.313725
0.886275 0.470588 0.305882
1.000000 0.796078 0.407843
1.000000 0.796078 0.407843
1.000000 0.796078 0.407843
1.000000 0.796078 0.407843
1.000000 0.800000 0.407843
1.000000 0.800000 0.407843
1.000000 0.803922 0.407843
1.000000 0.803922 0.407843
1.000000 0.807843 0.407843
1.000000 0.811765 0.407843
1.000000 0.815686 0.407843
1.000000 0.819608 0.407843
1.000000 0.819608 0.407843
1.000000 0.823529 0.407843
1.000000 0.827451 0.407843
1.000000 0.827451 0.403922
1.000000 0.823529 0.400000
1.000000 0.819608 0.396078
1.000000 0.819608 0.388235
1.000000 0.815686 0.384314
1.000000 0.807843 0.376471
1.000000 0.803922 0.372549
0.996078 0.800000 0.364706
0.972549 0.776471 0.352941
0.949020 0.674510 0.329412
1.000000 0.796078 0.447059
1.000000 0.796078 0.447059
1.000000 0.800000 0.447059
1.000000 0.800000 0.447059
1.000000 0.800000 0.447059
1.000000 0.803922 0.443137
1.000000 0.803922 0.443137
1.000000 0.807843 0.439216
1.000000 0.811765 0.435294
1.000000 0.811765 0.431373
1.000000 0.815686 0.427451
1.000000 0.823529 0.423529
1.000000 0.827451 0.415686
1.000000 0.827451 0.403922
1.000000 0.823529 0.396078
1.000000 0.819608 0.388235
1.000000 0.811765 0.380392
1.000000 0.807843 0.376471
1.000000 0.803922 0.372549
1.000000 0.800000 0.364706
1.000000 0.792157 0.360784
1.000000 0.784314 0.356863
1.000000 0.776471 0.349020
1.000000 0.764706 0.345098
1.000000 0.752941 0.337255
1.000000 0.800000 0.486275
1.000000 0.800000 0.486275
1.000000 0.800000 0.486275
1.000000 0.800000 0.486275
1.000000 0.803922 0.486275
1.000000 0.803922 0.486275
1.000000 0.807843 0.482353
1.000000 0.807843 0.482353
1.000000 0.811765 0.482353
1.000000 0.815686 0.482353
1.000000 0.819608 0.478431
1.000000 0.823529 0.478431
1.000000 0.827451 0.474510
1.000000 0.827451 0.470588
1.000000 0.823529 0.458824
1.000000 0.823529 0.450980
1.000000 0.819608 0.435294
1.000000 0.811765 0.419608
1.000000 0.803922 0.403922
1.000000 0.792157 0.376471
1.000000 0.776471 0.349020
1.000000 0.756863 0.337255
1.000000 0.741176 0.333333
1.000000 0.721569 0.329412
1.000000 0.701961 0.321569
1.000000 0.803922 0.513725
1.000000 0.803922 0.513725
1.000000 0.803922 0.513725
1.000000 0.803922 0.513725
1.000000 0.803922 0.513725
1.000000 0.807843 0.513725
1.000000 0.807843 0.509804
1.000000 0.811765 0.509804
1.000000 0.811765 0.509804
1.000000 0.815686 0.509804
1.000000 0.819608 0.509804
1.000000 0.823529 0.509804
1.000000 0.827451 0.505882
1.000000 0.827451 0.501961
1.000000 0.827451 0.498039
1.000000 0.823529 0.490196
1.000000 0.823529 0.482353
1.000000 0.819608 0.474510
1.000000 0.811765 0.462745
1.000000 0.803922 0.447059
1.000000 0.796078 0.435294
1.000000 0.776471 0.415686
1.000000 0.760784 0.396078
1.000000 0.721569 0.372549
1.000000 0.674510 0.333333
1.000000 0.807843 0.533333
1.000000 0.807843 0.533333
1.000000 0.807843 0.533333
1.000000 0.807843 0.533333
1.000000 0.807843 0.533333
1.000000 0.807843 0.533333
1.000000 0.811765 0.533333
1.000000 0.811765 0.533333
1.000000 0.815686 0.533333
1.000000 0.815686 0.533333
1.000000 0.819608 0.533333
1.000000 0.823529 0.533333
1.000000 0.827451 0.529412
1.000000 0.827451 0.529412
1.000000 0.827451 0.525490
1.000000 0.827451 0.517647
1.000000 0.827451 0.513725
1.000000 0.823529 0.505882
1.000000 0.819608 0.498039
1.000000 0.815686 0.490196
1.000000 0.807843 0.478431
1.000000 0.796078 0.466667
1.000000 0.780392 0.450980
1.000000 0.764706 0.435294
1.000000 0.729412 0.419608
1.000000 0.807843 0.552941
1.000000 0.807843 0.552941
1.000000 0.807843 0.552941
1.000000 0.811765 0.552941
1.000000 0.811765 0.552941
1.000000 0.811765 0.552941
1.000000 0.811765 0.552941
1.000000 0.815686 0.552941
1.000000 0.815686 0.552941
1.000000 0.819608 0.552941
1.000000 0.823529 0.552941
1.000000 0.823529 0.552941
1.000000 0.827451 0.552941
1.000000 0.827451 0.549020
1.000000 0.827451 0.545098
1.000000 0.827451 0.541176
1.000000 0.827451 0.537255
1.000000 0.827451 0.533333
1.000000 0.827451 0.529412
1.000000 0.819608 0.521569
1.000000 0.815686 0.513725
1.000000 0.807843 0.501961
1.000000 0.796078 0.490196
1.000000 0.784314 0.482353
1.000000 0.764706 0.466667
0.000000 0.023529 0.043137
0.000000 0.023529 0.043137
0.000000 0.023529 0.047059
0.000000 0.023529 0.050980
0.000000 0.023529 0.054902
0.000000 0.031373 0.058824
0.000000 0.043137 0.062745
0.000000 0.050980 0.070588
0.007843 0.062745 0.074510
0.015686 0.070588 0.082353
0.031373 0.082353 0.086275
0.039216 0.090196 0.094118
0.050980 0.101961 0.101961
0.066667 0.113725 0.109804
0.078431 0.121569 0.117647
0.090196 0.133333 0.121569
0.101961 0.141176 0.129412
0.113725 0.152941 0.137255
0.125490 0.164706 0.145098
0.133333 0.172549 0.152941
0.145098 0.184314 0.160784
0.156863 0.192157 0.168627
0.164706 0.203922 0.180392
0.172549 0.215686 0.188235
0.184314 0.223529 0.196078
0.090196 0.070588 0.066667
0.054902 0.054902 0.066667
0.007843 0.031373 0.058824
0.000000 0.035294 0.058824
0.000000 0.043137 0.062745
0.000000 0.047059 0.066667
0.003922 0.054902 0.070588
0.011765 0.062745 0.074510
0.019608 0.074510 0.082353
0.031373 0.082353 0.086275
0.043137 0.090196 0.094118
0.050980 0.101961 0.098039
0.062745 0.109804 0.105882
0.074510 0.117647 0.113725
0.086275 0.129412 0.117647
0.098039 0.137255 0.125490
0.109804 0.149020 0.133333
0.117647 0.156863 0.141176
0.129412 0.168627 0.149020
0.141176 0.176471 0.156863
0.149020 0.188235 0.164706
0.160784 0.196078 0.172549
0.168627 0.207843 0.180392
0.176471 0.219608 0.188235
0.188235 0.227451 0.196078
0.211765 0.121569 0.090196
0.196078 0.109804 0.090196
0.172549 0.094118 0.086275
0.125490 0.050980 0.082353
0.007843 0.058824 0.070588
0.015686 0.066667 0.074510
0.019608 0.070588 0.078431
0.027451 0.078431 0.082353
0.039216 0.086275 0.086275
0.047059 0.094118 0.094118
0.054902 0.101961 0.098039
0.066667 0.109804 0.105882
0.078431 0.117647 0.109804
0.086275 0.125490 0.117647
0.098039 0.137255 0.125490
0.105882 0.145098 0.129412
0.117647 0.152941 0.137255
0.125490 0.164706 0.145098
0.137255 0.172549 0.152941
0.145098 0.184314 0.160784
0.156863 0.192157 0.168627
0.164706 0.203922 0.176471
0.172549 0.211765 0.184314
0.180392 0.223529 0.192157
0.192157 0.231373 0.200000
0.309804 0.172549 0.113725
0.301961 0.164706 0.113725
0.286275 0.156863 0.109804
0.262745 0.133333 0.109804
0.227451 0.094118 0.105882
0.149020 0.082353 0.094118
0.050980 0.090196 0.086275
0.054902 0.098039 0.094118
0.062745 0.101961 0.098039
0.070588 0.109804 0.101961
0.078431 0.117647 0.105882
0.086275 0.125490 0.113725
0.094118 0.129412 0.117647
0.101961 0.137255 0.125490
0.109804 0.149020 0.129412
0.117647 0.156863 0.137255
0.129412 0.164706 0.145098
0.137255 0.172549 0.149020
0.145098 0.180392 0.156863
0.152941 0.192157 0.164706
0.164706 0.200000 0.172549
0.172549 0.207843 0.180392
0.180392 0.219608 0.188235
0.188235 0.227451 0.196078
0.196078 0.239216 0.203922
0.403922 0.223529 0.137255
0.396078 0.219608 0.137255
0.388235 0.211765 0.137255
0.372549 0.200000 0.133333
0.349020 0.176471 0.129412
0.313725 0.129412 0.129412
0.258824 0.105882 0.121569
0.133333 0.113725 0.105882
0.090196 0.121569 0.105882
0.094118 0.129412 0.113725
0.098039 0.133333 0.117647
0.105882 0.141176 0.121569
0.113725 0.145098 0.129412
0.121569 0.152941 0.133333
0.125490 0.160784 0.137255
0.133333 0.168627 0.145098
0.141176 0.176471 0.152941
0.149020 0.184314 0.156863
0.156863 0.192157 0.164706
0.164706 0.200000 0.172549
0.172549 0.211765 0.180392
0.180392 0.219608 0.184314
0.188235 0.227451 0.192157
0.196078 0.235294 0.200000
0.203922 0.247059 0.207843
0.498039 0.278431 0.160784
0.490196 0.274510 0.160784
0.482353 0.266667 0.160784
0.470588 0.258824 0.156863
0.454902 0.243137 0.156863
0.431373 0.223529 0.152941
0.400000 0.160784 0.152941
0.352941 0.129412 0.145098
0.266667 0.133333 0.133333
0.117647 0.145098 0.117647
0.125490 0.152941 0.125490
0.125490 0.160784 0.133333
0.133333 0.164706 0.137255
0.137255 0.172549 0.145098
0.145098 0.176471 0.149020
0.152941 0.184314 0.152941
0.156863 0.192157 0.160784
0.164706 0.200000 0.168627
0.172549 0.207843 0.172549
0.180392 0.215686 0.180392
0.188235 0.223529 0.188235
0.192157 0.231373 0.192157
0.200000 0.239216 0.200000
0.207843 0.247059 0.207843
0.215686 0.254902 0.215686
0.588235 0.329412 0.184314
0.584314 0.325490 0.184314
0.576471 0.321569 0.184314
0.568627 0.317647 0.184314
0.556863 0.305882 0.180392
0.537255 0.290196 0.180392
0.513725 0.262745 0.176471
0.482353 0.211765 0.176471
0.439216 0.149020 0.172549
0.372549 0.156863 0.160784
0.254902 0.164706 0.145098
0.149020 0.176471 0.137255
0.156863 0.184314 0.145098
0.156863 0.188235 0.156863
0.164706 0.196078 0.160784
0.168627 0.200000 0.164706
0.176471 0.207843 0.172549
0.180392 0.215686 0.176471
0.188235 0.223529 0.184314
0.192157 0.227451 0.188235
0.200000 0.235294 0.196078
0.207843 0.243137 0.203922
0.215686 0.250980 0.207843
0.219608 0.258824 0.215686
0.227451 0.266667 0.223529
0.678431 0.380392 0.207843
0.674510 0.380392 0.207843
0.670588 0.376471 0.207843
0.662745 0.372549 0.207843
0.650980 0.364706 0.207843
0.639216 0.352941 0.203922
0.619608 0.333333 0.203922
0.596078 0.309804 0.200000
0.564706 0.266667 0.200000
0.525490 0.184314 0.196078
0.466667 0.180392 0.188235
0.376471 0.188235 0.172549
0.211765 0.196078 0.156863
0.180392 0.207843 0.160784
0.184314 0.215686 0.172549
0.188235 0.219608 0.176471
0.192157 0.227451 0.184314
0.200000 0.231373 0.188235
0.203922 0.239216 0.192157
0.211765 0.247059 0.200000
0.215686 0.250980 0.203922
0.223529 0.258824 0.211765
0.227451 0.266667 0.219608
0.235294 0.274510 0.223529
0.243137 0.282353 0.231373
0.737255 0.435294 0.231373
0.733333 0.431373 0.231373
0.733333 0.431373 0.231373
0.729412 0.427451 0.231373
0.721569 0.419608 0.231373
0.717647 0.411765 0.231373
0.709804 0.400000 0.227451
0.694118 0.380392 0.227451
0.674510 0.352941 0.223529
0.647059 0.309804 0.223529
0.607843 0.235294 0.219608
0.556863 0.203922 0.215686
0.482353 0.211765 0.203922
0.368627 0.219608 0.188235
0.200000 0.227451 0.172549
0.207843 0.239216 0.180392
0.211765 0.247059 0.196078
0.215686 0.250980 0.200000
0.223529 0.258824 0.207843
0.227451 0.262745 0.211765
0.235294 0.270588 0.215686
0.239216 0.274510 0.223529
0.243137 0.282353 0.227451
0.250980 0.290196 0.235294
0.254902 0.298039 0.243137
0.776471 0.486275 0.258824
0.772549 0.482353 0.254902
0.772549 0.482353 0.254902
0.768627 0.478431 0.254902
0.764706 0.474510 0.254902
0.756863 0.466667 0.254902
0.749020 0.458824 0.250980
0.741176 0.443137 0.250980
0.729412 0.427451 0.250980
0.717647 0.396078 0.247059
0.698039 0.352941 0.247059
0.678431 0.278431 0.243137
0.643137 0.227451 0.239216
0.580392 0.235294 0.231373
0.486275 0.243137 0.215686
0.337255 0.250980 0.200000
0.231373 0.258824 0.196078
0.239216 0.270588 0.203922
0.243137 0.278431 0.219608
0.247059 0.282353 0.223529
0.250980 0.286275 0.227451
0.254902 0.294118 0.235294
0.262745 0.301961 0.239216
0.266667 0.305882 0.247059
0.270588 0.313725 0.254902
0.811765 0.525490 0.286275
0.811765 0.521569 0.286275
0.811765 0.521569 0.282353
0.807843 0.521569 0.282353
0.803922 0.517647 0.282353
0.800000 0.513725 0.282353
0.792157 0.509804 0.278431
0.784314 0.501961 0.278431
