luts/PictureFX J.S. Style Wildflowers - Typical J.S. color palette and tonal repartition - add bloom, exp.cube
#Generated by lutCreator.js
#Coded by SirSerch
#https://github.com/SirSerch/LutCreatorJs
TITLE lutCreatorJs_25
LUT_3D_SIZE 25
0.000000 0.039216 0.074510
0.000000 0.023529 0.137255
0.050980 0.015686 0.125490
0.109804 0.003922 0.117647
0.156863 0.000000 0.109804
0.200000 0.000000 0.098039
0.235294 0.000000 0.086275
0.270588 0.000000 0.074510
0.450980 0.094118 0.168627
0.501961 0.098039 0.164706
0.549020 0.105882 0.160784
0.592157 0.105882 0.149020
0.639216 0.105882 0.141176
0.682353 0.101961 0.133333
0.725490 0.101961 0.125490
0.768627 0.101961 0.121569
0.815686 0.094118 0.113725
0.854902 0.086275 0.105882
0.898039 0.074510 0.101961
0.937255 0.058824 0.094118
0.980392 0.031373 0.086275
1.000000 0.000000 0.078431
1.000000 0.000000 0.066667
1.000000 0.000000 0.058824
1.000000 0.000000 0.043137
0.000000 0.070588 0.098039
0.000000 0.066667 0.113725
0.043137 0.054902 0.137255
0.105882 0.050980 0.121569
0.156863 0.039216 0.113725
0.200000 0.027451 0.101961
0.239216 0.015686 0.094118
0.392157 0.117647 0.172549
0.443137 0.125490 0.168627
0.494118 0.129412 0.160784
0.541176 0.129412 0.152941
0.584314 0.129412 0.145098
0.631373 0.129412 0.137255
0.674510 0.125490 0.129412
0.717647 0.125490 0.125490
0.764706 0.121569 0.117647
0.807843 0.117647 0.109804
0.850980 0.109804 0.105882
0.894118 0.098039 0.098039
0.933333 0.086275 0.094118
0.976471 0.070588 0.086275
1.000000 0.043137 0.078431
1.000000 0.003922 0.066667
1.000000 0.000000 0.054902
1.000000 0.000000 0.043137
0.000000 0.098039 0.129412
0.000000 0.094118 0.137255
0.035294 0.086275 0.156863
0.098039 0.086275 0.141176
0.149020 0.078431 0.125490
0.192157 0.074510 0.109804
0.333333 0.152941 0.180392
0.388235 0.156863 0.176471
0.439216 0.160784 0.168627
0.486275 0.160784 0.160784
0.533333 0.160784 0.152941
0.580392 0.160784 0.145098
0.623529 0.156863 0.137255
0.666667 0.156863 0.129412
0.713725 0.152941 0.121569
0.760784 0.149020 0.117647
0.803922 0.145098 0.109804
0.847059 0.141176 0.105882
0.890196 0.129412 0.098039
0.929412 0.121569 0.094118
0.972549 0.109804 0.086275
1.000000 0.090196 0.074510
1.000000 0.066667 0.066667
1.000000 0.035294 0.054902
1.000000 0.000000 0.043137
0.000000 0.125490 0.121569
0.000000 0.121569 0.129412
0.019608 0.117647 0.152941
0.050980 0.113725 0.219608
0.117647 0.113725 0.192157
0.270588 0.200000 0.227451
0.329412 0.203922 0.200000
0.384314 0.203922 0.184314
0.435294 0.203922 0.176471
0.482353 0.203922 0.164706
0.529412 0.200000 0.156863
0.576471 0.200000 0.149020
0.619608 0.196078 0.141176
0.666667 0.196078 0.133333
0.713725 0.192157 0.125490
0.756863 0.192157 0.121569
0.800000 0.184314 0.113725
0.843137 0.180392 0.109804
0.886275 0.172549 0.101961
0.929412 0.164706 0.094118
0.972549 0.152941 0.086275
1.000000 0.141176 0.078431
1.000000 0.125490 0.066667
1.000000 0.105882 0.054902
1.000000 0.090196 0.043137
0.000000 0.247059 0.196078
0.047059 0.250980 0.207843
0.117647 0.247059 0.223529
0.172549 0.247059 0.254902
0.219608 0.243137 0.290196
0.270588 0.247059 0.270588
0.329412 0.250980 0.235294
0.380392 0.250980 0.207843
0.431373 0.250980 0.188235
0.478431 0.247059 0.176471
0.525490 0.247059 0.164706
0.572549 0.243137 0.156863
0.619608 0.243137 0.145098
0.666667 0.243137 0.141176
0.713725 0.239216 0.133333
0.756863 0.235294 0.129412
0.800000 0.231373 0.121569
0.843137 0.223529 0.113725
0.886275 0.219608 0.105882
0.929412 0.211765 0.101961
0.968627 0.203922 0.090196
1.000000 0.192157 0.078431
1.000000 0.180392 0.070588
1.000000 0.168627 0.054902
1.000000 0.156863 0.043137
0.000000 0.305882 0.203922
0.074510 0.305882 0.207843
0.133333 0.301961 0.215686
0.188235 0.301961 0.231373
0.239216 0.298039 0.250980
0.282353 0.298039 0.262745
0.329412 0.298039 0.250980
0.376471 0.298039 0.227451
0.427451 0.294118 0.207843
0.474510 0.294118 0.188235
0.521569 0.294118 0.176471
0.568627 0.290196 0.164706
0.619608 0.290196 0.156863
0.662745 0.286275 0.149020
0.709804 0.282353 0.141176
0.752941 0.278431 0.133333
0.796078 0.274510 0.129412
0.839216 0.270588 0.121569
0.882353 0.262745 0.113725
0.925490 0.254902 0.101961
0.964706 0.247059 0.094118
1.000000 0.239216 0.082353
1.000000 0.231373 0.070588
1.000000 0.223529 0.058824
1.000000 0.215686 0.047059
0.007843 0.345098 0.192157
0.074510 0.345098 0.196078
0.129412 0.341176 0.200000
0.180392 0.341176 0.207843
0.231373 0.337255 0.219608
0.278431 0.337255 0.231373
0.325490 0.333333 0.239216
0.368627 0.333333 0.231373
0.415686 0.333333 0.215686
0.462745 0.333333 0.200000
0.513725 0.333333 0.188235
0.560784 0.329412 0.176471
0.607843 0.329412 0.164706
0.650980 0.325490 0.156863
0.698039 0.321569 0.145098
0.741176 0.317647 0.137255
0.788235 0.313725 0.129412
0.831373 0.309804 0.121569
0.874510 0.305882 0.113725
0.917647 0.298039 0.101961
0.956863 0.290196 0.094118
1.000000 0.282353 0.082353
1.000000 0.274510 0.070588
1.000000 0.270588 0.058824
1.000000 0.266667 0.047059
0.000000 0.384314 0.188235
0.066667 0.384314 0.188235
0.121569 0.380392 0.192157
0.172549 0.380392 0.200000
0.223529 0.376471 0.207843
0.270588 0.376471 0.215686
0.317647 0.376471 0.223529
0.364706 0.372549 0.227451
0.411765 0.372549 0.223529
0.458824 0.372549 0.215686
0.505882 0.372549 0.200000
0.549020 0.372549 0.188235
0.596078 0.368627 0.176471
0.643137 0.364706 0.164706
0.686275 0.360784 0.152941
0.733333 0.360784 0.145098
0.776471 0.356863 0.133333
0.823529 0.349020 0.125490
0.866667 0.345098 0.113725
0.905882 0.341176 0.105882
0.949020 0.333333 0.094118
0.996078 0.329412 0.082353
1.000000 0.321569 0.070588
1.000000 0.317647 0.058824
1.000000 0.317647 0.050980
0.000000 0.423529 0.188235
0.058824 0.423529 0.188235
0.113725 0.423529 0.192157
0.164706 0.423529 0.196078
0.215686 0.423529 0.200000
0.266667 0.419608 0.207843
0.317647 0.419608 0.215686
0.364706 0.419608 0.223529
0.407843 0.415686 0.223529
0.454902 0.415686 0.219608
0.498039 0.415686 0.211765
0.545098 0.411765 0.200000
0.588235 0.411765 0.188235
0.635294 0.407843 0.176471
0.682353 0.403922 0.164706
0.725490 0.403922 0.152941
0.772549 0.400000 0.141176
0.815686 0.392157 0.129412
0.858824 0.388235 0.117647
0.901961 0.384314 0.105882
0.945098 0.376471 0.098039
0.988235 0.372549 0.086275
1.000000 0.372549 0.074510
1.000000 0.368627 0.062745
1.000000 0.364706 0.050980
0.000000 0.470588 0.188235
0.050980 0.470588 0.192157
0.105882 0.470588 0.192157
0.160784 0.466667 0.196078
0.211765 0.466667 0.200000
0.262745 0.466667 0.203922
0.313725 0.462745 0.211765
0.360784 0.462745 0.215686
0.407843 0.458824 0.219608
0.450980 0.458824 0.223529
0.498039 0.458824 0.219608
0.541176 0.454902 0.211765
0.584314 0.454902 0.200000
0.631373 0.450980 0.188235
0.674510 0.450980 0.176471
0.721569 0.447059 0.164706
0.764706 0.443137 0.149020
0.807843 0.435294 0.137255
0.850980 0.431373 0.125490
0.894118 0.427451 0.113725
0.941176 0.423529 0.101961
0.988235 0.423529 0.090196
1.000000 0.419608 0.082353
1.000000 0.419608 0.070588
1.000000 0.415686 0.058824
0.000000 0.517647 0.192157
0.043137 0.517647 0.192157
0.101961 0.513725 0.192157
0.156863 0.513725 0.196078
0.207843 0.513725 0.200000
0.258824 0.509804 0.203922
0.305882 0.509804 0.207843
0.356863 0.505882 0.211765
0.403922 0.505882 0.215686
0.447059 0.501961 0.219608
0.494118 0.501961 0.219608
0.537255 0.498039 0.211765
0.580392 0.498039 0.207843
0.627451 0.494118 0.196078
0.670588 0.490196 0.184314
0.713725 0.486275 0.172549
0.756863 0.482353 0.156863
0.803922 0.482353 0.145098
0.847059 0.478431 0.133333
0.894118 0.474510 0.121569
0.941176 0.474510 0.109804
0.988235 0.470588 0.101961
1.000000 0.470588 0.090196
1.000000 0.466667 0.078431
1.000000 0.462745 0.062745
0.000000 0.552941 0.184314
0.000000 0.552941 0.184314
0.074510 0.549020 0.184314
0.137255 0.549020 0.188235
0.192157 0.549020 0.188235
0.243137 0.549020 0.192157
0.294118 0.545098 0.196078
0.341176 0.545098 0.200000
0.392157 0.541176 0.203922
0.435294 0.541176 0.207843
0.482353 0.537255 0.207843
0.529412 0.537255 0.207843
0.572549 0.533333 0.200000
0.615686 0.529412 0.192157
0.658824 0.529412 0.184314
0.705882 0.525490 0.172549
0.749020 0.525490 0.160784
0.796078 0.521569 0.149020
0.839216 0.521569 0.137255
0.890196 0.517647 0.129412
0.937255 0.517647 0.117647
0.984314 0.517647 0.105882
1.000000 0.513725 0.094118
1.000000 0.509804 0.074510
1.000000 0.505882 0.054902
0.000000 0.588235 0.176471
0.000000 0.588235 0.176471
0.035294 0.588235 0.176471
0.113725 0.588235 0.176471
0.172549 0.584314 0.180392
0.227451 0.584314 0.180392
0.278431 0.584314 0.184314
0.329412 0.580392 0.188235
0.376471 0.580392 0.188235
0.423529 0.576471 0.192157
0.470588 0.576471 0.196078
0.517647 0.572549 0.196078
0.564706 0.572549 0.196078
0.607843 0.568627 0.192157
0.650980 0.568627 0.184314
0.698039 0.568627 0.176471
0.745098 0.564706 0.164706
0.788235 0.564706 0.156863
0.839216 0.564706 0.145098
0.886275 0.564706 0.137255
0.933333 0.564706 0.121569
0.976471 0.560784 0.109804
1.000000 0.556863 0.094118
1.000000 0.552941 0.074510
1.000000 0.549020 0.047059
0.000000 0.623529 0.164706
0.000000 0.623529 0.164706
0.000000 0.623529 0.164706
0.082353 0.623529 0.168627
0.152941 0.623529 0.168627
0.211765 0.623529 0.168627
0.266667 0.619608 0.172549
0.317647 0.619608 0.176471
0.368627 0.619608 0.176471
0.415686 0.615686 0.180392
0.462745 0.615686 0.184314
0.509804 0.611765 0.184314
0.556863 0.611765 0.188235
0.603922 0.611765 0.184314
0.647059 0.611765 0.184314
0.694118 0.611765 0.176471
0.741176 0.611765 0.172549
0.788235 0.611765 0.164706
0.835294 0.611765 0.152941
0.882353 0.607843 0.141176
0.925490 0.607843 0.125490
0.972549 0.603922 0.109804
1.000000 0.600000 0.094118
1.000000 0.596078 0.070588
1.000000 0.588235 0.039216
0.000000 0.662745 0.156863
0.000000 0.662745 0.156863
0.000000 0.662745 0.156863
0.047059 0.662745 0.156863
0.133333 0.662745 0.160784
0.196078 0.662745 0.160784
0.254902 0.662745 0.164706
0.305882 0.658824 0.164706
0.360784 0.658824 0.168627
0.407843 0.658824 0.172549
0.458824 0.658824 0.176471
0.505882 0.658824 0.180392
0.552941 0.658824 0.180392
0.603922 0.658824 0.184314
0.650980 0.658824 0.184314
0.698039 0.658824 0.180392
0.741176 0.658824 0.176471
0.788235 0.658824 0.168627
0.831373 0.654902 0.156863
0.878431 0.650980 0.145098
0.921569 0.650980 0.129412
0.964706 0.647059 0.109804
1.000000 0.639216 0.086275
1.000000 0.635294 0.058824
1.000000 0.627451 0.019608
0.000000 0.709804 0.152941
0.000000 0.709804 0.152941
0.000000 0.709804 0.152941
0.019608 0.709804 0.156863
0.125490 0.709804 0.156863
0.192157 0.709804 0.156863
0.250980 0.709804 0.160784
0.305882 0.709804 0.164706
0.356863 0.709804 0.164706
0.407843 0.709804 0.168627
0.458824 0.709804 0.172549
0.505882 0.709804 0.176471
0.556863 0.709804 0.180392
0.603922 0.705882 0.180392
0.650980 0.705882 0.180392
0.694118 0.701961 0.176471
0.741176 0.701961 0.172549
0.784314 0.698039 0.164706
0.827451 0.698039 0.152941
0.870588 0.694118 0.141176
0.913725 0.690196 0.125490
0.956863 0.686275 0.105882
1.000000 0.682353 0.082353
1.000000 0.678431 0.050980
1.000000 0.670588 0.007843
0.000000 0.756863 0.149020
0.000000 0.756863 0.149020
0.000000 0.756863 0.149020
0.000000 0.756863 0.149020
0.109804 0.756863 0.149020
0.180392 0.752941 0.152941
0.243137 0.752941 0.152941
0.298039 0.752941 0.152941
0.349020 0.752941 0.156863
0.403922 0.752941 0.160784
0.450980 0.749020 0.160784
0.498039 0.749020 0.164706
0.549020 0.749020 0.164706
0.596078 0.745098 0.164706
0.639216 0.745098 0.164706
0.686275 0.741176 0.164706
0.729412 0.741176 0.160784
0.772549 0.737255 0.152941
0.819608 0.733333 0.141176
0.862745 0.729412 0.129412
0.905882 0.729412 0.113725
0.945098 0.725490 0.094118
0.988235 0.721569 0.066667
1.000000 0.713725 0.031373
1.000000 0.709804 0.000000
0.000000 0.796078 0.133333
0.000000 0.796078 0.133333
0.000000 0.796078 0.133333
0.000000 0.796078 0.133333
0.070588 0.796078 0.133333
0.160784 0.796078 0.137255
0.223529 0.796078 0.137255
0.282353 0.792157 0.137255
0.337255 0.792157 0.141176
0.388235 0.792157 0.141176
0.439216 0.788235 0.141176
0.490196 0.788235 0.145098
0.537255 0.784314 0.145098
0.584314 0.784314 0.145098
0.631373 0.780392 0.145098
0.674510 0.780392 0.141176
0.717647 0.776471 0.137255
0.764706 0.772549 0.133333
0.807843 0.772549 0.121569
0.850980 0.768627 0.109804
0.894118 0.764706 0.094118
0.937255 0.760784 0.070588
0.976471 0.756863 0.039216
1.000000 0.752941 0.000000
1.000000 0.749020 0.000000
0.000000 0.835294 0.113725
0.000000 0.835294 0.113725
0.000000 0.835294 0.113725
0.000000 0.835294 0.113725
0.000000 0.831373 0.113725
0.125490 0.831373 0.113725
0.203922 0.831373 0.113725
0.262745 0.831373 0.113725
0.321569 0.827451 0.113725
0.372549 0.827451 0.113725
0.423529 0.827451 0.117647
0.474510 0.823529 0.117647
0.521569 0.823529 0.117647
0.568627 0.819608 0.117647
0.615686 0.815686 0.113725
0.662745 0.815686 0.113725
0.705882 0.811765 0.109804
0.749020 0.807843 0.101961
0.792157 0.803922 0.090196
0.835294 0.800000 0.078431
0.878431 0.800000 0.058824
0.921569 0.792157 0.023529
0.964706 0.788235 0.000000
1.000000 0.784314 0.000000
1.000000 0.780392 0.000000
0.000000 0.870588 0.078431
0.000000 0.870588 0.078431
0.000000 0.866667 0.078431
0.000000 0.866667 0.078431
0.000000 0.866667 0.078431
0.066667 0.866667 0.074510
0.168627 0.866667 0.078431
0.239216 0.862745 0.078431
0.298039 0.862745 0.074510
0.352941 0.862745 0.074510
0.407843 0.858824 0.074510
0.458824 0.858824 0.074510
0.505882 0.854902 0.074510
0.552941 0.850980 0.070588
0.600000 0.850980 0.066667
0.647059 0.847059 0.062745
0.690196 0.843137 0.054902
0.733333 0.839216 0.047059
0.776471 0.835294 0.027451
0.819608 0.831373 0.003922
0.862745 0.827451 0.000000
0.901961 0.823529 0.000000
0.945098 0.819608 0.000000
0.988235 0.815686 0.000000
1.000000 0.811765 0.000000
0.000000 0.901961 0.015686
0.000000 0.901961 0.015686
0.000000 0.901961 0.015686
0.000000 0.901961 0.015686
0.000000 0.901961 0.015686
0.000000 0.901961 0.015686
0.125490 0.901961 0.015686
0.207843 0.898039 0.011765
0.274510 0.898039 0.011765
0.333333 0.898039 0.011765
0.388235 0.894118 0.011765
0.443137 0.894118 0.007843
0.490196 0.890196 0.007843
0.541176 0.890196 0.003922
0.588235 0.886275 0.000000
0.635294 0.882353 0.000000
0.678431 0.882353 0.000000
0.725490 0.878431 0.000000
0.768627 0.878431 0.000000
0.811765 0.874510 0.000000
0.858824 0.870588 0.000000
0.898039 0.866667 0.000000
0.941176 0.862745 0.000000
0.984314 0.858824 0.000000
1.000000 0.854902 0.000000
0.000000 0.937255 0.000000
0.000000 0.937255 0.000000
0.000000 0.937255 0.000000
0.000000 0.937255 0.000000
0.000000 0.937255 0.000000
0.000000 0.937255 0.000000
0.058824 0.937255 0.000000
0.176471 0.937255 0.000000
0.250980 0.933333 0.000000
0.313725 0.933333 0.000000
0.372549 0.933333 0.000000
0.427451 0.929412 0.000000
0.478431 0.929412 0.000000
0.529412 0.925490 0.000000
0.576471 0.925490 0.000000
0.623529 0.921569 0.000000
0.670588 0.921569 0.000000
0.717647 0.917647 0.000000
0.760784 0.917647 0.000000
0.803922 0.913725 0.000000
0.850980 0.909804 0.000000
0.894118 0.905882 0.000000
0.937255 0.901961 0.000000
0.976471 0.898039 0.000000
1.000000 0.898039 0.000000
0.000000 0.972549 0.000000
0.000000 0.972549 0.000000
0.000000 0.972549 0.000000
0.000000 0.972549 0.000000
0.000000 0.972549 0.000000
0.000000 0.972549 0.000000
0.000000 0.972549 0.000000
0.129412 0.972549 0.000000
0.219608 0.968627 0.000000
0.290196 0.968627 0.000000
0.352941 0.968627 0.000000
0.407843 0.968627 0.000000
0.462745 0.964706 0.000000
0.513725 0.964706 0.000000
0.564706 0.960784 0.000000
0.611765 0.960784 0.000000
0.658824 0.956863 0.000000
0.701961 0.952941 0.000000
0.749020 0.949020 0.000000
0.792157 0.949020 0.000000
0.835294 0.945098 0.000000
0.882353 0.941176 0.000000
0.925490 0.937255 0.000000
0.968627 0.937255 0.000000
1.000000 0.933333 0.000000
0.000000 1.000000 0.000000
0.000000 1.000000 0.000000
0.000000 1.000000 0.000000
0.000000 1.000000 0.000000
0.000000 1.000000 0.000000
0.000000 1.000000 0.000000
0.000000 1.000000 0.000000
0.019608 1.000000 0.000000
0.172549 1.000000 0.000000
0.254902 1.000000 0.000000
0.321569 0.996078 0.000000
0.380392 0.996078 0.000000
0.435294 0.996078 0.000000
0.490196 0.992157 0.000000
0.541176 0.988235 0.000000
0.588235 0.988235 0.000000
0.635294 0.984314 0.000000
0.682353 0.984314 0.000000
0.729412 0.980392 0.000000
0.772549 0.976471 0.000000
0.819608 0.972549 0.000000
0.862745 0.968627 0.000000
0.901961 0.964706 0.000000
0.945098 0.960784 0.000000
0.988235 0.956863 0.000000
0.000000 1.000000 0.000000
0.000000 1.000000 0.000000
0.000000 1.000000 0.000000
0.000000 1.000000 0.000000
0.000000 1.000000 0.000000
0.000000 1.000000 0.000000
0.000000 1.000000 0.000000
0.000000 1.000000 0.000000
0.066667 1.000000 0.000000
0.196078 1.000000 0.000000
0.278431 1.000000 0.000000
0.341176 1.000000 0.000000
0.400000 1.000000 0.000000
0.458824 1.000000 0.000000
0.509804 1.000000 0.000000
0.560784 1.000000 0.000000
0.607843 1.000000 0.000000
0.654902 1.000000 0.000000
0.698039 1.000000 0.000000
0.745098 0.996078 0.000000
0.788235 0.992157 0.000000
0.831373 0.988235 0.000000
0.874510 0.984314 0.000000
0.917647 0.980392 0.000000
0.960784 0.980392 0.000000
0.000000 0.047059 0.074510
0.000000 0.039216 0.101961
0.043137 0.023529 0.133333
0.105882 0.007843 0.141176
0.156863 0.000000 0.137255
0.200000 0.000000 0.125490
0.235294 0.000000 0.113725
0.274510 0.000000 0.105882
0.450980 0.090196 0.200000
0.498039 0.098039 0.196078
0.549020 0.101961 0.192157
0.592157 0.101961 0.184314
0.635294 0.101961 0.176471
0.678431 0.101961 0.168627
0.725490 0.098039 0.164706
0.768627 0.098039 0.160784
0.811765 0.090196 0.152941
0.854902 0.082353 0.149020
0.898039 0.070588 0.141176
0.937255 0.050980 0.137255
0.980392 0.027451 0.129412
1.000000 0.000000 0.121569
1.000000 0.000000 0.109804
1.000000 0.000000 0.101961
1.000000 0.000000 0.094118
0.000000 0.078431 0.105882
0.000000 0.074510 0.098039
0.031373 0.062745 0.164706
0.105882 0.054902 0.145098
0.160784 0.039216 0.137255
0.203922 0.027451 0.129412
0.243137 0.019608 0.121569
0.392157 0.117647 0.200000
0.443137 0.121569 0.196078
0.490196 0.125490 0.192157
0.537255 0.125490 0.184314
0.584314 0.125490 0.180392
0.627451 0.125490 0.172549
0.670588 0.121569 0.164706
0.717647 0.121569 0.160784
0.760784 0.117647 0.156863
0.803922 0.113725 0.152941
0.847059 0.105882 0.145098
0.890196 0.094118 0.141176
0.933333 0.082353 0.133333
0.972549 0.066667 0.125490
1.000000 0.039216 0.117647
1.000000 0.000000 0.109804
1.000000 0.000000 0.101961
1.000000 0.000000 0.090196
0.000000 0.101961 0.137255
0.000000 0.098039 0.137255
0.019608 0.090196 0.188235
0.098039 0.086275 0.156863
0.152941 0.082353 0.141176
0.200000 0.078431 0.133333
0.329412 0.152941 0.203922
0.384314 0.156863 0.200000
0.435294 0.156863 0.196078
0.486275 0.160784 0.192157
0.529412 0.156863 0.184314
0.576471 0.156863 0.176471
0.619608 0.152941 0.172549
0.666667 0.152941 0.164706
0.709804 0.149020 0.160784
0.756863 0.149020 0.156863
0.800000 0.141176 0.149020
0.843137 0.137255 0.145098
0.886275 0.129412 0.137255
0.929412 0.117647 0.133333
0.972549 0.105882 0.125490
1.000000 0.086275 0.117647
1.000000 0.062745 0.109804
1.000000 0.027451 0.098039
1.000000 0.000000 0.090196
0.000000 0.129412 0.145098
0.000000 0.129412 0.149020
0.011765 0.125490 0.160784
0.074510 0.117647 0.192157
0.129412 0.117647 0.188235
0.270588 0.200000 0.239216
0.325490 0.200000 0.223529
0.380392 0.200000 0.211765
0.431373 0.203922 0.203922
0.478431 0.200000 0.196078
0.525490 0.200000 0.188235
0.572549 0.196078 0.180392
0.619608 0.196078 0.176471
0.662745 0.192157 0.168627
0.709804 0.192157 0.164706
0.756863 0.188235 0.160784
0.800000 0.184314 0.152941
0.843137 0.176471 0.149020
0.886275 0.168627 0.141176
0.925490 0.160784 0.133333
0.968627 0.152941 0.125490
1.000000 0.137255 0.117647
1.000000 0.121569 0.109804
1.000000 0.105882 0.098039
1.000000 0.086275 0.090196
0.000000 0.247059 0.219608
0.023529 0.247059 0.231373
0.105882 0.247059 0.247059
0.164706 0.243137 0.286275
0.203922 0.243137 0.345098
0.258824 0.247059 0.317647
0.321569 0.250980 0.266667
0.376471 0.250980 0.239216
0.427451 0.250980 0.219608
0.474510 0.247059 0.207843
0.525490 0.247059 0.196078
0.572549 0.243137 0.188235
0.619608 0.243137 0.184314
0.666667 0.239216 0.176471
0.709804 0.239216 0.172549
0.756863 0.235294 0.164706
0.800000 0.227451 0.160784
0.843137 0.223529 0.152941
0.886275 0.215686 0.145098
0.925490 0.211765 0.137255
0.968627 0.200000 0.129412
1.000000 0.188235 0.117647
1.000000 0.176471 0.109804
1.000000 0.164706 0.101961
1.000000 0.156863 0.090196
0.000000 0.305882 0.231373
0.054902 0.305882 0.239216
0.121569 0.301961 0.247059
0.180392 0.301961 0.266667
0.231373 0.298039 0.294118
0.274510 0.294118 0.317647
0.321569 0.294118 0.301961
0.372549 0.298039 0.270588
0.423529 0.294118 0.243137
0.470588 0.294118 0.223529
0.521569 0.290196 0.211765
0.568627 0.290196 0.200000
0.615686 0.286275 0.192157
0.662745 0.286275 0.184314
0.705882 0.282353 0.176471
0.752941 0.278431 0.172549
0.796078 0.274510 0.164706
0.839216 0.266667 0.156863
0.882353 0.262745 0.149020
0.925490 0.254902 0.141176
0.964706 0.247059 0.129412
1.000000 0.239216 0.121569
1.000000 0.231373 0.109804
1.000000 0.223529 0.101961
1.000000 0.215686 0.094118
0.000000 0.345098 0.227451
0.054902 0.341176 0.231373
0.113725 0.341176 0.235294
0.172549 0.337255 0.243137
0.223529 0.337255 0.258824
0.270588 0.333333 0.278431
0.317647 0.333333 0.286275
0.364706 0.333333 0.278431
0.411765 0.333333 0.258824
0.458824 0.333333 0.239216
0.505882 0.329412 0.223529
0.556863 0.329412 0.211765
0.603922 0.325490 0.200000
0.650980 0.325490 0.188235
0.694118 0.321569 0.180392
0.741176 0.317647 0.172549
0.784314 0.313725 0.164706
0.827451 0.305882 0.156863
0.870588 0.301961 0.149020
0.913725 0.298039 0.137255
0.956863 0.290196 0.129412
1.000000 0.282353 0.121569
1.000000 0.274510 0.109804
1.000000 0.270588 0.101961
1.000000 0.266667 0.094118
0.000000 0.380392 0.219608
0.043137 0.380392 0.223529
0.105882 0.380392 0.227451
0.160784 0.380392 0.231373
0.215686 0.376471 0.239216
0.266667 0.372549 0.250980
0.313725 0.372549 0.262745
0.360784 0.372549 0.270588
0.403922 0.372549 0.266667
0.450980 0.372549 0.250980
0.498039 0.372549 0.235294
0.545098 0.368627 0.219608
0.592157 0.368627 0.207843
0.639216 0.364706 0.196078
0.686275 0.360784 0.184314
0.729412 0.356863 0.176471
0.776471 0.352941 0.164706
0.819608 0.349020 0.156863
0.862745 0.345098 0.149020
0.905882 0.337255 0.137255
0.949020 0.333333 0.129412
0.992157 0.329412 0.121569
1.000000 0.321569 0.109804
1.000000 0.317647 0.101961
1.000000 0.313725 0.094118
0.000000 0.423529 0.215686
0.031373 0.423529 0.219608
0.098039 0.423529 0.223529
0.156863 0.419608 0.227451
0.211765 0.419608 0.231373
0.262745 0.419608 0.239216
0.309804 0.415686 0.250980
0.356863 0.415686 0.258824
0.403922 0.415686 0.258824
0.450980 0.415686 0.254902
0.494118 0.411765 0.247059
0.541176 0.411765 0.231373
0.588235 0.407843 0.219608
0.631373 0.407843 0.203922
0.678431 0.403922 0.192157
0.725490 0.400000 0.184314
0.768627 0.396078 0.172549
0.811765 0.392157 0.160784
0.854902 0.388235 0.149020
0.898039 0.380392 0.141176
0.945098 0.376471 0.129412
0.988235 0.372549 0.121569
1.000000 0.368627 0.113725
1.000000 0.368627 0.101961
1.000000 0.364706 0.094118
0.000000 0.466667 0.215686
0.027451 0.466667 0.219608
0.094118 0.466667 0.219608
0.152941 0.466667 0.223529
0.207843 0.466667 0.227451
0.258824 0.466667 0.235294
0.309804 0.462745 0.239216
0.356863 0.462745 0.247059
0.403922 0.458824 0.250980
0.447059 0.458824 0.254902
0.494118 0.454902 0.250980
0.537255 0.454902 0.239216
0.584314 0.454902 0.227451
0.627451 0.450980 0.215686
0.674510 0.447059 0.203922
0.717647 0.447059 0.192157
0.760784 0.439216 0.176471
0.807843 0.435294 0.164706
0.850980 0.431373 0.156863
0.894118 0.427451 0.145098
0.941176 0.423529 0.133333
0.984314 0.419608 0.125490
1.000000 0.419608 0.117647
1.000000 0.419608 0.109804
1.000000 0.415686 0.098039
0.000000 0.517647 0.219608
0.023529 0.513725 0.219608
0.090196 0.513725 0.219608
0.149020 0.513725 0.223529
0.203922 0.513725 0.227451
0.254902 0.509804 0.227451
0.301961 0.509804 0.235294
0.352941 0.505882 0.239216
0.400000 0.501961 0.243137
