luts/PictureFX Creative - Kodak Wratten 85A.cube
#Generated with IWLTBAP LUT Generator
#LutCreator: https://marcrphoto.wordpress.com/
TITLE "PictureFX Creative - Kodak Wratten 85A "
#LUT size
LUT_3D_SIZE 9
#LUT data points
0.000000 0.000000 0.000000
0.066667 0.000000 0.000000
0.156863 0.000000 0.000000
0.282353 0.000000 0.000000
0.458824 0.000000 0.000000
0.619608 0.000000 0.000000
0.752941 0.000000 0.000000
0.886275 0.000000 0.000000
1.000000 0.000000 0.000000
0.000000 0.066667 0.000000
0.074510 0.066667 0.000000
0.168627 0.066667 0.000000
0.305882 0.066667 0.000000
0.482353 0.066667 0.000000
0.631373 0.066667 0.000000
0.760784 0.066667 0.000000
0.890196 0.062745 0.000000
1.000000 0.062745 0.000000
0.000000 0.137255 0.000000
0.074510 0.141176 0.000000
0.168627 0.141176 0.000000
0.301961 0.141176 0.000000
0.482353 0.141176 0.000000
0.639216 0.141176 0.000000
0.768627 0.145098 0.000000
0.894118 0.145098 0.000000
1.000000 0.145098 0.000000
0.000000 0.239216 0.000000
0.074510 0.239216 0.000000
0.160784 0.235294 0.000000
0.286275 0.235294 0.000000
0.458824 0.231373 0.000000
0.611765 0.231373 0.000000
0.745098 0.227451 0.000000
0.882353 0.223529 0.000000
1.000000 0.223529 0.000000
0.000000 0.403922 0.000000
0.078431 0.407843 0.000000
0.176471 0.407843 0.000000
0.309804 0.407843 0.000000
0.494118 0.407843 0.000000
0.647059 0.407843 0.000000
0.772549 0.407843 0.000000
0.894118 0.407843 0.000000
1.000000 0.407843 0.000000
0.000000 0.525490 0.000000
0.070588 0.525490 0.000000
0.156863 0.533333 0.000000
0.282353 0.537255 0.000000
0.462745 0.537255 0.000000
0.623529 0.541176 0.000000
0.756863 0.549020 0.000000
0.886275 0.549020 0.000000
1.000000 0.552941 0.000000
0.000000 0.713725 0.000000
0.078431 0.713725 0.000000
0.172549 0.713725 0.000000
0.309804 0.709804 0.000000
0.486275 0.709804 0.000000
0.639216 0.705882 0.000000
0.768627 0.709804 0.000000
0.890196 0.701961 0.000000
1.000000 0.701961 0.000000
0.000000 0.850980 0.000000
0.074510 0.854902 0.000000
0.172549 0.850980 0.000000
0.301961 0.854902 0.000000
0.486275 0.858824 0.000000
0.643137 0.858824 0.000000
0.772549 0.854902 0.000000
0.894118 0.858824 0.000000
1.000000 0.858824 0.000000
0.000000 1.000000 0.000000
0.074510 1.000000 0.000000
0.164706 1.000000 0.000000
0.290196 1.000000 0.000000
0.466667 1.000000 0.000000
0.615686 1.000000 0.000000
0.749020 1.000000 0.000000
0.882353 1.000000 0.000000
1.000000 1.000000 0.000000
0.000000 0.000000 0.082353
0.070588 0.000000 0.078431
0.164706 0.000000 0.082353
0.294118 0.000000 0.082353
0.478431 0.000000 0.082353
0.635294 0.000000 0.086275
0.768627 0.000000 0.086275
0.894118 0.000000 0.086275
1.000000 0.000000 0.086275
0.000000 0.074510 0.090196
0.082353 0.074510 0.090196
0.184314 0.070588 0.090196
0.321569 0.070588 0.094118
0.509804 0.070588 0.094118
0.654902 0.070588 0.090196
0.776471 0.066667 0.090196
0.898039 0.066667 0.090196
1.000000 0.070588 0.086275
0.000000 0.145098 0.086275
0.082353 0.149020 0.090196
0.180392 0.149020 0.090196
0.321569 0.152941 0.090196
0.505882 0.149020 0.094118
0.662745 0.152941 0.094118
0.784314 0.152941 0.090196
0.898039 0.156863 0.090196
1.000000 0.156863 0.090196
0.000000 0.254902 0.086275
0.078431 0.254902 0.086275
0.172549 0.250980 0.086275
0.301961 0.250980 0.086275
0.478431 0.243137 0.086275
0.631373 0.243137 0.082353
0.756863 0.239216 0.082353
0.886275 0.239216 0.078431
1.000000 0.235294 0.082353
0.000000 0.431373 0.094118
0.082353 0.431373 0.094118
0.188235 0.435294 0.094118
0.333333 0.431373 0.094118
0.521569 0.431373 0.094118
0.670588 0.431373 0.094118
0.788235 0.435294 0.094118
0.901961 0.431373 0.094118
1.000000 0.431373 0.094118
0.000000 0.541176 0.082353
0.074510 0.549020 0.078431
0.168627 0.549020 0.082353
0.298039 0.552941 0.082353
0.482353 0.556863 0.086275
0.639216 0.564706 0.086275
0.768627 0.564706 0.086275
0.894118 0.572549 0.086275
1.000000 0.572549 0.086275
0.000000 0.737255 0.094118
0.082353 0.733333 0.094118
0.188235 0.733333 0.094118
0.325490 0.733333 0.090196
0.509804 0.729412 0.090196
0.662745 0.725490 0.094118
0.780392 0.725490 0.090196
0.898039 0.721569 0.090196
1.000000 0.721569 0.090196
0.000000 0.862745 0.090196
0.082353 0.862745 0.090196
0.184314 0.866667 0.090196
0.325490 0.862745 0.094118
0.513725 0.866667 0.090196
0.666667 0.870588 0.090196
0.788235 0.866667 0.094118
0.901961 0.870588 0.094118
1.000000 0.870588 0.094118
0.000000 1.000000 0.090196
0.078431 1.000000 0.086275
0.176471 1.000000 0.086275
0.309804 1.000000 0.086275
0.482353 1.000000 0.086275
0.631373 1.000000 0.086275
0.760784 1.000000 0.082353
0.886275 1.000000 0.082353
1.000000 1.000000 0.078431
0.000000 0.000000 0.168627
0.074510 0.000000 0.172549
0.168627 0.000000 0.172549
0.305882 0.000000 0.176471
0.494118 0.000000 0.180392
0.654902 0.000000 0.180392
0.780392 0.000000 0.184314
0.898039 0.000000 0.184314
1.000000 0.000000 0.188235
0.000000 0.078431 0.200000
0.086275 0.078431 0.203922
0.196078 0.074510 0.200000
0.341176 0.074510 0.200000
0.529412 0.074510 0.196078
0.678431 0.074510 0.196078
0.792157 0.074510 0.196078
0.901961 0.074510 0.192157
1.000000 0.074510 0.192157
0.000000 0.156863 0.192157
0.082353 0.160784 0.192157
0.192157 0.156863 0.196078
0.337255 0.160784 0.196078
0.529412 0.160784 0.196078
0.682353 0.160784 0.200000
0.800000 0.164706 0.203922
0.909804 0.164706 0.200000
1.000000 0.168627 0.203922
0.000000 0.266667 0.192157
0.082353 0.266667 0.188235
0.184314 0.262745 0.188235
0.317647 0.258824 0.184314
0.498039 0.258824 0.180392
0.647059 0.250980 0.180392
0.768627 0.250980 0.176471
0.890196 0.247059 0.172549
1.000000 0.243137 0.168627
0.000000 0.454902 0.203922
0.090196 0.458824 0.207843
0.203922 0.458824 0.207843
0.352941 0.454902 0.207843
0.549020 0.454902 0.207843
0.698039 0.454902 0.207843
0.807843 0.458824 0.207843
0.913725 0.458824 0.207843
1.000000 0.454902 0.203922
0.000000 0.552941 0.168627
0.074510 0.560784 0.172549
0.172549 0.568627 0.176471
0.309804 0.572549 0.180392
0.498039 0.572549 0.180392
0.654902 0.580392 0.184314
0.780392 0.584314 0.188235
0.901961 0.588235 0.188235
1.000000 0.596078 0.192157
0.000000 0.756863 0.203922
0.090196 0.752941 0.203922
0.196078 0.752941 0.200000
0.345098 0.752941 0.203922
0.533333 0.749020 0.200000
0.682353 0.745098 0.196078
0.792157 0.741176 0.196078
0.905882 0.737255 0.196078
1.000000 0.733333 0.188235
0.000000 0.866667 0.188235
0.086275 0.870588 0.192157
0.196078 0.870588 0.196078
0.341176 0.874510 0.196078
0.533333 0.878431 0.200000
0.686275 0.878431 0.203922
0.803922 0.882353 0.203922
0.909804 0.878431 0.203922
1.000000 0.882353 0.207843
0.000000 1.000000 0.188235
0.082353 1.000000 0.188235
0.184314 1.000000 0.184314
0.321569 1.000000 0.184314
0.501961 1.000000 0.180392
0.647059 1.000000 0.180392
0.768627 1.000000 0.176471
0.894118 1.000000 0.172549
1.000000 1.000000 0.172549
0.000000 0.000000 0.270588
0.078431 0.000000 0.274510
0.176471 0.000000 0.278431
0.317647 0.000000 0.282353
0.509804 0.000000 0.286275
0.662745 0.000000 0.290196
0.788235 0.000000 0.294118
0.905882 0.000000 0.298039
1.000000 0.000000 0.301961
0.000000 0.082353 0.329412
0.094118 0.082353 0.329412
0.207843 0.078431 0.321569
0.356863 0.078431 0.321569
0.545098 0.082353 0.317647
0.694118 0.078431 0.313725
0.803922 0.078431 0.309804
0.909804 0.074510 0.305882
1.000000 0.074510 0.305882
0.000000 0.160784 0.301961
0.086275 0.160784 0.305882
0.196078 0.164706 0.309804
0.352941 0.168627 0.313725
0.549020 0.168627 0.317647
0.701961 0.172549 0.321569
0.811765 0.176471 0.321569
0.913725 0.172549 0.329412
1.000000 0.176471 0.329412
0.000000 0.278431 0.301961
0.086275 0.274510 0.298039
0.188235 0.274510 0.294118
0.325490 0.266667 0.294118
0.509804 0.262745 0.290196
0.654902 0.262745 0.286275
0.772549 0.254902 0.278431
0.894118 0.250980 0.274510
1.000000 0.250980 0.274510
0.000000 0.474510 0.329412
0.094118 0.474510 0.329412
0.211765 0.474510 0.329412
0.368627 0.474510 0.329412
0.564706 0.474510 0.329412
0.713725 0.474510 0.329412
0.819608 0.474510 0.329412
0.917647 0.474510 0.329412
1.000000 0.474510 0.329412
0.000000 0.564706 0.270588
0.078431 0.568627 0.274510
0.176471 0.576471 0.278431
0.317647 0.580392 0.286275
0.509804 0.584314 0.290196
0.662745 0.588235 0.290196
0.788235 0.592157 0.294118
0.905882 0.600000 0.298039
1.000000 0.607843 0.301961
0.000000 0.772549 0.329412
0.094118 0.772549 0.329412
0.207843 0.768627 0.325490
0.364706 0.764706 0.321569
0.552941 0.760784 0.317647
0.694118 0.756863 0.317647
0.803922 0.752941 0.313725
0.905882 0.752941 0.305882
1.000000 0.749020 0.305882
0.000000 0.874510 0.301961
0.086275 0.878431 0.305882
0.200000 0.882353 0.313725
0.352941 0.882353 0.313725
0.552941 0.886275 0.317647
0.705882 0.886275 0.321569
0.815686 0.890196 0.325490
0.917647 0.890196 0.329412
1.000000 0.890196 0.329412
0.000000 1.000000 0.301961
0.086275 1.000000 0.298039
0.188235 1.000000 0.298039
0.329412 1.000000 0.294118
0.509804 1.000000 0.286275
0.658824 1.000000 0.286275
0.776471 1.000000 0.282353
0.894118 1.000000 0.278431
1.000000 1.000000 0.274510
0.000000 0.000000 0.388235
0.078431 0.000000 0.392157
0.180392 0.000000 0.400000
0.325490 0.000000 0.400000
0.509804 0.000000 0.407843
0.666667 0.000000 0.411765
0.792157 0.000000 0.415686
0.905882 0.000000 0.419608
1.000000 0.000000 0.427451
0.000000 0.082353 0.454902
0.094118 0.082353 0.454902
0.211765 0.082353 0.454902
0.368627 0.082353 0.454902
0.556863 0.078431 0.450980
0.701961 0.078431 0.447059
0.807843 0.082353 0.439216
0.909804 0.078431 0.435294
1.000000 0.078431 0.431373
0.000000 0.164706 0.427451
0.090196 0.168627 0.435294
0.203922 0.164706 0.439216
0.356863 0.172549 0.443137
0.556863 0.176471 0.447059
0.709804 0.172549 0.454902
0.819608 0.176471 0.454902
0.917647 0.176471 0.454902
1.000000 0.176471 0.454902
0.000000 0.282353 0.427451
0.086275 0.278431 0.423529
0.192157 0.274510 0.419608
0.329412 0.274510 0.411765
0.513725 0.266667 0.403922
0.662745 0.262745 0.403922
0.780392 0.258824 0.396078
0.898039 0.258824 0.392157
1.000000 0.250980 0.388235
0.000000 0.474510 0.454902
0.094118 0.474510 0.454902
0.211765 0.474510 0.454902
0.368627 0.474510 0.454902
0.564706 0.474510 0.454902
0.713725 0.474510 0.454902
0.819608 0.474510 0.454902
0.917647 0.474510 0.454902
1.000000 0.474510 0.454902
0.000000 0.568627 0.388235
0.078431 0.576471 0.392157
0.180392 0.580392 0.400000
0.325490 0.584314 0.400000
0.513725 0.592157 0.407843
0.666667 0.596078 0.411765
0.792157 0.600000 0.415686
0.905882 0.603922 0.419608
1.000000 0.611765 0.427451
0.000000 0.772549 0.454902
0.094118 0.772549 0.454902
0.211765 0.772549 0.454902
0.368627 0.772549 0.454902
0.560784 0.764706 0.447059
0.701961 0.764706 0.447059
0.807843 0.756863 0.439216
0.909804 0.752941 0.435294
1.000000 0.752941 0.431373
0.000000 0.874510 0.427451
0.090196 0.882353 0.435294
0.203922 0.882353 0.439216
0.356863 0.886275 0.443137
0.556863 0.886275 0.447059
0.709804 0.886275 0.454902
0.819608 0.890196 0.454902
0.917647 0.890196 0.454902
1.000000 0.890196 0.454902
0.000000 1.000000 0.427451
0.086275 1.000000 0.423529
0.192157 1.000000 0.419608
0.329412 1.000000 0.411765
0.513725 1.000000 0.403922
0.662745 1.000000 0.403922
0.780392 1.000000 0.396078
0.898039 1.000000 0.392157
1.000000 1.000000 0.388235
0.000000 0.000000 0.505882
0.078431 0.000000 0.509804
0.176471 0.000000 0.517647
0.317647 0.000000 0.525490
0.509804 0.000000 0.529412
0.666667 0.000000 0.533333
0.788235 0.000000 0.541176
0.901961 0.000000 0.541176
1.000000 0.000000 0.545098
0.000000 0.082353 0.584314
0.094118 0.082353 0.584314
0.211765 0.082353 0.584314
0.360784 0.078431 0.576471
0.552941 0.078431 0.572549
0.698039 0.082353 0.568627
0.803922 0.078431 0.560784
0.905882 0.078431 0.556863
1.000000 0.074510 0.552941
0.000000 0.164706 0.552941
0.086275 0.164706 0.552941
0.200000 0.168627 0.556863
0.352941 0.164706 0.564706
0.552941 0.168627 0.568627
0.705882 0.172549 0.572549
0.815686 0.172549 0.580392
0.917647 0.176471 0.584314
1.000000 0.176471 0.584314
0.000000 0.278431 0.552941
0.086275 0.278431 0.545098
0.188235 0.270588 0.541176
0.329412 0.266667 0.537255
0.509804 0.266667 0.529412
0.658824 0.262745 0.525490
0.776471 0.254902 0.517647
0.894118 0.254902 0.513725
1.000000 0.250980 0.509804
0.000000 0.474510 0.584314
0.094118 0.474510 0.584314
0.211765 0.474510 0.584314
0.368627 0.474510 0.584314
0.564706 0.474510 0.584314
0.713725 0.474510 0.584314
0.819608 0.474510 0.584314
0.917647 0.474510 0.584314
1.000000 0.474510 0.584314
0.000000 0.560784 0.505882
0.078431 0.568627 0.513725
0.176471 0.572549 0.517647
0.317647 0.580392 0.521569
0.505882 0.584314 0.525490
0.662745 0.588235 0.529412
0.788235 0.592157 0.537255
0.905882 0.600000 0.541176
1.000000 0.603922 0.545098
0.000000 0.772549 0.584314
0.094118 0.768627 0.584314
0.211765 0.764706 0.576471
0.360784 0.764706 0.572549
0.552941 0.760784 0.568627
0.698039 0.760784 0.564706
0.803922 0.752941 0.556863
0.905882 0.749020 0.552941
1.000000 0.745098 0.552941
0.000000 0.874510 0.549020
0.086275 0.878431 0.552941
0.196078 0.878431 0.556863
0.352941 0.878431 0.560784
0.549020 0.882353 0.564706
0.701961 0.882353 0.568627
0.811765 0.886275 0.576471
0.913725 0.886275 0.580392
1.000000 0.890196 0.584314
0.000000 1.000000 0.549020
0.086275 1.000000 0.545098
0.188235 1.000000 0.537255
0.325490 1.000000 0.533333
0.509804 1.000000 0.529412
0.654902 1.000000 0.525490
0.772549 1.000000 0.517647
0.894118 1.000000 0.509804
1.000000 1.000000 0.505882
0.000000 0.000000 0.639216
0.074510 0.000000 0.647059
0.172549 0.000000 0.647059
0.313725 0.000000 0.654902
0.498039 0.000000 0.654902
0.654902 0.000000 0.662745
0.784314 0.000000 0.666667
0.898039 0.000000 0.670588
1.000000 0.000000 0.674510
0.000000 0.082353 0.701961
0.090196 0.078431 0.701961
0.200000 0.078431 0.694118
0.345098 0.078431 0.694118
0.537255 0.078431 0.690196
0.686275 0.074510 0.690196
0.796078 0.074510 0.686275
0.901961 0.074510 0.682353
1.000000 0.074510 0.678431
0.000000 0.156863 0.674510
0.086275 0.156863 0.678431
0.196078 0.160784 0.682353
0.341176 0.164706 0.686275
0.533333 0.160784 0.690196
0.686275 0.164706 0.690196
0.803922 0.168627 0.694118
0.909804 0.168627 0.698039
1.000000 0.164706 0.701961
0.000000 0.270588 0.674510
0.082353 0.266667 0.670588
0.184314 0.262745 0.666667
0.321569 0.262745 0.662745
0.501961 0.254902 0.658824
0.647059 0.254902 0.654902
0.768627 0.250980 0.650980
0.894118 0.247059 0.643137
1.000000 0.243137 0.639216
0.000000 0.454902 0.698039
0.090196 0.458824 0.698039
0.203922 0.458824 0.701961
0.356863 0.458824 0.705882
0.549020 0.458824 0.705882
0.701961 0.458824 0.705882
0.807843 0.458824 0.701961
0.909804 0.454902 0.701961
1.000000 0.458824 0.701961
0.000000 0.552941 0.639216
0.074510 0.560784 0.639216
0.172549 0.564706 0.647059
0.309804 0.568627 0.650980
0.494118 0.576471 0.654902
0.654902 0.580392 0.658824
0.780392 0.584314 0.666667
0.901961 0.588235 0.666667
1.000000 0.592157 0.670588
0.000000 0.756863 0.698039
0.090196 0.752941 0.694118
0.200000 0.749020 0.694118
0.345098 0.749020 0.690196
0.533333 0.749020 0.690196
0.678431 0.745098 0.686275
0.796078 0.741176 0.682353
0.905882 0.737255 0.678431
1.000000 0.733333 0.674510
0.000000 0.870588 0.670588
0.082353 0.870588 0.678431
0.192157 0.874510 0.678431
0.337255 0.870588 0.682353
0.529412 0.874510 0.682353
0.682353 0.878431 0.686275
0.800000 0.878431 0.690196
0.909804 0.878431 0.694118
1.000000 0.882353 0.694118
0.000000 1.000000 0.670588
0.082353 1.000000 0.666667
0.184314 1.000000 0.666667
0.317647 1.000000 0.662745
0.498039 1.000000 0.654902
0.647059 1.000000 0.650980
0.768627 1.000000 0.647059
0.890196 1.000000 0.639216
1.000000 1.000000 0.639216
0.000000 0.000000 0.807843
0.074510 0.000000 0.807843
0.164706 0.000000 0.811765
0.298039 0.000000 0.815686
0.482353 0.000000 0.815686
0.643137 0.000000 0.815686
0.772549 0.000000 0.819608
0.894118 0.000000 0.823529
1.000000 0.000000 0.827451
0.000000 0.074510 0.835294
0.086275 0.074510 0.835294
0.188235 0.074510 0.835294
0.333333 0.074510 0.831373
0.513725 0.074510 0.831373
0.662745 0.070588 0.831373
0.784314 0.070588 0.827451
0.898039 0.070588 0.827451
1.000000 0.070588 0.823529
0.000000 0.149020 0.823529
0.082353 0.152941 0.823529
0.184314 0.152941 0.827451
0.325490 0.152941 0.827451
0.513725 0.152941 0.831373
0.666667 0.156863 0.831373
0.788235 0.156863 0.831373
0.901961 0.160784 0.835294
1.000000 0.156863 0.835294
0.000000 0.254902 0.823529
0.078431 0.254902 0.823529
0.176471 0.250980 0.819608
0.309804 0.250980 0.815686
0.482353 0.247059 0.815686
0.631373 0.243137 0.815686
0.760784 0.243137 0.811765
0.886275 0.235294 0.807843
1.000000 0.235294 0.803922
0.000000 0.435294 0.835294
0.086275 0.431373 0.835294
0.188235 0.435294 0.835294
0.337255 0.435294 0.835294
0.521569 0.435294 0.835294
0.674510 0.435294 0.835294
0.792157 0.435294 0.835294
0.905882 0.431373 0.835294
1.000000 0.435294 0.835294
0.000000 0.541176 0.803922
0.070588 0.541176 0.803922
0.164706 0.549020 0.811765
0.298039 0.552941 0.811765
0.478431 0.556863 0.811765
0.639216 0.560784 0.815686
0.768627 0.568627 0.815686
0.894118 0.568627 0.819608
1.000000 0.572549 0.819608
0.000000 0.733333 0.835294
0.082353 0.733333 0.831373
0.188235 0.733333 0.831373
0.325490 0.733333 0.831373
0.509804 0.725490 0.827451
0.658824 0.725490 0.827451
0.780392 0.725490 0.827451
0.898039 0.721569 0.823529
1.000000 0.717647 0.823529
0.000000 0.858824 0.819608
0.082353 0.862745 0.823529
0.180392 0.862745 0.823529
0.321569 0.862745 0.827451
0.505882 0.866667 0.827451
0.662745 0.862745 0.827451
0.784314 0.866667 0.831373
0.898039 0.870588 0.831373
1.000000 0.870588 0.831373
0.000000 1.000000 0.819608
0.078431 1.000000 0.819608
0.172549 1.000000 0.815686
0.301961 1.000000 0.815686
0.478431 1.000000 0.811765
0.631373 1.000000 0.811765
0.756863 1.000000 0.811765
0.886275 1.000000 0.807843
1.000000 1.000000 0.803922
0.000000 0.000000 1.000000
0.070588 0.000000 1.000000
0.156863 0.000000 1.000000
0.286275 0.000000 1.000000
0.466667 0.000000 1.000000
0.623529 0.000000 1.000000
0.756863 0.000000 1.000000
0.890196 0.000000 1.000000
1.000000 0.000000 1.000000
0.000000 0.070588 1.000000
0.078431 0.070588 1.000000
0.176471 0.070588 1.000000
0.309804 0.070588 1.000000
0.490196 0.070588 1.000000
0.643137 0.066667 1.000000
0.768627 0.066667 1.000000
0.890196 0.066667 1.000000
1.000000 0.066667 1.000000
0.000000 0.141176 1.000000
0.074510 0.141176 1.000000
0.172549 0.141176 1.000000
0.301961 0.141176 1.000000
0.486275 0.145098 1.000000
0.643137 0.145098 1.000000
0.772549 0.145098 1.000000
0.894118 0.149020 1.000000
1.000000 0.145098 1.000000
0.000000 0.243137 1.000000
0.074510 0.243137 1.000000
0.164706 0.235294 1.000000
0.290196 0.239216 1.000000
0.466667 0.231373 1.000000
0.615686 0.231373 1.000000
0.749020 0.227451 1.000000
0.882353 0.227451 1.000000
1.000000 0.223529 1.000000
0.000000 0.407843 1.000000
0.078431 0.407843 1.000000
0.180392 0.407843 1.000000
0.313725 0.407843 1.000000
0.494118 0.411765 1.000000
0.647059 0.407843 1.000000
0.772549 0.407843 1.000000
0.894118 0.407843 1.000000
1.000000 0.407843 1.000000
0.000000 0.521569 1.000000
0.070588 0.529412 1.000000
0.152941 0.529412 1.000000
0.278431 0.533333 1.000000
0.458824 0.537255 1.000000
0.619608 0.541176 1.000000
0.752941 0.541176 1.000000
0.886275 0.545098 1.000000
1.000000 0.549020 1.000000
0.000000 0.713725 1.000000
0.078431 0.713725 1.000000
0.172549 0.709804 1.000000
0.305882 0.709804 1.000000
0.486275 0.709804 1.000000
0.639216 0.709804 1.000000
0.764706 0.705882 1.000000
0.886275 0.701961 1.000000
1.000000 0.698039 1.000000
0.000000 0.850980 1.000000
0.074510 0.850980 1.000000
0.168627 0.850980 1.000000
0.301961 0.854902 1.000000
0.482353 0.850980 1.000000
0.639216 0.854902 1.000000
0.768627 0.854902 1.000000
0.894118 0.858824 1.000000
1.000000 0.858824 1.000000
0.000000 1.000000 1.000000
0.074510 1.000000 1.000000
0.160784 1.000000 1.000000
0.286275 1.000000 1.000000
0.458824 1.000000 1.000000
0.611765 1.000000 1.000000
0.745098 1.000000 1.000000
0.882353 1.000000 1.000000
1.000000 1.000000 1.000000
