luts/PictureFX Faux Infrared 2024 mod.cube
#Generated with IWLTBAP LUT Generator
#Website: http://luts.iwltbap.com
TITLE "PictureFX-Faux-Infrared-2024-mod"
#LUT size
LUT_3D_SIZE 5
#LUT data points
0.000000 0.000000 0.000000
0.470588 0.372549 0.196078
0.905882 0.729412 0.407843
1.000000 0.933333 0.666667
1.000000 0.980392 0.901961
0.345098 0.000000 0.211765
0.643137 0.000000 0.329412
0.996078 0.600000 0.478431
1.000000 0.886275 0.701961
1.000000 0.976471 0.921569
0.674510 0.000000 0.431373
0.847059 0.000000 0.494118
1.000000 0.000000 0.647059
1.000000 0.772549 0.796078
1.000000 0.984314 0.976471
1.000000 0.000000 0.650980
1.000000 0.000000 0.690196
1.000000 0.000000 0.752941
1.000000 0.000000 0.705882
1.000000 0.909804 0.937255
1.000000 0.000000 0.854902
1.000000 0.000000 0.831373
1.000000 0.000000 0.784314
1.000000 0.000000 0.737255
1.000000 0.000000 0.709804
0.000000 0.305882 0.262745
0.000000 0.509804 0.333333
0.674510 0.800000 0.482353
1.000000 1.000000 0.701961
1.000000 0.996078 0.933333
0.000000 0.007843 0.352941
0.000000 0.262745 0.419608
0.800000 0.686275 0.541176
1.000000 0.945098 0.737255
1.000000 0.988235 0.952941
0.301961 0.000000 0.509804
0.623529 0.000000 0.560784
1.000000 0.000000 0.690196
1.000000 0.819608 0.827451
1.000000 1.000000 1.000000
0.835294 0.000000 0.698039
0.976471 0.000000 0.733333
1.000000 0.000000 0.835294
1.000000 0.000000 0.756863
1.000000 0.945098 0.964706
1.000000 0.000000 0.905882
1.000000 0.000000 0.917647
1.000000 0.000000 0.847059
1.000000 0.000000 0.776471
1.000000 0.000000 0.737255
0.000000 0.600000 0.521569
0.000000 0.713725 0.552941
0.000000 0.976471 0.650980
0.780392 1.000000 0.831373
1.000000 1.000000 1.000000
0.000000 0.435294 0.576471
0.000000 0.588235 0.603922
0.000000 0.898039 0.694118
0.831373 1.000000 0.850980
1.000000 1.000000 1.000000
0.000000 0.031373 0.686275
0.000000 0.035294 0.725490
0.098039 0.521569 0.807843
1.000000 0.964706 0.917647
1.000000 1.000000 1.000000
0.000000 0.050980 0.831373
0.000000 0.000000 0.858824
0.890196 0.000000 0.945098
1.000000 0.000000 0.937255
1.000000 1.000000 1.000000
0.752941 0.000000 1.000000
0.905882 0.000000 1.000000
1.000000 0.000000 1.000000
1.000000 0.000000 0.921569
1.000000 0.000000 0.831373
0.000000 0.894118 0.776471
0.000000 0.964706 0.800000
0.000000 1.000000 0.815686
0.000000 1.000000 0.733333
0.976471 1.000000 0.988235
0.000000 0.803922 0.811765
0.000000 0.886275 0.831373
0.000000 1.000000 0.890196
0.000000 1.000000 0.776471
1.000000 1.000000 1.000000
0.000000 0.352941 0.909804
0.000000 0.537255 0.925490
0.000000 0.870588 0.980392
0.000000 1.000000 0.945098
1.000000 1.000000 1.000000
0.000000 0.070588 1.000000
0.000000 0.074510 1.000000
0.000000 0.078431 1.000000
0.482353 0.745098 1.000000
1.000000 1.000000 1.000000
0.000000 0.078431 1.000000
0.000000 0.078431 1.000000
0.000000 0.000000 1.000000
0.917647 0.000000 1.000000
1.000000 0.298039 1.000000
0.000000 1.000000 0.956863
0.000000 1.000000 0.929412
0.000000 1.000000 0.866667
0.000000 1.000000 0.792157
0.000000 1.000000 0.741176
0.000000 1.000000 1.000000
0.000000 1.000000 0.996078
0.000000 1.000000 0.913725
0.000000 1.000000 0.827451
0.000000 1.000000 0.764706
0.000000 0.831373 1.000000
0.000000 0.882353 1.000000
0.000000 1.000000 1.000000
0.000000 1.000000 0.949020
0.000000 1.000000 0.847059
0.000000 0.078431 1.000000
0.000000 0.078431 1.000000
0.000000 0.576471 1.000000
0.000000 0.870588 1.000000
0.000000 1.000000 1.000000
0.000000 0.078431 1.000000
0.000000 0.078431 1.000000
0.000000 0.078431 1.000000
0.000000 0.078431 1.000000
0.658824 0.819608 1.000000
