luts/PictureFX Creative - Kodak Wratten 81A.cube
#Generated with IWLTBAP LUT Generator
#LutCreator: https://marcrphoto.wordpress.com/
TITLE "PictureFX Creative - Kodak Wratten 81AB"
#LUT size
LUT_3D_SIZE 9
#LUT data points
0.000000 0.000000 0.000000
0.149020 0.000000 0.000000
0.301961 0.000000 0.000000
0.443137 0.000000 0.000000
0.572549 0.000000 0.000000
0.690196 0.000000 0.000000
0.796078 0.000000 0.000000
0.898039 0.000000 0.000000
1.000000 0.000000 0.000000
0.000000 0.121569 0.000000
0.149020 0.121569 0.000000
0.301961 0.121569 0.000000
0.443137 0.121569 0.000000
0.572549 0.121569 0.000000
0.690196 0.121569 0.000000
0.796078 0.121569 0.000000
0.898039 0.121569 0.000000
1.000000 0.121569 0.000000
0.000000 0.247059 0.000000
0.149020 0.247059 0.000000
0.301961 0.247059 0.000000
0.443137 0.247059 0.000000
0.572549 0.247059 0.000000
0.690196 0.247059 0.000000
0.796078 0.247059 0.000000
0.898039 0.247059 0.000000
1.000000 0.247059 0.000000
0.000000 0.372549 0.000000
0.149020 0.372549 0.000000
0.301961 0.372549 0.000000
0.443137 0.372549 0.000000
0.572549 0.372549 0.000000
0.690196 0.372549 0.000000
0.796078 0.372549 0.000000
0.898039 0.372549 0.000000
1.000000 0.372549 0.000000
0.000000 0.498039 0.000000
0.149020 0.498039 0.000000
0.301961 0.498039 0.000000
0.443137 0.498039 0.000000
0.572549 0.498039 0.000000
0.690196 0.498039 0.000000
0.796078 0.498039 0.000000
0.898039 0.498039 0.000000
1.000000 0.498039 0.000000
0.000000 0.623529 0.000000
0.149020 0.623529 0.000000
0.301961 0.623529 0.000000
0.443137 0.623529 0.000000
0.572549 0.623529 0.000000
0.690196 0.623529 0.000000
0.796078 0.623529 0.000000
0.898039 0.623529 0.000000
1.000000 0.623529 0.000000
0.000000 0.749020 0.000000
0.149020 0.749020 0.000000
0.301961 0.749020 0.000000
0.443137 0.749020 0.000000
0.572549 0.749020 0.000000
0.690196 0.749020 0.000000
0.796078 0.749020 0.000000
0.898039 0.749020 0.000000
1.000000 0.749020 0.000000
0.000000 0.874510 0.000000
0.149020 0.874510 0.000000
0.301961 0.874510 0.000000
0.443137 0.874510 0.000000
0.572549 0.874510 0.000000
0.690196 0.874510 0.000000
0.796078 0.874510 0.000000
0.898039 0.874510 0.000000
1.000000 0.874510 0.000000
0.000000 1.000000 0.000000
0.149020 1.000000 0.000000
0.301961 1.000000 0.000000
0.443137 1.000000 0.000000
0.572549 1.000000 0.000000
0.690196 1.000000 0.000000
0.796078 1.000000 0.000000
0.898039 1.000000 0.000000
1.000000 1.000000 0.000000
0.000000 0.000000 0.098039
0.149020 0.000000 0.098039
0.301961 0.000000 0.098039
0.443137 0.000000 0.098039
0.572549 0.000000 0.098039
0.690196 0.000000 0.098039
0.796078 0.000000 0.098039
0.898039 0.000000 0.098039
1.000000 0.000000 0.098039
0.000000 0.121569 0.098039
0.149020 0.121569 0.098039
0.301961 0.121569 0.098039
0.443137 0.121569 0.098039
0.572549 0.121569 0.098039
0.690196 0.121569 0.098039
0.796078 0.121569 0.098039
0.898039 0.121569 0.098039
1.000000 0.121569 0.098039
0.000000 0.247059 0.098039
0.149020 0.247059 0.098039
0.301961 0.247059 0.098039
0.443137 0.247059 0.098039
0.572549 0.247059 0.098039
0.690196 0.247059 0.098039
0.796078 0.247059 0.098039
0.898039 0.247059 0.098039
1.000000 0.247059 0.098039
0.000000 0.372549 0.098039
0.149020 0.372549 0.098039
0.301961 0.372549 0.098039
0.443137 0.372549 0.098039
0.572549 0.372549 0.098039
0.690196 0.372549 0.098039
0.796078 0.372549 0.098039
0.898039 0.372549 0.098039
1.000000 0.372549 0.098039
0.000000 0.498039 0.098039
0.149020 0.498039 0.098039
0.301961 0.498039 0.098039
0.443137 0.498039 0.098039
0.572549 0.498039 0.098039
0.690196 0.498039 0.098039
0.796078 0.498039 0.098039
0.898039 0.498039 0.098039
1.000000 0.498039 0.098039
0.000000 0.623529 0.098039
0.149020 0.623529 0.098039
0.301961 0.623529 0.098039
0.443137 0.623529 0.098039
0.572549 0.623529 0.098039
0.690196 0.623529 0.098039
0.796078 0.623529 0.098039
0.898039 0.623529 0.098039
1.000000 0.623529 0.098039
0.000000 0.749020 0.098039
0.149020 0.749020 0.098039
0.301961 0.749020 0.098039
0.443137 0.749020 0.098039
0.572549 0.749020 0.098039
0.690196 0.749020 0.098039
0.796078 0.749020 0.098039
0.898039 0.749020 0.098039
1.000000 0.749020 0.098039
0.000000 0.874510 0.098039
0.149020 0.874510 0.098039
0.301961 0.874510 0.098039
0.443137 0.874510 0.098039
0.572549 0.874510 0.098039
0.690196 0.874510 0.098039
0.796078 0.874510 0.098039
0.898039 0.874510 0.098039
1.000000 0.874510 0.098039
0.000000 1.000000 0.098039
0.149020 1.000000 0.098039
0.301961 1.000000 0.098039
0.443137 1.000000 0.098039
0.572549 1.000000 0.098039
0.690196 1.000000 0.098039
0.796078 1.000000 0.098039
0.898039 1.000000 0.098039
1.000000 1.000000 0.098039
0.000000 0.000000 0.203922
0.149020 0.000000 0.203922
0.301961 0.000000 0.203922
0.443137 0.000000 0.203922
0.572549 0.000000 0.203922
0.690196 0.000000 0.203922
0.796078 0.000000 0.203922
0.898039 0.000000 0.203922
1.000000 0.000000 0.203922
0.000000 0.121569 0.203922
0.149020 0.121569 0.203922
0.301961 0.121569 0.203922
0.443137 0.121569 0.203922
0.572549 0.121569 0.203922
0.690196 0.121569 0.203922
0.796078 0.121569 0.203922
0.898039 0.121569 0.203922
1.000000 0.121569 0.203922
0.000000 0.247059 0.203922
0.149020 0.247059 0.203922
0.301961 0.247059 0.203922
0.443137 0.247059 0.203922
0.572549 0.247059 0.203922
0.690196 0.247059 0.203922
0.796078 0.247059 0.203922
0.898039 0.247059 0.203922
1.000000 0.247059 0.203922
0.000000 0.372549 0.203922
0.149020 0.372549 0.203922
0.301961 0.372549 0.203922
0.443137 0.372549 0.203922
0.572549 0.372549 0.203922
0.690196 0.372549 0.203922
0.796078 0.372549 0.203922
0.898039 0.372549 0.203922
1.000000 0.372549 0.203922
0.000000 0.498039 0.203922
0.149020 0.498039 0.203922
0.301961 0.498039 0.203922
0.443137 0.498039 0.203922
0.572549 0.498039 0.203922
0.690196 0.498039 0.203922
0.796078 0.498039 0.203922
0.898039 0.498039 0.203922
1.000000 0.498039 0.203922
0.000000 0.623529 0.203922
0.149020 0.623529 0.203922
0.301961 0.623529 0.203922
0.443137 0.623529 0.203922
0.572549 0.623529 0.203922
0.690196 0.623529 0.203922
0.796078 0.623529 0.203922
0.898039 0.623529 0.203922
1.000000 0.623529 0.203922
0.000000 0.749020 0.203922
0.149020 0.749020 0.203922
0.301961 0.749020 0.203922
0.443137 0.749020 0.203922
0.572549 0.749020 0.203922
0.690196 0.749020 0.203922
0.796078 0.749020 0.203922
0.898039 0.749020 0.203922
1.000000 0.749020 0.203922
0.000000 0.874510 0.203922
0.149020 0.874510 0.203922
0.301961 0.874510 0.203922
0.443137 0.874510 0.203922
0.572549 0.874510 0.203922
0.690196 0.874510 0.203922
0.796078 0.874510 0.203922
0.898039 0.874510 0.203922
1.000000 0.874510 0.203922
0.000000 1.000000 0.203922
0.149020 1.000000 0.203922
0.301961 1.000000 0.203922
0.443137 1.000000 0.203922
0.572549 1.000000 0.203922
0.690196 1.000000 0.203922
0.796078 1.000000 0.203922
0.898039 1.000000 0.203922
1.000000 1.000000 0.203922
0.000000 0.000000 0.313725
0.149020 0.000000 0.313725
0.301961 0.000000 0.313725
0.443137 0.000000 0.313725
0.572549 0.000000 0.313725
0.690196 0.000000 0.313725
0.796078 0.000000 0.313725
0.898039 0.000000 0.313725
1.000000 0.000000 0.313725
0.000000 0.121569 0.313725
0.149020 0.121569 0.313725
0.301961 0.121569 0.313725
0.443137 0.121569 0.313725
0.572549 0.121569 0.313725
0.690196 0.121569 0.313725
0.796078 0.121569 0.313725
0.898039 0.121569 0.313725
1.000000 0.121569 0.313725
0.000000 0.247059 0.313725
0.149020 0.247059 0.313725
0.301961 0.247059 0.313725
0.443137 0.247059 0.313725
0.572549 0.247059 0.313725
0.690196 0.247059 0.313725
0.796078 0.247059 0.313725
0.898039 0.247059 0.313725
1.000000 0.247059 0.313725
0.000000 0.372549 0.313725
0.149020 0.372549 0.313725
0.301961 0.372549 0.313725
0.443137 0.372549 0.313725
0.572549 0.372549 0.313725
0.690196 0.372549 0.313725
0.796078 0.372549 0.313725
0.898039 0.372549 0.313725
1.000000 0.372549 0.313725
0.000000 0.498039 0.313725
0.149020 0.498039 0.313725
0.301961 0.498039 0.313725
0.443137 0.498039 0.313725
0.572549 0.498039 0.313725
0.690196 0.498039 0.313725
0.796078 0.498039 0.313725
0.898039 0.498039 0.313725
1.000000 0.498039 0.313725
0.000000 0.623529 0.313725
0.149020 0.623529 0.313725
0.301961 0.623529 0.313725
0.443137 0.623529 0.313725
0.572549 0.623529 0.313725
0.690196 0.623529 0.313725
0.796078 0.623529 0.313725
0.898039 0.623529 0.313725
1.000000 0.623529 0.313725
0.000000 0.749020 0.313725
0.149020 0.749020 0.313725
0.301961 0.749020 0.313725
0.443137 0.749020 0.313725
0.572549 0.749020 0.313725
0.690196 0.749020 0.313725
0.796078 0.749020 0.313725
0.898039 0.749020 0.313725
1.000000 0.749020 0.313725
0.000000 0.874510 0.313725
0.149020 0.874510 0.313725
0.301961 0.874510 0.313725
0.443137 0.874510 0.313725
0.572549 0.874510 0.313725
0.690196 0.874510 0.313725
0.796078 0.874510 0.313725
0.898039 0.874510 0.313725
1.000000 0.874510 0.313725
0.000000 1.000000 0.313725
0.149020 1.000000 0.313725
0.301961 1.000000 0.313725
0.443137 1.000000 0.313725
0.572549 1.000000 0.313725
0.690196 1.000000 0.313725
0.796078 1.000000 0.313725
0.898039 1.000000 0.313725
1.000000 1.000000 0.313725
0.000000 0.000000 0.431373
0.149020 0.000000 0.431373
0.301961 0.000000 0.431373
0.443137 0.000000 0.431373
0.572549 0.000000 0.431373
0.690196 0.000000 0.431373
0.796078 0.000000 0.431373
0.898039 0.000000 0.431373
1.000000 0.000000 0.431373
0.000000 0.121569 0.431373
0.149020 0.121569 0.431373
0.301961 0.121569 0.431373
0.443137 0.121569 0.431373
0.572549 0.121569 0.431373
0.690196 0.121569 0.431373
0.796078 0.121569 0.431373
0.898039 0.121569 0.431373
1.000000 0.121569 0.431373
0.000000 0.247059 0.431373
0.149020 0.247059 0.431373
0.301961 0.247059 0.431373
0.443137 0.247059 0.431373
0.572549 0.247059 0.431373
0.690196 0.247059 0.431373
0.796078 0.247059 0.431373
0.898039 0.247059 0.431373
1.000000 0.247059 0.431373
0.000000 0.372549 0.431373
0.149020 0.372549 0.431373
0.301961 0.372549 0.431373
0.443137 0.372549 0.431373
0.572549 0.372549 0.431373
0.690196 0.372549 0.431373
0.796078 0.372549 0.431373
0.898039 0.372549 0.431373
1.000000 0.372549 0.431373
0.000000 0.498039 0.431373
0.149020 0.498039 0.431373
0.301961 0.498039 0.431373
0.443137 0.498039 0.431373
0.572549 0.498039 0.431373
0.690196 0.498039 0.431373
0.796078 0.498039 0.431373
0.898039 0.498039 0.431373
1.000000 0.498039 0.431373
0.000000 0.623529 0.431373
0.149020 0.623529 0.431373
0.301961 0.623529 0.431373
0.443137 0.623529 0.431373
0.572549 0.623529 0.431373
0.690196 0.623529 0.431373
0.796078 0.623529 0.431373
0.898039 0.623529 0.431373
1.000000 0.623529 0.431373
0.000000 0.749020 0.431373
0.149020 0.749020 0.431373
0.301961 0.749020 0.431373
0.443137 0.749020 0.431373
0.572549 0.749020 0.431373
0.690196 0.749020 0.431373
0.796078 0.749020 0.431373
0.898039 0.749020 0.431373
1.000000 0.749020 0.431373
0.000000 0.874510 0.431373
0.149020 0.874510 0.431373
0.301961 0.874510 0.431373
0.443137 0.874510 0.431373
0.572549 0.874510 0.431373
0.690196 0.874510 0.431373
0.796078 0.874510 0.431373
0.898039 0.874510 0.431373
1.000000 0.874510 0.431373
0.000000 1.000000 0.431373
0.149020 1.000000 0.431373
0.301961 1.000000 0.431373
0.443137 1.000000 0.431373
0.572549 1.000000 0.431373
0.690196 1.000000 0.431373
0.796078 1.000000 0.431373
0.898039 1.000000 0.431373
1.000000 1.000000 0.431373
0.000000 0.000000 0.560784
0.149020 0.000000 0.560784
0.301961 0.000000 0.560784
0.443137 0.000000 0.560784
0.572549 0.000000 0.560784
0.690196 0.000000 0.560784
0.796078 0.000000 0.560784
0.898039 0.000000 0.560784
1.000000 0.000000 0.560784
0.000000 0.121569 0.560784
0.149020 0.121569 0.560784
0.301961 0.121569 0.560784
0.443137 0.121569 0.560784
0.572549 0.121569 0.560784
0.690196 0.121569 0.560784
0.796078 0.121569 0.560784
0.898039 0.121569 0.560784
1.000000 0.121569 0.560784
0.000000 0.247059 0.560784
0.149020 0.247059 0.560784
0.301961 0.247059 0.560784
0.443137 0.247059 0.560784
0.572549 0.247059 0.560784
0.690196 0.247059 0.560784
0.796078 0.247059 0.560784
0.898039 0.247059 0.560784
1.000000 0.247059 0.560784
0.000000 0.372549 0.560784
0.149020 0.372549 0.560784
0.301961 0.372549 0.560784
0.443137 0.372549 0.560784
0.572549 0.372549 0.560784
0.690196 0.372549 0.560784
0.796078 0.372549 0.560784
0.898039 0.372549 0.560784
1.000000 0.372549 0.560784
0.000000 0.498039 0.560784
0.149020 0.498039 0.560784
0.301961 0.498039 0.560784
0.443137 0.498039 0.560784
0.572549 0.498039 0.560784
0.690196 0.498039 0.560784
0.796078 0.498039 0.560784
0.898039 0.498039 0.560784
1.000000 0.498039 0.560784
0.000000 0.623529 0.560784
0.149020 0.623529 0.560784
0.301961 0.623529 0.560784
0.443137 0.623529 0.560784
0.572549 0.623529 0.560784
0.690196 0.623529 0.560784
0.796078 0.623529 0.560784
0.898039 0.623529 0.560784
1.000000 0.623529 0.560784
0.000000 0.749020 0.560784
0.149020 0.749020 0.560784
0.301961 0.749020 0.560784
0.443137 0.749020 0.560784
0.572549 0.749020 0.560784
0.690196 0.749020 0.560784
0.796078 0.749020 0.560784
0.898039 0.749020 0.560784
1.000000 0.749020 0.560784
0.000000 0.874510 0.560784
0.149020 0.874510 0.560784
0.301961 0.874510 0.560784
0.443137 0.874510 0.560784
0.572549 0.874510 0.560784
0.690196 0.874510 0.560784
0.796078 0.874510 0.560784
0.898039 0.874510 0.560784
1.000000 0.874510 0.560784
0.000000 1.000000 0.560784
0.149020 1.000000 0.560784
0.301961 1.000000 0.560784
0.443137 1.000000 0.560784
0.572549 1.000000 0.560784
0.690196 1.000000 0.560784
0.796078 1.000000 0.560784
0.898039 1.000000 0.560784
1.000000 1.000000 0.560784
0.000000 0.000000 0.701961
0.149020 0.000000 0.701961
0.301961 0.000000 0.701961
0.443137 0.000000 0.701961
0.572549 0.000000 0.701961
0.690196 0.000000 0.701961
0.796078 0.000000 0.701961
0.898039 0.000000 0.701961
1.000000 0.000000 0.701961
0.000000 0.121569 0.701961
0.149020 0.121569 0.701961
0.301961 0.121569 0.701961
0.443137 0.121569 0.701961
0.572549 0.121569 0.701961
0.690196 0.121569 0.701961
0.796078 0.121569 0.701961
0.898039 0.121569 0.701961
1.000000 0.121569 0.701961
0.000000 0.247059 0.701961
0.149020 0.247059 0.701961
0.301961 0.247059 0.701961
0.443137 0.247059 0.701961
0.572549 0.247059 0.701961
0.690196 0.247059 0.701961
0.796078 0.247059 0.701961
0.898039 0.247059 0.701961
1.000000 0.247059 0.701961
0.000000 0.372549 0.701961
0.149020 0.372549 0.701961
0.301961 0.372549 0.701961
0.443137 0.372549 0.701961
0.572549 0.372549 0.701961
0.690196 0.372549 0.701961
0.796078 0.372549 0.701961
0.898039 0.372549 0.701961
1.000000 0.372549 0.701961
0.000000 0.498039 0.701961
0.149020 0.498039 0.701961
0.301961 0.498039 0.701961
0.443137 0.498039 0.701961
0.572549 0.498039 0.701961
0.690196 0.498039 0.701961
0.796078 0.498039 0.701961
0.898039 0.498039 0.701961
1.000000 0.498039 0.701961
0.000000 0.623529 0.701961
0.149020 0.623529 0.701961
0.301961 0.623529 0.701961
0.443137 0.623529 0.701961
0.572549 0.623529 0.701961
0.690196 0.623529 0.701961
0.796078 0.623529 0.701961
0.898039 0.623529 0.701961
1.000000 0.623529 0.701961
0.000000 0.749020 0.701961
0.149020 0.749020 0.701961
0.301961 0.749020 0.701961
0.443137 0.749020 0.701961
0.572549 0.749020 0.701961
0.690196 0.749020 0.701961
0.796078 0.749020 0.701961
0.898039 0.749020 0.701961
1.000000 0.749020 0.701961
0.000000 0.874510 0.701961
0.149020 0.874510 0.701961
0.301961 0.874510 0.701961
0.443137 0.874510 0.701961
0.572549 0.874510 0.701961
0.690196 0.874510 0.701961
0.796078 0.874510 0.701961
0.898039 0.874510 0.701961
1.000000 0.874510 0.701961
0.000000 1.000000 0.701961
0.149020 1.000000 0.701961
0.301961 1.000000 0.701961
0.443137 1.000000 0.701961
0.572549 1.000000 0.701961
0.690196 1.000000 0.701961
0.796078 1.000000 0.701961
0.898039 1.000000 0.701961
1.000000 1.000000 0.701961
0.000000 0.000000 0.847059
0.149020 0.000000 0.847059
0.301961 0.000000 0.847059
0.443137 0.000000 0.847059
0.572549 0.000000 0.847059
0.690196 0.000000 0.847059
0.796078 0.000000 0.847059
0.898039 0.000000 0.847059
1.000000 0.000000 0.847059
0.000000 0.121569 0.847059
0.149020 0.121569 0.847059
0.301961 0.121569 0.847059
0.443137 0.121569 0.847059
0.572549 0.121569 0.847059
0.690196 0.121569 0.847059
0.796078 0.121569 0.847059
0.898039 0.121569 0.847059
1.000000 0.121569 0.847059
0.000000 0.247059 0.847059
0.149020 0.247059 0.847059
0.301961 0.247059 0.847059
0.443137 0.247059 0.847059
0.572549 0.247059 0.847059
0.690196 0.247059 0.847059
0.796078 0.247059 0.847059
0.898039 0.247059 0.847059
1.000000 0.247059 0.847059
0.000000 0.372549 0.847059
0.149020 0.372549 0.847059
0.301961 0.372549 0.847059
0.443137 0.372549 0.847059
0.572549 0.372549 0.847059
0.690196 0.372549 0.847059
0.796078 0.372549 0.847059
0.898039 0.372549 0.847059
1.000000 0.372549 0.847059
0.000000 0.498039 0.847059
0.149020 0.498039 0.847059
0.301961 0.498039 0.847059
0.443137 0.498039 0.847059
0.572549 0.498039 0.847059
0.690196 0.498039 0.847059
0.796078 0.498039 0.847059
0.898039 0.498039 0.847059
1.000000 0.498039 0.847059
0.000000 0.623529 0.847059
0.149020 0.623529 0.847059
0.301961 0.623529 0.847059
0.443137 0.623529 0.847059
0.572549 0.623529 0.847059
0.690196 0.623529 0.847059
0.796078 0.623529 0.847059
0.898039 0.623529 0.847059
1.000000 0.623529 0.847059
0.000000 0.749020 0.847059
0.149020 0.749020 0.847059
0.301961 0.749020 0.847059
0.443137 0.749020 0.847059
0.572549 0.749020 0.847059
0.690196 0.749020 0.847059
0.796078 0.749020 0.847059
0.898039 0.749020 0.847059
1.000000 0.749020 0.847059
0.000000 0.874510 0.847059
0.149020 0.874510 0.847059
0.301961 0.874510 0.847059
0.443137 0.874510 0.847059
0.572549 0.874510 0.847059
0.690196 0.874510 0.847059
0.796078 0.874510 0.847059
0.898039 0.874510 0.847059
1.000000 0.874510 0.847059
0.000000 1.000000 0.847059
0.149020 1.000000 0.847059
0.301961 1.000000 0.847059
0.443137 1.000000 0.847059
0.572549 1.000000 0.847059
0.690196 1.000000 0.847059
0.796078 1.000000 0.847059
0.898039 1.000000 0.847059
1.000000 1.000000 0.847059
0.000000 0.000000 1.000000
0.149020 0.000000 1.000000
0.301961 0.000000 1.000000
0.443137 0.000000 1.000000
0.572549 0.000000 1.000000
0.690196 0.000000 1.000000
0.796078 0.000000 1.000000
0.898039 0.000000 1.000000
1.000000 0.000000 1.000000
0.000000 0.121569 1.000000
0.149020 0.121569 1.000000
0.301961 0.121569 1.000000
0.443137 0.121569 1.000000
0.572549 0.121569 1.000000
0.690196 0.121569 1.000000
0.796078 0.121569 1.000000
0.898039 0.121569 1.000000
1.000000 0.121569 1.000000
0.000000 0.247059 1.000000
0.149020 0.247059 1.000000
0.301961 0.247059 1.000000
0.443137 0.247059 1.000000
0.572549 0.247059 1.000000
0.690196 0.247059 1.000000
0.796078 0.247059 1.000000
0.898039 0.247059 1.000000
1.000000 0.247059 1.000000
0.000000 0.372549 1.000000
0.149020 0.372549 1.000000
0.301961 0.372549 1.000000
0.443137 0.372549 1.000000
0.572549 0.372549 1.000000
0.690196 0.372549 1.000000
0.796078 0.372549 1.000000
0.898039 0.372549 1.000000
1.000000 0.372549 1.000000
0.000000 0.498039 1.000000
0.149020 0.498039 1.000000
0.301961 0.498039 1.000000
0.443137 0.498039 1.000000
0.572549 0.498039 1.000000
0.690196 0.498039 1.000000
0.796078 0.498039 1.000000
0.898039 0.498039 1.000000
1.000000 0.498039 1.000000
0.000000 0.623529 1.000000
0.149020 0.623529 1.000000
0.301961 0.623529 1.000000
0.443137 0.623529 1.000000
0.572549 0.623529 1.000000
0.690196 0.623529 1.000000
0.796078 0.623529 1.000000
0.898039 0.623529 1.000000
1.000000 0.623529 1.000000
0.000000 0.749020 1.000000
0.149020 0.749020 1.000000
0.301961 0.749020 1.000000
0.443137 0.749020 1.000000
0.572549 0.749020 1.000000
0.690196 0.749020 1.000000
0.796078 0.749020 1.000000
0.898039 0.749020 1.000000
1.000000 0.749020 1.000000
0.000000 0.874510 1.000000
0.149020 0.874510 1.000000
0.301961 0.874510 1.000000
0.443137 0.874510 1.000000
0.572549 0.874510 1.000000
0.690196 0.874510 1.000000
0.796078 0.874510 1.000000
0.898039 0.874510 1.000000
1.000000 0.874510 1.000000
0.000000 1.000000 1.000000
0.149020 1.000000 1.000000
0.301961 1.000000 1.000000
0.443137 1.000000 1.000000
0.572549 1.000000 1.000000
0.690196 1.000000 1.000000
0.796078 1.000000 1.000000
0.898039 1.000000 1.000000
1.000000 1.000000 1.000000
