luts/Pocket 3 low light King.cube
TITLE "Generated by Resolve"
LUT_3D_SIZE 17
0.0114443 0.015259 0.0202335
0.014023 0.0191196 0.0229496
0.0342107 0.0273899 0.0272068
0.0796216 0.0410163 0.0335546
0.145541 0.0591897 0.0410468
0.225895 0.0764935 0.0477913
0.320851 0.0877089 0.0548409
0.409384 0.110307 0.0674907
0.505638 0.125628 0.0791333
0.596704 0.132113 0.0896925
0.684352 0.137819 0.105531
0.773281 0.146075 0.127642
0.853788 0.155688 0.148089
0.918914 0.166415 0.159167
0.976226 0.174472 0.164294
1 0.183658 0.166583
1 0.190494 0.164981
0.0142824 0.0303349 0.0224155
0.0158083 0.0305638 0.0257267
0.0368353 0.0340581 0.0252384
0.0818952 0.0489509 0.0334325
0.151095 0.0655985 0.0421149
0.234821 0.0779126 0.0483558
0.331212 0.0871595 0.0553292
0.417227 0.107118 0.0679789
0.512963 0.121721 0.078996
0.603616 0.131777 0.090898
0.690776 0.140383 0.106325
0.778653 0.148058 0.12488
0.858717 0.156435 0.138918
0.924376 0.166552 0.148074
0.981308 0.173693 0.15375
1 0.184009 0.156298
1 0.191241 0.155612
0.0218662 0.0629587 0.0277104
0.0254673 0.0733806 0.0300145
0.0370489 0.0694743 0.0313878
0.099855 0.0638437 0.0323796
0.176028 0.0864576 0.0408026
0.262577 0.110307 0.0521859
0.359609 0.12987 0.0653239
0.454337 0.148241 0.0780804
0.545434 0.158114 0.086656
0.632715 0.166079 0.0927596
0.715145 0.167834 0.103899
0.800381 0.166506 0.110658
0.875059 0.171939 0.12282
0.939406 0.172519 0.129183
0.993805 0.180529 0.133333
1 0.185214 0.135378
1 0.200076 0.138079
0.0346685 0.113313 0.0371557
0.0408789 0.136034 0.0412146
0.0497292 0.131884 0.0409247
0.100496 0.12047 0.0471962
0.19823 0.112352 0.0478676
0.307317 0.134157 0.06215
0.406439 0.159762 0.0764935
0.498146 0.183398 0.0873579
0.583581 0.199298 0.0940108
0.663661 0.2112 0.0967727
0.745983 0.217517 0.0989395
0.827848 0.224323 0.103044
0.897978 0.225071 0.10634
0.959899 0.223102 0.109163
1 0.225742 0.112505
1 0.231693 0.115831
1 0.243076 0.119371
0.0536812 0.174685 0.0527047
0.0609445 0.198398 0.0598306
0.0682383 0.204868 0.0620584
0.121324 0.189456 0.0651408
0.214954 0.187243 0.0696117
0.327321 0.172107 0.0738231
0.442878 0.18761 0.0848096
0.55053 0.206073 0.0930953
0.636988 0.219684 0.0969863
0.716274 0.233082 0.0975357
0.794705 0.247593 0.0969711
0.862882 0.259144 0.0989548
0.924804 0.270954 0.100572
0.977615 0.286809 0.101274
1 0.304372 0.102007
1 0.318425 0.103593
1 0.325368 0.105196
0.0700999 0.232319 0.0696574
0.0757916 0.253147 0.075227
0.085008 0.274784 0.0808881
0.1308 0.262165 0.0811627
0.235981 0.256886 0.0867628
0.338628 0.244663 0.0901808
0.463569 0.228428 0.0925917
0.57586 0.230869 0.0964981
0.677333 0.245533 0.0975662
0.770718 0.260227 0.0969863
0.842542 0.274571 0.0961776
0.901061 0.2878 0.0965896
0.954849 0.30013 0.0979782
0.999451 0.318074 0.098436
1 0.337972 0.0990463
1 0.358267 0.0990768
1 0.369177 0.0992142
0.0841382 0.286122 0.0831464
0.0873884 0.301259 0.0864576
0.0932326 0.321981 0.090425
0.130648 0.33257 0.0933394
0.236698 0.315129 0.0952316
0.358206 0.328237 0.0974289
0.471031 0.302998 0.0974441
0.592477 0.284337 0.097261
0.697841 0.282002 0.0969863
0.795438 0.290959 0.0959793
0.870893 0.303212 0.0952621
0.932494 0.315831 0.0951858
0.977676 0.331029 0.0952316
1 0.349065 0.0957198
1 0.3673 0.0961318
1 0.384604 0.0969711
1 0.392554 0.0972305
0.0930343 0.33611 0.0922408
0.0942702 0.344854 0.0935531
0.0981918 0.366827 0.0959793
0.131121 0.386389 0.0971542
0.242344 0.37911 0.0974136
0.369009 0.390494 0.0967422
0.485328 0.405142 0.0950637
0.60206 0.365805 0.0953841
0.715023 0.346487 0.0946517
0.810285 0.335088 0.0940566
0.885115 0.339574 0.0928206
0.944915 0.347784 0.092607
0.991547 0.363012 0.0921187
1 0.378119 0.0927901
1 0.394476 0.0933547
1 0.410498 0.0941939
1 0.417426 0.0941787
0.0970779 0.379507 0.0966964
0.0973373 0.390173 0.0969863
0.098558 0.413718 0.0974441
0.135607 0.434546 0.0971542
0.251011 0.43476 0.0964523
0.367987 0.44097 0.0950942
0.502861 0.460655 0.0922713
0.600793 0.480095 0.089189
0.719402 0.429694 0.0900893
0.815274 0.40766 0.0898146
0.891539 0.390875 0.0893263
0.951308 0.390494 0.0881819
0.996399 0.397101 0.0878614
1 0.406638 0.0894942
1 0.419654 0.0910353
1 0.433158 0.0927291
1 0.441077 0.092256
0.0975662 0.42089 0.0973678
0.0972457 0.444663 0.0971542
0.0994583 0.458625 0.0969863
0.138216 0.479377 0.0961624
0.260624 0.481346 0.094667
0.374578 0.48603 0.0930953
0.503792 0.514061 0.088716
0.600153 0.525444 0.0859083
0.692226 0.53959 0.0824292
0.807721 0.490303 0.0838026
0.890532 0.465583 0.0839094
0.951293 0.446326 0.0843824
0.997787 0.436194 0.08542
1 0.438025 0.0873579
1 0.440772 0.0901503
1 0.456947 0.0914473
1 0.460105 0.0912032
0.0964675 0.476295 0.0964675
0.0962539 0.489006 0.0961776
0.0982528 0.50399 0.0957961
0.143114 0.523201 0.0945296
0.266209 0.5243 0.092546
0.377844 0.528496 0.0905928
0.49044 0.55314 0.0862287
0.598825 0.57229 0.0820325
0.677516 0.585367 0.0788586
0.770245 0.600977 0.0756085
0.874067 0.549264 0.0786145
0.944945 0.517128 0.0804913
0.994385 0.491737 0.0830396
1 0.472114 0.0861524
1 0.469596 0.0893416
1 0.478859 0.0901503
1 0.479103 0.0900893
0.0949416 0.528832 0.0949416
0.0942855 0.540627 0.0942245
0.095079 0.556085 0.0935988
0.132403 0.560586 0.0928206
0.263355 0.563592 0.0903944
0.376761 0.567941 0.0879835
0.480003 0.586709 0.0839094
0.580545 0.612467 0.0789807
0.681651 0.63238 0.0744488
0.74873 0.651164 0.071107
0.829557 0.673381 0.0673381
0.92166 0.611963 0.0736095
0.981521 0.564218 0.0790417
1 0.529686 0.0832227
1 0.502174 0.087541
1 0.51107 0.0881514
1 0.509316 0.0884565
0.0935073 0.56022 0.093492
0.0931563 0.566369 0.09308
0.0940414 0.583108 0.0920729
0.136919 0.590845 0.0910658
0.2636 0.597772 0.0880598
0.377432 0.603906 0.0852369
0.477073 0.621134 0.0812085
0.56463 0.647379 0.0760357
0.661875 0.678782 0.0701915
0.75198 0.701808 0.0653849
0.806378 0.724056 0.0616007
0.870329 0.75053 0.057496
0.952728 0.681605 0.0669566
1 0.611536 0.0772259
1 0.567391 0.0834669
1 0.552239 0.0852979
1 0.547692 0.0857557
0.0924086 0.580896 0.0924086
0.0919966 0.58764 0.0919356
0.0922103 0.605737 0.0907759
0.141268 0.616495 0.0892958
0.26566 0.627802 0.0858167
0.374243 0.643046 0.0821546
0.464546 0.669108 0.0768444
0.545586 0.702739 0.0708629
0.628962 0.730144 0.0654459
0.719036 0.758816 0.0593729
0.798596 0.779721 0.0548714
0.84184 0.793423 0.0521553
0.899886 0.818097 0.0480354
0.976181 0.744091 0.0597543
1 0.658671 0.0741131
1 0.630335 0.0777905
1 0.619211 0.0790723
0.0867628 0.666835 0.0867475
0.0855879 0.679454 0.0855726
0.0831464 0.710033 0.0830396
0.0877394 0.728801 0.0813306
0.158541 0.729107 0.0793622
0.273945 0.748379 0.0741588
0.373754 0.783825 0.0670329
0.468818 0.809064 0.0610666
0.563821 0.825345 0.055848
0.656138 0.835325 0.0515755
0.742809 0.842939 0.0480049
0.820493 0.852308 0.0446632
0.86833 0.856046 0.0430152
0.927428 0.872526 0.0398718
0.997269 0.797055 0.0533761
1 0.72369 0.0656291
1 0.710155 0.0674754
0.0791485 0.753841 0.0791485
0.0781872 0.76405 0.078172
0.076112 0.786847 0.0759899
0.0740215 0.814313 0.073106
0.077348 0.844877 0.0697337
0.108736 0.874891 0.0652934
0.206485 0.897887 0.0592203
0.322316 0.912428 0.053254
0.443915 0.917357 0.0480507
0.561379 0.918395 0.0439155
0.665537 0.917708 0.0404822
0.760403 0.914794 0.0377661
0.842283 0.909651 0.0361486
0.895033 0.910018 0.0348516
0.954681 0.919417 0.0328985
0.997284 0.842512 0.0463569
1 0.807355 0.0523537
0.0628061 0.90782 0.0627909
0.0619821 0.914137 0.0619516
0.0605478 0.92694 0.0605173
0.0591135 0.940291 0.0590066
0.0581216 0.951232 0.0577401
0.0609445 0.956451 0.0569467
0.0925154 0.960632 0.0554513
0.211627 0.960388 0.0510414
0.360693 0.957809 0.0459297
0.501778 0.951919 0.0415045
0.624186 0.947188 0.0378882
0.729641 0.942168 0.0350042
0.820523 0.937179 0.03299
0.88394 0.933577 0.0317998
0.939834 0.949737 0.0287938
0.978134 0.935454 0.03093
0.986038 0.902922 0.0361791
0.0127718 0.021561 0.0309606
0.0168917 0.0246586 0.0360266
0.0455787 0.0290227 0.0386358
0.0948806 0.0382239 0.0433509
0.1561 0.0460975 0.0468299
0.226825 0.060914 0.0490425
0.322026 0.0786908 0.0547189
0.406424 0.0939193 0.0651713
0.502068 0.106294 0.0756085
0.596429 0.119341 0.0948653
0.68333 0.125063 0.109545
0.770855 0.144045 0.143206
0.850629 0.157015 0.159655
0.916304 0.167025 0.168002
0.9738 0.175311 0.172244
1 0.183673 0.174151
1 0.189929 0.171618
0.0147097 0.0310674 0.0373693
0.0162203 0.0317388 0.0386053
0.033753 0.0391546 0.0406958
0.0819409 0.0563973 0.0470436
0.154726 0.0769818 0.0548409
0.241276 0.0920729 0.0578927
0.339178 0.107362 0.0625467
0.439139 0.126635 0.0733043
0.523033 0.138415 0.0823224
0.610971 0.142458 0.0909133
0.69601 0.144915 0.10605
0.782879 0.148775 0.125383
0.860395 0.156146 0.14374
0.925521 0.166796 0.152331
0.981414 0.174365 0.1579
1 0.184085 0.160143
1 0.191211 0.159106
0.0235904 0.0676585 0.0404059
0.0253452 0.0690013 0.0420844
0.0373236 0.069749 0.045655
0.0948806 0.0725261 0.0467994
0.168856 0.0961166 0.0565652
0.260319 0.110002 0.061677
0.364294 0.123766 0.0675364
0.463127 0.137896 0.077409
0.547967 0.150988 0.085832
0.634272 0.159701 0.0937057
0.716289 0.161913 0.10515
0.800778 0.160815 0.111788
0.875242 0.168597 0.12575
0.938689 0.170733 0.132769
0.99295 0.178164 0.13637
1 0.18529 0.13959
1 0.197711 0.141161
0.0353857 0.115358 0.0437171
0.0409857 0.136187 0.0507057
0.0466011 0.135332 0.0520333
0.0998093 0.12694 0.0571908
0.205829 0.120623 0.0566873
0.304234 0.143648 0.0657511
0.405524 0.168185 0.0784161
0.5019 0.188968 0.0884565
0.582086 0.204364 0.0942702
0.664088 0.211963 0.0968185
0.746548 0.216022 0.0991531
0.827314 0.219333 0.104005
0.895872 0.216037 0.107424
0.957015 0.213809 0.111254
1 0.215717 0.114748
1 0.222354 0.117983
1 0.235233 0.121248
0.0523842 0.170855 0.0532387
0.0602121 0.195499 0.0621195
0.0660563 0.208774 0.0643473
0.116182 0.200778 0.0689097
0.219303 0.194202 0.0732128
0.341039 0.17879 0.0763867
0.454932 0.194827 0.0870527
0.545815 0.21326 0.093904
0.631312 0.226337 0.0970626
0.709957 0.239811 0.0973831
0.788571 0.253758 0.0969863
0.855146 0.266804 0.0973068
0.915801 0.276722 0.0990921
0.971344 0.287419 0.100771
1 0.300938 0.101915
1 0.311254 0.104082
1 0.317327 0.106447
0.0698863 0.231434 0.0698863
0.0747692 0.249363 0.0746624
0.083772 0.27921 0.0816968
0.121706 0.271672 0.0824903
0.234531 0.262043 0.0880446
0.347707 0.251926 0.0924086
0.48127 0.234089 0.0939193
0.593271 0.236728 0.0969558
0.682185 0.251591 0.0974594
0.765698 0.266224 0.0967575
0.836744 0.28011 0.0960708
0.895827 0.293462 0.0956436
0.948745 0.307118 0.0966964
0.993362 0.324331 0.0972
1 0.342916 0.0978103
1 0.362524 0.0978561
1 0.373388 0.0985428
0.0843366 0.286839 0.0833143
0.0865644 0.29749 0.0855879
0.0929885 0.332784 0.0919966
0.122148 0.34107 0.0939498
0.233219 0.32163 0.0957046
0.358679 0.332601 0.0973373
0.48278 0.312093 0.0975509
0.609079 0.291005 0.0971389
0.721431 0.287526 0.0967269
0.813611 0.296925 0.0956741
0.876585 0.308644 0.0949569
0.928435 0.321813 0.0948196
0.973236 0.336629 0.0945296
1 0.355108 0.0944533
1 0.373236 0.0950179
1 0.390539 0.0956436
1 0.398123 0.0959335
0.0931106 0.33666 0.0923171
0.0939498 0.342626 0.0932174
0.0975204 0.375326 0.096437
0.121599 0.397635 0.0973831
0.236301 0.385885 0.0975204
0.365896 0.395132 0.0966049
0.483055 0.407858 0.0950332
0.612497 0.375448 0.0948348
0.732097 0.354314 0.0941634
0.826139 0.341711 0.0935225
0.900389 0.345312 0.0923171
0.954162 0.354955 0.0918746
0.992142 0.368933 0.0911879
1 0.383505 0.0918898
1 0.400076 0.0923171
1 0.415793 0.093431
1 0.422034 0.0936141
0.0970932 0.380209 0.0967422
0.0972305 0.387976 0.0968948
0.0977035 0.421347 0.0973831
0.120516 0.444923 0.0972
0.241672 0.440803 0.0964675
0.363745 0.444251 0.0952621
0.503426 0.465675 0.0919356
0.600809 0.484154 0.0890059
0.727291 0.438972 0.0893568
0.82652 0.415518 0.0890822
0.901045 0.397024 0.0886549
0.95906 0.397024 0.0876936
1 0.402609 0.0878767
1 0.412818 0.0888838
1 0.424872 0.0902571
1 0.436988 0.0924392
1 0.444694 0.0921492
0.0977493 0.418509 0.0975662
0.0972305 0.444038 0.0971389
0.0982223 0.465354 0.0967422
0.123369 0.48864 0.0959335
0.249714 0.486641 0.0946365
0.370062 0.489372 0.0932174
0.502495 0.518349 0.0885176
0.600305 0.528725 0.0854963
0.69099 0.543908 0.0821698
0.812772 0.497597 0.0831311
0.897078 0.47274 0.0832685
0.955962 0.452018 0.0838788
1 0.44126 0.0852979
1 0.442161 0.0876936
1 0.446265 0.0904555
1 0.461845 0.0911421
1 0.465141 0.0910353
0.0965744 0.475303 0.0965744
0.0959793 0.496605 0.0959793
0.0959335 0.510552 0.0954757
0.127947 0.526909 0.0945449
0.253025 0.527794 0.092607
0.371878 0.531563 0.0905776
0.488258 0.556405 0.0861219
0.598489 0.576684 0.0816663
0.677058 0.588083 0.0786908
0.769833 0.605661 0.0751354
0.874571 0.554528 0.0781872
0.947829 0.523598 0.0802777
0.996918 0.496834 0.0830091
1 0.476493 0.0863661
1 0.472648 0.0895705
1 0.483009 0.0899367
1 0.484031 0.0899062
0.094667 0.530571 0.094667
0.0942245 0.541238 0.0942245
0.0945602 0.555154 0.0936294
0.123247 0.56173 0.092958
0.249302 0.565805 0.0906081
0.370535 0.571664 0.0880598
0.478126 0.589624 0.0840772
0.579171 0.616434 0.0785992
0.681941 0.637568 0.074052
0.747478 0.653437 0.0708019
0.828687 0.676982 0.0667887
0.921706 0.617136 0.0732433
0.982803 0.570794 0.0788586
1 0.533486 0.0832227
1 0.505699 0.0879072
1 0.513832 0.0880293
1 0.511849 0.0881208
0.0933242 0.562112 0.0933242
0.0931258 0.566384 0.09308
0.0937972 0.581979 0.0923476
0.123522 0.591699 0.0912337
0.24918 0.598337 0.0885023
0.370352 0.605646 0.0853437
0.473945 0.622812 0.0814832
0.563851 0.650721 0.0758373
0.661112 0.683787 0.0697948
0.753323 0.707195 0.0648661
0.804395 0.724895 0.0615396
0.868513 0.752514 0.0571756
0.951476 0.68455 0.0666056
1 0.617426 0.0767376
1 0.572045 0.0835431
1 0.554955 0.0850996
1 0.550301 0.0856031
0.0922103 0.582956 0.092195
0.0919661 0.588067 0.0919203
0.0921035 0.604944 0.0908217
0.133394 0.616861 0.0893721
0.254765 0.626642 0.086305
0.369558 0.639429 0.0826276
0.460075 0.668818 0.0771954
0.541451 0.707561 0.0705425
0.625605 0.736446 0.0648356
0.716594 0.763867 0.0589303
0.79794 0.783627 0.0542306
0.840589 0.794003 0.0520943
0.898497 0.817166 0.0481422
0.975341 0.74403 0.0597086
1 0.667185 0.0731975
1 0.632105 0.0776379
1 0.620996 0.0789044
0.0857252 0.67895 0.0857252
0.0851301 0.687236 0.0851301
0.0830243 0.71162 0.082948
0.0847028 0.735286 0.0808576
0.139666 0.742351 0.0787976
0.27422 0.739269 0.0751202
0.371511 0.77731 0.0679179
0.46389 0.810117 0.0610971
0.558923 0.830182 0.0554818
0.652995 0.840085 0.0511482
0.741207 0.845716 0.0477302
0.819699 0.853178 0.0445258
0.866941 0.854963 0.0431678
0.925978 0.871397 0.0400092
0.997436 0.796475 0.0534676
1 0.728618 0.0648051
1 0.710323 0.0674449
0.0780041 0.766491 0.0779889
0.0775464 0.771603 0.0775311
0.0758831 0.7897 0.0757763
0.0742046 0.812192 0.0734874
0.0783551 0.836912 0.0706493
0.113542 0.863554 0.066453
0.210132 0.889281 0.0601816
0.319936 0.90956 0.0536049
0.437156 0.919081 0.0480507
0.554253 0.921263 0.0438087
0.662608 0.919188 0.040238
0.759167 0.914504 0.0378271
0.842313 0.908339 0.0363012
0.894591 0.90898 0.0349737
0.95436 0.918196 0.0331884
0.997482 0.841154 0.0465705
1 0.80827 0.0520943
0.061738 0.916716 0.0617227
0.0615854 0.918349 0.0615702
0.0603342 0.929137 0.0603037
0.0591592 0.939681 0.0590677
0.0581216 0.950683 0.0577859
0.0589303 0.958953 0.0567483
0.0834363 0.963333 0.055436
0.18851 0.964309 0.0514076
0.337636 0.961593 0.0462196
0.489845 0.955764 0.0414282
0.614954 0.951095 0.037705
0.723949 0.9458 0.0347448
0.817288 0.940291 0.0326848
0.883375 0.935363 0.0316014
0.937881 0.949676 0.0287938
0.977478 0.937789 0.0306249
0.985458 0.905547 0.0358129
0.0152132 0.0338903 0.0484169
0.0172427 0.0343175 0.0498512
0.0570687 0.0400397 0.0654307
0.115434 0.051667 0.0680247
0.189822 0.0666056 0.0775158
0.275212 0.0681315 0.0744793
0.369375 0.0722972 0.0730602
0.449287 0.0841688 0.0796368
0.52517 0.0950942 0.0898756
0.6121 0.112642 0.108507
0.695171 0.128664 0.130358
0.779553 0.147311 0.153414
0.854582 0.158846 0.166445
0.916762 0.168322 0.175448
0.971969 0.176776 0.180819
1 0.184558 0.183795
1 0.187442 0.181598
0.0157626 0.0372778 0.0511025
0.0187991 0.0432593 0.0589303
0.0420081 0.0475929 0.0705577
0.107164 0.0616617 0.0745098
0.179828 0.0721599 0.0783246
0.263035 0.0685588 0.0668345
0.356161 0.0709239 0.0640726
0.434669 0.0844892 0.0708934
0.524132 0.0971542 0.0870985
0.614435 0.11426 0.106035
0.697002 0.128344 0.126726
0.780804 0.146746 0.150134
0.856245 0.158389 0.163119
0.920134 0.167895 0.17023
0.976471 0.176013 0.173495
1 0.184222 0.174914
1 0.190326 0.171984
0.0227207 0.0621042 0.0700847
0.0249638 0.0674449 0.0741588
0.0391089 0.0704814 0.0794842
0.0859388 0.0879377 0.0844434
0.169894 0.112612 0.0914931
0.269703 0.130358 0.0872053
0.375601 0.145144 0.0799115
0.480598 0.1505 0.0832837
0.563088 0.155886 0.0874189
0.64271 0.155993 0.0952621
0.722286 0.153445 0.107897
0.804166 0.153735 0.121477
0.87628 0.16231 0.134493
0.937896 0.168139 0.141451
0.99147 0.176226 0.14548
1 0.185275 0.148287
1 0.194308 0.147829
0.041062 0.132601 0.0977646
0.0401007 0.130526 0.0807507
0.047013 0.134173 0.0847639
0.0916762 0.136019 0.0889296
0.193652 0.138766 0.0908522
0.291569 0.16112 0.0897383
0.397879 0.17702 0.0865797
0.502922 0.186557 0.090486
0.591562 0.189197 0.0932174
0.664332 0.193347 0.0955367
0.744732 0.191577 0.103151
0.824872 0.19501 0.108019
0.892943 0.195529 0.110643
0.953323 0.197391 0.116411
1 0.199039 0.119387
1 0.207385 0.12224
1 0.221454 0.124758
0.0600443 0.192065 0.0870069
0.0575875 0.185092 0.0737774
0.0671855 0.217639 0.0820478
0.0975814 0.21648 0.0843671
0.215152 0.204776 0.0908827
0.336355 0.18909 0.083299
0.444099 0.208042 0.090425
0.542443 0.22472 0.0951095
0.624338 0.23624 0.0971542
0.692042 0.249561 0.0974746
0.772457 0.258289 0.0969863
0.843839 0.269032 0.0962539
0.906661 0.275242 0.0989242
0.963882 0.280415 0.101289
1 0.286061 0.103487
1 0.291768 0.106203
1 0.299138 0.10901
0.0739605 0.245121 0.0817578
0.07187 0.239048 0.0733043
0.0845808 0.287343 0.0834516
0.101717 0.288869 0.0848096
0.224094 0.272511 0.0995499
0.343221 0.261204 0.0974594
0.478553 0.242832 0.0953841
0.583963 0.248295 0.0971237
0.667948 0.262669 0.0972763
0.75021 0.276509 0.0967422
0.821973 0.290761 0.0959945
0.882048 0.303624 0.0953536
0.934371 0.317403 0.0951858
0.980438 0.332662 0.0951553
1 0.34902 0.0958419
1 0.362463 0.0970321
1 0.372 0.0986343
0.0853895 0.291142 0.0843519
0.0854505 0.291417 0.0844129
0.0928817 0.33344 0.0920882
0.1037 0.357519 0.0953689
0.219669 0.338872 0.0973831
0.355795 0.343023 0.0978866
0.476112 0.321935 0.0982681
0.603616 0.300282 0.0972
0.713573 0.295415 0.0964675
0.800473 0.307149 0.0954604
0.864393 0.318959 0.0945296
0.91899 0.332189 0.0938125
0.963912 0.347189 0.0929885
1 0.364599 0.0925917
1 0.382498 0.0929427
1 0.399115 0.0935378
1 0.407828 0.093843
0.0928054 0.332921 0.0920119
0.0936599 0.340749 0.0929427
0.0970626 0.379339 0.0966812
0.104723 0.416205 0.0975509
0.216129 0.400717 0.0974136
0.35314 0.401709 0.0969253
0.479011 0.414832 0.0949111
0.605005 0.385718 0.0945296
0.725002 0.363806 0.0939345
0.820493 0.350103 0.09308
0.894179 0.35346 0.091783
0.945251 0.365393 0.0902571
0.984649 0.379599 0.0893873
1 0.394156 0.0896315
1 0.409201 0.0906081
1 0.424613 0.0917525
1 0.429603 0.0925917
0.096788 0.375128 0.0964065
0.0972457 0.383673 0.0969253
0.0974441 0.43679 0.097322
0.102113 0.462577 0.0969711
0.217731 0.45333 0.0962539
0.349966 0.449424 0.0962844
0.499306 0.474845 0.0913863
0.596597 0.490944 0.0884871
0.718898 0.448951 0.0890059
0.820539 0.425513 0.088426
0.89633 0.406683 0.0881666
0.955566 0.403571 0.0871443
0.998688 0.409628 0.0867475
1 0.4215 0.0874495
1 0.432868 0.0894026
1 0.443976 0.0920272
1 0.450965 0.091722
0.0975357 0.410529 0.0990463
0.0975204 0.421424 0.0981155
0.0962539 0.486107 0.0962539
0.108171 0.500816 0.0958114
0.223819 0.496635 0.0946517
0.355917 0.495552 0.0932784
0.494072 0.524804 0.0883192
0.601923 0.536614 0.0847944
0.689372 0.551843 0.0814527
0.807462 0.507332 0.0824903
0.892546 0.481666 0.0826429
0.95198 0.459449 0.0835584
0.999161 0.446769 0.0850843
1 0.446403 0.0874495
1 0.453407 0.0896162
1 0.467201 0.0909743
1 0.472435 0.0905623
0.0972305 0.441703 0.0997635
0.0964523 0.480415 0.0964523
0.0951705 0.523232 0.0950332
0.10959 0.534051 0.0945144
0.224948 0.535088 0.0926986
0.356176 0.53817 0.0907301
0.47718 0.560067 0.0869917
0.593561 0.583444 0.081178
0.678187 0.594736 0.0780041
0.767849 0.61297 0.0745708
0.871778 0.562264 0.077821
0.944228 0.530053 0.0800336
0.993606 0.501488 0.0825208
1 0.480674 0.0858778
1 0.476143 0.0892653
1 0.489677 0.0894789
1 0.491661 0.0894026
0.0961776 0.488655 0.0977493
0.0945296 0.537667 0.0945296
0.0941176 0.553841 0.0936751
0.106065 0.566979 0.092958
0.222827 0.570016 0.0907912
0.354131 0.576761 0.0882277
0.468421 0.592859 0.0847334
0.573053 0.621378 0.0784619
0.678676 0.645228 0.0732891
0.748135 0.66006 0.0702678
0.826978 0.682933 0.0662699
0.919188 0.622202 0.0726329
0.979797 0.574884 0.078294
1 0.536965 0.082887
1 0.508934 0.0875868
1 0.516472 0.0879225
1 0.515587 0.087953
0.0940261 0.549783 0.0940414
0.09308 0.566415 0.09308
0.092546 0.580575 0.0924086
0.1093 0.595209 0.091249
0.224826 0.599832 0.0887922
0.353933 0.607874 0.0858473
0.464256 0.623209 0.0821851
0.558251 0.654002 0.0763256
0.657237 0.688914 0.0691997
0.751034 0.714122 0.0640269
0.804059 0.729549 0.0610819
0.866102 0.754086 0.057023
0.9505 0.685359 0.0664988
1 0.619745 0.0764324
1 0.573205 0.0831464
1 0.557443 0.084947
1 0.553948 0.0851606
0.0924849 0.57821 0.0944839
0.0919661 0.587243 0.0919509
0.0919203 0.603311 0.0911116
0.116609 0.620417 0.0894179
0.234089 0.626413 0.0866407
0.354803 0.637858 0.0833143
0.453086 0.662882 0.0784772
0.533394 0.709651 0.0707866
0.618692 0.744289 0.0641337
0.709773 0.769833 0.0584878
0.794553 0.788113 0.0538186
0.840284 0.796323 0.0518502
0.896483 0.815686 0.0482948
0.975372 0.74342 0.0597848
1 0.666865 0.0732128
1 0.634531 0.0773938
1 0.621744 0.0788281
0.0859388 0.67744 0.0859388
0.0839094 0.699901 0.0838941
0.0823072 0.720531 0.0822461
0.0819104 0.742412 0.0801709
0.119219 0.749386 0.0786755
0.240803 0.759152 0.074052
0.367788 0.765316 0.0693065
0.457313 0.805829 0.0619059
0.548409 0.834104 0.0553445
0.644526 0.846113 0.050721
0.736187 0.849378 0.0472725
0.817914 0.854276 0.0442969
0.866239 0.854734 0.0432136
0.924666 0.869108 0.040528
0.997574 0.79501 0.053666
1 0.730938 0.0645304
1 0.712139 0.0672313
0.0772412 0.773571 0.0772259
0.0760815 0.785748 0.0760662
0.0748608 0.798947 0.074815
0.0734874 0.81384 0.0731518
0.0778821 0.831357 0.0711376
0.116213 0.852186 0.0676585
0.212604 0.876463 0.0616312
0.316442 0.901854 0.0547341
0.427237 0.918898 0.0486
0.543893 0.923873 0.0438087
0.655985 0.920806 0.0403296
0.756176 0.914427 0.0379187
0.841489 0.907561 0.0363928
0.892714 0.906279 0.0355383
0.953628 0.917052 0.0333715
0.997482 0.841154 0.0465705
1 0.807645 0.0522469
0.0610056 0.924254 0.0609751
0.0603494 0.928832 0.0603342
0.0597238 0.934325 0.0597086
0.0589456 0.94168 0.0588693
0.0582742 0.948638 0.0579843
0.058793 0.956527 0.0569924
0.0752117 0.966857 0.0552987
0.160189 0.969085 0.0518959
0.30042 0.967224 0.0469825
0.462806 0.961501 0.0415961
0.597238 0.956542 0.0375982
0.710414 0.951156 0.0344854
0.810422 0.945129 0.0320592
0.882918 0.939254 0.0311894
0.935286 0.950195 0.0287175
0.976577 0.940597 0.0302281
0.98439 0.909468 0.0350652
0.0196689 0.0520943 0.0760357
0.0216983 0.051194 0.075288
0.0415961 0.0587778 0.0923476
0.145113 0.0738537 0.108492
0.215808 0.0835279 0.105577
0.308431 0.0883345 0.105028
0.405737 0.0916762 0.100008
0.501976 0.10071 0.102159
0.590188 0.109621 0.104341
0.648981 0.120317 0.108125
0.731029 0.1355 0.131609
0.809476 0.151125 0.150942
0.874311 0.159503 0.161196
0.930709 0.169329 0.169986
0.98117 0.177081 0.175219
1 0.184787 0.178347
1 0.188983 0.176989
0.0210727 0.0563058 0.0785992
0.0256199 0.0649271 0.0889296
0.0402686 0.0685893 0.0970016
0.136431 0.0816205 0.118059
0.210819 0.0928206 0.113893
0.306752 0.0959945 0.110185
0.405814 0.0949111 0.0995346
0.508171 0.104997 0.102907
0.598993 0.112139 0.104524
0.655528 0.122423 0.106462
0.736553 0.137179 0.129671
0.812818 0.151339 0.148455
0.876585 0.159197 0.15874
0.931563 0.169223 0.167956
