luts/Pocket 3 low light King.cube
TITLE "Generated by Resolve"
LUT_3D_SIZE 9
0.0114443 0.015259 0.0202335
0.0342107 0.0273899 0.0272068
0.145541 0.0591897 0.0410468
0.320851 0.0877089 0.0548409
0.505638 0.125628 0.0791333
0.684352 0.137819 0.105531
0.853788 0.155688 0.148089
0.976226 0.174472 0.164294
1 0.190494 0.164981
0.0218662 0.0629587 0.0277104
0.0370489 0.0694743 0.0313878
0.176028 0.0864576 0.0408026
0.359609 0.12987 0.0653239
0.545434 0.158114 0.086656
0.715145 0.167834 0.103899
0.875059 0.171939 0.12282
0.993805 0.180529 0.133333
1 0.200076 0.138079
0.0536812 0.174685 0.0527047
0.0682383 0.204868 0.0620584
0.214954 0.187243 0.0696117
0.442878 0.18761 0.0848096
0.636988 0.219684 0.0969863
0.794705 0.247593 0.0969711
0.924804 0.270954 0.100572
1 0.304372 0.102007
1 0.325368 0.105196
0.0841382 0.286122 0.0831464
0.0932326 0.321981 0.090425
0.236698 0.315129 0.0952316
0.471031 0.302998 0.0974441
0.697841 0.282002 0.0969863
0.870893 0.303212 0.0952621
0.977676 0.331029 0.0952316
1 0.3673 0.0961318
1 0.392554 0.0972305
0.0970779 0.379507 0.0966964
0.098558 0.413718 0.0974441
0.251011 0.43476 0.0964523
0.502861 0.460655 0.0922713
0.719402 0.429694 0.0900893
0.891539 0.390875 0.0893263
0.996399 0.397101 0.0878614
1 0.419654 0.0910353
1 0.441077 0.092256
0.0964675 0.476295 0.0964675
0.0982528 0.50399 0.0957961
0.266209 0.5243 0.092546
0.49044 0.55314 0.0862287
0.677516 0.585367 0.0788586
0.874067 0.549264 0.0786145
0.994385 0.491737 0.0830396
1 0.469596 0.0893416
1 0.479103 0.0900893
0.0935073 0.56022 0.093492
0.0940414 0.583108 0.0920729
0.2636 0.597772 0.0880598
0.477073 0.621134 0.0812085
0.661875 0.678782 0.0701915
0.806378 0.724056 0.0616007
0.952728 0.681605 0.0669566
1 0.567391 0.0834669
1 0.547692 0.0857557
0.0867628 0.666835 0.0867475
0.0831464 0.710033 0.0830396
0.158541 0.729107 0.0793622
0.373754 0.783825 0.0670329
0.563821 0.825345 0.055848
0.742809 0.842939 0.0480049
0.86833 0.856046 0.0430152
0.997269 0.797055 0.0533761
1 0.710155 0.0674754
0.0628061 0.90782 0.0627909
0.0605478 0.92694 0.0605173
0.0581216 0.951232 0.0577401
0.0925154 0.960632 0.0554513
0.360693 0.957809 0.0459297
0.624186 0.947188 0.0378882
0.820523 0.937179 0.03299
0.939834 0.949737 0.0287938
0.986038 0.902922 0.0361791
0.0152132 0.0338903 0.0484169
0.0570687 0.0400397 0.0654307
0.189822 0.0666056 0.0775158
0.369375 0.0722972 0.0730602
0.52517 0.0950942 0.0898756
0.695171 0.128664 0.130358
0.854582 0.158846 0.166445
0.971969 0.176776 0.180819
1 0.187442 0.181598
0.0227207 0.0621042 0.0700847
0.0391089 0.0704814 0.0794842
0.169894 0.112612 0.0914931
0.375601 0.145144 0.0799115
0.563088 0.155886 0.0874189
0.722286 0.153445 0.107897
0.87628 0.16231 0.134493
0.99147 0.176226 0.14548
1 0.194308 0.147829
0.0600443 0.192065 0.0870069
0.0671855 0.217639 0.0820478
0.215152 0.204776 0.0908827
0.444099 0.208042 0.090425
0.624338 0.23624 0.0971542
0.772457 0.258289 0.0969863
0.906661 0.275242 0.0989242
1 0.286061 0.103487
1 0.299138 0.10901
0.0853895 0.291142 0.0843519
0.0928817 0.33344 0.0920882
0.219669 0.338872 0.0973831
0.476112 0.321935 0.0982681
0.713573 0.295415 0.0964675
0.864393 0.318959 0.0945296
0.963912 0.347189 0.0929885
1 0.382498 0.0929427
1 0.407828 0.093843
0.096788 0.375128 0.0964065
0.0974441 0.43679 0.097322
0.217731 0.45333 0.0962539
0.499306 0.474845 0.0913863
0.718898 0.448951 0.0890059
0.89633 0.406683 0.0881666
0.998688 0.409628 0.0867475
1 0.432868 0.0894026
1 0.450965 0.091722
0.0972305 0.441703 0.0997635
0.0951705 0.523232 0.0950332
0.224948 0.535088 0.0926986
0.47718 0.560067 0.0869917
0.678187 0.594736 0.0780041
0.871778 0.562264 0.077821
0.993606 0.501488 0.0825208
1 0.476143 0.0892653
1 0.491661 0.0894026
0.0940261 0.549783 0.0940414
0.092546 0.580575 0.0924086
0.224826 0.599832 0.0887922
0.464256 0.623209 0.0821851
0.657237 0.688914 0.0691997
0.804059 0.729549 0.0610819
0.9505 0.685359 0.0664988
1 0.573205 0.0831464
1 0.553948 0.0851606
0.0859388 0.67744 0.0859388
0.0823072 0.720531 0.0822461
0.119219 0.749386 0.0786755
0.367788 0.765316 0.0693065
0.548409 0.834104 0.0553445
0.736187 0.849378 0.0472725
0.866239 0.854734 0.0432136
0.997574 0.79501 0.053666
1 0.712139 0.0672313
0.0610056 0.924254 0.0609751
0.0597238 0.934325 0.0597086
0.0582742 0.948638 0.0579843
0.0752117 0.966857 0.0552987
0.30042 0.967224 0.0469825
0.597238 0.956542 0.0375982
0.810422 0.945129 0.0320592
0.935286 0.950195 0.0287175
0.98439 0.909468 0.0350652
0.028809 0.0782483 0.112718
0.0433814 0.0804913 0.119905
0.252949 0.109071 0.152743
0.442374 0.123003 0.144137
0.636286 0.138674 0.148913
0.786343 0.14699 0.142763
0.896086 0.16228 0.154009
0.993591 0.178073 0.166308
1 0.191211 0.168185
0.0319982 0.088777 0.119249
0.0447089 0.120897 0.156786
0.241581 0.140871 0.183581
0.444495 0.143511 0.160922
0.642298 0.150408 0.154116
0.812482 0.152392 0.146944
0.903777 0.163882 0.145769
0.996872 0.177859 0.160616
1 0.191699 0.165011
0.061677 0.186709 0.188159
0.0702068 0.216526 0.216022
0.163531 0.237964 0.250904
0.407401 0.248966 0.219364
0.621942 0.218326 0.170642
0.803525 0.188769 0.142824
0.931121 0.181964 0.126116
1 0.216266 0.11548
1 0.24538 0.119707
0.0971084 0.369863 0.261631
0.0964523 0.358801 0.201938
0.100252 0.393545 0.15462
0.437125 0.359548 0.162402
0.673518 0.329137 0.127916
0.835508 0.34847 0.110887
0.94548 0.367224 0.102327
1 0.387854 0.0959945
1 0.407416 0.0970779
0.0972305 0.437812 0.201282
0.0974136 0.415534 0.159457
0.10251 0.491676 0.0973068
0.43856 0.494469 0.114275
0.684413 0.479912 0.0972
0.88098 0.432853 0.0866865
0.975723 0.44123 0.0847028
1 0.459174 0.0869154
1 0.470573 0.0903182
0.0962539 0.476783 0.19176
0.0969863 0.450507 0.141176
0.110628 0.56405 0.0930343
0.430274 0.57142 0.0995651
0.672679 0.615152 0.0774701
0.859602 0.58497 0.0759289
0.984039 0.515038 0.0815595
1 0.493904 0.0872358
1 0.512169 0.0881056
0.0957961 0.49572 0.201312
0.0950027 0.520073 0.148028
0.124331 0.620279 0.0895857
0.424247 0.630838 0.0857099
0.631128 0.693935 0.0725872
0.803159 0.743023 0.059266
0.948196 0.690547 0.0656901
1 0.577218 0.0824292
1 0.56466 0.0842756
0.091722 0.586526 0.162387
0.0878309 0.648981 0.102495
0.0759442 0.791684 0.0754711
0.297414 0.795621 0.0682994
0.518898 0.833097 0.0568856
0.716274 0.858976 0.0470893
0.865751 0.859632 0.0424048
0.999008 0.790478 0.0543679
1 0.716899 0.0664378
0.0614481 0.919875 0.0614176
0.0590829 0.939696 0.0590524
0.0568246 0.959274 0.0567025
0.0650492 0.971435 0.055024
0.216068 0.980056 0.0483711
0.540963 0.969985 0.037705
0.789166 0.956588 0.031281
0.927565 0.9514 0.0286259
0.982651 0.919738 0.0349737
0.0501869 0.14931 0.208072
0.0546273 0.145876 0.204425
0.1991 0.160464 0.255909
0.500267 0.18085 0.222599
0.690761 0.180438 0.204791
0.854307 0.186648 0.200671
0.961212 0.19379 0.198566
1 0.194583 0.185794
1 0.197223 0.17084
0.0532387 0.158373 0.215641
0.0628519 0.185122 0.249943
0.144045 0.190463 0.283909
0.500069 0.205081 0.247166
0.69218 0.193988 0.219577
0.857145 0.194232 0.21059
0.962432 0.200229 0.206775
1 0.198688 0.191485
1 0.202426 0.175387
0.0692302 0.21004 0.255589
0.0799573 0.2495 0.298482
0.10074 0.278782 0.345129
0.466728 0.275212 0.314839
0.67129 0.244282 0.266011
0.845624 0.221881 0.237659
0.958923 0.216464 0.222034
1 0.211551 0.201877
1 0.214954 0.185565
0.0947433 0.330373 0.33547
0.0973373 0.366476 0.361181
0.0974289 0.403601 0.402289
0.324758 0.406897 0.41294
0.608225 0.391012 0.363256
0.807904 0.351995 0.302861
0.958129 0.290883 0.244236
1 0.27538 0.205692
1 0.277378 0.18146
0.0950179 0.493706 0.39884
0.0931868 0.531212 0.404974
0.0941329 0.518914 0.352758
0.219272 0.540124 0.259098
0.631693 0.518715 0.244266
0.850156 0.459495 0.215366
0.977234 0.457237 0.173892
1 0.461067 0.15407
1 0.451881 0.143572
0.0885328 0.608225 0.412314
0.0914015 0.570352 0.343099
0.0926223 0.55407 0.290486
0.264149 0.61416 0.176867
0.611856 0.631983 0.165255
0.833036 0.61236 0.112917
0.983993 0.527535 0.128237
1 0.520195 0.124514
1 0.528161 0.123903
0.0885939 0.611582 0.366629
0.0907759 0.581933 0.326955
0.0911879 0.584054 0.265766
0.299062 0.663371 0.133257
0.58172 0.693049 0.14342
0.794217 0.758221 0.0677043
0.939818 0.709728 0.0702373
1 0.590784 0.0926833
1 0.589075 0.103624
0.0829786 0.687007 0.321569
0.0846876 0.671748 0.271168
0.0830396 0.703182 0.150408
0.0932021 0.856489 0.0678416
0.448356 0.851591 0.0574807
0.678187 0.869947 0.0501259
0.865278 0.872038 0.0466011
0.997314 0.791775 0.054078
1 0.722347 0.0901808
0.0589303 0.940795 0.059968
0.058793 0.942458 0.058793
0.0565347 0.960876 0.0565347
0.0475776 1 0.0473945
0.0693828 1 0.0480201
0.431907 0.994537 0.0388647
0.752087 0.970886 0.0324102
0.923354 0.95729 0.032639
0.982864 0.932097 0.0382849
0.0755474 0.230152 0.311528
0.074052 0.223926 0.301595
0.143175 0.231647 0.333181
0.440787 0.259541 0.313115
0.746975 0.216785 0.231891
0.890547 0.209903 0.218173
0.98117 0.213382 0.21355
1 0.219699 0.209308
1 0.23061 0.211704
0.0778821 0.238102 0.322667
0.0827039 0.257435 0.346471
0.118914 0.255177 0.351339
0.434211 0.27155 0.342489
0.740963 0.229938 0.25095
0.886961 0.216953 0.232273
0.982238 0.22092 0.227085
1 0.226841 0.222446
1 0.236698 0.225864
0.0847639 0.266712 0.338384
0.09131 0.298497 0.376516
0.0986038 0.332341 0.434363
0.353719 0.3028 0.441184
0.716487 0.286397 0.315679
0.872602 0.245899 0.273869
0.979034 0.242908 0.263325
1 0.243275 0.255238
1 0.250217 0.252766
0.0959945 0.337026 0.398764
0.0975052 0.376898 0.440787
0.0971542 0.412497 0.489281
0.216999 0.428611 0.526482
0.648463 0.40383 0.435859
0.834836 0.365301 0.383825
0.972442 0.309438 0.334844
1 0.274525 0.295537
1 0.277424 0.290013
0.0961471 0.455833 0.474037
0.0946059 0.492958 0.497169
0.0925154 0.532616 0.535958
0.0945754 0.569436 0.580941
0.535912 0.547524 0.547692
0.763729 0.530541 0.509133
0.941176 0.494453 0.45037
1 0.418051 0.362936
1 0.383307 0.321401
0.0877546 0.60647 0.537682
0.0853285 0.637995 0.538018
0.0818341 0.677104 0.557
0.0835584 0.661448 0.520623
0.45864 0.653086 0.42092
0.786343 0.651118 0.35021
0.95903 0.593591 0.350011
1 0.579522 0.285176
1 0.56437 0.262898
0.0739605 0.754833 0.586969
0.0763561 0.734737 0.546151
0.0810254 0.691707 0.493812
0.0843824 0.673869 0.445136
0.477409 0.715465 0.327062
0.744518 0.763775 0.277913
0.926131 0.748012 0.137942
1 0.621302 0.171847
1 0.631144 0.173938
0.0685588 0.812543 0.508324
0.0722515 0.786023 0.436286
0.07393 0.776165 0.378912
0.068101 0.847059 0.216739
0.235187 0.901015 0.0671092
0.611582 0.881819 0.131136
0.845853 0.885832 0.0874342
0.992996 0.813413 0.0740826
1 0.748058 0.126177
0.0539101 0.967041 0.209216
0.0545815 0.966796 0.144717
0.0546273 0.97467 0.0618296
0.0533761 0.985733 0.0533761
0.0493629 1 0.0469673
0.194873 1 0.043183
0.696559 0.985504 0.0323949
0.92401 0.9673 0.0337224
0.985672 0.946242 0.0388495
0.0921187 0.301396 0.402777
0.0910201 0.295232 0.391501
0.121691 0.287755 0.387945
0.413474 0.299641 0.400702
0.673259 0.290211 0.304356
0.925277 0.238117 0.209384
1 0.236683 0.203601
1 0.238865 0.226368
1 0.25565 0.282734
0.0930343 0.308064 0.417624
0.0947127 0.320363 0.432639
0.104646 0.314504 0.421485
0.356466 0.303899 0.443809
0.656443 0.311925 0.338125
0.921019 0.248386 0.229068
1 0.244373 0.227878
1 0.245335 0.253803
1 0.265095 0.309834
0.0946365 0.321233 0.41738
0.0966049 0.342367 0.446494
0.0974899 0.372595 0.502068
0.238148 0.357794 0.502998
0.621897 0.359701 0.413947
0.906218 0.277684 0.287541
0.992691 0.264591 0.291341
1 0.263432 0.312108
1 0.29015 0.368338
0.0975509 0.377813 0.471717
0.0969711 0.41442 0.512154
0.0961776 0.440864 0.55256
0.139147 0.461234 0.608057
0.585687 0.422019 0.551278
0.857206 0.389685 0.445869
0.973297 0.357107 0.422827
1 0.319738 0.413748
1 0.327092 0.424018
0.0960708 0.451972 0.533989
0.0942092 0.493126 0.5738
0.0920882 0.530007 0.621042
0.0926223 0.556649 0.666865
0.428397 0.553277 0.69015
0.794507 0.52401 0.586267
0.938399 0.505882 0.560113
1 0.438514 0.49929
1 0.402686 0.465507
0.0893873 0.574914 0.614816
0.087602 0.600458 0.626963
0.0847028 0.632303 0.659709
0.0810254 0.669917 0.711131
0.237247 0.692805 0.741772
0.70988 0.672572 0.661173
0.901411 0.652445 0.619913
1 0.600092 0.54667
1 0.561227 0.494697
0.0778363 0.708019 0.676753
0.0745556 0.741238 0.677943
0.0696422 0.784283 0.692744
0.0654459 0.818326 0.721172
0.0892653 0.787671 0.661051
0.663935 0.763058 0.548791
0.897246 0.782696 0.40502
1 0.721355 0.416724
1 0.717372 0.399191
0.0599985 0.863172 0.745418
0.0569924 0.886519 0.747189
0.0580301 0.886091 0.670314
0.0610819 0.873518 0.556191
0.0586404 0.907851 0.414664
0.479469 0.911681 0.288075
0.81059 0.892088 0.315084
0.991684 0.85301 0.134478
1 0.783017 0.286839
0.0456703 0.986496 0.654521
0.0472572 0.988113 0.509682
0.0488899 0.99321 0.346303
0.0495766 0.997604 0.237568
0.0469978 1 0.0469978
0.0978256 1 0.0454261
0.597467 1 0.0376593
0.914778 0.979339 0.0686961
0.988937 0.961196 0.049485
0.0971389 0.359564 0.48275
0.0972 0.356405 0.470024
0.105409 0.349035 0.453437
0.296162 0.352361 0.472129
0.620371 0.366064 0.380941
0.876356 0.300816 0.282902
1 0.264668 0.280674
1 0.263066 0.315587
1 0.287404 0.375708
0.0972915 0.367437 0.50219
0.0975662 0.37612 0.510658
0.098436 0.368841 0.488136
0.240284 0.364569 0.494652
0.60061 0.379965 0.4168
0.860792 0.316243 0.328756
1 0.272465 0.319219
1 0.27509 0.35288
1 0.296727 0.406821
0.0975814 0.377874 0.501518
0.0973068 0.39263 0.52401
0.0969863 0.414664 0.569253
0.162066 0.409339 0.559304
0.585458 0.396368 0.506691
0.816022 0.375036 0.441718
1 0.309743 0.414084
1 0.29543 0.419623
1 0.315969 0.464836
0.0967422 0.425589 0.547601
0.0957809 0.457237 0.585473
0.0950637 0.469703 0.610956
0.0947433 0.490608 0.677501
0.458244 0.440543 0.655207
0.792126 0.433616 0.577539
0.988846 0.380056 0.538308
1 0.348013 0.513344
1 0.359838 0.547692
0.0942855 0.488197 0.609903
0.0924086 0.524392 0.651133
0.0904402 0.552911 0.695476
0.0887465 0.571252 0.743069
0.322606 0.571862 0.813626
0.739696 0.513893 0.759762
0.97406 0.478523 0.669657
1 0.462043 0.628565
1 0.46627 0.637903
0.0892653 0.569833 0.689219
0.0867323 0.60209 0.729793
0.0842756 0.628168 0.771054
0.0819257 0.649592 0.815976
0.201709 0.661143 0.84535
0.621622 0.661082 0.837446
0.927108 0.623789 0.755749
1 0.607416 0.710765
1 0.593484 0.683055
0.0798657 0.676768 0.775143
0.0777142 0.699123 0.781888
0.0745251 0.728267 0.808713
0.0704662 0.761837 0.847684
0.0670329 0.796506 0.881071
0.444144 0.808942 0.859205
0.840513 0.793256 0.771771
0.9738 0.764782 0.727123
1 0.731487 0.681254
0.0649577 0.809262 0.858579
0.0615244 0.838529 0.856306
0.0576791 0.870604 0.860029
0.0532692 0.90544 0.859205
0.0501106 0.932601 0.852461
0.11751 0.934585 0.714076
0.746532 0.906111 0.580591
0.969223 0.880751 0.463844
1 0.841321 0.529931
0.0483711 0.941299 0.889113
0.0456245 0.964294 0.879103
0.0425727 0.99115 0.860548
0.0420081 1 0.7561
0.0438239 1 0.560265
0.0472725 1 0.270832
0.44741 1 0.239094
0.885664 0.984939 0.353384
0.987243 0.970504 0.308751
0.0967422 0.423911 0.56524
0.0967422 0.421027 0.550317
0.0979324 0.415564 0.528344
0.216358 0.414588 0.514565
0.566949 0.437522 0.46183
0.793606 0.409033 0.452598
0.974212 0.352605 0.450309
1 0.307485 0.480537
1 0.323583 0.53901
0.0964523 0.43151 0.590036
0.0961776 0.437644 0.595346
0.0964828 0.432258 0.568994
0.169314 0.421256 0.544442
0.563897 0.428061 0.514809
0.781811 0.418341 0.49984
0.971328 0.362509 0.495506
1 0.309697 0.518822
1 0.32546 0.570565
0.0961624 0.440284 0.592828
0.0958114 0.451041 0.613336
0.0950179 0.467277 0.65333
0.102358 0.464225 0.630335
0.452018 0.418753 0.629374
0.778943 0.418708 0.591745
0.968551 0.374685 0.575418
1 0.310735 0.590967
1 0.33434 0.619455
0.0946365 0.478035 0.631891
0.0934768 0.503075 0.667033
0.0931716 0.503807 0.681224
0.0918135 0.523842 0.759289
0.306065 0.497688 0.776562
0.729747 0.438407 0.779965
0.967742 0.398749 0.708049
1 0.323964 0.69865
1 0.370489 0.689174
0.091371 0.53489 0.7037
0.0891127 0.566827 0.753552
0.0876326 0.583535 0.789593
0.0870222 0.588022 0.816648
0.154452 0.593332 0.90602
0.596658 0.523552 0.879622
0.948043 0.468315 0.869612
1 0.385489 0.817716
1 0.463401 0.765026
0.0868238 0.594583 0.787961
0.084123 0.623529 0.830671
0.0819104 0.644968 0.863172
0.0802014 0.66006 0.892683
0.0873579 0.668132 0.9243
0.514488 0.662348 0.955306
0.876356 0.605722 0.916197
1 0.531456 0.868544
1 0.587259 0.811719
0.0797589 0.66862 0.871031
0.0761273 0.701717 0.900099
0.0737621 0.723323 0.92163
0.0719921 0.737163 0.941482
0.0704814 0.750881 0.958923
0.379797 0.76466 0.958938
0.792416 0.77438 0.909163
0.992096 0.72549 0.876585
1 0.734386 0.841566
0.0674296 0.779263 0.937636
0.0650645 0.799847 0.940215
0.0624704 0.821683 0.948638
0.0595102 0.844053 0.960037
0.0565652 0.868162 0.971664
0.0750286 0.894514 0.967041
0.6168 0.894759 0.918059
0.923705 0.893812 0.849546
1 0.873549 0.818143
0.0541695 0.886534 0.981125
0.0514687 0.909255 0.974441
0.0483711 0.932952 0.970871
0.0451362 0.960662 0.962539
0.0417487 0.987564 0.951171
0.0392615 1 0.926162
0.0733806 1 0.771328
0.832242 0.995499 0.660212
0.982437 0.975631 0.6654
0.0937972 0.495003 0.657832
0.0940871 0.492226 0.638956
0.0943465 0.487892 0.610727
0.143114 0.479728 0.575982
0.443214 0.480003 0.620005
0.763668 0.463813 0.6094
0.947784 0.422446 0.626337
1 0.333547 0.67274
1 0.344671 0.76553
0.0931563 0.503349 0.68954
0.0930495 0.506874 0.693874
0.0935225 0.502297 0.659815
0.110582 0.492775 0.62092
0.391974 0.475761 0.665812
0.774777 0.44242 0.686625
0.959182 0.407019 0.684047
1 0.323507 0.721492
1 0.345892 0.800137
0.0929427 0.509377 0.702617
0.0924239 0.516487 0.725826
0.0912032 0.532265 0.771542
0.091722 0.528847 0.747692
0.290257 0.491112 0.740719
0.691279 0.439277 0.812528
0.964813 0.383948 0.804471
1 0.315938 0.80705
1 0.352102 0.852903
0.0915084 0.530587 0.72752
0.0899977 0.550668 0.768963
0.0900282 0.54818 0.784848
0.088304 0.56733 0.863661
0.155673 0.5514 0.888472
0.573266 0.464286 0.895018
0.914519 0.417899 0.937896
1 0.324224 0.909712
1 0.37908 0.905592
0.0875257 0.58294 0.814679
0.0852979 0.606332 0.857328
0.0842756 0.616617 0.885069
0.0846723 0.609369 0.892882
0.0850843 0.618708 0.979934
0.471168 0.55288 0.998718
0.830289 0.499275 0.990082
1 0.395254 0.987335
1 0.437736 0.945571
0.0829175 0.630869 0.885847
0.0801404 0.657938 0.923064
0.078233 0.675364 0.947585
0.0773175 0.682628 0.966079
0.0774395 0.680385 0.984024
0.391592 0.674846 1
0.786358 0.609979 0.993744
1 0.527794 1
1 0.531212 0.961379
0.0769665 0.688945 0.949538
0.0738231 0.717571 0.97261
0.0717327 0.735576 0.988495
0.0704967 0.74612 0.999466
0.0695811 0.75285 1
0.259312 0.758434 1
0.72575 0.7626 0.998367
0.968429 0.709346 0.979522
1 0.66363 0.960678
0.0684977 0.764065 0.994461
0.0655985 0.789014 1
0.0634623 0.806851 1
0.0620432 0.817121 1
0.060853 0.827207 1
0.092256 0.840055 1
0.5794 0.854093 0.997375
0.910018 0.882322 0.94287
1 0.841367 0.944793
0.0579385 0.85153 1
0.0552071 0.874205 1
0.0530251 0.891066 1
0.0508431 0.908064 1
0.0485389 0.92636 1
0.0462196 0.94609 1
0.24979 0.963134 1
0.808835 0.963439 0.954864
0.975174 0.975906 0.919982
