luts/Pocket 3 low light King.cube
TITLE "Generated by Resolve"
LUT_3D_SIZE 5
0.0114443 0.015259 0.0202335
0.145541 0.0591897 0.0410468
0.505638 0.125628 0.0791333
0.853788 0.155688 0.148089
1 0.190494 0.164981
0.0536812 0.174685 0.0527047
0.214954 0.187243 0.0696117
0.636988 0.219684 0.0969863
0.924804 0.270954 0.100572
1 0.325368 0.105196
0.0970779 0.379507 0.0966964
0.251011 0.43476 0.0964523
0.719402 0.429694 0.0900893
0.996399 0.397101 0.0878614
1 0.441077 0.092256
0.0935073 0.56022 0.093492
0.2636 0.597772 0.0880598
0.661875 0.678782 0.0701915
0.952728 0.681605 0.0669566
1 0.547692 0.0857557
0.0628061 0.90782 0.0627909
0.0581216 0.951232 0.0577401
0.360693 0.957809 0.0459297
0.820523 0.937179 0.03299
0.986038 0.902922 0.0361791
0.028809 0.0782483 0.112718
0.252949 0.109071 0.152743
0.636286 0.138674 0.148913
0.896086 0.16228 0.154009
1 0.191211 0.168185
0.061677 0.186709 0.188159
0.163531 0.237964 0.250904
0.621942 0.218326 0.170642
0.931121 0.181964 0.126116
1 0.24538 0.119707
0.0972305 0.437812 0.201282
0.10251 0.491676 0.0973068
0.684413 0.479912 0.0972
0.975723 0.44123 0.0847028
1 0.470573 0.0903182
0.0957961 0.49572 0.201312
0.124331 0.620279 0.0895857
0.631128 0.693935 0.0725872
0.948196 0.690547 0.0656901
1 0.56466 0.0842756
0.0614481 0.919875 0.0614176
0.0568246 0.959274 0.0567025
0.216068 0.980056 0.0483711
0.789166 0.956588 0.031281
0.982651 0.919738 0.0349737
0.0755474 0.230152 0.311528
0.143175 0.231647 0.333181
0.746975 0.216785 0.231891
0.98117 0.213382 0.21355
1 0.23061 0.211704
0.0847639 0.266712 0.338384
0.0986038 0.332341 0.434363
0.716487 0.286397 0.315679
0.979034 0.242908 0.263325
1 0.250217 0.252766
0.0961471 0.455833 0.474037
0.0925154 0.532616 0.535958
0.535912 0.547524 0.547692
0.941176 0.494453 0.45037
1 0.383307 0.321401
0.0739605 0.754833 0.586969
0.0810254 0.691707 0.493812
0.477409 0.715465 0.327062
0.926131 0.748012 0.137942
1 0.631144 0.173938
0.0539101 0.967041 0.209216
0.0546273 0.97467 0.0618296
0.0493629 1 0.0469673
0.696559 0.985504 0.0323949
0.985672 0.946242 0.0388495
0.0971389 0.359564 0.48275
0.105409 0.349035 0.453437
0.620371 0.366064 0.380941
1 0.264668 0.280674
1 0.287404 0.375708
0.0975814 0.377874 0.501518
0.0969863 0.414664 0.569253
0.585458 0.396368 0.506691
1 0.309743 0.414084
1 0.315969 0.464836
0.0942855 0.488197 0.609903
0.0904402 0.552911 0.695476
0.322606 0.571862 0.813626
0.97406 0.478523 0.669657
1 0.46627 0.637903
0.0798657 0.676768 0.775143
0.0745251 0.728267 0.808713
0.0670329 0.796506 0.881071
0.840513 0.793256 0.771771
1 0.731487 0.681254
0.0483711 0.941299 0.889113
0.0425727 0.99115 0.860548
0.0438239 1 0.560265
0.44741 1 0.239094
0.987243 0.970504 0.308751
0.0937972 0.495003 0.657832
0.0943465 0.487892 0.610727
0.443214 0.480003 0.620005
0.947784 0.422446 0.626337
1 0.344671 0.76553
0.0929427 0.509377 0.702617
0.0912032 0.532265 0.771542
0.290257 0.491112 0.740719
0.964813 0.383948 0.804471
1 0.352102 0.852903
0.0875257 0.58294 0.814679
0.0842756 0.616617 0.885069
0.0850843 0.618708 0.979934
0.830289 0.499275 0.990082
1 0.437736 0.945571
0.0769665 0.688945 0.949538
0.0717327 0.735576 0.988495
0.0695811 0.75285 1
0.72575 0.7626 0.998367
1 0.66363 0.960678
0.0579385 0.85153 1
0.0530251 0.891066 1
0.0485389 0.92636 1
0.24979 0.963134 1
0.975174 0.975906 0.919982
