luts/Protect Highlights 01.cube
TITLE "Generated by Resolve"
LUT_3D_SIZE 5
0 0 0
0.251621 0.00163272 0.00163272
0.506081 0.00608835 0.00608835
0.761578 0.0115816 0.0115816
1 0.0175631 0.0175631
0.0138399 0.263828 0.0138399
0.269337 0.269337 0.0193484
0.523903 0.273899 0.0239109
0.775952 0.275944 0.0259556
1 0.275273 0.0252842
0.0261845 0.526177 0.0261845
0.274037 0.524041 0.0240482
0.518334 0.518334 0.0183413
0.758419 0.508415 0.00842298
0.985504 0.485496 0
0.00227359 0.75227 0.00227359
0.222843 0.72285 0
0.431525 0.681529 0
0.63714 0.63714 0
0.845869 0.595865 0
0 0.871366 0
0.0830549 0.833066 0
0.31252 0.812528 0
0.569451 0.819455 0
0.85597 0.85597 0
9.15541e-05 9.15541e-05 0.25008
0.252903 0.00291447 0.252903
0.507958 0.00796521 0.257954
0.763638 0.0136416 0.26363
1 0.0192721 0.269261
0.0158999 0.265888 0.265888
0.271092 0.271092 0.271092
0.524727 0.274723 0.274723
0.77615 0.276143 0.276143
1 0.274083 0.274083
0.0256657 0.525658 0.275654
0.272587 0.522591 0.272587
0.51548 0.51548 0.265476
0.752804 0.5028 0.252796
0.97377 0.473762 0.223758
0 0.744595 0.244587
0.209598 0.709606 0.209598
0.416464 0.666468 0.166461
0.6224 0.6224 0.122393
0.833875 0.583871 0.0838636
0 0.857313 0.107301
0.0733196 0.823331 0.0733196
0.311666 0.811673 0.0616617
0.578225 0.828229 0.0782177
0.875303 0.875303 0.125292
0.000854505 0.000854505 0.500847
0.254475 0.00448615 0.504479
0.509667 0.00967422 0.509667
0.765698 0.0157015 0.515694
1 0.0209354 0.520928
0.0175937 0.267582 0.517586
0.272648 0.272648 0.522652
0.525551 0.275547 0.525551
0.775906 0.275898 0.525902
1 0.272679 0.522683
0.0250706 0.525063 0.525063
0.270695 0.520699 0.520699
0.512169 0.512169 0.512169
0.745266 0.495262 0.495262
0.960571 0.460563 0.460563
0 0.734142 0.484138
0.195392 0.695399 0.445396
0.401328 0.651331 0.401328
0.608301 0.608301 0.358297
0.824018 0.574014 0.32401
0 0.844327 0.344305
0.0656291 0.815641 0.315633
0.314504 0.814511 0.314504
0.590707 0.840711 0.340703
0.89633 0.89633 0.396323
0.00170901 0.00170901 0.751705
0.256199 0.00621042 0.756207
0.511711 0.0117189 0.761715
0.767636 0.0176394 0.767636
1 0.0225071 0.772503
0.0194858 0.269474 0.769482
0.273884 0.273884 0.773892
0.525994 0.27599 0.775998
0.775097 0.27509 0.775097
1 0.270817 0.770825
0.0240177 0.52401 0.774014
0.268101 0.518105 0.768109
0.508171 0.508171 0.758175
0.734905 0.484901 0.734905
0.946487 0.446479 0.696483
0 0.722133 0.722133
0.180697 0.680705 0.680705
0.386297 0.636301 0.636301
0.595193 0.595193 0.595193
0.816037 0.566033 0.566033
0 0.832425 0.582422
0.0624399 0.812451 0.562448
0.319615 0.819623 0.569619
0.606973 0.856977 0.606973
0.918227 0.918227 0.668223
0.00303655 0.00303655 1
0.257847 0.0078584 1
0.513787 0.0137942 1
0.769314 0.0193179 1
1 0.0238804 1
0.0212253 0.271214 1
0.274784 0.274784 1
0.526177 0.276173 1
0.77406 0.274052 1
1 0.268421 1
0.0225223 0.522515 1
0.265339 0.515343 1
0.502403 0.502403 1
0.723064 0.47306 0.973068
0.931777 0.431769 0.931777
0 0.708812 0.958816
0.165621 0.665629 0.915633
0.371588 0.621592 0.871595
0.583246 0.583246 0.833249
0.812543 0.562539 0.812543
0 0.822843 0.822843
0.0617685 0.81178 0.81178
0.328817 0.828824 0.828824
0.62649 0.876493 0.876493
0.939116 0.939116 0.939116
