luts/Protect Highlights 01.cube
TITLE "Generated by Resolve"
LUT_3D_SIZE 9
0 0 0
0.125383 0.000396735 0.000396735
0.251621 0.00163272 0.00163272
0.378622 0.00363165 0.00363165
0.506081 0.00608835 0.00608835
0.63386 0.00886549 0.00886549
0.761578 0.0115816 0.0115816
0.889616 0.0146181 0.0146181
1 0.0175631 0.0175631
0.00450141 0.129488 0.00450141
0.132097 0.132097 0.0071107
0.259678 0.134676 0.00968948
0.387686 0.137682 0.0126955
0.515724 0.140719 0.0157321
0.643336 0.143328 0.0183413
0.770947 0.145937 0.0209506
0.898161 0.14815 0.0231632
1 0.149874 0.0248875
0.0138399 0.263828 0.0138399
0.141802 0.266804 0.0168154
0.269337 0.269337 0.0193484
0.396841 0.271839 0.0218509
0.523903 0.273899 0.0239109
0.650126 0.27512 0.0251316
0.775952 0.275944 0.0259556
0.901061 0.276051 0.0260624
1 0.275273 0.0252842
0.0226749 0.397665 0.0226749
0.149447 0.399451 0.0244602
0.275563 0.400565 0.0255741
0.401129 0.401129 0.0261387
0.525902 0.4009 0.0259098
0.649607 0.399603 0.0246128
0.772671 0.397665 0.0226749
0.894774 0.394766 0.0197757
1 0.390646 0.0156558
0.0261845 0.526177 0.0261845
0.150439 0.525444 0.025452
0.274037 0.524041 0.0240482
0.396704 0.521706 0.0217136
0.518334 0.518334 0.0183413
0.638987 0.513985 0.0139925
0.758419 0.508415 0.00842298
0.874723 0.499718 0
0.985504 0.485496 0
0.0206607 0.645655 0.0206607
0.141802 0.64181 0.0168154
0.26215 0.637156 0.0121614
0.380545 0.630549 0.00555428
0.495186 0.620188 0
0.604501 0.604501 0
0.710445 0.585443 0
0.81442 0.564416 0
0.917433 0.542428 0
0.00227359 0.75227 0.00227359
0.114748 0.739757 0
0.222843 0.72285 0
0.328038 0.703044 0
0.431525 0.681529 0
0.534295 0.659297 0
0.63714 0.63714 0
0.740688 0.615686 0
0.845869 0.595865 0
0 0.820264 0
0.0484932 0.798505 0
0.151202 0.776211 0
0.254108 0.754116 0
0.35819 0.733196 0
0.464347 0.714351 0
0.573953 0.698955 0
0.688777 0.688777 0
0.811582 0.68658 0
0 0.871366 0
0 0.85095 0
0.0830549 0.833066 0
0.194354 0.819364 0
0.31252 0.812528 0
0.437705 0.812711 0
0.569451 0.819455 0
0.70837 0.833371 0
0.85597 0.85597 0
0 0 0.124773
0.125811 0.000823987 0.125811
0.252216 0.00222782 0.127214
0.379416 0.00442512 0.129412
0.507012 0.00701915 0.132006
0.634653 0.00965896 0.134646
0.7626 0.012604 0.137591
0.890639 0.0156405 0.140627
1 0.0184024 0.143389
0.00534066 0.130327 0.130327
0.132906 0.132906 0.132906
0.2607 0.135698 0.135698
0.388739 0.138735 0.138735
0.516716 0.141711 0.141711
0.644266 0.144259 0.144259
0.771771 0.146761 0.146761
0.898848 0.148836 0.148836
1 0.150072 0.150072
0.0148775 0.264866 0.139864
0.142519 0.267521 0.142519
0.270222 0.270222 0.14522
0.397589 0.272587 0.147585
0.524483 0.274479 0.149477
0.650523 0.275517 0.150515
0.776104 0.276097 0.151095
0.900908 0.275898 0.150896
1 0.274617 0.149615
0.0233616 0.398352 0.148348
0.149752 0.399756 0.149752
0.275822 0.400824 0.15082
0.401175 0.401175 0.151171
0.525444 0.400443 0.150439
0.649073 0.399069 0.149065
0.771771 0.396765 0.146761
0.893523 0.393515 0.143511
1 0.38909 0.139086
0.0260777 0.52607 0.151064
0.150057 0.525063 0.150057
0.273396 0.5234 0.148394
0.395758 0.52076 0.145754
0.516899 0.516899 0.141894
0.637263 0.512261 0.137255
0.755749 0.505745 0.130739
0.870588 0.495583 0.120577
0.979919 0.479912 0.104906
0.0194858 0.64448 0.144472
0.140383 0.640391 0.140383
0.260334 0.63534 0.135332
0.377584 0.627588 0.127581
0.490135 0.615137 0.115129
0.598306 0.598306 0.0982986
0.703563 0.578561 0.0785534
0.807065 0.557061 0.0570535
0.90985 0.534844 0.0348363
0 0.748898 0.123888
0.109422 0.734432 0.109422
0.216266 0.716274 0.0912642
0.320806 0.695811 0.0708019
0.424033 0.674037 0.0490272
0.526741 0.651743 0.0267338
0.629679 0.629679 0.00466926
0.733684 0.608682 0
0.839796 0.589792 0
0 0.812955 0.0629435
0.0409247 0.790936 0.0409247
0.143679 0.768688 0.018677
0.24686 0.746868 0
0.351415 0.726421 0
0.458457 0.708461 0
0.569665 0.694667 0
0.687572 0.687572 0
0.812573 0.687572 0
0 0.864302 0
0 0.844663 0
0.0778668 0.827878 0
0.190784 0.815793 0
0.311696 0.811704 0
0.439399 0.814404 0
0.573465 0.823468 0
0.715251 0.840253 0
0.865049 0.865049 0
9.15541e-05 9.15541e-05 0.25008
0.126284 0.00129702 0.251286
0.252903 0.00291447 0.252903
0.38024 0.0052491 0.255238
0.507958 0.00796521 0.257954
0.635615 0.0106203 0.260609
0.763638 0.0136416 0.26363
0.89163 0.0166323 0.266621
1 0.0192721 0.269261
0.00624094 0.131228 0.256229
0.133806 0.133806 0.258808
0.261723 0.136721 0.261723
0.389776 0.139773 0.264775
0.517601 0.142596 0.267597
0.645151 0.145144 0.270146
0.772519 0.147509 0.272511
0.899428 0.149416 0.274418
1 0.150469 0.275471
0.0158999 0.265888 0.265888
0.143481 0.268482 0.268482
0.271092 0.271092 0.271092
0.398291 0.273289 0.273289
0.524727 0.274723 0.274723
0.650797 0.275792 0.275792
0.77615 0.276143 0.276143
0.900557 0.275547 0.275547
1 0.274083 0.274083
0.0238651 0.398856 0.273854
0.150195 0.400198 0.275196
0.276005 0.401007 0.276005
0.401068 0.401068 0.276066
0.525078 0.400076 0.275074
0.648432 0.398428 0.273426
0.770809 0.395804 0.270802
0.891981 0.391974 0.266972
1 0.387366 0.262364
0.0256657 0.525658 0.275654
0.149554 0.524559 0.274556
0.272587 0.522591 0.272587
0.394644 0.519646 0.269642
0.51548 0.51548 0.265476
0.635462 0.51046 0.260456
0.752804 0.5028 0.252796
0.865507 0.490501 0.240497
0.97377 0.473762 0.223758
0.0180972 0.643091 0.268086
0.138781 0.638788 0.263783
0.258122 0.633127 0.258122
0.374151 0.624155 0.249149
0.48481 0.609812 0.234806
0.591745 0.591745 0.216739
0.696361 0.571359 0.196353
0.799588 0.549584 0.174578
0.902281 0.527276 0.15227
0 0.744595 0.244587
0.103746 0.728756 0.228748
0.209598 0.709606 0.209598
0.313481 0.688487 0.188479
0.416464 0.666468 0.166461
0.519219 0.644221 0.144213
0.6224 0.6224 0.122393
0.726894 0.601892 0.101884
0.833875 0.583871 0.0838636
0 0.805585 0.180575
0.033341 0.783352 0.158343
0.136172 0.761181 0.136172
0.239796 0.739803 0.114794
0.345083 0.720088 0.095079
0.453208 0.703212 0.0782025
0.565988 0.69099 0.06598
0.686732 0.686732 0.0617227
0.814252 0.68925 0.0642405
0 0.857313 0.107301
0 0.838605 0.0885939
0.0733196 0.823331 0.0733196
0.188602 0.813611 0.0635996
0.311666 0.811673 0.0616617
0.441352 0.816358 0.0663462
0.578225 0.828229 0.0782177
0.723201 0.848203 0.0981918
0.875303 0.875303 0.125292
0.000427253 0.000427253 0.375418
0.12665 0.00166323 0.376654
0.253681 0.00369268 0.378683
0.38114 0.00614939 0.38114
0.508919 0.00892653 0.383917
0.636637 0.0116426 0.386633
0.764675 0.0146792 0.38967
0.892622 0.0176242 0.392615
1 0.0200656 0.395056
0.00717174 0.132158 0.382162
0.134752 0.134752 0.384756
0.26276 0.137758 0.387762
0.390784 0.14078 0.390784
0.51841 0.143404 0.393408
0.646021 0.146014 0.396017
0.77322 0.148211 0.398215
0.899855 0.149844 0.399847
1 0.150744 0.400748
0.0168002 0.266789 0.391791
0.144411 0.269413 0.394415
0.271901 0.271901 0.396902
0.398947 0.273945 0.398947
0.525154 0.275151 0.400153
0.65098 0.275975 0.400977
0.776059 0.276051 0.401053
0.900145 0.275135 0.400137
1 0.273457 0.398459
0.0243687 0.399359 0.399359
0.150591 0.400595 0.400595
0.276143 0.401144 0.401144
0.400778 0.400778 0.400778
0.52459 0.399588 0.399588
0.647639 0.397635 0.397635
0.769726 0.39472 0.39472
0.890593 0.390585 0.390585
1 0.38558 0.38558
0.025452 0.525444 0.400443
0.14902 0.524025 0.399023
0.271672 0.521675 0.396674
0.393164 0.518166 0.393164
0.513893 0.513893 0.388891
0.633295 0.508293 0.383291
0.749447 0.499443 0.374441
0.860212 0.485206 0.360204
0.967224 0.467216 0.342214
0.0167544 0.641749 0.391745
0.137057 0.637064 0.38706
0.25539 0.630396 0.380392
0.369924 0.619928 0.369924
0.479179 0.604181 0.354177
0.585077 0.585077 0.335073
0.689006 0.564004 0.314
0.79202 0.542016 0.292012
0.894759 0.519753 0.269749
0 0.739483 0.364477
0.0974746 0.722484 0.347478
0.202655 0.702663 0.327657
0.306111 0.681117 0.306111
0.408881 0.658885 0.283879
0.511727 0.636728 0.261723
0.615305 0.615305 0.240299
0.720531 0.595529 0.220523
0.82855 0.578546 0.20354
0 0.798093 0.298085
0.0257725 0.775784 0.275776
0.12871 0.753719 0.253712
0.232807 0.732815 0.232807
0.339025 0.714031 0.214023
0.448707 0.698711 0.198703
0.563699 0.688701 0.188693
0.686625 0.686625 0.186618
0.816281 0.691279 0.191272
0 0.850599 0.225589
0 0.832761 0.207752
0.0691386 0.81915 0.194141
0.187472 0.812482 0.187472
0.312795 0.812802 0.187793
0.444495 0.819501 0.194491
0.583719 0.833722 0.208713
0.731472 0.856474 0.231449
0.885908 0.885908 0.260899
0.000854505 0.000854505 0.500847
0.12726 0.00227359 0.502266
0.254475 0.00448615 0.504479
0.382071 0.00708019 0.507073
0.509667 0.00967422 0.509667
0.637675 0.0126802 0.512673
0.765698 0.0157015 0.515694
0.893339 0.0183413 0.518334
1 0.0209354 0.520928
0.00784314 0.13283 0.507836
0.135775 0.135775 0.510781
0.263798 0.138796 0.513802
0.391791 0.141787 0.516793
0.519326 0.14432 0.519326
0.64683 0.146822 0.521828
0.773892 0.148882 0.523888
0.900114 0.150103 0.525109
1 0.150942 0.525948
0.0175937 0.267582 0.517586
0.145281 0.270283 0.520287
0.272648 0.272648 0.522652
0.399481 0.274479 0.524483
0.525551 0.275547 0.525551
0.651118 0.276112 0.526116
0.775906 0.275898 0.525902
0.899611 0.274601 0.524605
1 0.272679 0.522683
0.0248112 0.399802 0.524804
0.150851 0.400854 0.525856
0.276173 0.401175 0.526177
0.400443 0.400443 0.525444
0.524056 0.399054 0.524056
0.646723 0.396719 0.521721
0.768383 0.393378 0.51838
0.889006 0.388998 0.514
1 0.383444 0.508446
0.0250706 0.525063 0.525063
0.148363 0.523369 0.523369
0.270695 0.520699 0.520699
0.391836 0.516838 0.516838
0.512169 0.512169 0.512169
0.630594 0.505592 0.505592
0.745266 0.495262 0.495262
0.854597 0.479591 0.479591
0.960571 0.460563 0.460563
0.0153353 0.64033 0.515328
0.135225 0.635233 0.510231
0.252338 0.627344 0.502342
0.364843 0.614847 0.489845
0.472953 0.597955 0.472953
0.578164 0.578164 0.453162
0.681651 0.556649 0.431647
0.784436 0.534432 0.40943
0.887266 0.512261 0.387259
0 0.734142 0.484138
0.090898 0.715908 0.465904
0.195392 0.695399 0.445396
0.298619 0.673625 0.423621
0.401328 0.651331 0.401328
0.50425 0.629252 0.379248
0.608301 0.608301 0.358297
0.714458 0.589456 0.339452
0.824018 0.574014 0.32401
0 0.790509 0.415503
0.018265 0.768277 0.393271
0.121462 0.746471 0.371466
0.226062 0.72607 0.351064
0.33315 0.708156 0.33315
0.444419 0.694423 0.319417
0.562539 0.687541 0.312535
0.687678 0.687678 0.312673
0.819425 0.694423 0.319417
0 0.844327 0.344305
0 0.827604 0.327596
0.0656291 0.815641 0.315633
0.186679 0.811688 0.311681
0.314504 0.814511 0.314504
0.448753 0.823758 0.323751
0.590707 0.840711 0.340703
0.740612 0.865614 0.365606
0.89633 0.89633 0.396323
0.00120546 0.00120546 0.6262
0.127962 0.00297551 0.62797
0.255299 0.00531014 0.630304
0.382925 0.00793469 0.632929
0.510689 0.0106966 0.635691
0.638712 0.0137179 0.638712
0.766705 0.0167086 0.641703
0.894255 0.0192569 0.644251
1 0.0217594 0.646754
0.00881971 0.133806 0.633814
0.136797 0.136797 0.636805
0.264836 0.139834 0.639841
0.392538 0.142535 0.642542
0.520211 0.145205 0.645212
0.647578 0.14757 0.647578
0.774472 0.149462 0.64947
0.900511 0.1505 0.650507
1 0.151095 0.651102
0.0185702 0.268559 0.643565
0.146151 0.271153 0.646159
0.273335 0.273335 0.648341
0.399741 0.274739 0.649744
0.525811 0.275807 0.650813
0.651164 0.276158 0.651164
0.775448 0.275441 0.650446
0.899077 0.274067 0.649073
1 0.271763 0.646769
0.0252537 0.400244 0.650248
0.151019 0.401022 0.651026
0.276066 0.401068 0.651072
0.400061 0.400061 0.650065
0.523415 0.398413 0.648417
0.645777 0.395773 0.645777
0.766918 0.391913 0.641917
0.887297 0.387289 0.637293
1 0.380789 0.630793
0.0245518 0.524544 0.649546
0.147539 0.522545 0.647547
0.26952 0.519524 0.644526
0.390417 0.515419 0.640421
0.510369 0.510369 0.63537
0.627649 0.502647 0.627649
0.74023 0.490227 0.615228
0.848417 0.473411 0.598413
0.953674 0.453666 0.578668
0.0137179 0.638712 0.638712
0.132998 0.633005 0.633005
0.248951 0.623957 0.623957
0.359518 0.609522 0.609522
0.466377 0.591379 0.591379
0.570932 0.570932 0.570932
0.674174 0.549172 0.549172
0.776867 0.526864 0.526864
0.879805 0.504799 0.504799
0 0.72842 0.603418
0.0841993 0.709209 0.584207
0.188067 0.688075 0.563073
0.291051 0.666056 0.541054
0.393805 0.643809 0.518807
0.496986 0.621988 0.496986
0.601526 0.601526 0.476524
0.708553 0.583551 0.458549
0.819745 0.569741 0.444739
0 0.782925 0.532921
0.0107271 0.760739 0.510735
0.114412 0.739422 0.489418
0.219745 0.719753 0.469749
0.327947 0.702953 0.452949
0.440833 0.690837 0.440833
0.561715 0.686717 0.436713
0.689357 0.689357 0.439353
0.823392 0.69839 0.448386
0 0.83827 0.463264
0 0.823072 0.448066
0.0635233 0.813535 0.438529
0.186709 0.811719 0.436713
0.31635 0.816358 0.441352
0.453529 0.828534 0.453529
0.598672 0.848676 0.473671
0.750912 0.875914 0.500908
0.90724 0.90724 0.532235
0.00170901 0.00170901 0.751705
0.12874 0.00375372 0.75375
0.256199 0.00621042 0.756207
0.383841 0.00885023 0.758846
0.511711 0.0117189 0.761715
0.63975 0.0147555 0.764752
0.767636 0.0176394 0.767636
0.895125 0.0201267 0.770123
1 0.0225071 0.772503
0.00984207 0.134829 0.759838
0.137835 0.137835 0.762844
0.265858 0.140856 0.765866
0.393469 0.143465 0.768475
0.52108 0.146075 0.771084
0.648264 0.148257 0.773266
0.774762 0.149752 0.774762
0.900786 0.150774 0.775784
1 0.151141 0.77615
0.0194858 0.269474 0.769482
0.14696 0.271962 0.771969
0.273884 0.273884 0.773892
0.400198 0.275196 0.775204
0.525994 0.27599 0.775998
0.651072 0.276066 0.776074
0.775097 0.27509 0.775097
0.898451 0.273442 0.773449
1 0.270817 0.770825
0.0256352 0.400626 0.775631
0.151156 0.40116 0.776165
0.275654 0.400656 0.775662
0.399573 0.399573 0.774578
0.522591 0.397589 0.772595
0.644663 0.394659 0.769665
0.765515 0.390509 0.765515
0.885496 0.385489 0.760494
1 0.377844 0.75285
0.0240177 0.52401 0.774014
0.146624 0.52163 0.771634
0.268101 0.518105 0.768109
0.388815 0.513817 0.763821
0.508171 0.508171 0.758175
0.624201 0.499199 0.749203
0.734905 0.484901 0.734905
0.841856 0.46685 0.716854
0.946487 0.446479 0.696483
0.0119783 0.636973 0.761975
0.130236 0.630243 0.755245
0.244663 0.619669 0.744671
0.353841 0.603845 0.728847
0.459709 0.58471 0.709712
0.563607 0.563607 0.688609
0.66659 0.541588 0.66659
0.769345 0.519341 0.644343
0.872541 0.497536 0.622538
0 0.722133 0.722133
0.0772412 0.702251 0.702251
0.180697 0.680705 0.680705
0.283467 0.658473 0.658473
0.386297 0.636301 0.636301
0.489921 0.614923 0.614923
0.595193 0.595193 0.595193
0.703288 0.578286 0.578286
0.816037 0.566033 0.566033
0 0.775372 0.65037
0.00329595 0.753307 0.628305
0.107424 0.732433 0.607431
0.213687 0.713695 0.588693
0.3234 0.698405 0.573404
0.438621 0.688624 0.563622
0.561654 0.686656 0.561654
0.691356 0.691356 0.566354
0.828138 0.703136 0.578134
0 0.832425 0.582422
0 0.818936 0.568933
0.0624399 0.812451 0.562448
0.1879 0.812909 0.562905
0.319615 0.819623 0.569619
0.459098 0.834104 0.5841
0.606973 0.856977 0.606973
0.761242 0.886244 0.63624
0.918227 0.918227 0.668223
0.00231937 0.00231937 0.877317
0.129534 0.00454719 0.879545
0.257145 0.00715648 0.882155
0.384741 0.00975052 0.884749
0.512749 0.0127565 0.887755
0.640772 0.0157778 0.890776
0.768383 0.0183871 0.893385
0.895994 0.0209964 0.895994
1 0.023209 0.898207
0.0108644 0.135851 0.885863
0.138872 0.138872 0.888884
0.266819 0.141817 0.891829
0.394385 0.144381 0.894392
0.521889 0.146883 0.896895
0.648936 0.148928 0.898939
0.775143 0.150134 0.900145
0.900969 0.150958 0.900969
1 0.151049 0.901061
0.0203555 0.270344 0.895354
0.147692 0.272694 0.897704
0.274388 0.274388 0.899397
0.40058 0.275578 0.900587
0.526146 0.276143 0.901152
0.650828 0.275822 0.900832
0.774594 0.274586 0.899596
0.897642 0.272633 0.897642
1 0.269734 0.894743
0.0258793 0.40087 0.900877
0.151186 0.40119 0.901198
0.275425 0.400427 0.900435
0.399023 0.399023 0.899031
0.521691 0.396689 0.896696
0.643214 0.39321 0.893217
0.763928 0.388922 0.88893
0.88333 0.383322 0.88333
0.999542 0.374533 0.87454
0.0233463 0.523339 0.898344
0.145541 0.520546 0.895552
0.266758 0.516762 0.891768
0.387091 0.512093 0.887098
0.50544 0.50544 0.880446
0.620005 0.495003 0.870008
0.729274 0.479271 0.854276
0.835187 0.460182 0.835187
0.939132 0.439124 0.81413
0.0101472 0.635142 0.885145
0.127108 0.627115 0.877119
0.239551 0.614557 0.864561
0.347585 0.597589 0.847593
0.452781 0.577783 0.827787
0.556237 0.556237 0.806241
0.659007 0.534005 0.784009
0.761852 0.511849 0.761852
0.865431 0.490425 0.740429
0 0.715541 0.840543
0.0699779 0.694987 0.819989
0.173205 0.673213 0.798215
0.275914 0.650919 0.775921
0.378836 0.62884 0.753841
0.482918 0.607919 0.732921
0.58912 0.58912 0.714122
0.698787 0.573785 0.698787
0.813718 0.563714 0.688716
0 0.767849 0.767849
0 0.74609 0.74609
0.100694 0.725704 0.725704
0.207843 0.707851 0.707851
0.319203 0.694209 0.694209
0.437491 0.687495 0.687495
0.562768 0.68777 0.68777
0.694484 0.694484 0.694484
0.833616 0.708614 0.708614
0 0.827298 0.702296
0 0.815488 0.690486
0.0616617 0.811673 0.686671
0.189563 0.814572 0.68957
0.324025 0.824033 0.699031
0.466148 0.841154 0.716152
0.61619 0.866194 0.741192
0.771969 0.896971 0.771969
0.929229 0.929229 0.804227
0.00303655 0.00303655 1
0.130373 0.00538643 1
0.257847 0.0078584 1
0.385763 0.0107729 1
0.513787 0.0137942 1
0.641779 0.0167849 1
0.769314 0.0193179 1
0.896819 0.0218204 1
1 0.0238804 1
0.0118868 0.136873 1
0.13991 0.13991 1
0.267567 0.142565 1
0.39527 0.145266 1
0.522622 0.147616 1
0.649516 0.149508 1
0.77554 0.15053 1
0.901122 0.15111 1
1 0.150896 1
0.0212253 0.271214 1
0.148394 0.273396 1
0.274784 0.274784 1
0.400839 0.275837 1
0.526177 0.276173 1
0.650446 0.275441 1
0.77406 0.274052 1
0.896742 0.271733 1
1 0.268421 1
0.0260624 0.401053 1
0.151003 0.401007 1
0.275059 0.400061 1
0.398383 0.398383 1
0.520729 0.395727 1
0.641855 0.391852 1
0.762203 0.387198 1
0.880644 0.380636 1
0.995361 0.370352 0.995361
0.0225223 0.522515 1
0.14435 0.519356 1
0.265339 0.515343 1
0.38526 0.510262 1
0.502403 0.502403 1
0.614939 0.489937 0.989944
0.723064 0.47306 0.973068
0.82829 0.453285 0.953292
0.931777 0.431769 0.931777
0.00787366 0.632868 1
0.123751 0.623758 0.998764
0.234226 0.609232 0.984237
0.341009 0.591012 0.966018
0.445518 0.57052 0.945525
0.548745 0.548745 0.923751
0.651453 0.526452 0.901457
0.754376 0.504372 0.879377
0.858427 0.483421 0.858427
0 0.708812 0.958816
0.0626688 0.687678 0.937682
0.165621 0.665629 0.915633
0.268391 0.643397 0.8934
0.371588 0.621592 0.871595
0.476173 0.601175 0.851179
0.583246 0.583246 0.833249
0.694484 0.569482 0.819486
0.812543 0.562539 0.812543
0 0.760311 0.885313
0 0.739025 0.864027
0.0944076 0.719417 0.844419
0.202686 0.702693 0.827695
0.315679 0.690684 0.815686
0.436698 0.686702 0.811704
0.564477 0.689479 0.814481
0.698665 0.698665 0.823667
0.840574 0.715572 0.840574
0 0.822843 0.822843
0 0.813474 0.813474
0.0617685 0.81178 0.81178
0.191485 0.816495 0.816495
0.328817 0.828824 0.828824
0.474144 0.849149 0.849149
0.62649 0.876493 0.876493
0.782879 0.907881 0.907881
0.939116 0.939116 0.939116
