luts/Protect Highlights 01.cube
TITLE "Generated by Resolve"
LUT_3D_SIZE 33
0 0 0
0.030869 0 0
0.0622873 0 0
0.0939498 0.000213626 0.000213626
0.125383 0.000396735 0.000396735
0.156863 0.00062562 0.00062562
0.188403 0.000915541 0.000915541
0.220005 0.0012665 0.0012665
0.251621 0.00163272 0.00163272
0.283497 0.00225834 0.00225834
0.31516 0.00267033 0.00267033
0.346868 0.0031281 0.0031281
0.378622 0.00363165 0.00363165
0.410376 0.0041352 0.0041352
0.442222 0.0047303 0.0047303
0.474235 0.00549325 0.00549325
0.506081 0.00608835 0.00608835
0.537942 0.00669871 0.00669871
0.569818 0.00732433 0.00732433
0.601694 0.00794995 0.00794995
0.63386 0.00886549 0.00886549
0.665782 0.00953689 0.00953689
0.697704 0.0102083 0.0102083
0.729641 0.0108949 0.0108949
0.761578 0.0115816 0.0115816
0.793622 0.0123751 0.0123751
0.825727 0.0132296 0.0132296
0.857679 0.0139315 0.0139315
0.889616 0.0146181 0.0146181
0.921538 0.0152895 0.0152895
0.95346 0.0159609 0.0159609
0.985534 0.0167849 0.0167849
1 0.0175631 0.0175631
0.000122072 0.0313573 0.000122072
0.0315404 0.0315404 0.00030518
0.0633097 0.0320592 0.000823987
0.0948653 0.0323644 0.00112917
0.126467 0.0327153 0.00148013
0.158083 0.0330816 0.00184634
0.189715 0.033463 0.00222782
0.221668 0.034165 0.00292973
0.253391 0.034638 0.00340276
0.285145 0.0351415 0.00390631
0.316915 0.0356603 0.00442512
0.348699 0.0361944 0.00495918
0.380514 0.036759 0.00552377
0.41265 0.037644 0.00640879
0.444511 0.0382544 0.00701915
0.476387 0.03888 0.00764477
0.508278 0.0395209 0.00828565
0.540169 0.0401617 0.00892653
0.572152 0.0408942 0.00965896
0.604303 0.0417945 0.0105592
0.63624 0.0424811 0.0112459
0.668177 0.0431678 0.0119326
0.700114 0.0438544 0.0126192
0.732052 0.0445411 0.0133059
0.764096 0.0453346 0.0140993
0.796201 0.0461891 0.0149538
0.828138 0.0468757 0.0156405
0.860059 0.0475471 0.0163119
0.891966 0.0482032 0.016968
0.923858 0.0488441 0.0176089
0.955901 0.0496376 0.0184024
0.9879 0.0503853 0.0191501
1 0.0509804 0.0197452
0.00128176 0.0637675 0.00128176
0.0329442 0.0641947 0.00170901
0.0645609 0.0645609 0.00207523
0.0962081 0.0649577 0.00247196
0.127916 0.0654154 0.00292973
0.159655 0.0659037 0.00341802
0.191669 0.0666667 0.00418097
0.223453 0.0672007 0.00471504
0.255253 0.0677501 0.00526436
0.287083 0.0683299 0.00584421
0.318944 0.0689403 0.00645457
0.350805 0.0695506 0.00706493
0.382956 0.0704509 0.00796521
0.414862 0.071107 0.00862135
0.446769 0.0717632 0.00927749
0.478691 0.0724346 0.00994888
0.510628 0.0731212 0.0106355
0.54258 0.0738231 0.0113375
0.574777 0.0747692 0.0122835
0.606714 0.0754559 0.0129702
0.638651 0.0761425 0.0136568
0.670588 0.0768292 0.0143435
0.702525 0.0775158 0.0150301
0.734737 0.0784772 0.0159915
0.766644 0.0791333 0.0166476
0.79855 0.0797894 0.0173037
0.830457 0.0804456 0.0179599
0.862333 0.0810712 0.0185855
0.894255 0.0817426 0.0192569
0.926299 0.082536 0.0200504
0.958114 0.0831006 0.0206149
0.989929 0.0836652 0.0211795
1 0.0841993 0.0217136
0.00273136 0.0964675 0.00273136
0.0344396 0.0969406 0.00320439
0.0661936 0.0974441 0.00370794
0.0979477 0.0979477 0.00421149
0.129717 0.0984665 0.0047303
0.161807 0.0993057 0.00556954
0.193652 0.0999008 0.00616464
0.225513 0.100511 0.00677501
0.257389 0.101137 0.00740063
0.289265 0.101762 0.00802625
0.321401 0.102647 0.00891127
0.353368 0.103365 0.00962844
0.38529 0.104036 0.0102998
0.417227 0.104723 0.0109865
0.449149 0.105394 0.0116579
0.481086 0.106081 0.0123445
0.513313 0.107057 0.0133211
0.545251 0.107744 0.0140078
0.577188 0.108431 0.0146944
0.609125 0.109117 0.0153811
0.641047 0.109789 0.0160525
0.672953 0.110445 0.0167086
0.705135 0.111376 0.0176394
0.737026 0.112016 0.0182803
0.768902 0.112642 0.0189059
0.800748 0.113237 0.019501
0.832578 0.113817 0.0200809
0.864439 0.114427 0.0206912
0.896483 0.115221 0.0214847
0.928237 0.115724 0.0219883
0.959976 0.116213 0.0224765
0.991669 0.116655 0.0229191
1 0.117082 0.0233463
0.00450141 0.129488 0.00450141
0.0362707 0.130022 0.00503548
0.068101 0.130602 0.00561532
0.100099 0.13135 0.00636301
0.132097 0.132097 0.0071107
0.163958 0.132708 0.00772107
0.19585 0.133349 0.00836194
0.227756 0.134005 0.00901808
0.259678 0.134676 0.00968948
0.291814 0.135561 0.0105745
0.323827 0.136324 0.0113375
0.355749 0.136995 0.0120089
0.387686 0.137682 0.0126955
0.419638 0.138384 0.0133974
0.451575 0.139071 0.0140841
0.483772 0.140017 0.0150301
0.515724 0.140719 0.0157321
0.547631 0.141375 0.0163882
0.579538 0.142031 0.0170443
0.611444 0.142687 0.0177005
0.643336 0.143328 0.0183413
0.675486 0.144213 0.0192264
0.707317 0.144808 0.0198215
0.739132 0.145373 0.0203861
0.770947 0.145937 0.0209506
0.802747 0.146487 0.0215
0.834775 0.147265 0.0222782
0.866484 0.147723 0.0227359
0.898161 0.14815 0.0231632
0.929854 0.148592 0.0236057
0.961501 0.148989 0.0240024
0.993103 0.14934 0.0243534
1 0.149874 0.0248875
0.00653086 0.162768 0.00653086
0.0383917 0.163394 0.00715648
0.0703899 0.164141 0.00790417
0.102434 0.164935 0.00869764
0.134356 0.165606 0.00936904
0.166278 0.166278 0.0100404
0.198215 0.166964 0.0107271
0.230137 0.167636 0.0113985
0.262348 0.168597 0.0123598
0.294301 0.169299 0.0130617
0.326238 0.169986 0.0137484
0.358175 0.170672 0.014435
0.390112 0.171359 0.0151217
0.422217 0.172213 0.0159762
0.454215 0.172961 0.0167239
0.486137 0.173632 0.0173953
0.518029 0.174273 0.0180362
0.549905 0.174899 0.0186618
0.581765 0.175509 0.0192721
0.613825 0.176318 0.0200809
0.645685 0.176928 0.0206912
0.677501 0.177493 0.0212558
0.709285 0.178027 0.0217899
0.741009 0.1785 0.0222629
0.772717 0.178958 0.0227207
0.804669 0.17966 0.0234226
0.836347 0.180087 0.0238499
0.867964 0.180453 0.0242161
0.899535 0.180774 0.0245365
0.93106 0.181048 0.0248112
0.962585 0.181323 0.0250858
0.994324 0.181811 0.0255741
1 0.181994 0.0257572
0.00881971 0.196307 0.00881971
0.0409552 0.197208 0.00972
0.0728771 0.197879 0.0103914
0.104799 0.19855 0.0110628
0.136736 0.199237 0.0117494
0.168673 0.199924 0.0124361
0.200717 0.200717 0.0132296
0.232837 0.201587 0.0140993
0.264775 0.202274 0.014786
0.296712 0.20296 0.0154726
0.328634 0.203632 0.016144
0.360525 0.204273 0.0167849
0.392599 0.205097 0.0176089
0.424613 0.205859 0.0183719
0.456489 0.206485 0.0189975
0.488334 0.20708 0.0195926
0.52015 0.207645 0.0201572
0.551965 0.208209 0.0207218
0.583978 0.208972 0.0214847
0.615808 0.209552 0.0220645
0.647532 0.210025 0.0225376
0.679225 0.210468 0.0229801
0.710903 0.210895 0.0234073
0.742565 0.211307 0.0238193
0.774441 0.211933 0.024445
0.805982 0.212222 0.0247349
0.837507 0.212497 0.0250095
0.869017 0.212757 0.0252689
0.900481 0.21297 0.0254826
0.932113 0.213352 0.025864
0.963485 0.213474 0.0259861
0.994797 0.213535 0.0260471
1 0.213565 0.0260777
0.0114137 0.230152 0.0114137
0.0433356 0.230838 0.0121004
0.0752728 0.231525 0.0127871
0.107225 0.232227 0.013489
0.139162 0.232914 0.0141756
0.171176 0.233677 0.0149386
0.203296 0.234546 0.0158083
0.235218 0.235218 0.0164797
0.267124 0.235874 0.0171359
0.299031 0.23653 0.017792
0.330922 0.237171 0.0184329
0.363058 0.238056 0.0193179
0.394888 0.238636 0.0198978
0.426719 0.239216 0.0204776
0.458518 0.239765 0.0210269
0.490318 0.240314 0.0215763
0.522179 0.240925 0.0221866
0.55404 0.241535 0.022797
0.585733 0.241978 0.0232395
0.617411 0.242405 0.0236667
0.649042 0.242786 0.0240482
0.680629 0.243122 0.0243839
0.712337 0.24358 0.0248417
0.743938 0.243931 0.0251926
0.775448 0.24419 0.025452
0.806882 0.244373 0.0256352
0.83827 0.244511 0.0257725
0.869596 0.244587 0.0258488
0.901106 0.244846 0.0261082
0.932433 0.244923 0.0261845
0.963653 0.244892 0.026154
0.994781 0.24477 0.0260319
1 0.244602 0.025864
0.0138399 0.263828 0.0138399
0.0457618 0.264515 0.0145266
0.0776989 0.265202 0.0152132
0.109621 0.265873 0.0158846
0.141802 0.266804 0.0168154
0.173709 0.26746 0.0174716
0.205615 0.268116 0.0181277
0.237491 0.268742 0.0187533
0.269337 0.269337 0.0193484
0.301228 0.269978 0.0199893
0.333272 0.270771 0.0207828
0.365072 0.271321 0.0213321
0.396841 0.271839 0.0218509
0.42858 0.272328 0.0223392
0.460273 0.27277 0.0227817
0.492058 0.273304 0.0233158
0.523903 0.273899 0.0239109
0.55552 0.274266 0.0242771
0.587091 0.274586 0.0245975
0.618616 0.274861 0.0248722
0.650126 0.27512 0.0251316
0.681743 0.275486 0.0254978
0.713283 0.275776 0.0257877
0.74464 0.275883 0.0258946
0.775952 0.275944 0.0259556
0.807248 0.27599 0.0260014
0.838514 0.276005 0.0260166
0.869947 0.276188 0.0261997
0.901061 0.276051 0.0260624
0.932128 0.275868 0.0258793
0.963195 0.275685 0.0256962
0.994186 0.275425 0.0254368
1 0.275273 0.0252842
0.0162203 0.297459 0.0162203
0.0481117 0.298116 0.0168765
0.0800183 0.298772 0.0175326
0.112184 0.299687 0.0184482
0.14406 0.300313 0.0190738
0.175906 0.300908 0.0196689
0.207721 0.301472 0.0202335
0.239551 0.302052 0.0208133
0.271382 0.302632 0.0213931
0.30338 0.30338 0.0221408
0.335088 0.303838 0.0225986
0.366781 0.30428 0.0230411
0.398474 0.304723 0.0234836
0.430121 0.305119 0.0238804
0.461982 0.30573 0.0244907
0.493538 0.306035 0.0247959
0.525048 0.306294 0.0250553
0.556558 0.306554 0.0253147
0.588022 0.306767 0.0255283
0.619486 0.306981 0.025742
0.651011 0.307256 0.0260166
0.682307 0.307301 0.0260624
0.713603 0.307347 0.0261082
0.744839 0.307332 0.0260929
0.775998 0.30724 0.0260014
0.807202 0.307195 0.0259556
0.838407 0.307149 0.0259098
0.869444 0.306935 0.0256962
0.90042 0.306661 0.0254215
0.931304 0.306294 0.0250553
0.962127 0.305867 0.0246281
0.993072 0.305562 0.0243229
1 0.305165 0.0239261
0.0185092 0.330999 0.0185092
0.0505837 0.331838 0.0193484
0.0824598 0.332464 0.0199741
0.114275 0.333028 0.0205386
0.14609 0.333593 0.0211032
0.17789 0.334142 0.0216526
0.209628 0.33463 0.0221408
0.241596 0.335348 0.022858
0.273289 0.33579 0.0233005
0.304967 0.336217 0.0237278
0.336599 0.336599 0.0241093
0.36817 0.336919 0.0244297
0.39971 0.337209 0.0247196
0.431495 0.337743 0.0252537
0.462989 0.337987 0.0254978
0.494423 0.33817 0.0256809
0.525795 0.338293 0.025803
0.557107 0.338354 0.025864
0.588464 0.33846 0.0259709
0.619944 0.338689 0.0261997
0.651148 0.338643 0.026154
0.682292 0.338537 0.0260471
0.713359 0.338354 0.025864
0.744427 0.33817 0.0256809
0.77554 0.338033 0.0255436
0.806638 0.337881 0.025391
0.837491 0.337484 0.0249943
0.868299 0.337041 0.0245518
0.899092 0.336583 0.024094
0.929839 0.33608 0.0235904
0.960723 0.335714 0.0232242
0.991287 0.335027 0.0225376
1 0.33431 0.0218204
0.0207828 0.364523 0.0207828
0.0526436 0.365148 0.0214084
0.0844129 0.365667 0.0219272
0.116136 0.36614 0.0224002
0.147845 0.366598 0.022858
0.179522 0.367025 0.0232853
0.211444 0.367697 0.0239567
0.243076 0.368078 0.0243381
0.274632 0.368383 0.0246433
0.306157 0.368658 0.024918
0.337667 0.368917 0.0251774
0.369146 0.369146 0.0254063
0.400824 0.369574 0.0258335
0.432166 0.369665 0.0259251
0.463478 0.369726 0.0259861
0.494774 0.369772 0.0260319
0.52604 0.369787 0.0260471
0.557458 0.369955 0.026215
0.588571 0.369818 0.0260777
0.619638 0.369635 0.0258946
0.65069 0.369436 0.0256962
0.681682 0.369177 0.0254368
0.712612 0.368856 0.0251164
0.743664 0.368658 0.024918
0.774472 0.368215 0.0244755
0.805249 0.367742 0.0240024
0.835966 0.367208 0.0234684
0.86659 0.366583 0.0228428
0.8972 0.365942 0.0222019
0.927871 0.365362 0.021622
0.958373 0.364614 0.0208743
0.988785 0.363775 0.0200351
1 0.362829 0.019089
0.0226749 0.397665 0.0226749
0.0543374 0.398093 0.0231022
0.0860304 0.398535 0.0235447
0.117678 0.398932 0.0239414
0.149447 0.399451 0.0244602
0.181079 0.399832 0.0248417
0.212589 0.400092 0.0251011
0.244099 0.400351 0.0253605
0.275563 0.400565 0.0255741
0.30695 0.400702 0.0257115
0.338491 0.400992 0.0260014
0.369833 0.401083 0.0260929
0.401129 0.401129 0.0261387
0.432349 0.401099 0.0261082
0.463508 0.401007 0.0260166
0.494591 0.400839 0.0258488
0.525902 0.4009 0.0259098
0.556939 0.400687 0.0256962
0.587915 0.400412 0.0254215
0.618784 0.400031 0.0250401
0.649607 0.399603 0.0246128
0.6804 0.399145 0.024155
0.711406 0.398901 0.0239109
0.742077 0.398322 0.023331
0.772671 0.397665 0.0226749
0.803204 0.396948 0.0219577
0.833707 0.396201 0.02121
0.864225 0.395468 0.0204776
0.894774 0.394766 0.0197757
0.925063 0.393805 0.0188144
0.955291 0.392782 0.017792
0.985504 0.391745 0.0167544
1 0.390646 0.0156558
0.0241703 0.430411 0.0241703
0.0557259 0.430732 0.0244907
0.0872511 0.431006 0.0247654
0.118914 0.431418 0.0251774
0.15053 0.431785 0.0255436
0.181964 0.431968 0.0257267
0.213321 0.432074 0.0258335
0.244633 0.432135 0.0258946
0.275944 0.432197 0.0259556
0.307408 0.43241 0.0261692
0.338674 0.432425 0.0261845
0.369787 0.432288 0.0260471
0.400854 0.432105 0.025864
0.431922 0.431922 0.0256809
0.462943 0.431693 0.025452
0.494118 0.431617 0.0253758
0.524971 0.43122 0.024979
0.555779 0.430777 0.0245365
0.586572 0.43032 0.0240787
0.617304 0.429801 0.0235599
0.648157 0.429404 0.0231632
0.678737 0.428733 0.0224918
0.70927 0.428016 0.0217746
0.739757 0.427253 0.0210117
0.770199 0.426444 0.0202029
0.800549 0.425544 0.0193027
0.831022 0.424765 0.0185245
0.861234 0.423728 0.0174868
0.891432 0.422675 0.016434
0.921553 0.421546 0.0153048
0.951583 0.420325 0.0140841
0.981552 0.419028 0.0127871
1 0.417884 0.0116426
0.0252232 0.462715 0.0252232
0.0566873 0.462943 0.025452
0.0883497 0.463355 0.025864
0.119692 0.463447 0.0259556
0.151003 0.463508 0.0260166
0.1823 0.463554 0.0260624
0.21355 0.463554 0.0260624
0.244831 0.463584 0.0260929
0.276066 0.463569 0.0260777
0.307134 0.463386 0.0258946
0.338186 0.463188 0.0256962
0.369177 0.462928 0.0254368
0.400076 0.462577 0.0250858
0.431067 0.462318 0.0248264
0.461952 0.461952 0.0244602
0.492729 0.461479 0.0239872
0.52343 0.460929 0.0234379
0.55404 0.460288 0.022797
0.584588 0.459586 0.0220951
0.61529 0.459037 0.0215457
0.645808 0.458305 0.0208133
0.676219 0.457465 0.0199741
0.706523 0.456519 0.019028
0.736751 0.455497 0.0180056
0.766979 0.454475 0.0169833
0.79736 0.453605 0.0161135
0.827451 0.452445 0.0149538
0.857435 0.451179 0.0136873
0.887358 0.449851 0.0123598
0.917266 0.448508 0.011017
0.947036 0.447028 0.00953689
0.976715 0.445457 0.00796521
1 0.443412 0.0059205
0.025864 0.494606 0.025864
0.0573587 0.494865 0.0261234
0.0886397 0.494896 0.026154
0.11986 0.494865 0.0261234
0.151003 0.494759 0.0260166
0.182101 0.494606 0.025864
0.213245 0.494499 0.0257572
0.244434 0.494438 0.0256962
0.275395 0.494148 0.0254063
0.306264 0.493767 0.0250248
0.337087 0.493339 0.0245975
0.36788 0.492882 0.0241398
0.398764 0.492515 0.0237736
0.429541 0.492042 0.0233005
0.460121 0.491371 0.0226291
0.490654 0.490654 0.021912
0.521157 0.489906 0.0211643
0.551614 0.489113 0.0203708
0.582208 0.488457 0.0197147
0.612482 0.48748 0.0187381
0.64271 0.486458 0.0177157
0.672923 0.48542 0.0166781
0.703075 0.484321 0.0155795
0.733272 0.483268 0.0145266
0.763287 0.482033 0.0132906
0.793194 0.48069 0.0119478
0.823072 0.479316 0.0105745
0.85275 0.477745 0.00900282
0.882139 0.475883 0.00714122
0.911437 0.47393 0.00518807
0.940475 0.471717 0.00297551
0.969375 0.469368 0.00062562
0.997879 0.466621 0
0.0261845 0.526177 0.0261845
0.0572976 0.526055 0.0260624
0.088365 0.525872 0.0258793
0.119417 0.525673 0.0256809
0.150439 0.525444 0.025452
0.181598 0.525353 0.0253605
0.212451 0.524956 0.0249638
0.243259 0.524514 0.0245212
0.274037 0.524041 0.0240482
0.304768 0.523522 0.0235294
0.335485 0.522988 0.0229953
0.366201 0.522454 0.0224613
0.396704 0.521706 0.0217136
0.427207 0.520958 0.0209659
0.457633 0.520134 0.0201419
0.487968 0.519219 0.0192264
0.518334 0.518334 0.0183413
0.548653 0.517403 0.0174105
0.578851 0.51635 0.0163577
0.608972 0.515221 0.0152285
0.638987 0.513985 0.0139925
0.668925 0.512673 0.0126802
0.698955 0.511452 0.0114595
0.728847 0.510094 0.0101015
0.758419 0.508415 0.00842298
0.787701 0.506447 0.00645457
0.816785 0.50428 0.00428778
0.845792 0.502037 0.00204471
0.874723 0.499718 0
0.903044 0.496788 0
0.930785 0.493278 0
0.95819 0.489433 0
0.985504 0.485496 0
0.0256962 0.556939 0.0256962
0.0566567 0.556664 0.0254215
0.0875563 0.556313 0.0250706
0.118395 0.555901 0.0246586
0.149416 0.555673 0.0244297
0.180194 0.5552 0.0239567
0.210895 0.55465 0.0234073
0.241505 0.554009 0.0227665
0.272038 0.553292 0.0220493
0.302586 0.55259 0.0213474
0.333257 0.55201 0.0207675
0.363653 0.551156 0.019913
0.393942 0.550195 0.0189517
0.42417 0.549172 0.0179294
0.454383 0.548135 0.0168917
0.484642 0.547143 0.0158999
0.514855 0.546105 0.0148623
0.544839 0.544839 0.0135958
0.574762 0.543511 0.0122683
0.604654 0.542153 0.0109102
0.634394 0.540642 0.00939956
0.664042 0.53904 0.00779736
0.693233 0.53698 0.00573739
0.722286 0.534783 0.00354009
0.751247 0.532494 0.00125124
0.779889 0.529885 0
0.808057 0.526802 0
0.835691 0.523186 0
0.86305 0.519295 0
0.890318 0.515312 0
0.917388 0.511131 0
0.944152 0.506645 0
0.970687 0.50193 0
0.024567 0.58706 0.024567
0.0553445 0.586603 0.0241093
0.0861067 0.586114 0.023621
0.117006 0.585763 0.02327
0.14757 0.585077 0.0225834
0.178103 0.58436 0.0218662
0.208606 0.583612 0.0211185
0.239063 0.582818 0.020325
0.269642 0.582147 0.0196536
0.299901 0.581155 0.0186618
0.330129 0.580133 0.0176394
0.360327 0.57908 0.0165866
0.390478 0.577981 0.0154879
0.420539 0.576791 0.0142977
0.450675 0.575677 0.0131838
0.480583 0.574334 0.011841
0.510445 0.572946 0.0104524
0.540093 0.571344 0.00885023
0.569467 0.569467 0.00697337
0.598627 0.567376 0.00488289
0.627771 0.56527 0.00277714
0.656657 0.562905 0.000411994
0.685115 0.560113 0
0.712993 0.556741 0
0.740459 0.552956 0
0.767849 0.549096 0
0.795117 0.545113 0
0.82208 0.540825 0
0.848707 0.536202 0
0.875135 0.53138 0
0.901503 0.526497 0
0.92784 0.521584 0
0.954009 0.516503 0
0.0228733 0.616617 0.0228733
0.0536049 0.616114 0.0223697
0.0841535 0.615412 0.0216678
0.114656 0.614664 0.0209201
0.145083 0.61384 0.0200961
0.175402 0.612909 0.0191653
0.205646 0.611902 0.0181582
0.236072 0.611078 0.0173342
0.26627 0.610025 0.0162814
0.296376 0.608881 0.0151369
0.326375 0.60763 0.0138857
0.356313 0.606317 0.0125734
0.386221 0.604974 0.0112306
0.41622 0.603723 0.0099794
0.445762 0.602014 0.00827039
0.475013 0.600015 0.00627146
0.504082 0.597833 0.00408942
0.533089 0.59559 0.00184634
0.561883 0.593133 0
0.590249 0.590249 0
0.617945 0.586694 0
0.645335 0.582834 0
0.672633 0.578882 0
0.699779 0.574777 0
0.726711 0.570459 0
0.753246 0.565744 0
0.779629 0.560876 0
0.805982 0.555978 0
0.832227 0.550973 0
0.858335 0.54583 0
0.884291 0.540536 0
0.910155 0.535149 0
0.936004 0.529747 0
0.0206607 0.645655 0.0206607
0.0510719 0.644831 0.0198367
0.0813611 0.64387 0.0188754
0.111589 0.642847 0.0178531
0.141802 0.64181 0.0168154
0.171969 0.640726 0.0157321
0.202258 0.639765 0.0147707
0.232227 0.638483 0.013489
0.26215 0.637156 0.0121614
0.292027 0.635782 0.0107881
0.321752 0.634256 0.00926223
0.35137 0.632624 0.00762951
0.380545 0.630549 0.00555428
0.409583 0.628336 0.00334173
0.438529 0.626032 0.00103761
0.46714 0.623392 0
0.495186 0.620188 0
0.522835 0.616587 0
0.550179 0.61268 0
0.577447 0.608698 0
0.604501 0.604501 0
0.63122 0.59997 0
0.657694 0.595193 0
0.684123 0.590372 0
0.710445 0.585443 0
0.736645 0.580392 0
0.762661 0.575158 0
0.788556 0.569802 0
0.81442 0.564416 0
0.840284 0.55903 0
0.866072 0.553567 0
0.891768 0.548012 0
0.917433 0.542428 0
0.0175631 0.673808 0.0175631
0.0477455 0.672755 0.0165103
0.0778821 0.671641 0.0153964
0.107912 0.67042 0.0141756
0.138003 0.669261 0.0130159
0.167987 0.667994 0.0117494
0.197818 0.666575 0.0103304
0.227451 0.664958 0.0087129
0.256779 0.663035 0.00679026
0.285893 0.660899 0.004654
0.315053 0.658808 0.00256352
0.343938 0.656443 0.000198367
0.372335 0.65359 0
0.400168 0.650172 0
0.427604 0.646357 0
0.454932 0.642435 0
0.482246 0.638498 0
0.509163 0.634165 0
0.535775 0.629526 0
0.562188 0.624689 0
0.588556 0.619806 0
0.614847 0.614847 0
0.641032 0.609781 0
0.666987 0.604486 0
0.692866 0.599115 0
0.718715 0.593713 0
0.744518 0.588266 0
0.770321 0.582818 0
0.796002 0.577249 0
0.821668 0.571664 0
0.847318 0.566064 0
0.872984 0.560479 0
0.89868 0.554925 0
0.0137789 0.701274 0.0137789
0.0437018 0.699962 0.0124666
0.0736095 0.698619 0.0111238
0.103502 0.697261 0.00976577
0.133104 0.695613 0.0081178
0.162341 0.693599 0.00610361
0.191394 0.691402 0.00390631
0.220386 0.689143 0.00164797
0.249119 0.686625 0
0.27744 0.683696 0
0.305104 0.68011 0
0.332479 0.676234 0
0.359777 0.672282 0
0.386892 0.668147 0
0.413764 0.663767 0
0.440299 0.659052 0
0.466682 0.654185 0
0.493034 0.649287 0
0.519265 0.644266 0
0.545327 0.639078 0
0.571298 0.633799 0
0.597162 0.628412 0
0.622995 0.622995 0
0.648798 0.617548 0
0.674525 0.612024 0
0.700191 0.606439 0
0.725887 0.600885 0
0.751553 0.5953 0
0.777218 0.589715 0
0.802915 0.584161 0
0.828641 0.578637 0
0.854353 0.573098 0
0.880156 0.567651 0
0.0091249 0.727871 0.0091249
0.0385901 0.726101 0.00735485
0.0678569 0.724117 0.00537118
0.0968948 0.721904 0.00315862
0.125826 0.719585 0.000839246
0.154376 0.716884 0
0.182361 0.713619 0
0.209934 0.709941 0
0.237324 0.706081 0
0.264576 0.702083 0
0.2916 0.697856 0
0.318288 0.693294 0
0.344747 0.688502 0
0.37116 0.683665 0
0.397498 0.678752 0
0.423667 0.673671 0
0.449668 0.668421 0
0.475563 0.663066 0
0.501411 0.657664 0
0.527276 0.652277 0
0.553063 0.646815 0
0.578759 0.64126 0
0.604425 0.635676 0
0.630076 0.630076 0
0.655741 0.624491 0
0.681468 0.618967 0
0.707164 0.613413 0
0.732891 0.607889 0
0.758618 0.602365 0
0.784405 0.596902 0
0.810361 0.591608 0
0.836362 0.586358 0
0.862425 0.58117 0
0.00227359 0.75227 0.00227359
0.0312047 0.749966 0
0.0595407 0.747051 0
0.0873274 0.743587 0
0.114748 0.739757 0
0.142077 0.735836 0
0.169299 0.731807 0
0.196246 0.727504 0
0.222843 0.72285 0
0.249241 0.717998 0
0.275593 0.7131 0
0.301869 0.708125 0
0.328038 0.703044 0
0.353994 0.697749 0
0.379858 0.692363 0
0.405707 0.686961 0
0.431525 0.681529 0
0.457282 0.676036 0
0.482994 0.670497 0
0.508644 0.664897 0
0.534295 0.659297 0
0.559976 0.653727 0
0.585657 0.648157 0
0.611399 0.642649 0
0.63714 0.63714 0
0.662882 0.631632 0
0.688701 0.6262 0
0.714656 0.620905 0
0.740688 0.615686 0
0.766812 0.610559 0
0.792966 0.605463 0
0.819287 0.600534 0
0.845869 0.595865 0
0 0.77351 0
0.0196078 0.769619 0
0.0469062 0.765667 0
0.0740063 0.761517 0
0.100801 0.757061 0
0.127352 0.752361 0
0.153735 0.747494 0
0.180072 0.74258 0
0.206302 0.73756 0
0.232349 0.732357 0
0.258274 0.727031 0
0.284169 0.721675 0
0.310002 0.716258 0
0.33579 0.710796 0
0.361501 0.705257 0
0.387182 0.699687 0
0.412848 0.694102 0
0.438529 0.688533 0
0.46421 0.682963 0
0.489906 0.677409 0
0.515618 0.67187 0
0.541344 0.666346 0
0.567147 0.660899 0
0.593027 0.655528 0
0.619013 0.650263 0
0.645075 0.645075 0
0.671153 0.639902 0
0.697353 0.634852 0
0.723842 0.630091 0
0.750484 0.625483 0
0.777264 0.621012 0
0.804089 0.616587 0
0.831174 0.612421 0
0 0.791196 0
0.00535592 0.786618 0
0.0317998 0.781811 0
0.0581674 0.776928 0
0.084535 0.772045 0
0.110689 0.766949 0
0.136675 0.761685 0
0.16257 0.756329 0
0.188418 0.750927 0
0.214252 0.74551 0
0.24004 0.740047 0
0.265736 0.734493 0
0.291402 0.728908 0
0.317052 0.723308 0
0.342718 0.717723 0
0.368444 0.7122 0
0.394156 0.706661 0
0.419867 0.701122 0
0.445609 0.695613 0
0.471412 0.690166 0
0.497337 0.68484 0
0.523384 0.679637 0
0.549462 0.674464 0
0.57557 0.669322 0
0.601831 0.664332 0
0.628336 0.659586 0
0.6551 0.6551 0
0.681926 0.650675 0
0.708812 0.646311 0
0.736049 0.642298 0
0.763729 0.638727 0
0.791745 0.635493 0
0.819989 0.632486 0
0 0.806409 0
0 0.801419 0
0.0150607 0.796323 0
0.041001 0.791012 0
0.066865 0.785626 0
0.0927138 0.780224 0
0.118517 0.774777 0
0.144259 0.769268 0
0.16997 0.763729 0
