luts/Rec.709 to Cinematic look.cube
TITLE "Generated by Resolve"
LUT_3D_SIZE 33
0 0.0279698 0.0199741
0.00967422 0.0299229 0.0186313
0.0251164 0.0308385 0.0170138
0.0410468 0.0312505 0.0158999
0.0572213 0.0311284 0.0148318
0.0740368 0.0303197 0.0131533
0.092958 0.0294804 0.0116732
0.114382 0.0280003 0.00952163
0.139513 0.0255589 0.0061799
0.1691 0.0220188 0.00155642
0.203677 0.0171969 0
0.243748 0.0110475 0
0.288045 0.0039826 0
0.334417 0 0
0.382361 0 0
0.4327 0 0
0.48423 0 0
0.532372 0 0
0.576806 0 0
0.615961 0 0
0.649348 0 0
0.679347 0 0
0.70602 0 0
0.729717 0 0
0.751003 0 0
0.770596 0 0
0.789059 0 0
0.806912 0 0
0.824704 0 0
0.843015 0 0
0.862028 0 0
0.88072 0 0
0.899611 0 0
0 0.0381781 0.0217746
0.00915541 0.0396124 0.0198825
0.0234226 0.0410773 0.0174411
0.0394446 0.0420386 0.0154726
0.0561685 0.0426642 0.014023
0.0738689 0.0429999 0.0125582
0.092958 0.0424964 0.0107881
0.114504 0.0411994 0.0083772
0.139727 0.0389258 0.00480659
0.16936 0.0355077 0
0.204013 0.0308537 0
0.244129 0.0248722 0
0.288472 0.0179599 0
0.335027 0.0105287 0
0.383261 0.00294499 0
0.433768 0 0
0.485481 0 0
0.533852 0 0
0.578378 0 0
0.617517 0 0
0.651179 0 0
0.681437 0 0
0.708415 0 0
0.732448 0 0
0.754086 0 0
0.774075 0 0
0.792966 0 0
0.811261 0 0
0.829557 0 0
0.848402 0 0
0.867994 0 0
0.887343 0 0
0.906935 0 0
0 0.0484321 0.0226444
0.00895705 0.0497292 0.021622
0.0225071 0.052018 0.0188602
0.0379797 0.0536355 0.0166171
0.0547646 0.0546426 0.0142672
0.0727855 0.0552529 0.0119326
0.0920272 0.0551308 0.00955215
0.113756 0.0541543 0.00663767
0.139147 0.0521401 0.00263981
0.168933 0.0489662 0
0.203723 0.0445563 0
0.244007 0.0392462 0
0.288487 0.0325628 0
0.335195 0.0253147 0
0.383551 0.0182345 0
0.434424 0.00979629 0
0.486503 0.00125124 0
0.535134 0 0
0.579965 0 0
0.619287 0 0
0.653346 0 0
0.683986 0 0
0.71136 0 0
0.735836 0 0
0.757946 0 0
0.778439 0 0
0.797879 0 0
0.8168 0 0
0.835752 0 0
0.855299 0 0
0.875624 0 0
0.895689 0 0
0.916045 0 0
0 0.0596628 0.024094
0.00952163 0.0607004 0.0235294
0.022446 0.0624704 0.0214694
0.0368048 0.0649577 0.0178683
0.0532387 0.0661936 0.0155337
0.0711681 0.0672923 0.0123293
0.0906844 0.0677195 0.00915541
0.112734 0.0672007 0.00555428
0.13843 0.0655833 0.00102235
0.16849 0.0630198 0
0.20354 0.0589761 0
0.244053 0.0539712 0
0.288838 0.0475319 0
0.335943 0.0403296 0
0.384802 0.0327153 0
0.435981 0.0247044 0
0.488273 0.0163729 0
0.537148 0.00822461 0
0.582361 0.000610361 0
0.621881 0 0
0.656489 0 0
0.687648 0 0
0.715572 0 0
0.740642 0 0
0.763378 0 0
0.784558 0 0
0.804669 0 0
0.824308 0 0
0.843976 0 0
0.86424 0 0
0.885298 0 0
0.906157 0 0
0.927321 0 0
0 0.0731212 0.0254673
0.0100252 0.0739757 0.0252537
0.0224002 0.0752575 0.0239109
0.0362707 0.0767224 0.02121
0.052018 0.0791028 0.0173953
0.0690166 0.080293 0.0140841
0.0887465 0.0811475 0.010071
0.111421 0.0808576 0.00572213
0.137636 0.0797589 0.000488289
0.168185 0.0773632 0
0.203647 0.0736248 0
0.244724 0.0684215 0
0.289921 0.0616007 0
0.337438 0.0550698 0
0.386908 0.0476997 0
0.438621 0.0399786 0
0.491264 0.0323644 0
0.540413 0.0246281 0
0.586007 0.0174868 0
0.625605 0.011368 0
0.660853 0.00683604 0
0.692668 0.00360113 0
0.721294 0.00157168 0
0.747066 0.000686656 0
0.770535 0.000747692 0
0.792462 0.00157168 0
0.813367 0.00299077 0
0.833814 0.00485237 0
0.854337 0.00700389 0
0.875486 0.00929274 0
0.897475 0.0116426 0
0.91928 0.014023 0
0.941817 0.0169985 0
0 0.0847944 0.0269932
0.0115816 0.085359 0.0270848
0.023743 0.0862898 0.0263066
0.0379797 0.0877546 0.0241398
0.0511177 0.0899062 0.0208743
0.0675975 0.0924392 0.0169985
0.0870832 0.0934768 0.0125582
0.10985 0.0941787 0.00741588
0.136584 0.0938735 0.00148013
0.167758 0.0921798 0
0.203769 0.0890211 0
0.245472 0.0843061 0
0.291218 0.0783398 0
0.339406 0.0715496 0
0.389685 0.0644236 0
0.442084 0.0567941 0
0.495232 0.049546 0
0.544839 0.0424048 0
0.591012 0.0358434 0
0.630823 0.0307164 0
0.666835 0.0268711 0
0.699397 0.0243381 0
0.728786 0.0230259 0
0.755352 0.022858 0
0.77966 0.0236667 0
0.802426 0.0252384 0
0.824216 0.0274357 0
0.845563 0.0301061 0
0.867002 0.0330816 0
0.889113 0.0359808 0
0.912062 0.0392615 0
0.934829 0.043061 0
0.958312 0.0471962 0
0.000442512 0.0973678 0.027985
0.0123293 0.098024 0.0283665
0.0245212 0.0989395 0.0280003
0.0373236 0.100389 0.026627
0.050782 0.102235 0.0243076
0.0663157 0.104662 0.0203403
0.0851301 0.107301 0.0159152
0.107683 0.108309 0.0102998
0.134829 0.108812 0.00370794
0.166705 0.108064 0
0.203449 0.105684 0
0.245975 0.101686 0
0.292485 0.0963607 0
0.341543 0.0902266 0
0.392889 0.0838483 0
0.446265 0.0771801 0
0.500008 0.0702831 0
0.550179 0.0635691 0
0.596902 0.0575875 0
0.637079 0.0530709 0
0.67393 0.049897 0
0.707332 0.0481117 0
0.737591 0.0476234 0
0.765042 0.0483253 0
0.790249 0.0501259 0
0.813962 0.0528267 0
0.836698 0.0565347 0
0.859007 0.0605478 0
0.881392 0.0648661 0
0.904402 0.0692912 0
0.928206 0.0737469 0
0.952132 0.0784924 0
0.975814 0.0833753 0
0.000396735 0.111147 0.0283818
0.0124361 0.111971 0.0290227
0.0250858 0.113039 0.0290379
0.0370947 0.114549 0.0284123
0.0503548 0.116335 0.026978
0.0654002 0.118547 0.0242466
0.0830549 0.12137 0.0194553
0.105043 0.124102 0.0140993
0.132097 0.125109 0.00706493
0.164599 0.125414 0
0.202304 0.124178 0
0.245899 0.121218 0
0.293431 0.116808 0
0.343572 0.111574 0
0.39617 0.106111 0
0.450645 0.10042 0
0.505043 0.0945449 0
0.555886 0.0892348 0
0.602975 0.084596 0
0.643885 0.0810254 0
0.681651 0.0787823 0
0.715984 0.0779736 0
0.747173 0.0784924 0
0.775601 0.0802625 0
0.80177 0.0831159 0
0.826413 0.0867628 0
0.850034 0.0910353 0
0.873152 0.0957351 0
0.896269 0.100633 0
0.919875 0.105547 0
0.944701 0.110445 0
0.968765 0.115633 0
0.993439 0.120912 0
0 0.126665 0.0278935
0.0119631 0.127749 0.0288396
0.0237125 0.129107 0.0294041
0.0361944 0.130785 0.029221
0.0492866 0.132692 0.0286717
0.0642252 0.134905 0.0270848
0.0813306 0.137545 0.0238956
0.101991 0.140826 0.0180819
0.128496 0.143786 0.0114443
0.161074 0.144869 0.00299077
0.199664 0.144976 0
0.24448 0.143404 0
0.293248 0.14023 0
0.34464 0.136095 0
0.398596 0.131731 0
0.454307 0.127138 0
0.509499 0.122667 0
0.561135 0.118456 0
0.60856 0.1149 0
0.650462 0.112398 0
0.689219 0.111223 0
0.724529 0.111421 0
0.756664 0.112886 0
0.785962 0.115496 0
0.812924 0.119051 0
0.838285 0.123339 0
0.862516 0.128115 0
0.886152 0.133211 0
0.909789 0.138537 0
0.933898 0.143816 0
0.959091 0.148974 0
0.983444 0.15436 0.00480659
1 0.159747 0.0105745
0 0.144305 0.027039
0.00935378 0.14583 0.0280766
0.0221714 0.147555 0.0287327
0.0347448 0.149645 0.02916
0.0486763 0.151965 0.0291905
0.0630503 0.154421 0.028748
0.0798352 0.157137 0.0268101
0.0998245 0.160235 0.0233768
0.124636 0.164034 0.0162051
0.156527 0.167193 0.00825513
0.1953 0.168322 0
0.241154 0.168353 0
0.291325 0.166781 0
0.344182 0.164034 0
0.399649 0.161028 0
0.456764 0.157931 0
0.512871 0.15462 0
0.565438 0.151553 0
0.613275 0.149096 0
0.656229 0.147585 0
0.695872 0.147326 0
0.731991 0.148302 0
0.764828 0.150454 0
0.794751 0.153643 0
0.822248 0.157656 0
0.848035 0.16228 0
0.872694 0.167407 0
0.896727 0.172793 0
0.920623 0.178256 0
0.945357 0.183566 0.00215152
0.97023 0.188708 0.00776684
0.995087 0.193973 0.0134432
1 0.199252 0.0190127
0 0.164584 0.0261845
0.00628672 0.166766 0.0272374
0.0197147 0.169055 0.0279698
0.033051 0.171649 0.0285649
0.0471351 0.174517 0.0290379
0.0620279 0.177417 0.0292058
0.0785382 0.180423 0.028687
0.0981155 0.183612 0.0267796
0.122042 0.187152 0.0222629
0.151812 0.191485 0.0135348
0.189761 0.194827 0.00445563
0.235752 0.196063 0
0.287205 0.196399 0
0.34165 0.195575 0
0.398764 0.194324 0
0.457359 0.192584 0
0.514488 0.190478 0
0.567941 0.188434 0
0.61619 0.186877 0
0.659953 0.18613 0
0.700267 0.186496 0
0.736919 0.187991 0
0.770245 0.190524 0
0.800519 0.193942 0
0.828321 0.198154 0
0.854398 0.202991 0
0.87924 0.208301 0
0.903334 0.213931 0
0.92723 0.219684 0
0.951873 0.225238 0.00544747
0.976593 0.230549 0.0107118
1 0.235874 0.0159762
1 0.241123 0.0210727
0 0.187884 0.02533
0.00364691 0.190753 0.0261234
0.0172885 0.193744 0.0267948
0.0317998 0.197055 0.027451
0.0462348 0.200702 0.0282444
0.0623941 0.204425 0.0289158
0.0781567 0.208103 0.0292973
0.0973526 0.211795 0.028809
0.120714 0.215549 0.0264134
0.149325 0.219593 0.0210269
0.184741 0.224552 0.0104677
0.229603 0.228168 0.000381476
0.28127 0.229816 0
0.336904 0.230869 0
0.395468 0.231235 0
0.455406 0.230838 0
0.513542 0.229786 0
0.567803 0.228611 0
0.616495 0.227771 0
0.660822 0.227649 0
0.701549 0.228565 0
0.738552 0.230549 0
0.772091 0.233509 0
0.802502 0.237324 0
0.830381 0.241886 0
0.856443 0.246952 0
0.881178 0.252338 0
0.905089 0.257832 0
0.92874 0.26334 0
0.953109 0.268666 0.00259403
0.977737 0.27396 0.00761425
1 0.27953 0.0127871
1 0.285222 0.0179904
0 0.215732 0.0239109
0.00291447 0.21944 0.0243992
0.0168307 0.223346 0.0250553
0.0322271 0.227497 0.0258793
0.0476844 0.231937 0.0269932
0.0647288 0.236561 0.0276036
0.0803082 0.24094 0.0298161
0.0990616 0.245197 0.0310674
0.121935 0.249271 0.030869
0.149767 0.253315 0.0280766
0.183688 0.25771 0.0209049
0.225254 0.263233 0.0074464
0.275685 0.266987 0
0.331106 0.269108 0
0.390448 0.271092 0
0.451469 0.272145 0
0.510552 0.272236 0
0.565499 0.271901 0
0.614633 0.271656 0
0.659312 0.271977 0
0.700282 0.273198 0
0.737377 0.275364 0
0.770901 0.278401 0
0.801251 0.282261 0
0.828962 0.286809 0
0.854749 0.291783 0
0.879271 0.2972 0
0.903151 0.302968 0
0.926955 0.308949 0
0.951659 0.314977 0
0.976547 0.320974 0.00149538
1 0.32726 0.00666819
1 0.333852 0.0117342
0 0.247242 0.0212711
0.00479133 0.251881 0.0217746
0.0202335 0.256764 0.0223545
0.0360571 0.261967 0.0235752
0.0523995 0.267308 0.0268406
0.070222 0.272801 0.0299687
0.0859236 0.278065 0.0329747
0.104097 0.283055 0.0354772
0.126375 0.287633 0.036759
0.15346 0.291829 0.035935
0.186236 0.295903 0.0315251
0.225696 0.30045 0.0216373
0.272526 0.306538 0.00508125
0.326558 0.310185 0
0.38529 0.31284 0
0.446677 0.315099 0
0.506355 0.316274 0
0.561822 0.316747 0
0.611292 0.317052 0
0.656153 0.317723 0
0.697154 0.319173 0
0.734142 0.321492 0
0.767498 0.32462 0
0.797726 0.32874 0
0.825498 0.333852 0
0.85153 0.339818 0
0.876341 0.346212 0
0.900481 0.352911 0
0.924514 0.359731 0
0.949371 0.366461 0
0.974395 0.373037 0
0.999893 0.379767 0
1 0.386481 0.00387579
0 0.283101 0.01738
0.0113527 0.288869 0.0200198
0.0277256 0.29482 0.0232853
0.0443122 0.301091 0.0270237
0.0620737 0.307576 0.0310826
0.0802625 0.314321 0.0353857
0.0955978 0.320638 0.0394751
0.1131 0.326482 0.043061
0.134646 0.33164 0.0455329
0.160906 0.33608 0.0461585
0.192584 0.33994 0.0437934
0.230442 0.343725 0.0368048
0.274723 0.348394 0.0237736
0.324926 0.354849 0.00445563
0.382177 0.35848 0
0.442496 0.360952 0
0.501945 0.36286 0
0.557504 0.364004 0
0.607065 0.364752 0
0.652003 0.365743 0
0.693172 0.36762 0
0.730465 0.37052 0
0.764233 0.374411 0
0.794842 0.379217 0
0.822919 0.384863 0
0.849226 0.391104 0
0.874235 0.397772 0
0.898528 0.404654 0
0.922637 0.411566 0
0.94757 0.418326 0
0.97261 0.424842 0
0.998062 0.431403 0
1 0.437858 0
0.00485237 0.3252 0.0199588
0.0221408 0.332143 0.0241398
0.0400092 0.339147 0.0286564
0.0569924 0.346334 0.0335241
0.0755627 0.353536 0.0385748
0.093492 0.360662 0.0437476
0.107866 0.36733 0.0486152
0.124346 0.373373 0.0529183
0.144869 0.378607 0.0561379
0.170047 0.38291 0.0576944
0.200504 0.386374 0.0565957
0.236851 0.389364 0.051606
0.279057 0.392767 0.041413
0.326329 0.397467 0.0252079
0.379522 0.404273 0.00354009
0.438163 0.407065 0
0.496345 0.408835 0
0.551751 0.410636 0
0.601724 0.412314 0
0.647242 0.414267 0
0.688945 0.416922 0
0.726711 0.420432 0
0.760815 0.424735 0
0.79173 0.429831 0
0.82002 0.435599 0
0.846464 0.44184 0
0.871565 0.448341 0
0.895903 0.454978 0
0.919997 0.46157 0
0.944854 0.467948 0
0.969787 0.474037 0
0.995056 0.480156 0
1 0.486107 0
0.0180819 0.371374 0.0261234
0.0361486 0.378836 0.0313573
0.0547341 0.386206 0.0367285
0.0723278 0.393668 0.042359
0.0915236 0.400992 0.0480659
0.107988 0.408118 0.0537423
0.121065 0.414649 0.0590219
0.136233 0.420462 0.0636606
0.155413 0.425315 0.067216
0.179202 0.429175 0.0691539
0.208209 0.431998 0.0686961
0.242908 0.434134 0.0648508
0.283192 0.436362 0.056611
0.328206 0.439719 0.0432898
0.378653 0.445106 0.0240787
0.434165 0.45211 0.00321965
0.491768 0.454582 0
0.546426 0.456611 0
0.596368 0.458946 0
0.6421 0.461585 0
0.684092 0.46479 0
0.722103 0.468635 0
0.756451 0.473121 0
0.787488 0.478248 0
0.815854 0.483925 0
0.842313 0.489967 0
0.867353 0.496223 0
0.891569 0.502556 0
0.915496 0.508812 0
0.940139 0.514824 0
0.964797 0.520546 0
0.989761 0.526207 0
1 0.531563 0
0.0341192 0.418219 0.0351263
0.0526131 0.425605 0.0409705
0.0715496 0.432822 0.0468299
0.0894026 0.44004 0.0528572
0.108232 0.447059 0.0588388
0.122744 0.453834 0.0647135
0.134432 0.459968 0.0700999
0.148165 0.465339 0.0747539
0.16585 0.469718 0.078294
0.188159 0.473075 0.0803235
0.215854 0.475547 0.0803693
0.249378 0.477394 0.0776074
0.28864 0.479332 0.0712749
0.332403 0.482139 0.0605936
0.38114 0.48661 0.0445563
0.434333 0.492699 0.0221866
0.489357 0.499489 0.00505074
0.543282 0.50161 0
0.592309 0.503853 0
0.637675 0.506722 0
0.679545 0.510231 0
0.71754 0.514305 0
0.751842 0.518898 0
0.782834 0.52401 0
0.811109 0.529473 0
0.837415 0.535103 0
0.862272 0.540825 0
0.886229 0.546517 0
0.90985 0.552163 0
0.934127 0.557595 0
0.958389 0.562676 0
0.982879 0.567666 0
1 0.572442 0
0.0522774 0.463462 0.0463264
0.0709697 0.470619 0.052491
0.0899977 0.477562 0.0585489
0.10782 0.484443 0.0646982
0.124819 0.491051 0.0706798
0.137438 0.497185 0.0764477
0.147692 0.502739 0.0817426
0.16022 0.507713 0.0865034
0.176898 0.511955 0.0903639
0.198337 0.515328 0.0929122
0.225193 0.517815 0.0935988
0.257923 0.519585 0.0917067
0.2963 0.521263 0.086656
0.339101 0.523598 0.0777905
0.386633 0.527321 0.0641337
0.438087 0.532403 0.0444343
0.490593 0.538674 0.018967
0.54287 0.544808 0.00968948
0.590707 0.546517 0
0.635142 0.549004 0
0.676448 0.552331 0
0.714046 0.556268 0
0.748043 0.560647 0
0.778759 0.565499 0
0.806714 0.570687 0
0.832624 0.576089 0
0.857053 0.581567 0
0.880537 0.586984 0
0.903655 0.592233 0
0.927367 0.597177 0
0.951019 0.601724 0
0.974411 0.606149 0
0.997574 0.610315 0
0.0720989 0.506004 0.0592813
0.090547 0.512474 0.0653697
0.10898 0.518822 0.0713512
0.125933 0.525246 0.0775158
0.1411 0.53167 0.0837262
0.15227 0.537972 0.0899214
0.161578 0.543801 0.0957198
0.173617 0.54905 0.100969
0.189731 0.553475 0.105257
0.210544 0.556939 0.108248
0.236683 0.559411 0.109377
0.268788 0.561059 0.108034
0.306401 0.562478 0.103777
0.348486 0.56437 0.0960708
0.395117 0.567437 0.0840467
0.445151 0.571649 0.0664225
0.495567 0.576806 0.043061
0.545052 0.583032 0.015671
0.592248 0.588113 0.0165866
0.635233 0.589609 0.000976577
0.675517 0.592371 0
0.712352 0.595911 0
0.745708 0.599985 0
0.775845 0.604501 0
0.80322 0.609323 0
0.82855 0.614282 0
0.852354 0.619272 0
0.875181 0.624155 0
0.897597 0.628824 0
0.920638 0.633188 0
0.943603 0.637171 0
0.966323 0.641001 0
0.988846 0.644617 0
0.0936751 0.545739 0.0740978
0.112734 0.552392 0.0805982
0.13019 0.55903 0.0871443
0.146151 0.565667 0.0937819
0.158495 0.572274 0.100481
0.168093 0.578683 0.107088
0.176638 0.584588 0.113298
0.18851 0.589883 0.118883
0.204334 0.594278 0.123537
0.224735 0.597681 0.127031
0.250294 0.6 0.128252
0.281987 0.601404 0.12723
0.318975 0.602502 0.123384
0.360571 0.603922 0.116258
0.406546 0.606394 0.105135
0.455314 0.609766 0.0888685
0.503731 0.613916 0.0670634
0.551247 0.619013 0.0407568
0.595102 0.624857 0.0132753
0.638392 0.628443 0.0210727
0.677272 0.630167 0.00726329
0.713024 0.632975 0
0.745495 0.636439 0
0.774792 0.640375 0
0.801358 0.644602 0
0.825895 0.648936 0
0.848936 0.653315 0
0.871015 0.657588 0
0.892729 0.661677 0
0.915068 0.665461 0
0.937377 0.668879 0
0.959442 0.672175 0
0.981338 0.675258 0
0.119371 0.585229 0.0925154
0.13727 0.592096 0.0995193
0.153048 0.598871 0.106523
0.166293 0.60557 0.113558
0.175967 0.612253 0.120699
0.183536 0.61857 0.127794
0.192386 0.624399 0.134157
0.204364 0.629541 0.139544
0.220111 0.633753 0.144457
0.24033 0.636973 0.147463
0.265507 0.639063 0.148714
0.297017 0.640177 0.147768
0.333547 0.640879 0.144259
0.374945 0.641794 0.13753
0.420233 0.643595 0.126574
0.467613 0.646143 0.111086
0.514138 0.649287 0.090486
0.559762 0.653254 0.0654765
0.601389 0.657877 0.0387274
0.642161 0.662913 0.0229648
0.681254 0.665431 0.0269169
0.715679 0.667155 0.0141909
0.747021 0.669749 0.00451667
0.775311 0.672908 0
0.800977 0.676432 0
0.824704 0.680125 0
0.846967 0.683864 0
0.868315 0.687541 0
0.889311 0.691051 0
0.910979 0.694286 0
0.932631 0.697169 0
0.95407 0.699947 0
0.975372 0.70251 0
0.146365 0.624216 0.114244
0.162234 0.631174 0.121675
0.175113 0.637888 0.129168
0.184985 0.644541 0.136294
0.192569 0.651041 0.143267
0.199145 0.657099 0.149966
0.208515 0.662699 0.155825
0.220829 0.667643 0.160708
0.236713 0.671626 0.164019
0.25684 0.674525 0.166552
0.281849 0.676249 0.167529
0.313085 0.676921 0.166537
0.349279 0.677089 0.163256
0.390707 0.677409 0.15697
0.435172 0.678477 0.147097
0.480888 0.68014 0.132082
0.525582 0.682277 0.112047
0.569085 0.685069 0.0878157
0.609003 0.688533 0.0614633
0.648203 0.692897 0.0344091
0.685435 0.696788 0.0346685
0.719661 0.69839 0.032105
0.749828 0.700008 0.0202182
0.777142 0.702358 0.0115206
0.801907 0.70515 0.00489815
0.824811 0.708186 0
0.846311 0.711299 0
0.866941 0.714382 0
0.887251 0.717311 0
0.908248 0.719997 0
0.929259 0.722377 0
0.950103 0.724651 0
0.97081 0.726726 0
0.172747 0.662333 0.138552
0.184939 0.669123 0.145647
0.194614 0.675639 0.152575
0.201785 0.682048 0.159503
0.207477 0.688212 0.165652
0.21503 0.694026 0.170672
0.224948 0.699306 0.175555
0.237613 0.703838 0.179492
0.25362 0.707408 0.182956
0.273579 0.709834 0.184894
0.298665 0.71104 0.185321
0.329473 0.711147 0.183963
0.365393 0.710674 0.180529
0.406699 0.710277 0.17435
0.450309 0.710536 0.165072
0.494148 0.711254 0.151614
0.537118 0.712367 0.132723
0.578485 0.714076 0.108553
0.617151 0.716518 0.0827039
0.654994 0.719829 0.0552071
0.690547 0.723888 0.0306859
0.724285 0.726604 0.0461891
0.753674 0.727489 0.0364233
0.780011 0.729 0.0263066
0.803922 0.731075 0.0184176
0.826001 0.73341 0.0116274
0.846769 0.735912 0.00621042
0.866697 0.738415 0.00141909
0.886351 0.740795 0
0.906706 0.742962 0
0.927108 0.744823 0
0.947372 0.746624 0
0.967544 0.748257 0
0.195514 0.699031 0.162585
0.204623 0.705516 0.169253
0.211307 0.711818 0.174746
0.216419 0.71783 0.18024
0.222705 0.723568 0.185153
0.230945 0.728954 0.190066
0.241321 0.733745 0.193973
0.25417 0.737774 0.197009
0.270207 0.740764 0.199115
0.289921 0.74258 0.200153
0.314992 0.74313 0.199924
0.345373 0.742519 0.198184
0.381033 0.741314 0.194553
0.422065 0.740185 0.188464
0.464759 0.739635 0.179644
0.506783 0.739483 0.167285
0.548272 0.739712 0.15021
0.587671 0.740444 0.128328
0.62533 0.741939 0.101747
0.662028 0.744305 0.0742809
0.696437 0.747524 0.0476387
0.728161 0.750607 0.0419013
0.758053 0.752422 0.0517586
0.783459 0.753109 0.0404059
0.806531 0.754452 0.0313268
0.827863 0.756146 0.0238346
0.847929 0.758038 0.0174105
0.867185 0.759991 0.0116274
0.886213 0.761837 0.00602731
0.905974 0.763516 7.62951e-05
0.925856 0.764935 0
0.945632 0.766354 0
0.965377 0.767636 0
0.214786 0.734203 0.184192
0.22089 0.740383 0.189441
0.225513 0.74612 0.194614
0.230747 0.751629 0.199008
0.237751 0.756832 0.202838
0.246448 0.761608 0.206058
0.257038 0.765774 0.208667
0.269917 0.769131 0.210636
0.285771 0.77142 0.211872
0.305364 0.772534 0.212253
0.330129 0.772366 0.211582
0.360143 0.771069 0.209583
0.395666 0.769162 0.205875
0.43624 0.767315 0.199924
0.477897 0.766033 0.191516
0.518334 0.765118 0.180011
0.558556 0.764523 0.164294
0.596262 0.764401 0.144442
0.633005 0.765057 0.11989
0.668696 0.766583 0.0919509
0.702068 0.768963 0.0652018
0.732769 0.77203 0.0403754
0.761151 0.77406 0.0525978
0.786892 0.775021 0.0542306
0.809155 0.775662 0.0440986
0.829786 0.776745 0.0356146
0.84921 0.778088 0.0282902
0.867903 0.779538 0.0216526
0.886412 0.780957 0.015259
0.905715 0.782254 0.00851453
0.925155 0.783337 0.00166323
0.944533 0.784436 0
0.963912 0.785443 0
0.230365 0.76759 0.203326
0.23473 0.773129 0.20734
0.238804 0.778225 0.210712
0.244739 0.783062 0.213672
0.252155 0.787579 0.216251
0.261051 0.791653 0.218387
0.271656 0.795102 0.220096
0.284428 0.797772 0.221317
0.300053 0.799756 0.22208
0.319631 0.800198 0.222034
0.343954 0.799374 0.221073
0.373571 0.79704 0.218845
0.409125 0.794507 0.215106
0.448997 0.792004 0.209293
0.489494 0.790036 0.201297
0.528572 0.788403 0.190524
0.567681 0.78706 0.17586
0.603922 0.78616 0.157565
0.639841 0.786053 0.134936
0.674617 0.786816 0.108019
0.707088 0.788449 0.0811933
0.736889 0.790784 0.0561532
0.763989 0.793118 0.0478065
0.789441 0.794705 0.061677
0.811566 0.795102 0.0562295
0.831601 0.795666 0.0469368
0.850492 0.796551 0.0388495
0.868711 0.797604 0.0314946
0.886778 0.798672 0.0244144
0.905669 0.799619 0.016968
0.924743 0.800412 0.00944533
0.943786 0.801236 0.00244144
0.96286 0.802014 0
0.243595 0.799023 0.218082
0.24683 0.80383 0.220737
0.251774 0.808209 0.222995
0.258091 0.812314 0.224994
0.26566 0.816144 0.226719
0.274571 0.819516 0.227863
0.285069 0.822309 0.229038
0.297597 0.824338 0.229862
0.31284 0.825315 0.230213
