luts/Rec.709 to Cinematic look.cube
TITLE "Generated by Resolve"
LUT_3D_SIZE 9
0 0.0279698 0.0199741
0.0572213 0.0311284 0.0148318
0.139513 0.0255589 0.0061799
0.288045 0.0039826 0
0.48423 0 0
0.649348 0 0
0.751003 0 0
0.824704 0 0
0.899611 0 0
0 0.0731212 0.0254673
0.052018 0.0791028 0.0173953
0.137636 0.0797589 0.000488289
0.289921 0.0616007 0
0.491264 0.0323644 0
0.660853 0.00683604 0
0.770535 0.000747692 0
0.854337 0.00700389 0
0.941817 0.0169985 0
0 0.126665 0.0278935
0.0492866 0.132692 0.0286717
0.128496 0.143786 0.0114443
0.293248 0.14023 0
0.509499 0.122667 0
0.689219 0.111223 0
0.812924 0.119051 0
0.909789 0.138537 0
1 0.159747 0.0105745
0 0.215732 0.0239109
0.0476844 0.231937 0.0269932
0.121935 0.249271 0.030869
0.275685 0.266987 0
0.510552 0.272236 0
0.700282 0.273198 0
0.828962 0.286809 0
0.926955 0.308949 0
1 0.333852 0.0117342
0.0180819 0.371374 0.0261234
0.0915236 0.400992 0.0480659
0.155413 0.425315 0.067216
0.283192 0.436362 0.056611
0.491768 0.454582 0
0.684092 0.46479 0
0.815854 0.483925 0
0.915496 0.508812 0
1 0.531563 0
0.0936751 0.545739 0.0740978
0.158495 0.572274 0.100481
0.204334 0.594278 0.123537
0.318975 0.602502 0.123384
0.503731 0.613916 0.0670634
0.677272 0.630167 0.00726329
0.801358 0.644602 0
0.892729 0.661677 0
0.981338 0.675258 0
0.195514 0.699031 0.162585
0.222705 0.723568 0.185153
0.270207 0.740764 0.199115
0.381033 0.741314 0.194553
0.548272 0.739712 0.15021
0.696437 0.747524 0.0476387
0.806531 0.754452 0.0313268
0.886213 0.761837 0.00602731
0.965377 0.767636 0
0.254627 0.827634 0.229129
0.277836 0.842054 0.235035
0.324102 0.848814 0.237919
0.43064 0.83917 0.229343
0.581201 0.826734 0.194186
0.714351 0.823194 0.10985
0.813565 0.829358 0.0612192
0.886854 0.831296 0.0423285
0.96083 0.833082 0.00923171
0.292699 0.922744 0.259251
0.313481 0.92842 0.261997
0.353872 0.927687 0.261646
0.452613 0.911681 0.251423
0.593133 0.893233 0.221729
0.718517 0.883864 0.153948
0.81117 0.887709 0.0742199
0.88249 0.895369 0.067689
0.956085 0.897383 0.0425422
0 0.031754 0.0735637
0.0573892 0.0336309 0.0802472
0.139513 0.0278935 0.0741436
0.287678 0.0056611 0.0504768
0.484337 0 0.0177157
0.650172 0 0
0.752438 0 0
0.826856 0 0
0.902678 0 0
0 0.0827344 0.0763867
0.0551614 0.0846265 0.0774395
0.140002 0.0822614 0.0738079
0.291356 0.0621958 0.0521401
0.493675 0.035111 0.0230411
0.664103 0.0133364 0.000579843
0.775036 0.00910964 0
0.860182 0.0170138 0.00712596
0.949187 0.0286412 0.0213626
0 0.136385 0.068574
0.0517586 0.14168 0.0741588
0.134844 0.151446 0.0741131
0.299611 0.145525 0.0570993
0.517128 0.130541 0.0399939
0.697292 0.121416 0.0311131
0.822156 0.130602 0.0415045
0.91989 0.150729 0.0626078
1 0.172137 0.087129
0 0.226917 0.052842
0.0503548 0.243915 0.0684367
0.129549 0.261616 0.0809949
0.287541 0.278767 0.0632181
0.522423 0.283055 0.0390478
0.710567 0.284123 0.0337377
0.838865 0.297688 0.0445411
0.937758 0.320729 0.0668345
1 0.346792 0.0927596
0.0208286 0.385718 0.0708019
0.0952773 0.414984 0.0974136
0.161212 0.438499 0.118273
0.293141 0.448646 0.111498
0.503761 0.46659 0.0604715
0.694545 0.476188 0.0246433
0.82623 0.495079 0.0250248
0.925902 0.519478 0.0411994
1 0.541131 0.0606241
0.0970169 0.557855 0.124178
0.159564 0.584466 0.148852
0.208988 0.606226 0.166567
0.327916 0.613947 0.165682
0.51397 0.62446 0.121218
0.686076 0.639445 0.0699626
0.808957 0.652476 0.0421759
0.899199 0.668406 0.036347
0.98677 0.680934 0.0318456
0.196277 0.710384 0.195453
0.223697 0.734264 0.207797
0.273899 0.75053 0.216907
0.387045 0.749691 0.212146
0.554162 0.746624 0.177447
0.701473 0.753201 0.0996109
0.810651 0.759075 0.0880903
0.889494 0.76553 0.0641947
0.968048 0.770687 0.0417945
0.252461 0.836088 0.244144
0.277317 0.849683 0.252537
0.324926 0.856489 0.256168
0.433143 0.844556 0.245594
0.583703 0.830823 0.211841
0.716731 0.826398 0.145907
0.815656 0.832074 0.10927
0.88867 0.833646 0.0957809
0.962478 0.835172 0.0662394
0.289235 0.928359 0.275929
0.311086 0.933486 0.279301
0.352636 0.932158 0.278553
0.453025 0.915328 0.265446
0.594232 0.896025 0.234363
0.719936 0.886213 0.177966
0.812818 0.889982 0.118608
0.884352 0.89781 0.114015
0.957855 0.899641 0.0955215
0 0.0382239 0.136202
0.032578 0.0300908 0.144915
0.133684 0.0280919 0.155474
0.286091 0.0043183 0.135531
0.482719 0 0.103853
0.649195 0 0.0761578
0.752102 0 0.0653697
0.827359 0 0.0654612
0.904326 0 0.068574
0 0.0823072 0.146212
0.042649 0.0837568 0.147936
0.139834 0.0855726 0.160479
0.292042 0.0665141 0.140795
0.495201 0.0413062 0.114168
0.666697 0.0225223 0.0939345
0.778881 0.0201724 0.0922103
0.865507 0.0297704 0.103319
0.95613 0.0435492 0.119295
0 0.154665 0.151293
0.0518044 0.160571 0.157595
0.142611 0.165011 0.161807
0.306844 0.156252 0.152667
0.52462 0.141527 0.137728
0.705089 0.133745 0.130404
0.83093 0.144091 0.142153
0.929335 0.165103 0.16495
1 0.186954 0.188571
0 0.240375 0.11577
0.0450141 0.260914 0.134005
0.135302 0.277821 0.151232
0.299962 0.292897 0.151476
0.534005 0.295109 0.140368
0.720333 0.295735 0.13846
0.848295 0.309453 0.151827
0.947692 0.333669 0.175097
1 0.360678 0.198932
0.0167239 0.400977 0.129458
0.0923934 0.430228 0.152407
0.163943 0.453056 0.170581
0.30222 0.462013 0.169772
0.515312 0.479133 0.145922
0.704692 0.487648 0.125673
0.836072 0.506203 0.13463
0.935271 0.53019 0.1552
1 0.550759 0.174228
0.0951553 0.570413 0.169482
0.156344 0.597498 0.189151
0.210636 0.619348 0.2056
0.335012 0.626123 0.207263
0.523003 0.635081 0.178531
0.693996 0.648508 0.151003
0.815641 0.660044 0.13669
0.90483 0.674876 0.13843
0.991363 0.686366 0.139834
0.190509 0.722683 0.228275
0.219516 0.746334 0.245716
0.273289 0.7617 0.257496
0.390448 0.75903 0.252979
0.558633 0.753826 0.224567
0.705608 0.75874 0.168597
0.813916 0.7635 0.163806
0.891966 0.769039 0.150042
0.96994 0.77348 0.136965
0.243656 0.846098 0.283574
0.271183 0.858885 0.293584
0.32137 0.864652 0.297627
0.432837 0.850965 0.28571
0.584909 0.835401 0.254643
0.718257 0.829679 0.201892
0.817014 0.834791 0.175158
0.889815 0.835981 0.169009
0.96347 0.837171 0.149874
0.279423 0.935515 0.314595
0.303319 0.940078 0.318395
0.347204 0.938079 0.317266
0.450706 0.920027 0.301991
0.594064 0.899397 0.271366
0.7205 0.888731 0.223438
0.813794 0.892271 0.17969
0.885603 0.900328 0.17818
0.958938 0.901808 0.167895
0 0.0603952 0.257511
0.0148165 0.0602274 0.258488
0.0776684 0.0284581 0.270695
0.263249 0.0100252 0.278691
0.475044 0 0.259388
0.643427 0 0.232273
0.746868 0 0.222278
0.822919 0 0.223117
0.901015 0 0.227207
0 0.0932479 0.261524
0.016907 0.0947738 0.26389
0.0889448 0.0807813 0.274159
0.272816 0.0681315 0.286961
0.490379 0.0379797 0.271931
0.663905 0.0198672 0.252888
0.777508 0.0197299 0.252918
0.865721 0.0318151 0.265904
0.957885 0.0478828 0.283619
0 0.144686 0.266972
0.0184176 0.151751 0.27509
0.110063 0.158297 0.282414
0.295949 0.158114 0.307454
0.526101 0.146242 0.302632
0.708034 0.14107 0.297353
0.834852 0.153063 0.310521
0.933715 0.174777 0.334371
1 0.19678 0.359014
0 0.277424 0.279057
0.0300908 0.298451 0.300542
0.13756 0.317556 0.319921
0.315297 0.320745 0.323262
0.545022 0.315938 0.318822
0.72871 0.314168 0.317479
0.856275 0.32784 0.331334
0.955962 0.352911 0.355779
1 0.380499 0.381552
0 0.423407 0.251469
0.067155 0.455024 0.278676
0.149401 0.479744 0.300053
0.306325 0.486183 0.306706
0.527428 0.497765 0.305501
0.715358 0.502892 0.300572
0.845716 0.520363 0.314794
0.94403 0.54377 0.336889
1 0.563485 0.357275
0.0507057 0.593271 0.271061
0.114931 0.62179 0.297246
0.190234 0.643748 0.318547
0.333394 0.646601 0.32401
0.52958 0.649882 0.312123
0.701396 0.660746 0.30367
0.821576 0.669825 0.300587
0.909621 0.683223 0.308186
0.99498 0.693431 0.314107
0.140398 0.744564 0.331701
0.184741 0.768353 0.35346
0.252186 0.782528 0.367834
0.383734 0.775677 0.363928
0.559457 0.765011 0.343877
0.708461 0.766567 0.309712
0.816159 0.770092 0.31078
0.89337 0.774227 0.304845
0.970672 0.777584 0.299519
0.197848 0.865919 0.390829
0.236728 0.878035 0.402655
0.297902 0.881224 0.407111
0.422065 0.8645 0.394034
0.58233 0.844068 0.367041
0.717968 0.835264 0.329473
0.817243 0.839643 0.309545
0.88986 0.840101 0.313375
0.962783 0.840513 0.302754
0.236164 0.951919 0.419104
0.26923 0.955795 0.423407
0.322637 0.95256 0.421897
0.437705 0.931304 0.404669
0.589563 0.906722 0.375784
0.718776 0.893477 0.339162
0.81323 0.896178 0.312001
0.885573 0.904616 0.311131
0.958236 0.905333 0.311177
0 0.100832 0.413977
0 0.101137 0.415015
0.0544137 0.0981155 0.412238
0.19353 0.0207828 0.421469
0.439078 0 0.43389
0.635798 0 0.425788
0.739834 0 0.416007
0.816785 0 0.417975
0.89604 0 0.423682
0 0.126864 0.416831
0 0.128176 0.419089
0.0602579 0.127321 0.418555
0.204471 0.070161 0.432258
0.458778 0.0547951 0.450904
0.65951 0.015671 0.451392
0.774456 0.0168307 0.453071
0.864164 0.0303655 0.468635
0.957687 0.0476997 0.48867
0 0.16466 0.41735
0 0.171664 0.426459
0.0728923 0.177798 0.434607
0.23122 0.14786 0.458534
0.501442 0.153674 0.488869
0.708202 0.141222 0.50312
0.835706 0.153872 0.517464
0.934783 0.175769 0.542092
1 0.197513 0.566857
0 0.256352 0.417472
0 0.277317 0.440787
0.0812238 0.296696 0.462013
0.267338 0.305455 0.471077
0.530098 0.315831 0.514229
0.729732 0.316808 0.525597
0.857847 0.331426 0.540505
0.957839 0.357031 0.565866
1 0.384955 0.590112
0 0.475196 0.470024
0.0218051 0.506722 0.500069
0.132906 0.530221 0.522652
0.31313 0.535744 0.528038
0.544945 0.533059 0.525567
0.729427 0.532296 0.524941
0.85716 0.546807 0.539269
0.953719 0.568444 0.560967
1 0.586206 0.578805
0.0142672 0.627344 0.457115
0.0879835 0.657481 0.487297
0.171649 0.68069 0.510552
0.325185 0.684642 0.514504
0.536294 0.680385 0.510323
0.713085 0.684489 0.508904
0.831876 0.689815 0.510109
0.918349 0.701015 0.520134
1 0.709178 0.527687
0.102754 0.773999 0.510246
0.154162 0.79762 0.533822
0.227726 0.811933 0.548119
0.366079 0.807202 0.542351
0.557977 0.790768 0.526589
0.713314 0.783352 0.505348
0.822049 0.786114 0.507713
0.898421 0.788083 0.505135
0.974548 0.789822 0.50338
0.158801 0.889845 0.564233
0.203708 0.901579 0.57528
0.268299 0.905425 0.578576
0.397696 0.892729 0.564508
0.576226 0.866331 0.541314
0.71899 0.849485 0.513909
0.820569 0.852613 0.497246
0.893324 0.85275 0.506706
0.965988 0.851743 0.500221
0.190234 0.972 0.584878
0.228824 0.976303 0.588708
0.286305 0.974578 0.586419
0.407599 0.958877 0.568597
0.580621 0.92694 0.542428
0.717708 0.907332 0.514229
0.81474 0.906874 0.497826
0.888441 0.915816 0.490913
0.961105 0.915602 0.502831
0 0.13933 0.557366
0 0.139666 0.558206
0.0106661 0.136797 0.55491
0.143984 0.0640116 0.558923
0.373571 0.0174716 0.560937
0.596536 0 0.581964
0.734142 0 0.599145
0.8121 0 0.601938
0.892561 0 0.608484
0 0.161425 0.559792
0 0.162768 0.562158
0.0163424 0.162036 0.561593
0.165591 0.117754 0.566949
0.396796 0.0758221 0.579797
0.623987 0.0534676 0.609567
0.772931 0.0153811 0.637964
0.864149 0.0303349 0.653895
0.958816 0.0487678 0.674022
0 0.193118 0.560433
0 0.200122 0.570062
0.0313268 0.206195 0.578592
0.207553 0.192111 0.588632
0.444907 0.160616 0.621057
0.67715 0.162295 0.662852
0.83769 0.155718 0.702663
0.936782 0.177646 0.726253
1 0.198962 0.749249
0 0.269841 0.556878
0 0.290135 0.58027
0.0394446 0.308751 0.60145
0.24065 0.316869 0.610895
0.474784 0.304082 0.649088
0.704112 0.320424 0.688777
0.859937 0.333501 0.724865
0.960067 0.35935 0.748974
1 0.387091 0.773114
0 0.449149 0.600198
0 0.47982 0.62945
0.0582284 0.503258 0.652064
0.261875 0.509834 0.658412
0.49958 0.512428 0.659663
0.717098 0.530571 0.699153
0.858686 0.54934 0.723644
0.954391 0.570336 0.743358
1 0.587289 0.760052
0 0.676493 0.667369
0.0311284 0.705852 0.696483
0.144671 0.728237 0.718654
0.324147 0.730968 0.721416
0.549477 0.722454 0.7131
0.72604 0.714046 0.704936
0.84268 0.716457 0.707439
0.926589 0.724743 0.715755
1 0.730373 0.721416
0.0474708 0.820523 0.70634
0.116228 0.842771 0.728298
0.204746 0.855238 0.740612
0.360281 0.845991 0.731609
0.559121 0.824659 0.710872
0.718654 0.807172 0.69395
0.829709 0.80734 0.69308
0.905776 0.807416 0.691218
0.980697 0.807553 0.690547
0.119188 0.927794 0.747082
0.172335 0.938338 0.757443
0.246311 0.940291 0.759396
0.388235 0.921996 0.741543
0.570291 0.894697 0.714733
0.720439 0.872053 0.693156
0.824033 0.868376 0.681941
0.898878 0.87039 0.687495
0.971191 0.868101 0.68246
0.156954 1 0.75787
0.200992 1 0.761135
0.265324 1 0.757824
0.396475 0.980713 0.736767
0.570001 0.953338 0.709255
0.716747 0.928527 0.686748
0.817166 0.923217 0.675929
0.892027 0.930144 0.672801
0.965698 0.931548 0.681346
0 0.165057 0.647669
0 0.165377 0.648432
0 0.162661 0.644984
0.141558 0.131807 0.637507
0.342504 0.0216373 0.649332
0.556069 0.0121462 0.658442
0.695689 0 0.68246
0.803571 0 0.709529
0.89395 0 0.723644
0 0.185229 0.650217
0 0.186786 0.652888
0 0.186328 0.652689
0.164706 0.170443 0.647272
0.369482 0.0804303 0.670909
0.586633 0.0849928 0.689433
0.738415 0.0727092 0.725246
0.859281 0.0523995 0.765316
0.96466 0.0542306 0.793545
0 0.21503 0.652399
0 0.222461 0.662913
0.00459297 0.228992 0.672404
0.206867 0.229953 0.67451
0.422782 0.165301 0.716258
0.643244 0.180148 0.746578
0.805692 0.187457 0.792477
0.933196 0.192096 0.838544
1 0.204532 0.86894
0 0.287633 0.650278
0 0.308019 0.674311
0.0149844 0.326406 0.69572
0.229969 0.33402 0.704952
0.453162 0.305257 0.746059
0.669963 0.324254 0.772946
0.832746 0.345617 0.818494
0.961044 0.368277 0.865034
1 0.394186 0.89305
0 0.452003 0.687709
0 0.48098 0.716167
0.0230411 0.504067 0.739086
0.244465 0.511223 0.746227
0.484062 0.514855 0.749096
0.68307 0.520989 0.785336
0.841871 0.550423 0.825315
0.958816 0.574853 0.861402
1 0.590402 0.876875
0 0.661326 0.753704
0 0.690394 0.782696
0.0862135 0.712184 0.80444
0.287587 0.714214 0.806561
0.517159 0.704936 0.797299
0.696223 0.698711 0.789563
0.835126 0.714672 0.815946
0.927352 0.726146 0.830594
1 0.731151 0.835523
0 0.85153 0.840772
0.0828565 0.872511 0.861555
0.186587 0.88394 0.872892
0.356588 0.874357 0.863432
0.566873 0.853361 0.842741
0.730144 0.833326 0.823026
0.837507 0.826368 0.816251
0.912703 0.82591 0.815869
0.986099 0.824506 0.814557
0.080293 0.960616 0.878813
0.144472 0.970199 0.888273
0.228443 0.971267 0.889372
0.382666 0.952148 0.870512
0.575097 0.922545 0.841382
0.726131 0.894987 0.814832
0.828779 0.884916 0.805188
0.90515 0.886625 0.806867
0.977981 0.883955 0.802853
0.122484 1 0.882292
0.173861 1 0.88513
0.246296 1 0.881346
0.38854 1 0.859205
0.571649 0.976455 0.828519
0.718593 0.949676 0.803174
0.821439 0.941405 0.795407
0.896254 0.943511 0.793393
0.971801 0.946578 0.798749
0 0.1832 0.708598
0 0.18352 0.709316
0 0.180926 0.705882
0.14316 0.16846 0.692287
0.322652 0.0248417 0.711116
0.536522 0.0253758 0.714748
0.670161 0.0142519 0.73489
0.774456 0 0.761837
0.885405 0 0.793545
0 0.20238 0.711498
0 0.20415 0.714565
0 0.204044 0.71487
0.163241 0.198138 0.70602
0.353979 0.0851606 0.735622
0.570474 0.0974746 0.749294
0.71696 0.101732 0.781903
0.834684 0.101579 0.822065
0.958709 0.0874189 0.866316
0 0.231983 0.715801
0 0.239979 0.727321
0 0.247181 0.737926
0.202365 0.248722 0.740871
0.412711 0.171923 0.785153
0.630411 0.190539 0.809979
0.786496 0.20618 0.851575
0.909422 0.219669 0.896513
1 0.224933 0.941985
0 0.304204 0.716731
0 0.324941 0.741421
0.00169375 0.343404 0.763073
0.227436 0.350698 0.772091
0.443259 0.311101 0.815793
0.657176 0.330404 0.836942
0.813413 0.355657 0.878218
0.937682 0.383658 0.924178
1 0.406882 0.969635
0 0.462181 0.751568
0 0.490135 0.779538
0.00630198 0.513024 0.80267
0.239338 0.520333 0.810193
0.480369 0.523934 0.813428
0.67013 0.521813 0.850874
0.820935 0.549996 0.884184
0.938094 0.577188 0.922499
1 0.595651 0.957763
0 0.660044 0.814542
0 0.688533 0.843198
0.0539712 0.709529 0.864317
0.27274 0.710765 0.865629
0.504524 0.701152 0.855787
0.682582 0.695537 0.848493
0.811231 0.704189 0.872618
0.91516 0.723644 0.896757
1 0.733074 0.912474
0 0.843229 0.900984
0.0185702 0.862837 0.921355
0.145815 0.873121 0.931579
0.32929 0.862547 0.921172
0.543236 0.840803 0.898802
0.706447 0.819944 0.87805
0.816205 0.814389 0.871382
0.907134 0.823911 0.886931
0.986481 0.825406 0.890303
0.0462654 0.978485 0.967025
0.122362 0.987152 0.975616
0.214725 0.987686 0.97615
0.378164 0.968704 0.957382
0.578119 0.940108 0.928618
0.734661 0.913848 0.902739
0.837934 0.902815 0.891905
0.911299 0.900496 0.889693
0.983795 0.898177 0.887465
0.0956741 1 0.971786
0.154314 1 0.974273
0.233677 1 0.97026
0.384726 1 0.947951
0.575402 0.997803 0.916472
0.72639 0.969162 0.88896
0.827359 0.958129 0.878264
0.901518 0.957198 0.877607
0.977935 0.959625 0.880079
0 0.201282 0.76878
0 0.201602 0.769497
0 0.199161 0.766125
0.131884 0.189975 0.750973
0.301137 0.027863 0.772763
0.519463 0.0343633 0.772595
0.649851 0.035874 0.789319
0.750759 0.0345922 0.81474
0.8589 0.0216831 0.846662
0 0.219684 0.772732
0 0.221714 0.776257
0 0.221973 0.777173
0.1523 0.216541 0.768338
0.337621 0.0899519 0.800366
0.557092 0.1066 0.81088
0.700664 0.119585 0.840558
0.815 0.129717 0.879561
0.935821 0.131441 0.923949
0 0.249393 0.7794
0 0.257969 0.792004
0 0.265873 0.803769
0.197742 0.267994 0.807599
0.401984 0.17879 0.854795
0.62002 0.199298 0.875578
0.771618 0.219455 0.91284
0.890074 0.237964 0.955077
1 0.251255 0.999466
0 0.321645 0.783612
0 0.342641 0.808835
0 0.361105 0.83061
0.224521 0.368002 0.839231
0.43679 0.325261 0.881239
0.64686 0.336904 0.903181
0.798825 0.363943 0.940185
0.9187 0.394705 0.982849
1 0.421576 1
0 0.474037 0.815457
0 0.501366 0.843793
0 0.523995 0.867018
0.234638 0.531258 0.874693
0.477394 0.534539 0.877943
0.659007 0.524193 0.917952
0.804654 0.550072 0.945434
0.916075 0.57644 0.978729
1 0.597177 1
0 0.662135 0.875715
0 0.68983 0.903853
0.0237888 0.70988 0.924208
0.260014 0.710277 0.924697
0.49398 0.700374 0.914412
0.670665 0.694667 0.907118
0.79205 0.696437 0.932738
0.889723 0.713832 0.950896
0.991104 0.728771 0.972824
0 0.836728 0.959182
0 0.855055 0.977951
0.106737 0.864195 0.987091
0.305959 0.852705 0.975723
0.523384 0.830304 0.952926
0.687251 0.809781 0.932006
0.797345 0.805341 0.926101
0.880735 0.809079 0.941176
0.974685 0.820783 0.955764
0 0.966262 1
0.057084 0.974044 1
0.170336 0.973938 1
0.347127 0.954543 1
0.55198 0.925689 0.982238
0.709392 0.899123 0.956344
0.813153 0.888075 0.945159
0.889326 0.887694 0.943755
0.978134 0.89601 0.957931
0.0597543 1 1
0.129213 1 1
0.217166 1 1
0.377798 1 1
0.576379 1 1
0.733242 0.98735 0.976028
0.837156 0.976989 0.96585
0.910964 0.975143 0.96408
0.984253 0.973617 0.962646
