luts/Rec.709 to Cinematic look.cube
TITLE "Generated by Resolve"
LUT_3D_SIZE 5
0 0.0279698 0.0199741
0.139513 0.0255589 0.0061799
0.48423 0 0
0.751003 0 0
0.899611 0 0
0 0.126665 0.0278935
0.128496 0.143786 0.0114443
0.509499 0.122667 0
0.812924 0.119051 0
1 0.159747 0.0105745
0.0180819 0.371374 0.0261234
0.155413 0.425315 0.067216
0.491768 0.454582 0
0.815854 0.483925 0
1 0.531563 0
0.195514 0.699031 0.162585
0.270207 0.740764 0.199115
0.548272 0.739712 0.15021
0.806531 0.754452 0.0313268
0.965377 0.767636 0
0.292699 0.922744 0.259251
0.353872 0.927687 0.261646
0.593133 0.893233 0.221729
0.81117 0.887709 0.0742199
0.956085 0.897383 0.0425422
0 0.0382239 0.136202
0.133684 0.0280919 0.155474
0.482719 0 0.103853
0.752102 0 0.0653697
0.904326 0 0.068574
0 0.154665 0.151293
0.142611 0.165011 0.161807
0.52462 0.141527 0.137728
0.83093 0.144091 0.142153
1 0.186954 0.188571
0.0167239 0.400977 0.129458
0.163943 0.453056 0.170581
0.515312 0.479133 0.145922
0.836072 0.506203 0.13463
1 0.550759 0.174228
0.190509 0.722683 0.228275
0.273289 0.7617 0.257496
0.558633 0.753826 0.224567
0.813916 0.7635 0.163806
0.96994 0.77348 0.136965
0.279423 0.935515 0.314595
0.347204 0.938079 0.317266
0.594064 0.899397 0.271366
0.813794 0.892271 0.17969
0.958938 0.901808 0.167895
0 0.100832 0.413977
0.0544137 0.0981155 0.412238
0.439078 0 0.43389
0.739834 0 0.416007
0.89604 0 0.423682
0 0.16466 0.41735
0.0728923 0.177798 0.434607
0.501442 0.153674 0.488869
0.835706 0.153872 0.517464
1 0.197513 0.566857
0 0.475196 0.470024
0.132906 0.530221 0.522652
0.544945 0.533059 0.525567
0.85716 0.546807 0.539269
1 0.586206 0.578805
0.102754 0.773999 0.510246
0.227726 0.811933 0.548119
0.557977 0.790768 0.526589
0.822049 0.786114 0.507713
0.974548 0.789822 0.50338
0.190234 0.972 0.584878
0.286305 0.974578 0.586419
0.580621 0.92694 0.542428
0.81474 0.906874 0.497826
0.961105 0.915602 0.502831
0 0.165057 0.647669
0 0.162661 0.644984
0.342504 0.0216373 0.649332
0.695689 0 0.68246
0.89395 0 0.723644
0 0.21503 0.652399
0.00459297 0.228992 0.672404
0.422782 0.165301 0.716258
0.805692 0.187457 0.792477
1 0.204532 0.86894
0 0.452003 0.687709
0.0230411 0.504067 0.739086
0.484062 0.514855 0.749096
0.841871 0.550423 0.825315
1 0.590402 0.876875
0 0.85153 0.840772
0.186587 0.88394 0.872892
0.566873 0.853361 0.842741
0.837507 0.826368 0.816251
0.986099 0.824506 0.814557
0.122484 1 0.882292
0.246296 1 0.881346
0.571649 0.976455 0.828519
0.821439 0.941405 0.795407
0.971801 0.946578 0.798749
0 0.201282 0.76878
0 0.199161 0.766125
0.301137 0.027863 0.772763
0.649851 0.035874 0.789319
0.8589 0.0216831 0.846662
0 0.249393 0.7794
0 0.265873 0.803769
0.401984 0.17879 0.854795
0.771618 0.219455 0.91284
1 0.251255 0.999466
0 0.474037 0.815457
0 0.523995 0.867018
0.477394 0.534539 0.877943
0.804654 0.550072 0.945434
1 0.597177 1
0 0.836728 0.959182
0.106737 0.864195 0.987091
0.523384 0.830304 0.952926
0.797345 0.805341 0.926101
0.974685 0.820783 0.955764
0.0597543 1 1
0.217166 1 1
0.576379 1 1
0.837156 0.976989 0.96585
0.984253 0.973617 0.962646
