luts/Red is love ( Lut ).cube
TITLE "Generated by Resolve"
LUT_3D_SIZE 5
0.00167849 0 0.00134279
0.227878 0 0.0269017
0.462547 0 0.0660868
0.694392 0.000671397 0.107759
0.924437 0.00270085 0.149279
0.140017 0.201862 0
0.359686 0.195224 0.123629
0.494591 0.242786 0.000991836
0.789425 0.223239 0.0368353
1 0.207568 0.110704
0.279301 0.41181 0
0.565484 0.380743 0.147677
0.729625 0.394369 0.26006
0.74963 0.479927 0.0804913
0.976944 0.493721 0.00323491
0.417411 0.622187 0
0.734951 0.582971 0.112856
0.937194 0.5776 0.301595
1 0.595819 0.394842
1 0.677882 0.260533
0.555688 0.832578 0
0.870466 0.796307 0.0692302
1 0.771466 0.289769
1 0.78201 0.437079
1 0.802869 0.523354
0 0 0.242908
0.243977 0 0.24097
0.491722 0 0.272602
0.746654 0 0.324681
0.990417 0 0.368673
0 0.261952 0.159518
0.245731 0.243168 0.249561
0.480827 0.242878 0.288731
0.712428 0.243442 0.32958
0.942382 0.244556 0.370474
0.108232 0.475013 0.100908
0.373632 0.456291 0.229252
0.605631 0.446097 0.378042
0.741588 0.491875 0.250629
1 0.472465 0.305974
0.260197 0.682536 0.0780957
0.505592 0.668315 0.207462
0.806928 0.633829 0.392309
0.968475 0.646159 0.512184
0.989532 0.72932 0.347616
0.404395 0.891539 0.0609293
0.638178 0.880247 0.184527
0.97229 0.837263 0.355184
1 0.833524 0.542351
1 0.852583 0.641184
0 0.000350958 0.50576
0.242603 0 0.504005
0.494591 0 0.50428
0.739178 0 0.516884
0.980514 0 0.559625
0 0.258915 0.484932
0.244862 0.243824 0.511589
0.496864 0.24239 0.512032
0.741268 0.240925 0.534752
0.986084 0.234897 0.58735
0 0.528206 0.336461
0.216129 0.509392 0.433036
0.495354 0.491646 0.516243
0.735073 0.49044 0.551308
0.959533 0.493095 0.591073
0.0646067 0.749035 0.256016
0.341665 0.728695 0.356802
0.603937 0.712505 0.475868
0.845335 0.698848 0.631083
0.98172 0.741787 0.519402
0.206394 0.960143 0.198901
0.486641 0.938704 0.31664
0.736629 0.924361 0.453651
1 0.890761 0.63064
1 0.903105 0.760662
0 0.00114443 0.768872
0.241199 0 0.767147
0.493172 0 0.767544
0.741985 0 0.768612
0.983505 0.000503548 0.775006
0 0.255131 0.763607
0.243549 0.244526 0.774716
0.495415 0.24303 0.77525
0.744244 0.242405 0.776364
0.983673 0.242664 0.784909
0 0.528435 0.680201
0.215717 0.504067 0.75407
0.494087 0.492287 0.779263
0.742809 0.491722 0.780514
0.98262 0.491554 0.795102
0 0.794903 0.514992
0.186481 0.776455 0.609491
0.458579 0.759365 0.70663
0.739574 0.74165 0.78349
0.984771 0.738231 0.813672
0.0295262 1 0.422019
0.296056 0.998306 0.521675
0.563821 0.98616 0.615473
0.826185 0.971283 0.720623
1 0.954376 0.879133
0 0.00187686 1
0.239734 0 1
0.491676 0 1
0.740444 0 1
0.98381 0 1
0 0.253758 1
0.242115 0.245029 1
0.493996 0.24361 1
0.742748 0.243015 1
0.984344 0.243015 1
0 0.5205 0.988464
0.223697 0.500603 1
0.492714 0.492805 1
0.741329 0.492271 1
0.983734 0.492241 1
0 0.798993 0.858869
0.168719 0.774014 0.952865
0.463569 0.752972 1
0.738582 0.742046 1
0.982681 0.742046 1
0 1 0.681331
0.155383 1 0.779278
0.426352 1 0.87892
0.698405 1 0.976822
0.977981 0.993149 1
