luts/Red is love ( Lut ).cube
TITLE "Generated by Resolve"
LUT_3D_SIZE 33
0.00167849 0 0.00134279
0.0234989 0 0.00260929
0.0487221 0 0.00637827
0.0786908 0 0.00982681
0.108736 0 0.0132296
0.138628 0 0.0166323
0.16846 0 0.0200198
0.19823 0 0.0234226
0.227878 0 0.0269017
0.257542 0 0.0305486
0.287221 0 0.0352636
0.316777 0 0.0408026
0.346197 0 0.0462043
0.375479 0 0.0514076
0.404562 0 0.0563516
0.433494 0 0.0610666
0.462547 0 0.0660868
0.491691 0 0.0712902
0.520745 0 0.0764935
0.549783 0 0.0816968
0.578759 0 0.0869917
0.607691 0 0.0921492
0.636622 0.000198367 0.0973526
0.665537 0.000427253 0.102541
0.694392 0.000671397 0.107759
0.723262 0.000915541 0.112963
0.752087 0.0011902 0.118166
0.780865 0.00141909 0.123339
0.809613 0.00170901 0.128527
0.838376 0.00195315 0.1337
0.867079 0.0021973 0.138918
0.895766 0.00244144 0.144106
0.924437 0.00270085 0.149279
0.0174563 0.0210575 0.00236515
0.0350652 0.0222324 0.0133516
0.0504158 0.0282444 0
0.0894636 0.0254826 0.00234989
0.126009 0.0229343 0.0087129
0.159014 0.021561 0.0144656
0.189044 0.0210727 0.0200198
0.217472 0.0211185 0.0247349
0.245777 0.0213016 0.029099
0.274281 0.0214084 0.0333715
0.302556 0.0216526 0.0383001
0.330495 0.0220035 0.0436713
0.358541 0.0223697 0.0488899
0.386542 0.0226902 0.0540169
0.414572 0.0230106 0.0591287
0.442542 0.0233158 0.064271
0.471443 0.0233768 0.0697185
0.500282 0.0234684 0.0750286
0.529015 0.0235752 0.0800793
0.557656 0.023743 0.0849165
0.586145 0.0239872 0.0895399
0.614557 0.0242618 0.0939956
0.643366 0.0243076 0.0992447
0.672099 0.0243839 0.104463
0.700893 0.024445 0.109712
0.729625 0.0245365 0.114931
0.758358 0.0246128 0.120134
0.78703 0.0246891 0.125277
0.815717 0.0248264 0.130449
0.844388 0.0249332 0.135683
0.87306 0.0251774 0.140871
0.901656 0.0252842 0.14609
0.930297 0.0254978 0.151278
0.0348821 0.045594 0.00430304
0.0588998 0.0445869 0.020676
0.0763409 0.0478523 0.0250553
0.0777295 0.0595407 0.00572213
0.11693 0.0581216 0
0.154101 0.0557412 0.00204471
0.193042 0.0524605 0.00798047
0.229664 0.0497749 0.0145418
0.264149 0.0477913 0.020737
0.296956 0.0463722 0.0265965
0.327794 0.0455177 0.0323491
0.356893 0.0452125 0.03888
0.384314 0.0455329 0.0463874
0.411215 0.046067 0.0530404
0.437934 0.0466011 0.0595865
0.46482 0.0472114 0.0660716
0.491859 0.0477302 0.071931
0.519097 0.0483558 0.0773175
0.54638 0.0488746 0.0825666
0.573739 0.0493935 0.0878004
0.601175 0.0499428 0.093019
0.628702 0.0504311 0.0982223
0.656825 0.0507362 0.103395
0.684962 0.0510872 0.108339
0.712963 0.0514534 0.113054
0.740871 0.0518807 0.11754
0.76875 0.0524147 0.121813
0.796811 0.0528115 0.126452
0.825208 0.0529946 0.131823
0.853651 0.0532235 0.137133
0.882063 0.0534676 0.142382
0.910384 0.0536965 0.147463
0.938689 0.0539559 0.152438
0.05243 0.0709239 0.00598154
0.0776532 0.0703441 0.0192111
0.104173 0.0697337 0.0312963
0.124269 0.072221 0.0366217
0.118929 0.085771 0.0179446
0.146166 0.0894026 0.0009308
0.181262 0.0884565 0
0.217563 0.0864576 0.00196841
0.256214 0.0834058 0.00694286
0.294759 0.0802014 0.013077
0.331579 0.0774548 0.0195468
0.366644 0.0752575 0.025864
0.400595 0.0734417 0.0318456
0.433127 0.0720684 0.0386053
0.46363 0.0713664 0.0475013
0.492882 0.070985 0.0562142
0.521004 0.0709239 0.0648966
0.548363 0.0711986 0.0729839
0.574853 0.0718242 0.079881
0.601221 0.0725414 0.0863966
0.627543 0.0732586 0.0928359
0.65391 0.0739605 0.0992599
0.680491 0.0746624 0.10515
0.70724 0.075349 0.110491
0.734157 0.0760815 0.115816
0.761028 0.0767224 0.12108
0.787991 0.0773632 0.126375
0.815091 0.0779736 0.131655
0.842649 0.0785229 0.136584
0.8701 0.0790265 0.141238
0.89749 0.0796216 0.145754
0.92488 0.0802625 0.150103
0.952087 0.0809033 0.154345
0.0700542 0.0970169 0.00511177
0.0953841 0.0965744 0.0166171
0.129015 0.0933852 0.0318303
0.15462 0.0932631 0.0475624
0.172915 0.0964065 0.0540627
0.169146 0.109178 0.0310063
0.178851 0.118608 0.0101167
0.209857 0.120134 0.000259403
0.244816 0.119051 0
0.280415 0.117311 0.00215152
0.318196 0.114626 0.00636301
0.357046 0.111421 0.0118715
0.395209 0.108324 0.0180056
0.431968 0.105608 0.024445
0.467414 0.103288 0.0307927
0.501747 0.10135 0.0374609
0.535149 0.0997787 0.0464637
0.567422 0.0984512 0.0553292
0.598428 0.0975052 0.0641337
0.628016 0.0970474 0.0729076
0.656367 0.0969863 0.0816358
0.683864 0.0971389 0.0903029
0.710933 0.0973983 0.0988174
0.737575 0.0979171 0.106508
0.76376 0.0986648 0.113085
0.789899 0.0994278 0.119478
0.816052 0.100221 0.125917
0.842176 0.100999 0.132357
0.868467 0.101762 0.138186
0.894926 0.102556 0.143465
0.921462 0.103365 0.148775
0.947799 0.104128 0.154101
0.970565 0.104875 0.159426
0.0877089 0.123186 0.00369268
0.115389 0.121996 0.0155032
0.148257 0.119081 0.0298619
0.180133 0.116609 0.0499733
0.202335 0.117571 0.0661631
0.220005 0.120943 0.0717479
0.220325 0.132097 0.0513313
0.217731 0.145418 0.0232548
0.240482 0.150362 0.00680552
0.273198 0.150866 0.000228885
0.30782 0.149813 0
0.342931 0.148241 0.00238041
0.379751 0.145937 0.00610361
0.418112 0.142962 0.0109712
0.456809 0.139788 0.0166781
0.494697 0.136782 0.0228428
0.531502 0.13402 0.029221
0.567178 0.131685 0.0355688
0.601938 0.129595 0.0447242
0.635798 0.127749 0.0539254
0.66894 0.126223 0.0628519
0.701137 0.124971 0.0716869
0.731929 0.124132 0.0805066
0.76173 0.123552 0.0893263
0.790722 0.123278 0.0980697
0.818891 0.123201 0.106722
0.846006 0.123476 0.115343
0.872801 0.123827 0.123903
0.899382 0.124361 0.132174
0.925597 0.124987 0.139544
0.949538 0.125765 0.146014
0.969573 0.126558 0.152438
0.987671 0.127398 0.158831
0.105425 0.14934 0.00205997
0.133425 0.148058 0.0137942
0.167346 0.14493 0.0271
0.2038 0.140658 0.0500496
0.227405 0.140902 0.0695811
0.249271 0.142168 0.0841688
0.266651 0.145693 0.0890822
0.270268 0.155398 0.073228
0.263218 0.170031 0.0399481
0.275563 0.178546 0.0182345
0.302358 0.181811 0.00479133
0.335988 0.181689 0.000350958
0.370413 0.180713 0.000320439
0.405112 0.179278 0.00260929
0.441199 0.177249 0.00601205
0.478889 0.174563 0.0104067
0.517311 0.171511 0.01561
0.555795 0.168383 0.0213931
0.593515 0.165393 0.0275731
0.630335 0.162676 0.0339055
0.666316 0.16022 0.0421302
0.701366 0.158038 0.0516976
0.735607 0.156069 0.0610056
0.7691 0.154437 0.0701762
0.801846 0.152972 0.0790723
0.83389 0.151843 0.0878309
0.865049 0.15079 0.0965896
0.895155 0.150179 0.105394
0.923308 0.14992 0.114199
0.946563 0.149798 0.122957
0.966278 0.149798 0.131579
0.98468 0.150103 0.140215
1 0.150561 0.148699
0.122576 0.175601 0.000656138
0.14992 0.17464 0.011429
0.187121 0.17052 0.0247196
0.224537 0.165942 0.0471199
0.252934 0.164294 0.0711376
0.274479 0.165362 0.0885939
0.295888 0.166857 0.102022
0.313176 0.170474 0.106401
0.319432 0.179065 0.0941024
0.311879 0.193652 0.0624704
0.314427 0.20531 0.0317235
0.334737 0.211093 0.0141756
0.364294 0.213092 0.0037995
0.398398 0.21268 0.000549325
0.432624 0.211719 0.000671397
0.467033 0.210361 0.00280766
0.502571 0.20853 0.00596628
0.539513 0.206165 0.0100252
0.577508 0.203326 0.014847
0.615915 0.200259 0.0202487
0.654108 0.197208 0.0260929
0.691768 0.194232 0.0322271
0.728679 0.191485 0.0392615
0.76492 0.188952 0.0488289
0.800229 0.186709 0.0583963
0.834745 0.184619 0.0678569
0.868437 0.18291 0.0771344
0.901549 0.181384 0.0861982
0.93138 0.179919 0.0950332
0.953536 0.178759 0.103822
0.97377 0.177813 0.112581
0.993576 0.177096 0.12137
1 0.176959 0.129931
0.140017 0.201862 0
0.168139 0.200656 0.00961318
0.204517 0.196902 0.0218814
0.245151 0.191455 0.0426795
0.278004 0.188037 0.0706188
0.300069 0.188663 0.090837
0.321309 0.189914 0.107164
0.342443 0.191592 0.119554
0.359686 0.195224 0.123629
0.368002 0.202914 0.114244
0.36112 0.21706 0.0850385
0.358267 0.230396 0.0526741
0.370855 0.238834 0.0267796
0.395087 0.243153 0.0113527
0.426215 0.244327 0.00329595
0.460456 0.243732 0.000793469
0.494591 0.242786 0.000991836
0.528756 0.241535 0.00300603
0.563928 0.239841 0.00602731
0.600183 0.23772 0.00976577
0.637583 0.235126 0.0142367
0.675624 0.232227 0.0193027
0.713878 0.229206 0.0248417
0.751949 0.226139 0.0307164
0.789425 0.223239 0.0368353
0.826658 0.220493 0.0457923
0.863081 0.217838 0.0553445
0.89865 0.215534 0.0649119
0.930922 0.213428 0.074464
0.954162 0.211658 0.0838178
0.975311 0.209949 0.093019
0.996246 0.208423 0.102052
1 0.207568 0.110704
0.157473 0.228077 0
0.185 0.227024 0.00830091
0.219821 0.223957 0.0184329
0.264637 0.217304 0.0371099
0.300771 0.212757 0.067628
0.32607 0.211978 0.0917983
0.346731 0.213184 0.109773
0.367895 0.214511 0.125551
0.388769 0.216373 0.137072
0.405905 0.220127 0.140902
0.416052 0.227039 0.133883
0.410834 0.240406 0.107378
0.404929 0.254658 0.0749065
0.410269 0.265309 0.0439307
0.42884 0.271794 0.022446
0.45594 0.274876 0.00949111
0.488029 0.275532 0.00306706
0.522286 0.274846 0.00103761
0.556237 0.273976 0.00129702
0.590234 0.272801 0.00318914
0.625025 0.271244 0.00605783
0.660746 0.269306 0.00955215
0.697566 0.266911 0.0137636
0.735195 0.264195 0.0185397
0.773236 0.261265 0.0237736
0.81146 0.258228 0.0294499
0.849302 0.255253 0.0352789
0.887053 0.252293 0.0428779
0.92401 0.249485 0.0522316
0.951598 0.246799 0.0617533
0.9738 0.244526 0.0713359
0.995514 0.24239 0.0809186
1 0.240986 0.0902113
0.174975 0.254276 0
0.201724 0.253483 0.0069276
0.237613 0.250126 0.0165255
0.280385 0.244144 0.0339055
0.320607 0.238361 0.0630198
0.350393 0.235996 0.0904402
0.372671 0.236484 0.111406
0.393286 0.237873 0.128374
0.414801 0.239231 0.143389
0.435157 0.241199 0.15436
0.452125 0.245045 0.15816
0.463691 0.251316 0.152895
0.460533 0.263798 0.129442
0.45301 0.278416 0.0973526
0.453346 0.290654 0.0661479
0.465614 0.299199 0.0362097
0.488182 0.304143 0.0192264
0.516915 0.306477 0.00823987
0.549661 0.306752 0.0030518
0.583841 0.306065 0.00131228
0.61767 0.305196 0.00158694
0.65156 0.304021 0.0033875
0.686046 0.302632 0.00608835
0.721325 0.300847 0.0093843
0.757656 0.29868 0.0133516
0.794781 0.296101 0.0178836
0.832425 0.293385 0.022858
0.870466 0.29044 0.0282139
0.908629 0.287404 0.0340124
0.943069 0.284504 0.0401312
0.969162 0.281468 0.0492409
0.991821 0.278599 0.0586099
1 0.276493 0.068101
0.192355 0.280552 0
0.220447 0.279377 0.00474556
0.256016 0.276051 0.0152895
0.296864 0.270802 0.0301671
0.340017 0.264225 0.0584115
0.372946 0.260716 0.0872053
0.398169 0.260014 0.111574
0.418982 0.261219 0.130434
0.439872 0.262516 0.1467
0.461372 0.263905 0.161135
0.481712 0.265995 0.171389
0.498573 0.269795 0.175189
0.510842 0.275746 0.171572
0.51014 0.287236 0.151049
0.502174 0.301946 0.12015
0.499001 0.315236 0.0883955
0.505623 0.325475 0.0579385
0.522835 0.332387 0.0313115
0.547936 0.336294 0.0167239
0.577859 0.338033 0.0074464
0.611078 0.338003 0.0031281
0.645136 0.337362 0.0016022
0.678935 0.336461 0.00189212
0.712688 0.335409 0.00354009
0.746914 0.334081 0.00613413
0.781964 0.332403 0.00935378
0.81767 0.330434 0.0130312
0.854337 0.328069 0.017319
0.891615 0.32546 0.0220798
0.929152 0.322683 0.0271916
0.961913 0.319738 0.0326543
0.985382 0.316716 0.038468
1 0.314046 0.0465553
0.209873 0.306752 0
0.238102 0.305547 0.00300603
0.272541 0.302617 0.0131228
0.314336 0.2972 0.0270237
0.359686 0.290013 0.0538338
0.394202 0.286046 0.0831769
0.422171 0.28423 0.109712
0.444984 0.284504 0.131472
0.465324 0.285893 0.149065
0.486366 0.287236 0.164965
0.507942 0.28864 0.178683
0.528054 0.290929 0.188418
0.5449 0.294728 0.192233
0.557931 0.300282 0.189685
0.559304 0.310826 0.172137
0.551919 0.325154 0.142916
0.545861 0.339406 0.110613
0.548333 0.350851 0.0802014
0.560433 0.359457 0.0505379
0.581247 0.365042 0.0278325
0.607965 0.368261 0.014847
0.638758 0.369528 0.00700389
0.672312 0.369329 0.00326543
0.706264 0.368658 0.00189212
0.739956 0.367819 0.00216678
0.773617 0.366796 0.00370794
0.80766 0.36556 0.00619516
0.842344 0.364004 0.00926223
0.877729 0.362173 0.0127565
0.913939 0.359976 0.0168154
0.950607 0.357534 0.0213626
0.977142 0.354849 0.0263066
1 0.352071 0.0315404
0.227192 0.333043 0
0.254337 0.332128 0.00164797
0.287755 0.329656 0.00979629
0.331304 0.323766 0.0246128
0.377554 0.316335 0.0489357
0.415641 0.311192 0.0789807
0.445243 0.308843 0.106722
0.470222 0.30811 0.131014
0.491264 0.309194 0.150607
0.51162 0.310628 0.167498
0.532815 0.311971 0.183047
0.554269 0.313466 0.196231
0.574319 0.315801 0.205386
0.591257 0.319615 0.20911
0.604944 0.324849 0.207538
0.608042 0.33463 0.192828
0.601801 0.348394 0.16553
0.594415 0.362997 0.133486
0.593271 0.375631 0.102556
0.600671 0.385641 0.0724346
0.617029 0.392844 0.0436866
0.640238 0.397498 0.024979
0.668223 0.400107 0.013489
0.699611 0.401022 0.00668345
0.733333 0.400702 0.00343328
0.767163 0.400076 0.00216678
0.800809 0.399252 0.00244144
0.83444 0.398245 0.00389105
0.868269 0.39707 0.00624094
0.902693 0.395575 0.00918593
0.937774 0.393881 0.0125734
0.968368 0.391882 0.0164034
0.99263 0.389578 0.0207523
0.244312 0.359335 0
0.271412 0.35848 0
0.305196 0.355871 0.00823987
0.347204 0.35053 0.0221103
0.394064 0.343114 0.0444648
0.43563 0.336919 0.073991
0.467582 0.333639 0.103105
0.494011 0.332448 0.128862
0.517082 0.332616 0.15108
0.537499 0.333852 0.169299
0.557977 0.335332 0.185794
0.579171 0.336782 0.200885
0.600565 0.338247 0.213626
0.620432 0.340719 0.222416
0.637385 0.344533 0.226108
0.651377 0.349676 0.224872
0.656794 0.358465 0.212696
0.651667 0.371695 0.187793
0.643748 0.386328 0.156527
0.639719 0.399954 0.124895
0.643198 0.411139 0.0947738
0.655116 0.41976 0.0653239
0.674449 0.425849 0.0383307
0.69955 0.429755 0.0226596
0.728542 0.431861 0.0124819
0.760357 0.432517 0.00648508
0.794156 0.432151 0.00361639
0.827909 0.431479 0.0024567
0.861524 0.430686 0.00270085
0.895048 0.42974 0.0040589
0.928756 0.428595 0.00631724
0.960861 0.427207 0.0091249
0.985916 0.425605 0.0124208
0.261799 0.385595 0
0.289708 0.384466 0
0.323064 0.381979 0.00727855
0.363424 0.377172 0.0195468
0.410315 0.36994 0.0404212
0.454292 0.362951 0.0688334
0.488441 0.358999 0.0985885
0.516793 0.357107 0.125658
0.541878 0.35639 0.150057
0.563394 0.357214 0.170367
0.583688 0.358618 0.187762
0.604425 0.360021 0.203784
0.625727 0.361471 0.218463
0.646952 0.363119 0.230838
0.666575 0.365637 0.239368
0.683604 0.36939 0.243061
0.697704 0.374563 0.242054
0.705013 0.382559 0.232273
0.701473 0.395087 0.209567
0.693568 0.409552 0.179538
0.687373 0.423804 0.147524
0.687724 0.43592 0.117266
0.695537 0.445777 0.0873579
0.710964 0.453269 0.0588693
0.732631 0.458549 0.033875
0.758953 0.461906 0.0207675
0.788861 0.4636 0.0117342
0.821042 0.464027 0.00645457
0.854841 0.463584 0.00384527
0.888548 0.462974 0.00276188
0.922087 0.46215 0.00297551
0.955062 0.461265 0.00422675
0.981003 0.460197 0.00637827
0.279301 0.41181 0
0.30695 0.410773 0
0.339452 0.408545 0.00509651
0.379965 0.4038 0.0171359
0.426337 0.396735 0.0368811
0.471778 0.389425 0.0637217
0.508812 0.384619 0.093904
0.53901 0.38201 0.12195
0.565484 0.380743 0.147677
0.588937 0.380728 0.170321
0.609552 0.381872 0.189212
0.629801 0.383413 0.206027
0.650752 0.384833 0.221744
0.672267 0.386221 0.236011
0.693309 0.387976 0.247898
0.712749 0.390539 0.256245
0.729625 0.394369 0.26006
0.743877 0.399374 0.259297
0.75285 0.406714 0.251438
0.75108 0.418494 0.230915
0.743526 0.432807 0.202411
0.736263 0.447333 0.170596
0.733974 0.460319 0.139773
0.738018 0.47129 0.109758
0.74963 0.479927 0.0804913
0.767819 0.486473 0.0531167
0.791287 0.491051 0.031281
0.818647 0.493919 0.0193332
0.849042 0.495277 0.0112459
0.88159 0.495567 0.00645457
0.915343 0.495094 0.00407416
0.948989 0.494499 0.00303655
0.976944 0.493721 0.00323491
0.296407 0.438132 0
0.323934 0.43714 0
0.356832 0.434821 0.00297551
0.396994 0.430182 0.0157015
0.441978 0.423682 0.033463
0.489647 0.415808 0.0583505
0.52932 0.410117 0.0892348
0.561013 0.406989 0.118013
0.588312 0.405447 0.144366
0.613428 0.404746 0.168856
0.635431 0.40531 0.189837
0.655604 0.406744 0.207752
0.675944 0.408255 0.224216
0.697093 0.409613 0.239551
0.718547 0.411032 0.253483
0.739651 0.412848 0.264958
0.758968 0.415534 0.273014
0.775891 0.419303 0.27689
0.79028 0.424216 0.276585
0.800336 0.431067 0.270283
0.800351 0.44213 0.251896
0.793576 0.456016 0.225071
0.785733 0.470619 0.193881
0.780774 0.484489 0.162112
0.78233 0.496239 0.132342
0.790295 0.506004 0.102678
0.805005 0.513634 0.0742046
0.825406 0.519402 0.0481727
0.850248 0.523369 0.029099
0.878431 0.525841 0.0182193
0.909163 0.527016 0.0109255
0.942016 0.527108 0.00654612
0.972122 0.526635 0.0043183
0.313848 0.464408 0
0.341588 0.463371 0
0.373846 0.461219 0.00151064
0.412741 0.457053 0.0129091
0.457496 0.450706 0.0301671
0.507759 0.442069 0.0531014
0.549233 0.435828 0.084123
0.582605 0.43209 0.113802
0.610834 0.430259 0.140871
0.636866 0.42916 0.166217
0.660685 0.429007 0.189258
0.681605 0.430045 0.208774
0.701671 0.43151 0.226093
0.722118 0.433066 0.242222
0.743297 0.43444 0.257374
0.764828 0.435935 0.270832
0.785794 0.437751 0.281941
0.805035 0.440467 0.289799
0.822034 0.444175 0.293706
0.836561 0.449088 0.293736
0.847532 0.455528 0.288823
0.849241 0.465858 0.272496
0.843671 0.479194 0.247303
0.83563 0.493828 0.217029
0.829252 0.508064 0.185275
0.828229 0.520623 0.15494
0.832792 0.531472 0.125154
0.844083 0.5402 0.0960555
0.861479 0.547036 0.0681468
0.88333 0.552163 0.0438392
0.909133 0.555673 0.0272068
0.938186 0.557748 0.0173037
0.967193 0.558694 0.0106813
0.331167 0.490654 0
0.358495 0.489723 0
0.389807 0.487892 0
0.427863 0.484047 0.00952163
0.472801 0.477775 0.027451
0.522927 0.469245 0.0489967
0.566583 0.462379 0.0784314
0.602716 0.457771 0.108843
0.632898 0.455207 0.136934
0.659678 0.453864 0.162966
0.684794 0.453132 0.187427
0.707271 0.453529 0.208927
0.727626 0.45481 0.227405
0.747723 0.456382 0.244221
0.768322 0.457832 0.260136
0.789471 0.459342 0.274968
0.810941 0.460761 0.288228
0.83183 0.46273 0.298955
0.851133 0.46537 0.3066
0.868132 0.469154 0.310521
0.882826 0.47396 0.310735
0.894728 0.479973 0.306905
0.897765 0.489708 0.292744
0.893538 0.502525 0.269184
0.885679 0.517021 0.240101
0.878477 0.531441 0.20856
0.874723 0.5449 0.177356
0.87689 0.55642 0.147845
0.884993 0.566155 0.118364
0.899031 0.574044 0.0898756
0.918288 0.580148 0.0634318
0.941695 0.584695 0.040177
0.966949 0.587839 0.0256962
0.348302 0.516991 0
0.375525 0.51606 0
0.407401 0.514076 0
0.445701 0.510155 0.00895705
0.489036 0.504372 0.0250095
0.538125 0.496345 0.0452888
0.584085 0.488884 0.0729076
0.622629 0.483467 0.103822
0.654276 0.480446 0.132616
0.682094 0.478721 0.159335
0.708125 0.477653 0.184665
0.732143 0.477409 0.207935
0.753475 0.478202 0.228061
0.773541 0.479728 0.245747
0.793759 0.481209 0.262196
0.814588 0.482673 0.277806
0.835843 0.484108 0.292317
0.857252 0.485634 0.305303
0.877852 0.487678 0.315923
0.897017 0.49044 0.32343
0.914137 0.494148 0.327352
0.928786 0.498878 0.327794
0.941207 0.504631 0.325017
0.946075 0.513649 0.312505
0.943191 0.525979 0.290837
0.935866 0.540108 0.262974
0.928084 0.554696 0.231968
0.922637 0.568719 0.200351
0.922591 0.580926 0.170459
0.92752 0.591608 0.140932
0.938491 0.600443 0.11191
0.954391 0.607507 0.0841382
0.97438 0.613001 0.0588693
0.365759 0.543236 0
0.393576 0.542184 0
0.425208 0.54023 0
0.462547 0.536553 0.00741588
0.505043 0.531121 0.0225681
0.553948 0.523308 0.0416724
0.601709 0.515297 0.0673838
0.641566 0.509621 0.0985275
0.675181 0.505821 0.128069
0.704189 0.503655 0.155413
0.730922 0.502297 0.181323
0.7561 0.501549 0.205829
0.778897 0.501793 0.227802
0.799496 0.502998 0.246769
0.819516 0.504479 0.263981
0.839857 0.506096 0.28014
0.860792 0.5075 0.295476
0.882124 0.50898 0.309651
0.903502 0.510521 0.322362
0.924041 0.512596 0.332723
0.942794 0.515435 0.340154
0.959045 0.519127 0.344198
0.968734 0.523842 0.344823
0.977859 0.52929 0.342596
0.982773 0.537774 0.331884
0.98294 0.549447 0.312078
0.979599 0.563317 0.285634
0.973816 0.57792 0.255253
0.968688 0.592172 0.223713
0.967117 0.605142 0.193393
0.969635 0.616602 0.163684
0.977661 0.626398 0.134371
0.987152 0.634409 0.105882
0.383169 0.569512 0
0.410956 0.568429 0
0.442084 0.566644 0
0.478401 0.563363 0.0047303
0.520607 0.558068 0.0201572
0.569436 0.550317 0.0384833
0.618051 0.542123 0.0620737
0.660334 0.535637 0.0931411
0.69601 0.531212 0.123415
0.726299 0.528603 0.151492
0.753353 0.527184 0.177676
0.779309 0.526116 0.202945
0.803555 0.525765 0.226413
0.825284 0.526436 0.247044
0.845457 0.527794 0.265232
0.865461 0.529427 0.282048
0.885878 0.530938 0.297963
0.90695 0.532341 0.313069
0.928359 0.533806 0.327001
0.949676 0.535424 0.339391
0.965652 0.537499 0.349523
0.978698 0.540398 0.356847
0.989456 0.544121 0.360937
0.99913 0.548821 0.361837
1 0.554482 0.359976
1 0.562478 0.351125
1 0.573541 0.332815
1 0.586877 0.307652
1 0.601205 0.278248
1 0.615595 0.247028
1 0.629252 0.215824
1 0.641169 0.186328
1 0.651896 0.156832
0.400275 0.595834 0
0.427604 0.594919 0
0.458305 0.59324 0
0.494682 0.58996 0.00242618
0.536706 0.584787 0.0179141
0.584283 0.577508 0.035584
0.634653 0.568872 0.0564279
0.679011 0.561807 0.0874342
0.716472 0.556786 0.118456
0.747829 0.55375 0.147234
0.775677 0.552041 0.173922
0.80206 0.550835 0.199527
0.827298 0.550134 0.224033
0.850431 0.550118 0.246372
0.871336 0.551217 0.265858
0.891325 0.552758 0.283497
0.91136 0.554299 0.300023
0.93193 0.55581 0.315785
0.953079 0.557244 0.330617
0.969512 0.558724 0.34432
0.984253 0.560403 0.356435
0.996811 0.562585 0.366293
1 0.565713 0.373602
1 0.569833 0.37792
1 0.574762 0.379141
1 0.580468 0.377493
1 0.587854 0.370077
1 0.598215 0.353124
1 0.611002 0.328954
1 0.625147 0.300237
1 0.639658 0.269398
1 0.653635 0.238148
1 0.666224 0.208331
0.417411 0.622187 0
0.444953 0.62118 0
0.475578 0.619547 0
0.511437 0.616388 0.000823987
0.552621 0.611521 0.0152132
0.598917 0.60473 0.0330663
0.649989 0.596033 0.0520638
0.695949 0.588525 0.0817884
0.734951 0.582971 0.112856
0.768322 0.579278 0.142351
0.797589 0.57705 0.169879
0.824506 0.575647 0.195865
0.850401 0.574639 0.221027
0.874739 0.574212 0.244694
0.89691 0.574777 0.265797
0.917266 0.576043 0.284398
0.937194 0.5776 0.301595
0.956374 0.579202 0.317861
0.973236 0.580743 0.333364
0.987808 0.582193 0.348135
1 0.583688 0.361578
1 0.585855 0.373465
1 0.588449 0.383307
1 0.59173 0.390509
1 0.595819 0.394842
1 0.600687 0.396139
1 0.606332 0.394568
1 0.61323 0.388663
1 0.623041 0.373007
1 0.635233 0.349905
1 0.649104 0.322087
1 0.663584 0.291768
1 0.677882 0.260533
0.434867 0.648417 0
0.462547 0.64741 0
0.493187 0.645731 0
0.528313 0.642832 0
0.568521 0.638254 0.0127413
0.613809 0.631891 0.0305943
0.665141 0.623133 0.048661
0.712123 0.615366 0.0764172
0.753201 0.609293 0.10724
0.788602 0.604913 0.137392
0.819257 0.602167 0.165637
0.846799 0.600504 0.192081
0.873091 0.599344 0.217609
0.898344 0.598581 0.242115
0.921782 0.598535 0.264759
0.943053 0.599496 0.284794
0.961303 0.600916 0.302739
0.978149 0.602518 0.319539
0.991272 0.604074 0.335531
1 0.605676 0.350866
1 0.607569 0.365087
1 0.609506 0.378546
1 0.611719 0.390311
1 0.614435 0.400107
1 0.617761 0.407355
1 0.62182 0.411643
1 0.626627 0.413016
1 0.632136 0.411658
1 0.638636 0.406592
1 0.647868 0.392462
1 0.659586 0.37055
1 0.673106 0.343709
1 0.687526 0.313985
0.452171 0.674723 0
0.479728 0.673716 0
0.509865 0.672221 0
0.544839 0.669352 0
0.585214 0.664744 0.011017
0.629175 0.658808 0.0281071
0.680171 0.650278 0.0458381
0.728511 0.642252 0.0711376
0.771618 0.635477 0.101686
0.808606 0.63061 0.132342
0.840467 0.627405 0.161135
0.868849 0.625528 0.188098
0.895567 0.624186 0.213916
0.921386 0.62324 0.239017
0.945907 0.622766 0.262806
0.966125 0.623117 0.284306
0.982742 0.624308 0.30341
0.995453 0.625879 0.320882
1 0.627665 0.337179
1 0.629557 0.352667
1 0.631388 0.367651
1 0.63331 0.381811
1 0.635264 0.395102
1 0.637537 0.406836
1 0.640314 0.41651
1 0.643671 0.423728
1 0.647745 0.428122
1 0.652476 0.429603
1 0.657832 0.428473
1 0.664027 0.424201
1 0.672816 0.411368
1 0.684047 0.390875
1 0.697154 0.365087
0.469291 0.701045 0
0.496986 0.700053 0
0.527382 0.698436 0
0.562005 0.695659 0
0.601358 0.691417 0.0087892
0.644678 0.685725 0.0256352
0.695262 0.677455 0.0433661
0.74522 0.668956 0.0660563
0.789441 0.661891 0.0959793
