luts/Red Dream 01.cube
TITLE "Generated by Resolve"
LUT_3D_SIZE 5
0.0119936 0 0
0.0140841 0 0
0.038468 0 0
0.0654612 0 0
0.112886 0 0
0.0149844 0.00761425 0
0.0542 0.0151675 0
0.139422 0.0292058 0
0.290776 0.0392462 0
0.531441 0.0394141 0
0.0376287 0.141405 0
0.154314 0.184894 0
0.339834 0.224048 0
0.581918 0.259495 0
0.844526 0.296452 0
0 0.50341 0
0.143206 0.551095 0
0.389166 0.597055 0
0.644556 0.636439 0
0.919661 0.658701 0
0 0.87509 0
0.224063 0.898573 0
0.490745 0.924392 0.00534066
0.791608 0.955062 0.0251774
1 0.926009 0.0320745
0.0119936 0 0
0.0161135 0 3.0518e-05
0.0397192 0 0.00105287
0.0671855 0 0.00221256
0.133776 0 0.00981155
0.0165103 0.00888075 0.0087892
0.0651255 0.0204623 0.0171817
0.1617 0.033753 0.0269474
0.327993 0.0399786 0.0305486
0.584817 0.0353094 0.0285954
0.0317845 0.154849 0.00808728
0.155673 0.196216 0.00660716
0.348821 0.232929 0.00868238
0.591394 0.268391 0.0157015
0.850141 0.307912 0.0336156
0 0.513237 0.00607309
0.146639 0.563455 0.0286717
0.393759 0.608057 0.0716259
0.6486 0.643549 0.118288
0.938445 0.657588 0.147646
0.0232395 0.866194 0.155367
0.233249 0.901793 0.18967
0.508598 0.934081 0.255024
0.81976 0.961547 0.309621
1 0.928161 0.291905
0.0102693 0 0.00633249
0.0164187 0 0.0101167
0.0376745 0 0.0146334
0.0694133 0 0.0237278
0.156222 0 0.0532387
0.0157321 0.0131228 0.0199283
0.0745556 0.0233921 0.0686503
0.182055 0.034638 0.114443
0.363989 0.0369421 0.166705
0.634882 0.0285801 0.219471
0.132265 0.136263 0.134966
0.180774 0.199557 0.184237
0.352499 0.241459 0.247028
0.596338 0.278416 0.29044
0.85594 0.319768 0.335317
0.265217 0.414115 0.346059
0.26923 0.534966 0.371572
0.401099 0.618631 0.369818
0.653666 0.651728 0.403906
0.973556 0.659403 0.415366
0.36611 0.757778 0.548135
0.368048 0.868055 0.52784
0.532341 0.947845 0.516777
0.858854 0.965667 0.52903
1 0.936492 0.477302
0.00340276 0 0.0115053
0.0121767 0 0.0222019
0.0334783 0 0.0324865
0.0757305 0 0.0558785
0.183291 0 0.115831
0.0209506 0.0197147 0.0271
0.0698711 0.0360113 0.101122
0.198077 0.0367742 0.228992
0.399084 0.0324865 0.346792
0.680522 0.0216068 0.45832
0.153323 0.155612 0.158618
0.216388 0.21883 0.229557
0.318883 0.278401 0.375937
0.600473 0.291402 0.580041
0.864637 0.334203 0.616556
0.410483 0.41059 0.41059
0.499153 0.499626 0.49958
0.57966 0.585718 0.583734
0.6692 0.66128 0.630838
0.980041 0.666819 0.612955
0.65069 0.697566 0.683497
0.677913 0.799588 0.749554
0.630076 0.943954 0.729793
0.899886 0.97554 0.677562
1 0.945785 0.622293
0 0 0.00627146
0.00517281 0 0.0203555
0.0287022 0 0.0474556
0.0878767 0 0.100679
0.215366 0 0.199939
0.0285191 0.0277104 0.0377356
0.069749 0.0526894 0.106035
0.18146 0.0577401 0.28481
0.417227 0.0355993 0.530526
0.725048 0.0154116 0.714199
0.172168 0.177752 0.189868
0.241291 0.244923 0.270558
0.333394 0.316228 0.391608
0.556634 0.339269 0.699916
0.879332 0.354025 0.829633
0.443427 0.444739 0.445289
0.53167 0.532967 0.533684
0.613504 0.614878 0.616159
0.69015 0.687617 0.69929
0.993103 0.679728 0.76321
0.715724 0.716274 0.716182
0.800168 0.807034 0.805432
0.860609 0.902846 0.886336
0.949462 0.96817 0.853834
1 0.945327 0.836378
