luts/Red Dream 01.cube
TITLE "Generated by Resolve"
LUT_3D_SIZE 33
0.0119936 0 0
0.0119936 0 0
0.0119936 0 0
0.0119936 0 0
0.0119936 0 0
0.0119936 0 0
0.0119936 0 0
0.0119936 0 0
0.0140841 0 0
0.0168154 0 0
0.0197147 0 0
0.0226902 0 0
0.025742 0 0
0.0288548 0 0
0.0320287 0 0
0.0352331 0 0
0.038468 0 0
0.0417334 0 0
0.0450294 0 0
0.0483406 0 0
0.051667 0 0
0.055024 0 0
0.0584268 0 0
0.0619059 0 0
0.0654612 0 0
0.0691539 0 0
0.0729992 0 0
0.0780804 0 0
0.0835889 0 0
0.0897383 0 0
0.0964828 0 0
0.104311 0 0
0.112886 0 0
0.0119936 0 0
0.0119936 0 0
0.0119936 0 0
0.0119936 0 0
0.0119936 0 0
0.0119936 0 0
0.0119936 0 0
0.0138857 0 0
0.0166171 0 0
0.019501 0 0
0.0224765 0 0
0.0255436 0 0
0.0286564 0 0
0.0317998 0 0
0.0350042 0 0
0.0382391 0 0
0.0415045 0 0
0.0447852 0 0
0.0480964 0 0
0.0514229 0 0
0.0547799 0 0
0.058793 0 0
0.0630961 0 0
0.0676127 0 0
0.0724498 0 0
0.0776532 0 0
0.0833906 0 0
0.0895399 0 0
0.0974899 0 0
0.106661 0 0
0.117433 0 0
0.128954 0 0
0.142153 0 0
0.0119936 0 0
0.0119936 0 0
0.0119936 0 0
0.0119936 0 0
0.0119936 0 0
0.0119936 0 0
0.0137026 0 0
0.0164187 0 0
0.0192874 0 0
0.0222629 0 0
0.0253147 0 0
0.0284428 0 0
0.0316014 0 0
0.0348058 0 0
0.0380255 0 0
0.0416114 0 0
0.0452583 0 0
0.0490425 0 0
0.0529488 0 0
0.0571145 0 0
0.0614328 0 0
0.0661326 0 0
0.0714427 0 0
0.0776989 0 0
0.0846265 0 0
0.0925307 0 0
0.101274 0 0
0.111299 0 0
0.122057 0 0
0.134432 1.5259e-05 0
0.148318 0 0
0.163897 0 0
0.180194 0 0
0.0119936 0 0
0.0119936 0 0
0.0119936 0 0
0.0119936 0 0
0.0119936 0 0
0.0135042 0 0
0.0162203 0 0
0.0190738 0 0
0.0220493 0 0
0.0253605 0 0
0.0288243 0 0
0.0323186 0 0
0.035874 0 0
0.0394751 0 0
0.0431373 0 0
0.046891 0 0
0.0509651 0 0
0.0553597 0 0
0.0602121 0 0
0.0654307 0 0
0.0713664 0 0
0.0778515 0 0
0.0854658 0 0
0.0938735 6.10361e-05 0
0.104402 0.000442512 0
0.115541 0.000701915 0
0.127901 0.000762951 0
0.14107 0.000656138 0
0.155886 0.000396735 0
0.171389 1.5259e-05 0
0.18851 0 0
0.206546 0.00062562 0
0.226566 0.0010071 0
0.0119936 0 0
0.0119936 0 0
0.0119936 0 0
0.0121462 6.10361e-05 0
0.0137026 0.000122072 0
0.0167697 7.62951e-05 0
0.0199741 1.5259e-05 0
0.0233463 1.5259e-05 0
0.0267643 0 0
0.0302434 0 0
0.0337377 7.62951e-05 0
0.0373388 0.000198367 0
0.0411383 0.000228885 0
0.045182 0.000167849 0
0.0494087 4.57771e-05 0
0.0540017 1.5259e-05 0
0.0588998 0 0
0.0643473 1.5259e-05 0
0.0710765 0.000671397 0
0.079057 0.00123598 0
0.0876326 0.00172427 0
0.0974289 0.00207523 0
0.107759 0.00230411 0
0.119631 0.00238041 0
0.132097 0.00230411 0
0.14641 0.00267033 0
0.161425 0.00331121 0
0.178027 0.00386053 0
0.195239 0.00427253 4.57771e-05
0.214237 0.00454719 3.0518e-05
0.234043 0.00444038 0
0.255634 0.0037232 0
0.278202 0.00289921 0
0.0127871 0.00030518 0
0.0130007 0.000396735 0
0.0132143 0.000488289 0
0.0146487 0.000457771 0
0.0178378 0.000366217 0
0.0210422 0.000564584 0
0.0243381 0.000839246 0
0.0277104 0.0010071 0
0.03122 0.00108339 0
0.0348669 0.00105287 0
0.0387427 0.000900282 0
0.0427863 0.000640879 0
0.0475166 0.000976577 0
0.0526436 0.00146487 0
0.0585336 0.002121 0
0.0649729 0.00276188 0
0.0724346 0.00332647 0
0.0804456 0.00381476 0
0.0896315 0.00416571 0
0.0995193 0.00494392 0
0.110933 0.00595102 0
0.122911 0.00694286 0
0.136431 0.0077821 0
0.150317 0.00852979 0
0.165988 0.00909438 0
0.1823 0.00956741 3.0518e-05
0.200458 0.00991836 0
0.219471 0.0104524 0
0.240116 0.0106661 0
0.26157 0.0107118 0
0.285069 0.0104829 0
0.309712 0.010071 0
0.33611 0.00941482 0
0.0138705 0.00164797 0
0.0139925 0.00210575 0
0.0151675 0.0024567 0
0.0183566 0.00254826 0
0.0215915 0.00262455 0
0.0249485 0.00263981 0
0.0284733 0.00280766 0
0.0322271 0.00300603 0
0.0362402 0.00326543 0
0.0407111 0.00357061 0
0.0454871 0.00393683 0
0.0510414 0.00442512 0
0.0569924 0.00492866 0
0.0643168 0.00585946 0
0.0722972 0.00712596 0
0.0813306 0.00833143 0
0.090837 0.00955215 0
0.101625 0.0106813 0
0.112917 0.01178 0
0.125597 0.0127413 0
0.138842 0.0137636 0
0.153552 0.0149081 0
0.168933 0.0159915 0
0.185962 0.016846 0
0.203632 0.0175631 0
0.223072 0.0180514 0
0.243565 0.0184024 0
0.265934 0.0184634 0
0.289418 0.0187686 0
0.314427 0.0187686 0
0.340688 0.0185702 0
0.368704 0.0179904 0
0.398352 0.0172274 0
0.0145113 0.00445563 0
0.0153353 0.00489815 0
0.0185702 0.00511177 0
0.0219272 0.00534066 0
0.0255589 0.00555428 0
0.0293889 0.00581369 0
0.0335546 0.00610361 0
0.0380713 0.00666819 0
0.0433967 0.00764477 0
0.0492561 0.00874342 0
0.0561379 0.00994888 0
0.0634623 0.0112154 3.0518e-05
0.0719463 0.0125124 1.5259e-05
0.0808118 0.0138247 0
0.090959 0.0150912 0
0.101732 0.016846 0
0.113771 0.0184329 0
0.126345 0.0199741 0
0.140246 0.0213169 3.0518e-05
0.154818 0.0226139 0
0.170703 0.023621 0
0.187427 0.0245823 0
0.205646 0.0256504 0
0.224765 0.0267338 0
0.245731 0.0275578 0
0.267781 0.0282139 0
0.291356 0.0284581 0
0.316304 0.0285801 0
0.342931 0.0284123 0
0.370993 0.0282597 0
0.40058 0.0281834 0
0.431678 0.0278477 0
0.464302 0.0271305 0
0.0149844 0.00761425 0
0.0183871 0.00801099 0
0.0219272 0.0087129 0
0.0260014 0.00947585 0
0.0303807 0.0103761 0
0.0354772 0.0114137 0
0.0409857 0.0125887 0
0.0473793 0.0138247 1.5259e-05
0.0542 0.0151675 0
0.0620584 0.0169528 0
0.0703288 0.0188296 0
0.0798505 0.0206607 0
0.0898451 0.0225071 0
0.101091 0.0242466 0
0.112856 0.0259403 0
0.125856 0.0274205 1.5259e-05
0.139422 0.0292058 0
0.154314 0.0309758 0
0.169986 0.0326543 0
0.187121 0.0341039 0
0.205188 0.0354467 0
0.224735 0.0364691 0
0.245441 0.0373999 0
0.267659 0.0382086 0
0.290776 0.0392462 0
0.315694 0.0400244 0
0.342031 0.0405737 0
0.369863 0.0407721 0
0.399237 0.0408179 0
0.430289 0.0405432 0
0.46276 0.0399176 0
0.496239 0.0397955 0
0.531441 0.0394141 0
0.0176852 0.0126345 0
0.0216678 0.0135195 0
0.0264286 0.0145876 0
0.031632 0.0163424 0
0.037705 0.0181735 0
0.0441138 0.0201267 0
0.0515145 0.0220645 0
0.0593271 0.0240635 0
0.0681926 0.0260166 0
0.0775616 0.027985 0
0.0878309 0.0300908 0
0.098558 0.0324254 0
0.110506 0.0346075 0
0.122988 0.0367285 0
0.136873 0.0386816 0
0.151492 0.0405432 0
0.167575 0.0422217 0
0.18436 0.0438849 0
0.202441 0.0458534 0
0.221546 0.0476692 0
0.242191 0.0492256 0
0.264027 0.0505989 0
0.287541 0.0517128 0
0.312367 0.0525368 0
0.338949 0.0531624 0
0.366064 0.0542153 0
0.394507 0.0550546 0
0.424491 0.0556039 0
0.456062 0.0559091 0
0.489189 0.0558175 0
0.523964 0.0555734 0
0.560662 0.0550393 0
0.597803 0.0548257 0
0.0219577 0.0208591 0
0.0275273 0.0227512 1.5259e-05
0.0333867 0.0246891 0
0.0402075 0.0267185 0
0.0472572 0.0290837 0
0.0552834 0.0317235 0
0.0637217 0.0343023 0
0.0732586 0.0368353 0
0.0832837 0.0393378 0
0.0944533 0.0417029 0
0.106233 0.0440375 0
0.119112 0.0462806 0
0.132204 0.0488594 0
0.1467 0.0513466 0
0.162097 0.0537575 0
0.17879 0.0559396 0
0.196536 0.057969 0
0.215885 0.0598001 0
0.236362 0.0614176 0
0.257832 0.0634623 0
0.280461 0.0654612 0
0.304692 0.0672465 0
0.33048 0.0687877 0
0.357458 0.0699626 0
0.385901 0.0707713 0
0.415885 0.0714427 0
0.44686 0.0722362 0
0.478462 0.0733501 0
0.511833 0.0741741 0
0.54638 0.0748302 0
0.582544 0.0750134 0
0.619898 0.0751507 0
0.65922 0.0749981 0
0.0280156 0.0325017 0
0.0343481 0.0351263 0
0.0416419 0.0378271 0
0.0493324 0.040528 0
0.0581216 0.0432136 0
0.0673838 0.0459449 0
0.0771649 0.049073 0
0.0875257 0.052079 0
0.0990921 0.055024 0
0.111376 0.0579385 0
0.12491 0.0606699 0
0.139315 0.0633402 0
0.154971 0.0657664 0
0.170947 0.0684672 0
0.188174 0.0712902 0
0.206592 0.0739757 0
0.22649 0.076463 0
0.247639 0.0787366 0
0.2701 0.0808423 0
0.294148 0.0826276 0
0.319158 0.0845197 0
0.345083 0.0867018 0
0.37232 0.0886702 0
0.40116 0.0903487 0
0.43122 0.0918593 0
0.463004 0.0930953 0
0.495827 0.0940261 0
0.530358 0.0947127 0
0.564157 0.0962997 0
0.599664 0.0975814 0
0.63595 0.0987869 0
0.674067 0.0997635 0
0.712703 0.100526 0
0.0342718 0.0471504 0
0.0416114 0.0505226 0
0.0495003 0.0539101 0
0.0584573 0.0571145 0
0.0679637 0.0603342 0
0.0786145 0.0634623 0
0.0899825 0.0665599 0
0.101991 0.0700084 0
0.114534 0.0736248 0
0.128267 0.0769207 0
0.143008 0.0802014 0
0.159045 0.0833143 0
0.176242 0.0862898 0
0.194812 0.0890974 0
0.214313 0.0919661 0
0.234333 0.0951095 0
0.255726 0.0981003 0
0.278416 0.100877 0
0.302678 0.103426 0
0.328252 0.105776 0
0.355291 0.107836 0
0.383642 0.10956 0
0.412482 0.112093 0
0.442176 0.114519 0
0.473487 0.116594 0
0.505684 0.118593 0
0.539742 0.120302 0
0.574456 0.121767 0
0.610803 0.123049 0
0.646525 0.12491 0
0.683223 0.127031 0
0.720134 0.129091 0
0.758328 0.130877 0
0.0396735 0.0649119 0
0.0478676 0.0687724 0
0.0567025 0.0727703 0
0.0661784 0.0767376 0
0.0769055 0.0805219 0
0.0884413 0.0843214 0
0.101061 0.0879225 0
0.114611 0.0914321 0
0.129168 0.0949874 0
0.144045 0.0991073 0
0.160189 0.102922 0
0.1776 0.106706 0
0.196307 0.110323 0
0.216373 0.11368 0
0.237659 0.116838 0
0.260395 0.119677 0
0.28307 0.123033 0
0.307301 0.126452 0
0.332662 0.129702 0
0.359716 0.132616 0
0.387717 0.135348 0
0.417456 0.137743 0
0.44799 0.139879 0
0.47924 0.142458 0
0.510582 0.145464 0
0.543709 0.148226 0
0.577279 0.150958 0
0.61236 0.153353 0
0.647776 0.155734 0
0.684718 0.157687 0
0.721538 0.160052 0
0.757717 0.162951 0
0.793912 0.165942 0
0.0420233 0.0866712 0
0.0517433 0.0908064 0
0.062089 0.0949111 0
0.0724956 0.0995651 0
0.0838788 0.104143 0
0.0963302 0.108492 0
0.109941 0.112825 0
0.124727 0.117021 0
0.14078 0.121035 0
0.157961 0.12488 0
0.175463 0.129259 0
0.193927 0.1337 0
0.214008 0.137758 0
0.235096 0.141787 0
0.257816 0.145556 0
0.281636 0.149187 0
0.30721 0.152544 0
0.332876 0.156085 0
0.359457 0.159625 0
0.386816 0.163272 0
0.415946 0.166629 0
0.445747 0.169924 0
0.477211 0.172946 0
0.509148 0.175891 0
0.542794 0.178576 0
0.574807 0.182315 0
0.608423 0.185702 0
0.642206 0.189151 0
0.677317 0.192401 0
0.71252 0.195712 0
0.748669 0.198627 0
0.784848 0.201831 0
0.82031 0.205447 0
0.0415198 0.112093 0
0.0518807 0.116823 0
0.0632792 0.121569 0
0.0757916 0.126223 0
0.0883803 0.13138 0
0.101808 0.136629 0
0.116289 0.141665 0
0.132158 0.146319 0
0.148943 0.151003 0
0.167452 0.155489 0
0.186999 0.159823 0
0.207736 0.164309 0
0.22855 0.169314 0
0.251087 0.17377 0
0.274342 0.17821 0
0.299413 0.182376 0
0.325261 0.186435 0
0.353002 0.190158 0
0.381369 0.193851 0
0.409873 0.197879 0
0.438773 0.20209 0
0.469276 0.206058 0
0.500114 0.21001 0
0.532479 0.213703 0
0.564965 0.21735 0
0.598932 0.220661 0
0.632074 0.224781 0
0.665568 0.228946 0
0.698726 0.233127 0
0.732845 0.237186 0
0.766964 0.241306 0
0.801587 0.245167 0
0.836057 0.249348 0
0.0376287 0.141405 0
0.0486 0.147112 0
0.060914 0.152529 0
0.0740673 0.157839 0
0.0885786 0.162997 0
0.103716 0.168292 0
0.11931 0.174044 0
0.135943 0.179675 0
0.154314 0.184894 0
0.173602 0.190204 0
0.194385 0.195163 0
0.216114 0.199893 0
0.239689 0.204364 0
0.262654 0.209674 0
0.287327 0.21471 0
0.312673 0.21944 0
0.339834 0.224048 0
0.367422 0.228595 0
0.396674 0.232807 0
0.426322 0.237034 0
0.456703 0.241505 0
0.486778 0.246021 0
0.517983 0.250538 0
0.549401 0.25507 0
0.581918 0.259495 0
0.614481 0.263859 0
0.6477 0.268101 0
0.680858 0.272251 0
0.713527 0.277043 0
0.74612 0.281865 0
0.778668 0.286717 0
0.811429 0.291569 0
0.844526 0.296452 0
0.0304875 0.174731 0
0.0420996 0.18114 0
0.0542458 0.187442 0
0.0684825 0.193561 0
0.0838026 0.199344 0
0.100664 0.205066 0
0.118456 0.210681 0
0.136767 0.216815 0
0.155642 0.222919 0
0.176287 0.228626 0
0.197803 0.234058 0
0.221088 0.239414 0
0.244938 0.244663 0
0.270359 0.249577 0
0.295827 0.25481 0
0.322576 0.26009 0
0.349783 0.26511 0
0.378485 0.27013 0
0.407477 0.27512 0
0.437675 0.279927 0
0.468208 0.284749 0
0.499611 0.289494 0
0.530419 0.294347 0
0.561776 0.29929 0
0.593271 0.30425 0
0.625223 0.309163 0
0.657221 0.314107 0
0.689418 0.319036 0
0.72166 0.323766 0
0.753796 0.328923 0
0.786084 0.334127 0
0.818936 0.339315 0
0.852079 0.344472 0
0.0200961 0.212284 0
0.0314488 0.219303 0
0.0455329 0.226307 0
0.0591745 0.233158 0
0.0758221 0.239734 0
0.0934157 0.246006 0
0.112734 0.252125 0
0.132769 0.258183 0
0.154208 0.26421 0
0.175555 0.270604 0
0.198703 0.27657 0
0.222431 0.282231 0
0.247791 0.2878 0
0.273594 0.293324 0
0.301045 0.298512 0
0.328573 0.303731 0
0.357 0.30927 0
0.385855 0.314534 0
0.415564 0.319905 0
0.445533 0.325246 0
0.476173 0.330419 0
0.507073 0.335607 0
0.53846 0.340719 0
0.569558 0.345983 0
0.600931 0.351034 0
0.632258 0.356329 0
0.663828 0.361608 0
0.695552 0.366903 0
0.727672 0.372198 0
0.760021 0.377493 0
0.793057 0.382498 0
0.826383 0.387732 0
0.86009 0.392905 0
0.00924697 0.255467 0
0.0204623 0.261997 0
0.031281 0.268956 0
0.0487678 0.27628 0
0.064744 0.283436 0
0.0841688 0.290257 0
0.104219 0.297032 0
0.126299 0.30312 0
0.148699 0.309361 0
0.172915 0.315251 0
0.196872 0.32163 0
0.222354 0.327672 0
0.248341 0.333684 0
0.275822 0.339132 0
0.303609 0.344762 0
0.332464 0.35024 0
0.3617 0.355657 0
0.391424 0.361196 0
0.420981 0.366842 0
0.451453 0.372107 0
0.481941 0.377615 0
0.512734 0.383032 0
0.543603 0.388434 0
0.574731 0.39382 0
0.606088 0.399298 0
0.637964 0.404501 0
0.669947 0.409949 0
0.70222 0.415351 0
0.734752 0.420706 0
0.767697 0.426032 0
0.801068 0.431312 0
0.834791 0.436194 0
0.868757 0.441093 0
0.00656138 0.301579 0
0.00900282 0.308995 0
0.0221714 0.315801 0
0.0328374 0.322774 0
0.0539254 0.329976 0
0.0734722 0.337087 0
0.0957046 0.343832 0
0.118608 0.350484 0
0.143191 0.356558 0
0.168185 0.362799 0
0.194522 0.368811 0
0.221225 0.374914 0
0.24892 0.38085 0
0.277119 0.386755 0
0.306218 0.392233 0
0.335531 0.397894 0
0.365347 0.403525 0
0.395438 0.409155 0
0.425818 0.41471 0
0.456367 0.420264 0
0.487022 0.425589 0
0.518029 0.431174 0
0.54931 0.436728 0
0.580804 0.442283 0
0.612558 0.447807 0
0.644556 0.4533 0
0.677089 0.458473 0
0.709773 0.463828 0
0.742718 0.469062 0
0.776074 0.474174 0
0.809628 0.479179 0
0.843549 0.484047 0
0.877592 0.488762 0
0 0.350439 0
0.00720226 0.357931 0
0.0100557 0.365301 0
0.0262913 0.37203 0
0.0411841 0.378927 0
0.0637369 0.385641 0
0.0874495 0.392416 0
0.112551 0.398962 0
0.138293 0.405341 0
0.165118 0.411505 0
0.19263 0.417319 0
0.220966 0.423239 0
0.249821 0.429084 0
0.279393 0.434836 0
0.30927 0.440558 0
0.339406 0.446265 0
0.369787 0.451698 0
0.400259 0.457359 0
0.430915 0.46302 0
0.461784 0.468666 0
0.493004 0.474327 0
0.524468 0.479942 0
0.555962 0.485267 0
0.587869 0.490806 0
0.620066 0.49633 0
0.652399 0.501747 0
0.684962 0.506981 0
0.7178 0.512062 0
0.751278 0.516747 0
0.784741 0.521538 0
0.818463 0.526009 0
0.852277 0.530358 0
0.886519 0.534554 0
0 0.400809 0
0 0.408301 0
0.00898756 0.415488 0
0.0141146 0.422538 0
0.0336614 0.429252 0
0.0560616 0.435523 0
0.0813306 0.441825 0
0.108354 0.448051 0
0.136294 0.45417 0
0.164691 0.460166 0
0.19382 0.466041 0
0.223529 0.471656 0
0.253422 0.477409 0
0.283436 0.48307 0
0.313848 0.488823 0
0.344442 0.494636 0
0.375189 0.500404 0
0.406195 0.505882 0
0.437278 0.511589 0
0.468528 0.517266 0
0.499977 0.522896 0
0.531685 0.52842 0
0.563653 0.533852 0
0.595972 0.538903 0
0.628244 0.544076 0
0.660548 0.549187 0
0.693355 0.554208 0
0.726513 0.558953 0
0.759701 0.563546 0
0.793408 0.567391 0
0.827024 0.571389 0
0.861021 0.575113 0
0.895598 0.578576 0
0 0.452247 0
0 0.459251 0
0 0.466072 0
0.0148013 0.472618 0
0.0293126 0.479011 0
0.0519265 0.485222 0
0.0799878 0.49102 0
0.108324 0.496971 0
0.137682 0.502739 0
0.167712 0.508598 0
0.197894 0.514412 0
0.228168 0.52018 0
0.258717 0.525719 0
0.289265 0.531579 0
0.31989 0.537408 0
0.350713 0.543221 0
0.381796 0.548928 0
0.412985 0.554559 0
0.444343 0.560113 0
0.475959 0.565377 0
0.507713 0.570825 0
0.539559 0.576181 0
0.571588 0.581323 0
0.603815 0.586267 0
0.636423 0.591089 0
0.669139 0.595499 0
0.702129 0.599832 0
0.734874 0.60412 0
0.768246 0.608026 0
0.801587 0.611841 0
0.835325 0.615167 0
0.869368 0.617975 0
0.907897 0.619654 0
0 0.50341 0
0 0.509972 0
0.00476081 0.515969 0
0.00958267 0.522026 0
0.0288853 0.527932 0
0.0554971 0.533761 0
0.0831922 0.539605 0
0.113054 0.54551 0
0.143206 0.551095 0
0.173388 0.556863 0
0.203693 0.562753 0
0.23447 0.568673 0
0.265263 0.574548 0
0.29601 0.580316 0
0.327016 0.585794 0
0.358038 0.59144 0
0.389166 0.597055 0
0.420584 0.602426 0
0.452079 0.607721 0
0.483833 0.612909 0
0.51574 0.617746 0
0.547723 0.622614 0
0.579751 0.627405 0
0.612146 0.632029 0
0.644556 0.636439 0
0.677302 0.640284 0
0.71014 0.643793 0
0.743267 0.647227 0
0.776333 0.650599 0
0.809812 0.65359 0
0.842863 0.65655 0
0.881117 0.657923 0
0.919661 0.658701 0
0 0.552819 0
0.00105287 0.558785 0
0.00122072 0.56463 0
0.0137179 0.570184 0
0.0346685 0.576074 0
0.0587167 0.582025 0
0.0889296 0.587991 0
0.119265 0.593927 0
0.149752 0.599802 0
0.180468 0.605447 0
0.211185 0.611307 0
0.242008 0.617029 0
0.272602 0.62266 0
0.303548 0.628214 0
0.334646 0.633677 0
0.365896 0.638804 0
0.397192 0.644053 0
0.42855 0.649241 0
0.460212 0.654246 0
0.491844 0.658946 0
0.523644 0.663371 0
0.55555 0.667475 0
0.587701 0.671626 0
0.619806 0.675685 0
0.652338 0.679347 0
0.68484 0.682902 0
0.717937 0.685695 0
0.750927 0.688396 0
0.784497 0.690578 0
0.817945 0.692958 0
0.856001 0.694087 0
0.894469 0.695171 0
0.939544 0.692363 0
0 0.601099 0
0 0.606912 0
0.00688182 0.612818 0
0.0175479 0.618753 0
0.0348363 0.62472 0
0.0657206 0.630518 0
0.0960098 0.636439 0
0.126619 0.642176 0
0.157305 0.647898 0
0.188098 0.65359 0
0.218906 0.659236 0
0.249866 0.664561 0
0.280751 0.669993 0
0.311803 0.675135 0
0.342855 0.680186 0
0.373816 0.685145 0
0.405051 0.689998 0
0.436652 0.694438 0
0.468086 0.699001 0
0.499733 0.703288 0
0.531518 0.707042 0
0.563561 0.71046 0
0.595514 0.713802 0
0.628153 0.716609 0
0.660517 0.719493 0
0.693339 0.722087 0
0.726101 0.72459 0
0.759945 0.726741 0
0.794171 0.728817 0
0.832914 0.729702 0
0.872328 0.730663 0
0.923293 0.728115 0
0.979156 0.724895 0
0 0.64921 0
0.00236515 0.655131 0
0.00610361 0.661097 0
0.0178225 0.667063 0
0.045594 0.672984 0
0.0731212 0.678828 0
0.103899 0.684291 0
0.134646 0.68983 0
0.165438 0.695247 0
