luts/Red is love ( Lut ).cube
TITLE "Generated by Resolve"
LUT_3D_SIZE 9
0.00167849 0 0.00134279
0.108736 0 0.0132296
0.227878 0 0.0269017
0.346197 0 0.0462043
0.462547 0 0.0660868
0.578759 0 0.0869917
0.694392 0.000671397 0.107759
0.809613 0.00170901 0.128527
0.924437 0.00270085 0.149279
0.0700542 0.0970169 0.00511177
0.172915 0.0964065 0.0540627
0.244816 0.119051 0
0.395209 0.108324 0.0180056
0.535149 0.0997787 0.0464637
0.656367 0.0969863 0.0816358
0.76376 0.0986648 0.113085
0.868467 0.101762 0.138186
0.970565 0.104875 0.159426
0.140017 0.201862 0
0.278004 0.188037 0.0706188
0.359686 0.195224 0.123629
0.370855 0.238834 0.0267796
0.494591 0.242786 0.000991836
0.637583 0.235126 0.0142367
0.789425 0.223239 0.0368353
0.930922 0.213428 0.074464
1 0.207568 0.110704
0.209873 0.306752 0
0.359686 0.290013 0.0538338
0.465324 0.285893 0.149065
0.5449 0.294728 0.192233
0.545861 0.339406 0.110613
0.607965 0.368261 0.014847
0.739956 0.367819 0.00216678
0.877729 0.362173 0.0127565
1 0.352071 0.0315404
0.279301 0.41181 0
0.426337 0.396735 0.0368811
0.565484 0.380743 0.147677
0.650752 0.384833 0.221744
0.729625 0.394369 0.26006
0.743526 0.432807 0.202411
0.74963 0.479927 0.0804913
0.849042 0.495277 0.0112459
0.976944 0.493721 0.00323491
0.348302 0.516991 0
0.489036 0.504372 0.0250095
0.654276 0.480446 0.132616
0.753475 0.478202 0.228061
0.835843 0.484108 0.292317
0.914137 0.494148 0.327352
0.943191 0.525979 0.290837
0.922591 0.580926 0.170459
0.97438 0.613001 0.0588693
0.417411 0.622187 0
0.552621 0.611521 0.0152132
0.734951 0.582971 0.112856
0.850401 0.574639 0.221027
0.937194 0.5776 0.301595
1 0.583688 0.361578
1 0.595819 0.394842
1 0.623041 0.373007
1 0.677882 0.260533
0.486656 0.727337 0
0.616892 0.718288 0.00582895
0.806622 0.688441 0.0901503
0.940047 0.674022 0.206226
1 0.671992 0.302052
1 0.679042 0.370687
1 0.686778 0.42768
1 0.699382 0.460151
1 0.723018 0.44828
0.555688 0.832578 0
0.682155 0.824689 0
0.870466 0.796307 0.0692302
1 0.77583 0.187243
1 0.771466 0.289769
1 0.774334 0.37322
1 0.78201 0.437079
1 0.790021 0.491737
1 0.802869 0.523354
0 0 0.111543
0.116457 0 0.110033
0.242756 0 0.128603
0.373114 0 0.154253
0.497719 0 0.175479
0.613214 0 0.194873
0.724163 0 0.214176
0.834287 0 0.23386
0.944747 0.00015259 0.253803
0 0.129061 0.0717784
0.116762 0.119966 0.118135
0.238941 0.118517 0.137469
0.355505 0.118563 0.157305
0.472404 0.118578 0.177966
0.588708 0.1187 0.198642
0.704463 0.118959 0.219379
0.819776 0.119371 0.240146
0.934646 0.119936 0.260868
0.0580758 0.233097 0.0522469
0.185763 0.224292 0.11545
0.298314 0.220951 0.182147
0.371313 0.242725 0.115175
0.520775 0.232074 0.144991
0.658442 0.224262 0.181064
0.775677 0.222782 0.215457
0.881697 0.225086 0.244327
0.978927 0.228305 0.268147
0.13344 0.336416 0.0441749
0.25304 0.329961 0.104417
0.402426 0.313085 0.196826
0.48397 0.320241 0.250706
0.495552 0.363226 0.154711
0.618265 0.367346 0.115984
0.760616 0.359762 0.136339
0.913252 0.347723 0.170153
1 0.338888 0.207477
0.205646 0.440803 0.0362402
0.319936 0.435721 0.0932174
0.484276 0.415076 0.179599
0.588769 0.411368 0.273854
0.668482 0.420005 0.318593
0.671763 0.463447 0.24242
0.730831 0.493065 0.137758
0.861875 0.492958 0.117052
0.987594 0.487388 0.132036
0.276387 0.545556 0.0289921
0.38616 0.541665 0.0820172
0.551629 0.521614 0.159258
0.687831 0.506798 0.270665
0.77322 0.510674 0.345495
0.852628 0.51989 0.385855
0.870359 0.556603 0.334249
0.873549 0.604501 0.213962
0.968917 0.620569 0.132342
0.346395 0.650492 0.021912
0.451667 0.647883 0.0709392
0.612665 0.629831 0.141238
0.775921 0.606729 0.255055
0.875914 0.604181 0.350729
0.956588 0.610254 0.415518
1 0.620233 0.452811
1 0.650843 0.421454
1 0.705547 0.303136
0.415976 0.755535 0.0149081
0.517983 0.753872 0.0590677
0.672343 0.73814 0.125887
0.856092 0.709392 0.235004
0.970245 0.701213 0.342092
1 0.704509 0.422766
1 0.712215 0.482628
1 0.723995 0.518608
1 0.749493 0.500557
0.485283 0.8607 0.00793469
0.587259 0.859037 0.0519722
0.732906 0.845991 0.112963
0.927382 0.815061 0.212161
1 0.80235 0.324849
1 0.800748 0.420462
1 0.807599 0.489647
1 0.815381 0.547036
1 0.827512 0.581735
0 0 0.242908
0.11577 0 0.241413
0.243977 0 0.24097
0.367971 0 0.249134
0.491722 0 0.272602
0.618372 0 0.299626
0.746654 0 0.324681
0.874037 0 0.347692
0.990417 0 0.368673
0 0.12845 0.232837
0.117815 0.12015 0.246159
0.246006 0.118837 0.245747
0.370291 0.117205 0.260639
0.498558 0.113222 0.2869
0.625574 0.109972 0.309285
0.74374 0.109575 0.329046
0.855802 0.111086 0.348196
0.965072 0.113344 0.367544
0 0.261952 0.159518
0.106493 0.251881 0.208331
0.245731 0.243168 0.249561
0.365713 0.242313 0.269032
0.480827 0.242878 0.288731
0.596872 0.243107 0.309178
0.712428 0.243442 0.32958
0.827573 0.243977 0.350027
0.942382 0.244556 0.370474
0.0368658 0.371069 0.121599
0.174472 0.359518 0.17528
0.306279 0.350637 0.240345
0.420874 0.346395 0.310201
0.496834 0.366537 0.250385
0.645914 0.35584 0.281743
0.779355 0.349447 0.316899
0.892363 0.349218 0.350652
0.984329 0.352193 0.377218
0.108232 0.475013 0.100908
0.246937 0.464195 0.158068
0.373632 0.456291 0.229252
0.522362 0.439765 0.320363
0.605631 0.446097 0.378042
0.618952 0.487999 0.286717
0.741588 0.491875 0.250629
0.884291 0.484062 0.27187
1 0.472465 0.305974
0.185672 0.578485 0.0885328
0.316258 0.569436 0.144945
0.439872 0.562219 0.218265
0.602319 0.542367 0.302113
0.709575 0.537697 0.398016
0.789532 0.545998 0.445335
0.795972 0.587961 0.374823
0.853056 0.618097 0.271092
0.979553 0.61796 0.251408
0.260197 0.682536 0.0780957
0.384024 0.675044 0.132952
0.505592 0.668315 0.207462
0.668879 0.649165 0.281575
0.806928 0.633829 0.392309
0.893217 0.637369 0.469108
0.968475 0.646159 0.512184
0.986954 0.680827 0.466789
0.989532 0.72932 0.347616
0.332891 0.786908 0.0691081
0.451026 0.78085 0.121263
0.571817 0.774273 0.196094
0.728878 0.757733 0.263462
0.894011 0.734173 0.375906
0.988357 0.731014 0.472862
1 0.73817 0.537758
1 0.749035 0.57818
1 0.777432 0.550729
0.404395 0.891539 0.0609293
0.517494 0.886748 0.109483
0.638178 0.880247 0.184527
0.788052 0.866133 0.248478
0.97229 0.837263 0.355184
1 0.830335 0.460517
1 0.833524 0.542351
1 0.841291 0.602518
1 0.852583 0.641184
0 0 0.374319
0.115099 0 0.372854
0.243305 0 0.372488
0.369848 0 0.372427
0.493538 0 0.376593
0.61503 0 0.392004
0.73753 0 0.41622
0.862043 0 0.443244
0.984955 0 0.469657
0 0.126467 0.372442
0.117128 0.120562 0.377523
0.245289 0.119173 0.377249
0.371847 0.118334 0.377203
0.495232 0.1178 0.3832
0.617594 0.11606 0.404395
0.742748 0.112947 0.431312
0.869978 0.109346 0.456916
0.990631 0.105715 0.480552
0 0.262913 0.329992
0.10454 0.249866 0.368322
0.245518 0.243488 0.380163
0.372061 0.242603 0.380209
0.495323 0.241611 0.391104
0.621469 0.238193 0.417563
0.74963 0.234531 0.441169
0.870619 0.233249 0.461616
0.981933 0.234195 0.480842
0 0.39501 0.247608
0.0930495 0.385061 0.295628
0.230579 0.375982 0.345022
0.370428 0.367437 0.383032
0.494957 0.365408 0.400275
0.606897 0.366949 0.419883
0.721355 0.367681 0.440131
0.836057 0.368322 0.460487
0.950469 0.368994 0.480873
0.0198367 0.506447 0.206989
0.152651 0.495842 0.255741
0.290547 0.486717 0.304845
0.423529 0.478111 0.363745
0.54197 0.472328 0.437842
0.62121 0.49073 0.385458
0.768933 0.480278 0.418463
0.897414 0.475425 0.452674
0.98938 0.476432 0.484047
0.0840467 0.612818 0.17232
0.226749 0.601099 0.227359
0.363561 0.591562 0.284657
0.489967 0.583917 0.353002
0.640177 0.567239 0.44181
0.726009 0.572229 0.504921
0.741497 0.613031 0.418921
0.863966 0.616754 0.385061
0.992782 0.608682 0.407599
0.156954 0.717662 0.14873
0.299794 0.706004 0.206439
0.433463 0.696727 0.270832
0.556085 0.689952 0.342016
0.717586 0.67071 0.422431
0.82916 0.6645 0.521233
0.909346 0.672404 0.57174
0.919799 0.712535 0.507591
0.973861 0.743343 0.404303
0.235004 0.821271 0.134478
0.370947 0.811093 0.189899
0.501625 0.802152 0.258595
0.622339 0.795926 0.330877
0.781994 0.77818 0.401694
0.924361 0.761547 0.512627
0.998718 0.764385 0.592065
1 0.774182 0.637964
1 0.807004 0.597284
0.310796 0.92517 0.122255
0.440497 0.91632 0.175662
0.568856 0.907881 0.246845
0.688457 0.901961 0.319585
0.84123 0.886824 0.384649
1 0.862486 0.495125
1 0.860197 0.591821
1 0.86746 0.657679
1 0.877745 0.700908
0 0.000350958 0.50576
0.114412 0 0.504311
0.242603 0 0.504005
0.369146 0 0.504036
0.494591 0 0.50428
0.618204 0 0.506691
0.739178 0 0.516884
0.859785 0 0.535271
0.980514 0 0.559625
0 0.125826 0.506508
0.116487 0.120851 0.508995
0.244602 0.119554 0.50869
0.371145 0.118685 0.508782
0.496651 0.11809 0.509041
0.62005 0.117861 0.512016
0.740902 0.117388 0.525353
0.862379 0.11574 0.547982
0.982712 0.113161 0.574624
0 0.258915 0.484932
0.108507 0.248157 0.50631
0.244862 0.243824 0.511589
0.371359 0.242954 0.511727
0.496864 0.24239 0.512032
0.619989 0.2421 0.516167
0.741268 0.240925 0.534752
0.865034 0.238239 0.561196
0.986084 0.234897 0.58735
0 0.397818 0.418997
0.0820783 0.384497 0.467582
0.232074 0.373114 0.502663
0.370901 0.367483 0.51397
0.49633 0.366903 0.514321
0.619165 0.36643 0.521614
0.743282 0.363745 0.547097
0.871061 0.360037 0.571847
0.988602 0.357763 0.593347
0 0.528206 0.336461
0.0788739 0.51838 0.383871
0.216129 0.509392 0.433036
0.353582 0.500481 0.481758
0.495354 0.491646 0.516243
0.620981 0.489509 0.531579
0.735073 0.49044 0.551308
0.846601 0.492042 0.57084
0.959533 0.493095 0.591073
0.00495918 0.641627 0.292683
0.132342 0.631113 0.342107
0.268833 0.62266 0.388907
0.403418 0.614908 0.434501
0.536171 0.606882 0.487404
0.661952 0.598611 0.564523
0.744686 0.615152 0.520577
0.89044 0.605219 0.554742
0.993225 0.601892 0.587961
0.0646067 0.749035 0.256016
0.203571 0.73814 0.305348
0.341665 0.728695 0.356802
0.476814 0.720027 0.410529
0.603937 0.712505 0.475868
0.756405 0.695384 0.56173
0.845335 0.698848 0.631083
0.863447 0.738216 0.551415
0.98172 0.741787 0.519402
0.133761 0.854994 0.223819
0.277531 0.843244 0.279301
0.41503 0.833646 0.334112
0.547417 0.82501 0.395438
0.670542 0.818372 0.464714
0.830259 0.800015 0.541299
0.94786 0.791684 0.643397
1 0.799451 0.697566
1 0.83769 0.640055
0.206394 0.960143 0.198901
0.350713 0.948257 0.256641
0.486641 0.938704 0.31664
0.616007 0.930449 0.382788
0.736629 0.924361 0.453651
0.891722 0.908248 0.521798
1 0.890761 0.63064
1 0.893721 0.711925
1 0.903105 0.760662
0 0.000747692 0.637293
0.113695 0 0.635843
0.241871 0 0.635569
0.368399 0 0.635615
0.493904 0 0.635874
0.618616 0 0.636332
0.742031 0 0.637934
0.862974 0 0.645029
0.98143 0.000289921 0.658839
0 0.125643 0.639231
0.115831 0.121202 0.640482
0.243931 0.119905 0.640238
0.370459 0.119081 0.640345
0.495964 0.118441 0.64062
0.62063 0.118074 0.641093
0.743999 0.117937 0.642893
0.864698 0.117968 0.65156
0.981857 0.117403 0.668345
0 0.256504 0.626719
0.110109 0.247547 0.639963
0.244205 0.244175 0.643107
0.370642 0.243305 0.64329
0.496132 0.242664 0.64361
0.620859 0.242344 0.644083
0.744091 0.242237 0.646174
0.864561 0.242084 0.657404
0.981994 0.240925 0.678294
0 0.393332 0.585916
0.0885328 0.380621 0.619959
0.235798 0.371633 0.64004
0.370245 0.367803 0.645487
0.495644 0.367254 0.645884
0.620386 0.366873 0.646372
0.743389 0.366781 0.649134
0.863905 0.366155 0.664836
0.982864 0.363958 0.690303
0 0.532509 0.50576
0.0606699 0.519722 0.557733
0.209155 0.507805 0.603281
0.357122 0.49723 0.636561
0.494774 0.491981 0.647669
0.619425 0.491569 0.648295
0.742153 0.491432 0.652628
0.864424 0.489509 0.675898
0.986023 0.486046 0.70161
0 0.661494 0.425635
0.0642252 0.651789 0.472129
0.20148 0.642878 0.521172
0.337804 0.634256 0.569741
0.475761 0.625208 0.617639
0.618235 0.616464 0.649866
0.742702 0.614939 0.662287
0.863416 0.613779 0.682353
0.973007 0.6159 0.70161
0 0.77644 0.379629
0.113237 0.766033 0.428794
0.249241 0.75761 0.476829
0.38291 0.750057 0.522362
0.514824 0.743358 0.565576
0.647028 0.736278 0.611154
0.780346 0.725612 0.689525
0.867628 0.739742 0.656016
0.99324 0.730739 0.690562
0.0463264 0.884825 0.342397
0.180758 0.874311 0.39028
0.318135 0.865522 0.436988
0.453681 0.857114 0.486076
0.587671 0.849149 0.536309
0.716152 0.841566 0.598215
0.869581 0.824567 0.680278
0.962539 0.825772 0.756344
0.982544 0.863539 0.684138
0.111604 0.991821 0.304906
0.253666 0.980484 0.356481
0.391684 0.971069 0.408667
0.527169 0.962325 0.461067
0.659098 0.954009 0.519524
0.78291 0.947326 0.586938
0.938704 0.930571 0.659693
1 0.920348 0.763027
1 0.928588 0.820294
0 0.00114443 0.768872
0.113024 0 0.767468
0.241199 0 0.767147
0.367681 0 0.767254
0.493172 0 0.767544
0.617884 0 0.768017
0.741985 0 0.768612
0.865217 0 0.769772
0.983505 0.000503548 0.775006
0 0.125658 0.771481
0.115129 0.121614 0.772107
0.243229 0.120226 0.771847
0.369757 0.119356 0.771969
0.495232 0.118807 0.772274
0.619959 0.118441 0.772778
0.744015 0.118181 0.773373
0.867231 0.118151 0.774624
0.983902 0.118456 0.780636
0 0.255131 0.763607
0.110735 0.247456 0.772549
0.243549 0.244526 0.774716
0.369985 0.243626 0.774868
0.495415 0.24303 0.77525
0.620142 0.242664 0.775784
0.744244 0.242405 0.776364
0.86743 0.24242 0.777691
0.983673 0.242664 0.784909
0 0.389624 0.736767
0.0935836 0.378393 0.760647
0.237293 0.371145 0.773602
0.369558 0.3682 0.777035
0.494987 0.367605 0.777493
0.619654 0.367208 0.778027
0.743755 0.367025 0.778653
0.866865 0.367041 0.780118
0.9832 0.367086 0.789364
0 0.528435 0.680201
0.0654459 0.515221 0.722133
0.215717 0.504067 0.75407
0.360662 0.495781 0.773541
0.494087 0.492287 0.779263
0.618723 0.491936 0.779873
0.742809 0.491722 0.780514
0.865797 0.491737 0.782254
0.98262 0.491554 0.795102
0 0.666819 0.592752
0.0418708 0.65481 0.644953
0.18703 0.643183 0.694362
0.333913 0.631861 0.738262
0.480507 0.621851 0.770108
0.617517 0.61677 0.781292
0.741543 0.616571 0.78204
0.864347 0.616541 0.784466
0.982513 0.615442 0.804303
0 0.794903 0.514992
0.0492866 0.78529 0.560601
0.186481 0.776455 0.609491
0.322423 0.767941 0.658228
0.458579 0.759365 0.70663
0.597345 0.750179 0.753216
0.739574 0.74165 0.78349
0.863859 0.740841 0.789929
0.984771 0.738231 0.813672
0 0.910994 0.467597
0.094667 0.900832 0.515068
0.230625 0.892271 0.564126
0.364294 0.884581 0.61178
0.495903 0.877714 0.656641
0.625315 0.8719 0.697704
0.755398 0.866117 0.736706
0.89749 0.853132 0.812604
0.985321 0.864454 0.791852
0.0295262 1 0.422019
0.159945 1 0.473381
0.296056 0.998306 0.521675
0.430274 0.993744 0.568719
0.563821 0.98616 0.615473
0.696757 0.978012 0.662501
0.826185 0.971283 0.720623
0.977707 0.954635 0.797345
1 0.954376 0.879133
0 0.00155642 0.900542
0.112306 0 0.899092
0.240467 0 0.898833
0.366949 0 0.898939
0.492439 0 0.899245
0.617151 0 0.899748
0.741253 0 0.900359
0.86479 0 0.901076
0.98439 0.000183108 0.902083
0 0.12575 0.903532
0.114427 0.121935 0.903731
0.242573 0.120562 0.903471
0.369039 0.119692 0.903609
0.49453 0.119127 0.903975
0.619242 0.118761 0.904479
0.743297 0.118547 0.905119
0.86688 0.118471 0.905852
0.984939 0.118624 0.906874
0 0.254276 0.898329
0.110887 0.247486 0.904738
0.242863 0.244862 0.90634
0.369299 0.243915 0.906493
0.494759 0.243397 0.90692
0.619425 0.24303 0.907454
0.743526 0.242817 0.90808
0.867109 0.242741 0.908827
0.984909 0.242817 0.90985
0 0.38703 0.879561
0.0968338 0.37705 0.897002
0.237873 0.370947 0.906157
0.368917 0.368475 0.90869
0.494301 0.367941 0.909117
0.618952 0.367559 0.909712
0.743053 0.367346 0.910369
0.866636 0.367239 0.911101
0.984665 0.367346 0.912169
0 0.524041 0.839277
0.0720836 0.511604 0.871534
0.220569 0.5019 0.89427
0.362142 0.495308 0.907103
0.493446 0.492622 0.910872
0.618067 0.49221 0.911513
0.742107 0.492042 0.91223
0.86569 0.492058 0.912978
0.984268 0.492088 0.914076
0 0.663676 0.770657
0.0429389 0.650568 0.817441
0.19234 0.638651 0.856962
0.340429 0.628336 0.887861
0.483986 0.620478 0.906889
0.616831 0.61709 0.912902
0.740841 0.616938 0.91371
0.864424 0.616846 0.914488
0.983764 0.616922 0.915679
0 0.80087 0.680461
0.0255436 0.789517 0.731899
0.166476 0.778424 0.781994
0.311116 0.767376 0.830182
0.457069 0.756451 0.872663
0.602701 0.746929 0.903426
0.739269 0.741878 0.914824
0.862882 0.741787 0.91574
0.983139 0.741939 0.917098
0 0.928374 0.604395
0.0347295 0.918914 0.649348
0.171115 0.910002 0.698268
0.30695 0.901518 0.746761
0.442466 0.893202 0.795117
0.578775 0.884688 0.84271
0.718257 0.875425 0.888167
0.860136 0.867185 0.916304
0.982345 0.866407 0.920913
0 1 0.54229
0.077409 1 0.590494
0.213367 1 0.642115
0.347143 1 0.692927
0.479088 1 0.742321
0.608957 1 0.7888
0.736065 0.998825 0.830381
0.862577 0.995331 0.86537
1 0.981201 0.933501
0 0.00187686 1
0.111559 0 1
0.239734 0 1
0.366247 0 1
0.491676 0 1
0.616388 0 1
0.740444 0 1
0.864012 0 1
0.98381 0 1
0 0.125841 1
0.113725 0.122118 1
0.241825 0.120821 1
0.368322 0.119951 1
0.493751 0.119356 1
0.618463 0.118975 1
0.742504 0.118761 1
0.866087 0.118685 1
0.984375 0.118761 1
0 0.253758 1
0.110689 0.247517 1
0.242115 0.245029 1
0.368551 0.24416 1
0.493996 0.24361 1
0.618662 0.243229 1
0.742748 0.243015 1
0.866316 0.242939 1
0.984344 0.243015 1
0 0.385229 1
0.0988785 0.376196 1
0.237949 0.370901 1
0.36817 0.368688 1
0.493553 0.368139 1
0.618189 0.367773 1
0.74226 0.367559 1
0.865843 0.367468 1
0.9841 0.367514 1
0 0.5205 0.988464
0.0775464 0.509056 1
0.223697 0.500603 1
0.362646 0.495048 1
0.492714 0.492805 1
0.617304 0.492454 1
0.741329 0.492271 1
0.864897 0.492195 1
0.983734 0.492241 1
0 0.659068 0.936492
0.0487831 0.646097 0.974899
0.198947 0.635157 1
0.34519 0.626123 1
0.48539 0.619852 1
0.616129 0.617288 1
0.740108 0.617121 1
0.86363 0.617029 1
0.983246 0.617075 1
0 0.798993 0.858869
0.0231327 0.786023 0.908705
0.168719 0.774014 0.952865
0.316884 0.762905 0.991272
0.463569 0.752972 1
0.606012 0.745388 1
0.738582 0.742046 1
0.862104 0.742 1
0.982681 0.742046 1
0 0.93492 0.768261
0.0128328 0.92401 0.819135
0.147295 0.913359 0.869154
0.289967 0.902724 0.918364
0.433829 0.892119 0.965408
0.57908 0.881453 1
0.723857 0.872099 1
0.860166 0.867109 1
0.981918 0.867094 1
0 1 0.681331
0.0203708 1 0.728771
0.155383 1 0.779278
0.291157 1 0.829267
0.426352 1 0.87892
0.561746 1 0.928252
0.698405 1 0.976822
0.838605 0.99913 1
0.977981 0.993149 1
