luts/Red Dream 01.cube
TITLE "Generated by Resolve"
LUT_3D_SIZE 9
0.0119936 0 0
0.0119936 0 0
0.0140841 0 0
0.025742 0 0
0.038468 0 0
0.051667 0 0
0.0654612 0 0
0.0835889 0 0
0.112886 0 0
0.0119936 0 0
0.0137026 0.000122072 0
0.0267643 0 0
0.0411383 0.000228885 0
0.0588998 0 0
0.0876326 0.00172427 0
0.132097 0.00230411 0
0.195239 0.00427253 4.57771e-05
0.278202 0.00289921 0
0.0149844 0.00761425 0
0.0303807 0.0103761 0
0.0542 0.0151675 0
0.0898451 0.0225071 0
0.139422 0.0292058 0
0.205188 0.0354467 0
0.290776 0.0392462 0
0.399237 0.0408179 0
0.531441 0.0394141 0
0.0342718 0.0471504 0
0.0679637 0.0603342 0
0.114534 0.0736248 0
0.176242 0.0862898 0
0.255726 0.0981003 0
0.355291 0.107836 0
0.473487 0.116594 0
0.610803 0.123049 0
0.758328 0.130877 0
0.0376287 0.141405 0
0.0885786 0.162997 0
0.154314 0.184894 0
0.239689 0.204364 0
0.339834 0.224048 0
0.456703 0.241505 0
0.581918 0.259495 0
0.713527 0.277043 0
0.844526 0.296452 0
0.00656138 0.301579 0
0.0539254 0.329976 0
0.143191 0.356558 0
0.24892 0.38085 0
0.365347 0.403525 0
0.487022 0.425589 0
0.612558 0.447807 0
0.742718 0.469062 0
0.877592 0.488762 0
0 0.50341 0
0.0288853 0.527932 0
0.143206 0.551095 0
0.265263 0.574548 0
0.389166 0.597055 0
0.51574 0.617746 0
0.644556 0.636439 0
0.776333 0.650599 0
0.919661 0.658701 0
0 0.697551 0
0.0509041 0.720409 0
0.173861 0.741314 0
0.297597 0.759503 0
0.423224 0.77435 0
0.551247 0.784909 0
0.685924 0.794278 0
0.83743 0.803189 0
0.993255 0.789044 0
0 0.87509 0
0.0986191 0.887907 0
0.224063 0.898573 0
0.353094 0.909712 0
0.490745 0.924392 0.00534066
0.635874 0.940826 0.0125734
0.791608 0.955062 0.0251774
0.976883 0.941756 0.0379187
1 0.926009 0.0320745
0.0119936 0 0
0.0119936 0 0
0.0153811 0 0
0.0272374 0 0
0.0397498 0 0
0.0523232 0 0
0.065568 0 0
0.0871138 0 0
0.122316 0 0.000503548
0.0119936 0 0
0.0151675 9.15541e-05 0.000137331
0.0279088 1.5259e-05 3.0518e-05
0.0423896 6.10361e-05 0.000610361
0.0623178 0.00047303 0.00047303
0.0960403 0.00227359 0.00297551
0.145846 0.00340276 0.00447089
0.213336 0.00494392 0.00433356
0.30103 0.00315862 0.00376898
0.0156405 0.00805676 0.00202945
0.03299 0.0118715 0.00209049
0.0597238 0.0180209 0.00311284
0.0984817 0.0252537 0.00367742
0.151217 0.0322118 0.002121
0.22063 0.0371557 0.00192264
0.309606 0.0404669 4.57771e-05
0.422354 0.0400397 0.000289921
0.558282 0.038056 0.000564584
0.0368811 0.0523537 0.00231937
0.0729229 0.0650187 0.00112917
0.120684 0.0784619 0.000350958
0.185733 0.090013 0
0.266453 0.101442 0
0.369345 0.110033 0
0.489647 0.118441 0
0.626917 0.124895 0
0.774472 0.132052 0
0.0349889 0.148898 0
0.0871901 0.17023 0
0.155108 0.191135 0
0.241596 0.210575 0
0.344854 0.229023 0
0.461601 0.24654 0
0.587167 0.264042 0
0.716823 0.282673 0
0.847608 0.302098 0
0.0031281 0.310384 0
0.0495308 0.338277 0
0.140902 0.363653 0
0.249012 0.387243 0
0.366155 0.409506 0
0.488869 0.431769 0
0.615152 0.454139 0
0.745678 0.474815 0
0.880781 0.493385 0
0 0.510475 0
0.032166 0.53431 0
0.144717 0.557321 0
0.267445 0.580407 0
0.391669 0.602777 0.00030518
0.518013 0.622721 0
0.646464 0.639857 0.010132
0.778103 0.653544 0.00602731
0.925216 0.657984 0.0227817
0 0.703319 0
0.0530098 0.725765 0
0.176318 0.745693 0
0.299779 0.762936 0.00972
0.425361 0.776013 0.00308232
0.554162 0.786465 0.0343633
0.691707 0.796307 0.0472267
0.849836 0.805707 0.0737316
1 0.789364 0.0757153
0.00708019 0.876509 0.00988785
0.101442 0.889357 0.0148775
0.22771 0.89987 0.0472877
0.359243 0.912413 0.0706188
0.499138 0.929 0.106615
0.645151 0.945922 0.142153
0.802411 0.958648 0.171756
0.990814 0.939986 0.167208
1 0.92665 0.165911
0.0119936 0 0
0.0118105 0 6.10361e-05
0.0161135 0 3.0518e-05
0.0275883 0 0.000823987
0.0397192 0 0.00105287
0.052018 0 0.00161746
0.0671855 0 0.00221256
0.0916915 0 0.00474556
0.133776 0 0.00981155
0.0113375 0 0.00195315
0.0158541 0 0.00375372
0.0284581 0.000106813 0.00469978
0.0438392 0 0.00614939
0.0674296 0.00135805 0.00962844
0.104906 0.00225834 0.0161288
0.158602 0.00418097 0.0226902
0.230213 0.00384527 0.0296788
0.323079 0.00292973 0.0333867
0.0165103 0.00888075 0.0087892
0.0359503 0.0134127 0.0121309
0.0651255 0.0204623 0.0171817
0.106584 0.0271611 0.0230106
0.1617 0.033753 0.0269474
0.234577 0.0378271 0.030045
0.327993 0.0399786 0.0305486
0.444755 0.0389258 0.029099
0.584817 0.0353094 0.0285954
0.0391394 0.0562295 0.0206302
0.076112 0.0690318 0.023621
0.126055 0.0817731 0.0227817
0.192386 0.0932937 0.0225376
0.277333 0.103471 0.0207828
0.381369 0.112078 0.0165408
0.504845 0.118914 0.0193179
0.641352 0.12636 0.00941482
0.789364 0.132906 0.0198215
0.0317845 0.154849 0.00808728
0.0842451 0.176547 0.013077
0.155673 0.196216 0.00660716
0.243091 0.215656 0.0103456
0.348821 0.232929 0.00868238
0.465187 0.251041 0.00918593
0.591394 0.268391 0.0157015
0.71928 0.287861 0.0184634
0.850141 0.307912 0.0336156
0.000122072 0.318212 0
0.0418555 0.345739 0.00573739
0.138064 0.370047 0
0.248356 0.393133 0.0113832
0.367437 0.415549 0.000762951
0.490517 0.437766 0.036286
0.617563 0.459678 0.0473182
0.748608 0.480552 0.0728008
0.883497 0.498146 0.0962081
0 0.513237 0.00607309
0.0329137 0.539605 0.0127871
0.146639 0.563455 0.0286717
0.269368 0.586343 0.04065
0.393759 0.608057 0.0716259
0.519997 0.627726 0.0952468
0.6486 0.643549 0.118288
0.780163 0.656062 0.137469
0.938445 0.657588 0.147646
0 0.700969 0.0559091
0.0569314 0.730205 0.0664683
0.17821 0.749813 0.0933852
0.302052 0.766033 0.120623
0.428336 0.777859 0.145541
0.558816 0.788281 0.170016
0.698695 0.799649 0.196445
0.869383 0.807965 0.219944
1 0.791562 0.218524
0.0232395 0.866194 0.155367
0.112078 0.887877 0.166018
0.233249 0.901793 0.18967
0.366979 0.916625 0.221149
0.508598 0.934081 0.255024
0.654902 0.951583 0.287266
0.81976 0.961547 0.309621
1 0.938598 0.296666
1 0.928161 0.291905
0.0112001 0 0.00134279
0.0109102 0 0.00292973
0.0163729 0 0.00424201
0.0276799 0 0.00544747
0.039292 0 0.00675975
0.0511177 0 0.00810254
0.0683757 0 0.0113832
0.0963302 0 0.0177615
0.144701 0 0.0289921
0.0106203 0 0.00737011
0.0161746 0 0.00973526
0.0286259 0 0.0120394
0.0448463 9.15541e-05 0.016144
0.0721294 0.0015259 0.0246281
0.113542 0.00209049 0.0369879
0.170825 0.00447089 0.0506447
0.246509 0.00302129 0.0650492
0.345235 0.00115969 0.0799268
0.0171969 0.00972 0.0184329
0.0383917 0.0149538 0.0286107
0.0698711 0.0220951 0.0399939
0.113512 0.0289464 0.0529946
0.171893 0.0344701 0.066453
0.248005 0.0381476 0.0793469
0.346288 0.0385443 0.0927596
0.466773 0.0369573 0.103822
0.611399 0.0315251 0.11548
0.0525826 0.0559396 0.0522774
0.0793774 0.0724193 0.0633249
0.131136 0.0843977 0.0771038
0.198962 0.0958267 0.0865339
0.287633 0.104341 0.0969253
0.393317 0.113176 0.104646
0.518166 0.119402 0.113756
0.654414 0.126741 0.122591
0.800961 0.134813 0.134371
0.0731212 0.14548 0.0921492
0.0909895 0.178805 0.0861524
0.154391 0.201099 0.0912337
0.244434 0.219928 0.0980392
0.350835 0.237354 0.107546
0.468696 0.254932 0.119829
0.594003 0.27332 0.138003
0.721645 0.293095 0.160021
0.852644 0.313634 0.183612
0.0483711 0.29688 0.114382
0.0495918 0.346838 0.0990311
0.136645 0.37583 0.105364
0.248173 0.398718 0.124346
0.368673 0.421088 0.150011
0.49247 0.444038 0.176745
0.619776 0.465751 0.202289
0.751202 0.485786 0.225711
0.886824 0.503212 0.246738
0.0400092 0.482521 0.167193
0.0635843 0.532479 0.163592
0.156558 0.566522 0.173678
0.271702 0.592432 0.196307
0.395987 0.613413 0.222095
0.522225 0.632212 0.24564
0.651011 0.647532 0.265492
0.7832 0.658534 0.281819
0.95584 0.657893 0.285649
0.0673228 0.667918 0.259907
0.116838 0.714321 0.253681
0.194293 0.74902 0.253437
0.305928 0.76846 0.269047
0.431632 0.780346 0.290181
0.56492 0.791409 0.313481
0.706661 0.804334 0.337758
0.890272 0.811307 0.357198
1 0.794553 0.350164
0.138064 0.826871 0.362097
0.184787 0.865522 0.350545
0.255451 0.898833 0.345464
0.378302 0.921447 0.365194
0.518654 0.940505 0.394095
0.665507 0.957488 0.420035
0.838636 0.961883 0.432425
1 0.938842 0.408469
1 0.931579 0.396506
0.0102693 0 0.00633249
0.00987259 0 0.00836194
0.0164187 0 0.0101167
0.0267948 0 0.012314
0.0376745 0 0.0146334
0.0497749 0 0.0175784
0.0694133 0 0.0237278
0.103166 0 0.0354162
0.156222 0 0.0532387
0.00813306 0 0.0127871
0.0149996 0 0.0171664
0.0281682 0 0.0223087
0.0467079 0.000579843 0.0301061
0.0772259 0.000839246 0.0441901
0.122194 0.00292973 0.0629435
0.183398 0.00344854 0.0851148
0.263584 0.00288396 0.10901
0.367697 4.57771e-05 0.136095
0.0157321 0.0131228 0.0199283
0.0392615 0.0175174 0.0463722
0.0745556 0.0233921 0.0686503
0.120272 0.0302129 0.0900282
0.182055 0.034638 0.114443
0.261799 0.0377203 0.139391
0.363989 0.0369421 0.166705
0.488075 0.0341344 0.193194
0.634882 0.0285801 0.219471
0.0604257 0.0608377 0.061738
0.0827497 0.0780957 0.0888991
0.132189 0.0886549 0.132876
0.205081 0.097734 0.165011
0.295323 0.106126 0.190539
0.404364 0.113313 0.214633
0.529259 0.120348 0.237369
0.667308 0.127047 0.259739
0.810529 0.13669 0.280018
0.132265 0.136263 0.134966
0.155993 0.165942 0.159701
0.180774 0.199557 0.184237
0.250996 0.222049 0.223423
0.352499 0.241459 0.247028
0.472145 0.258701 0.268544
0.596338 0.278416 0.29044
0.72369 0.299016 0.313313
0.85594 0.319768 0.335317
0.208774 0.251759 0.234928
0.221561 0.298543 0.25568
0.2309 0.350774 0.274525
0.282933 0.393286 0.290578
0.372396 0.426795 0.30341
0.494865 0.450172 0.328527
0.623026 0.472297 0.35169
0.754849 0.491646 0.372854
0.891447 0.508003 0.389349
0.265217 0.414115 0.346059
0.265156 0.475013 0.358038
0.26923 0.534966 0.371572
0.314107 0.584482 0.364584
0.401099 0.618631 0.369818
0.525277 0.637095 0.388006
0.653666 0.651728 0.403906
0.786679 0.66215 0.416693
0.973556 0.659403 0.415366
0.31107 0.597879 0.451499
0.303792 0.658839 0.454246
0.30573 0.715816 0.446891
0.345922 0.758846 0.428794
0.437568 0.783093 0.427771
0.572168 0.795743 0.446677
0.717662 0.810925 0.469368
0.912779 0.816297 0.478233
1 0.798123 0.462409
0.36611 0.757778 0.548135
0.357076 0.81294 0.5449
0.368048 0.868055 0.52784
0.417441 0.917708 0.512566
0.532341 0.947845 0.516777
0.677745 0.965316 0.532036
0.858854 0.965667 0.52903
1 0.940841 0.494652
1 0.936492 0.477302
0.0080415 0 0.0119326
0.00662242 0 0.0127413
0.0152743 0 0.0178073
0.0253452 0 0.0207828
0.0352026 0 0.02327
0.049073 0 0.0283665
0.071458 0 0.0382239
0.111269 0 0.0567483
0.168505 0 0.0818036
0.00389105 0 0.0107118
0.01178 9.15541e-05 0.0206912
0.0269169 0 0.0324559
0.0493477 0.000320439 0.0468452
0.0832837 0.000350958 0.0676432
0.131746 0.00334173 0.0942702
0.196399 0.00215152 0.125628
0.281575 0.00132753 0.161166
0.391394 9.15541e-05 0.201099
0.0179446 0.0161746 0.0230259
0.0370642 0.0236515 0.050721
0.0745251 0.0276188 0.0931868
0.127092 0.0312505 0.133852
0.19176 0.0350195 0.170214
0.275319 0.0363317 0.209674
0.38117 0.0352178 0.251682
0.509987 0.0304875 0.29485
0.657053 0.0250095 0.334981
0.0663005 0.0670787 0.0702525
0.0873121 0.0863508 0.0952468
0.122271 0.101747 0.148348
0.200977 0.10367 0.236591
0.300893 0.108141 0.293202
0.415259 0.113207 0.335836
0.539834 0.120958 0.36936
0.678126 0.128344 0.401358
0.819425 0.139452 0.426734
0.144488 0.145266 0.145922
0.173022 0.174243 0.175677
0.205631 0.206439 0.210986
0.247379 0.237461 0.265705
0.347738 0.250385 0.363745
0.473579 0.264195 0.415824
0.598795 0.284153 0.439689
0.726619 0.305684 0.460655
0.859831 0.326574 0.480507
0.254322 0.255131 0.255024
0.293141 0.294286 0.294118
0.332708 0.335836 0.334966
0.371786 0.380194 0.377279
0.420798 0.423331 0.421241
0.500496 0.457618 0.463218
0.626673 0.478782 0.493309
0.759182 0.49807 0.510109
0.897581 0.513008 0.522133
0.382864 0.397086 0.392996
0.423392 0.442847 0.436912
0.45391 0.492393 0.476219
0.476326 0.543191 0.511391
0.4963 0.595209 0.526497
0.541344 0.638697 0.52282
0.657801 0.655955 0.531136
0.793729 0.66656 0.536339
0.978637 0.661967 0.527855
0.486244 0.559304 0.533196
0.511177 0.606485 0.569238
0.512139 0.659052 0.589258
0.507164 0.710979 0.601999
0.504646 0.767361 0.576059
0.583017 0.802274 0.562173
0.731594 0.819501 0.574914
0.937377 0.823636 0.574456
1 0.80412 0.548424
0.559228 0.708644 0.649134
0.558846 0.759518 0.66862
0.543206 0.823575 0.675654
0.521233 0.895964 0.656519
0.560159 0.95256 0.621576
0.690837 0.971603 0.61944
0.87982 0.971267 0.606363
1 0.942733 0.564401
1 0.941649 0.548577
0.00340276 0 0.0115053
0.00210575 0 0.0102998
0.0121767 0 0.0222019
0.0235599 0 0.0292058
0.0334783 0 0.0324865
0.0488136 0 0.040177
0.0757305 0 0.0558785
0.120394 0 0.0820172
0.183291 0 0.115831
0.00196841 0.000183108 0.00793469
0.00891127 0.00030518 0.0200656
0.0244602 0.000564584 0.0391546
0.0509804 0.000289921 0.0639506
0.0894942 0.00189212 0.0946212
0.141833 0.00239567 0.131197
0.210361 0.00234989 0.173114
0.300389 1.5259e-05 0.221668
0.4159 0 0.275776
0.0209506 0.0197147 0.0271
0.0381018 0.0295415 0.0534676
0.0698711 0.0360113 0.101122
0.1243 0.0371405 0.164797
0.198077 0.0367742 0.228992
0.289479 0.0347448 0.289387
0.399084 0.0324865 0.346792
0.531456 0.0270695 0.405173
0.680522 0.0216068 0.45832
0.0725414 0.0736553 0.0798962
0.094316 0.0937514 0.106401
0.124727 0.113085 0.151949
0.182147 0.122728 0.244144
0.287724 0.119249 0.368277
0.418067 0.117006 0.453651
0.550591 0.121569 0.506386
0.686549 0.130999 0.542336
0.828199 0.143023 0.571283
0.153323 0.155612 0.158618
0.183047 0.185901 0.191745
0.216388 0.21883 0.229557
0.255695 0.253315 0.277012
0.318883 0.278401 0.375937
0.45919 0.279133 0.522454
0.600473 0.291402 0.580041
0.73051 0.313283 0.599771
0.864637 0.334203 0.616556
0.268284 0.269093 0.269429
0.308217 0.309331 0.310002
0.350057 0.351415 0.352392
0.393286 0.394965 0.397696
0.437705 0.4392 0.445014
0.499489 0.475212 0.523522
0.627848 0.488731 0.612924
0.764157 0.505104 0.63415
0.905394 0.519112 0.636774
0.410483 0.41059 0.41059
0.454978 0.455192 0.455192
0.499153 0.499626 0.49958
0.541833 0.543236 0.542931
0.57966 0.585718 0.583734
0.619287 0.625315 0.620813
0.6692 0.66128 0.630838
0.804013 0.673182 0.631937
0.980041 0.666819 0.612955
0.553689 0.558801 0.557717
0.590066 0.601083 0.598276
0.62121 0.641535 0.635645
0.63917 0.684291 0.667185
0.634577 0.737697 0.685542
0.631861 0.800244 0.668284
0.749554 0.83003 0.661204
0.949111 0.829221 0.651804
1 0.81268 0.626596
0.65069 0.697566 0.683497
0.668879 0.743664 0.717647
0.677913 0.799588 0.749554
0.657526 0.869474 0.758282
0.630076 0.943954 0.729793
0.705516 0.976471 0.696773
0.899886 0.97554 0.677562
1 0.944732 0.633844
1 0.945785 0.622293
0.000320439 0 0.00819409
0.000320439 0 0.00788891
0.00814832 0 0.022446
0.0197604 0 0.0339971
0.0320134 0 0.0418708
0.0492256 0 0.0531167
0.0816358 0 0.0770428
0.130312 0 0.111208
0.198917 0 0.155306
0.00125124 0.000518807 0.00695811
0.00721752 0.00062562 0.0188754
0.0221408 0.0021973 0.0420539
0.0504005 0.00148013 0.0767987
0.0928511 0.00355535 0.120912
0.150164 0.0016022 0.170825
0.224643 0.00132753 0.227359
0.320562 0.000259403 0.290257
0.441764 0 0.359457
0.0245212 0.0235599 0.0320439
0.0409705 0.035172 0.0572824
0.0683299 0.0447395 0.103075
0.11635 0.0479896 0.176196
0.191501 0.0451362 0.266941
0.292943 0.0385748 0.360555
0.415045 0.0305638 0.447135
0.551019 0.024155 0.520546
0.704265 0.0183261 0.586999
0.078996 0.0805219 0.0904555
0.101976 0.10161 0.118868
0.130678 0.123125 0.160861
0.176867 0.139666 0.241352
0.263203 0.142061 0.37554
0.396674 0.133867 0.523049
0.549905 0.128054 0.627039
0.695201 0.134707 0.679698
0.835462 0.148302 0.70808
0.162066 0.166247 0.17319
0.193606 0.197803 0.20943
0.228534 0.231739 0.249943
0.269215 0.267002 0.298848
0.322179 0.298726 0.377935
0.422934 0.312032 0.530083
0.58471 0.309255 0.677272
0.73521 0.321538 0.727367
0.870756 0.343389 0.73579
0.281926 0.284367 0.286046
0.322133 0.325078 0.327855
0.364309 0.367803 0.372076
0.408408 0.412009 0.418784
0.453666 0.455863 0.467903
0.50277 0.497627 0.525353
0.617548 0.50782 0.676951
0.770642 0.514748 0.731579
0.915129 0.527123 0.725307
0.426902 0.427466 0.427634
0.471809 0.472343 0.47248
0.515663 0.516243 0.516472
0.558511 0.559014 0.559197
0.599084 0.599741 0.600244
0.637156 0.638086 0.638743
0.686763 0.669215 0.691493
0.818006 0.682048 0.711101
0.985183 0.673167 0.687785
0.573556 0.573632 0.573617
0.613046 0.613397 0.613336
0.649638 0.650935 0.650675
0.684153 0.689082 0.68777
0.715679 0.731228 0.725994
0.721843 0.788663 0.750439
0.771908 0.839796 0.743801
0.962844 0.834897 0.727428
1 0.820523 0.705913
0.692638 0.703395 0.701015
0.726696 0.747509 0.742123
0.755688 0.797375 0.784176
0.769192 0.854124 0.819944
0.751949 0.92018 0.828092
0.748882 0.976684 0.790249
0.919188 0.973342 0.752956
1 0.947234 0.717021
1 0.947723 0.710338
0 0 0.00627146
0.000244144 0 0.00749218
0.00517281 0 0.0203555
0.0152743 0 0.0347295
0.0287022 0 0.0474556
0.049546 0 0.0659648
0.0878767 0 0.100679
0.141619 0 0.144839
0.215366 0 0.199939
0.00129702 0.000595102 0.00730907
0.00703441 0.00161746 0.0188602
0.0214847 0.00486763 0.0437324
0.0488136 0.00665293 0.0849317
0.0924086 0.00732433 0.140307
0.153674 0.00451667 0.20679
0.235279 0.000701915 0.281712
0.339849 0.000137331 0.364065
0.469093 0 0.451316
0.0285191 0.0277104 0.0377356
0.0453498 0.0408026 0.0630198
0.069749 0.0526894 0.106035
0.111055 0.0599069 0.177996
0.18146 0.0577401 0.28481
0.28394 0.0491798 0.408164
0.417227 0.0355993 0.530526
0.566049 0.0238041 0.634241
0.725048 0.0154116 0.714199
0.0856336 0.087541 0.101717
0.109987 0.109911 0.132204
0.138643 0.133013 0.173053
0.179751 0.15375 0.244923
0.249058 0.164446 0.367941
0.367117 0.159945 0.536202
0.525963 0.148501 0.694072
0.692348 0.145006 0.793011
0.84152 0.156329 0.829496
0.172168 0.177752 0.189868
0.204593 0.21004 0.22797
0.241291 0.244923 0.270558
0.282704 0.281697 0.318837
0.333394 0.316228 0.391608
0.412543 0.339101 0.519509
0.556634 0.339269 0.699916
0.730098 0.338308 0.810773
0.879332 0.354025 0.829633
0.295201 0.299702 0.304128
0.336294 0.34136 0.347021
0.379446 0.384619 0.393118
0.423865 0.42887 0.440391
0.470039 0.472679 0.490135
0.519326 0.513756 0.547707
0.605356 0.534234 0.67631
0.775784 0.526589 0.805508
0.925643 0.535698 0.800198
0.443427 0.444739 0.445289
0.488045 0.489296 0.489845
0.53167 0.532967 0.533684
0.573632 0.574975 0.575814
0.613504 0.614878 0.616159
0.650462 0.652079 0.655009
0.69015 0.687617 0.69929
0.831739 0.6925 0.784833
0.993103 0.679728 0.76321
0.589044 0.589181 0.589197
0.627939 0.628061 0.628077
0.664683 0.664759 0.664759
0.70251 0.702632 0.702632
0.743755 0.744274 0.744152
0.788006 0.789792 0.789425
0.820905 0.841306 0.818891
0.977829 0.839185 0.812421
1 0.826017 0.800916
0.715724 0.716274 0.716182
0.757198 0.760357 0.759701
0.800168 0.807034 0.805432
0.837369 0.854887 0.849668
0.860609 0.902846 0.886336
0.860441 0.952972 0.900038
0.949462 0.96817 0.853834
1 0.946456 0.828977
1 0.945327 0.836378
