luts/Retro Brown 01.cube
TITLE "Generated by Resolve"
LUT_3D_SIZE 9
0 0 0
0 0 0
0.00459297 0.000610361 0.000610361
0.0462654 0.00610361 0.00610361
0.0945144 0.0124819 0.0124819
0.144701 0.0211337 0.0197147
0.202121 0.0486763 0.0339971
0.264424 0.0878462 0.0613565
0.327413 0.127398 0.0984817
0.000366217 4.57771e-05 4.57771e-05
0.0386206 0.00746166 0.00581369
0.0967422 0.0423285 0.0218051
0.157214 0.081239 0.0427863
0.219043 0.12105 0.0763867
0.281178 0.160769 0.114107
0.342596 0.199435 0.150774
0.402853 0.236606 0.185916
0.461265 0.271656 0.218906
0.113558 0.113649 0.0537575
0.174502 0.153903 0.0912032
0.235508 0.193652 0.128771
0.295827 0.232288 0.165194
0.354574 0.269001 0.19968
0.411429 0.30341 0.231861
0.46566 0.33489 0.261097
0.516594 0.362783 0.286763
0.563149 0.385977 0.307729
0.249699 0.264546 0.178592
0.306905 0.300832 0.212482
0.361959 0.334508 0.243793
0.414313 0.365072 0.271962
0.463218 0.391836 0.296315
0.507454 0.413611 0.315694
0.548669 0.432029 0.331716
0.590005 0.450309 0.34757
0.631739 0.468727 0.363561
0.363424 0.394583 0.281743
0.410071 0.420096 0.304723
0.452018 0.440513 0.322591
0.492302 0.458915 0.338445
0.533089 0.477455 0.354452
0.574319 0.496147 0.370596
0.615961 0.514977 0.386877
0.658045 0.533974 0.403311
0.700542 0.553124 0.419898
0.436912 0.485725 0.344747
0.477012 0.504524 0.360876
0.517586 0.5234 0.377111
0.558709 0.542489 0.393545
0.600229 0.561715 0.410071
0.642222 0.581094 0.426764
0.684611 0.600595 0.44358
0.727382 0.620218 0.460548
0.770489 0.639994 0.477623
0.502297 0.569909 0.399756
0.543267 0.58941 0.416464
0.584665 0.609018 0.43328
0.626474 0.628656 0.450172
0.668742 0.648508 0.467231
0.711437 0.668528 0.484443
0.754452 0.688624 0.501747
0.797864 0.708858 0.519188
0.841611 0.729198 0.536721
0.569192 0.656687 0.456382
0.61088 0.676753 0.473548
0.65304 0.696986 0.490867
0.695613 0.717311 0.508309
0.738521 0.737743 0.525841
0.781781 0.758206 0.54345
0.825467 0.778881 0.561227
0.869429 0.799664 0.57911
0.913771 0.820569 0.597116
0.6374 0.745769 0.514427
0.679835 0.76643 0.532082
0.722637 0.787167 0.549859
0.76585 0.808057 0.567758
0.80943 0.829053 0.585748
0.8533 0.850126 0.603815
0.897505 0.871229 0.621958
0.941939 0.8925 0.640253
0.956634 0.909926 0.654673
0 0 0
0 0 0
0.0116426 0.00154116 0.00154116
0.0572518 0.00755322 0.00755322
0.105898 0.0139773 0.0139773
0.157778 0.0269474 0.023743
0.219394 0.0650034 0.0521706
0.282368 0.104814 0.0903639
0.345205 0.144213 0.128115
0.00523384 0.000686656 0.000686656
0.0533761 0.0194095 0.0108186
0.113237 0.0581521 0.0319219
0.174746 0.0980697 0.0678721
0.236805 0.138079 0.106035
0.298695 0.177523 0.143633
0.359548 0.215595 0.179828
0.419043 0.252003 0.214343
0.476478 0.286061 0.246464
0.131106 0.130755 0.0826581
0.192004 0.170901 0.120775
0.252705 0.210315 0.158145
0.312383 0.248295 0.194049
0.370321 0.284138 0.227832
0.426093 0.317464 0.259052
0.479026 0.347601 0.287098
0.528298 0.373785 0.311208
0.572869 0.394995 0.330297
0.265812 0.280324 0.207218
0.322133 0.315663 0.240314
0.376059 0.34818 0.270588
0.426993 0.377295 0.297429
0.474128 0.402243 0.320119
0.516518 0.422156 0.337743
0.557549 0.44036 0.353674
0.598993 0.458732 0.369726
0.640818 0.477211 0.385931
0.375418 0.406317 0.306722
0.420066 0.429786 0.327779
0.460716 0.448859 0.344442
0.501091 0.467323 0.360479
0.54197 0.485939 0.376654
0.583307 0.504707 0.392996
0.62504 0.523598 0.409461
0.667216 0.542672 0.426047
0.709804 0.561883 0.442802
0.445579 0.494194 0.366796
0.48574 0.512993 0.383078
0.526467 0.532006 0.399542
0.567697 0.551186 0.416159
0.609308 0.570474 0.432883
0.651392 0.589914 0.449744
0.693874 0.609491 0.466743
0.73669 0.629175 0.483848
0.779919 0.649027 0.501106
0.511177 0.578683 0.422446
0.552254 0.59823 0.439323
0.593744 0.617899 0.456306
0.635645 0.637613 0.473365
0.678004 0.657526 0.490578
0.720729 0.677577 0.507927
0.763867 0.697765 0.525399
0.807355 0.718044 0.542992
0.851194 0.738445 0.560708
0.578271 0.665675 0.479591
0.62005 0.685832 0.496956
0.662318 0.706111 0.514443
0.704921 0.726497 0.532021
0.74789 0.746899 0.549661
0.791287 0.767498 0.567468
0.83505 0.788251 0.585412
0.879088 0.809079 0.603433
0.923018 0.829969 0.621485
0.646662 0.755001 0.538186
0.689128 0.775708 0.555962
0.732052 0.796521 0.573892
0.775357 0.817472 0.591928
0.819013 0.838514 0.610071
0.862959 0.859632 0.628305
0.907225 0.880781 0.646586
0.950423 0.901946 0.664851
0.96051 0.918807 0.678798
0 0 0
0 0 0
0.0207218 0.00273136 0.00273136
0.0683757 0.00901808 0.00901808
0.117845 0.0167849 0.0165866
0.17467 0.0422065 0.0437629
0.237354 0.0820325 0.0821393
0.300267 0.121767 0.120394
0.36286 0.160891 0.158007
0.0131685 0.00205997 0.00183108
0.0696422 0.0350652 0.0211032
0.1308 0.0750439 0.0594186
0.192508 0.115129 0.0978103
0.254459 0.155001 0.135973
0.315877 0.193942 0.17322
0.376196 0.231495 0.209018
0.434852 0.267033 0.242786
0.491218 0.299977 0.273945
0.148653 0.14786 0.112642
0.209384 0.187778 0.150668
0.269703 0.22678 0.187762
0.328618 0.263935 0.22298
0.385626 0.298848 0.25594
0.440253 0.330983 0.286107
0.491768 0.359686 0.312825
0.539025 0.383856 0.335027
0.58201 0.403464 0.352605
0.281544 0.29572 0.235843
0.336889 0.330037 0.26804
0.389563 0.361273 0.297154
0.439033 0.388861 0.322621
0.484062 0.411688 0.343282
0.525322 0.430442 0.359884
0.566445 0.448722 0.375982
0.607996 0.467155 0.392233
0.649851 0.485634 0.40856
0.386679 0.417304 0.331319
0.429267 0.438682 0.350393
0.469413 0.457221 0.366629
0.50988 0.475746 0.382849
0.550866 0.494423 0.399191
0.592294 0.513268 0.415702
0.634119 0.53225 0.432334
0.676402 0.551385 0.449134
0.719066 0.570672 0.466056
0.454276 0.502693 0.389227
0.49453 0.521553 0.405676
0.535378 0.540642 0.422324
0.576699 0.559899 0.439109
0.618402 0.579263 0.456001
0.660578 0.598764 0.47303
0.703136 0.618387 0.490181
0.746044 0.638148 0.507454
0.789349 0.658045 0.524849
0.520088 0.587442 0.445441
0.561257 0.607065 0.46247
0.602762 0.626703 0.479561
0.644816 0.646555 0.496834
0.687282 0.66656 0.514229
0.730083 0.686671 0.531731
0.773297 0.706905 0.549355
0.816876 0.72726 0.567102
0.860746 0.747707 0.584939
0.587304 0.674678 0.50312
0.629236 0.694911 0.520653
0.67158 0.715267 0.538293
0.714275 0.735683 0.556008
0.757321 0.756161 0.5738
0.800793 0.776822 0.59173
0.844587 0.797604 0.609796
0.888747 0.818494 0.62797
0.930449 0.839139 0.645884
0.655924 0.764248 0.562203
0.698482 0.785 0.580148
0.741497 0.80589 0.59823
0.784878 0.826886 0.616403
0.828565 0.847959 0.634668
0.872572 0.869062 0.652995
0.91696 0.890364 0.671458
0.957488 0.911223 0.689494
0.964385 0.927703 0.703151
0 0 0
0.000381476 4.57771e-05 4.57771e-05
0.0315251 0.00416571 0.00416571
0.0796216 0.0105287 0.0109102
0.131655 0.0229038 0.0368048
0.192538 0.0591745 0.0739605
0.255268 0.0990311 0.11249
0.318029 0.138598 0.150683
0.380255 0.17734 0.188037
0.0270695 0.0130617 0.0133669
0.0871595 0.0519722 0.0510109
0.148425 0.0920577 0.0895857
0.210224 0.132158 0.128145
0.271977 0.171786 0.166201
0.332937 0.210239 0.203082
0.392508 0.247028 0.238239
0.450233 0.281621 0.271168
0.505409 0.313375 0.301244
0.166125 0.164889 0.142931
0.226612 0.204517 0.180804
0.28632 0.242878 0.217365
0.344457 0.279225 0.251911
0.400458 0.313085 0.283925
0.453819 0.343938 0.312917
0.503807 0.371084 0.338201
0.549004 0.393179 0.358419
0.590921 0.411688 0.375021
0.29691 0.310735 0.264454
0.351171 0.343908 0.295644
0.402502 0.37377 0.323507
0.450355 0.399725 0.347448
0.493324 0.420462 0.366125
0.534142 0.438758 0.382361
0.575357 0.457099 0.398642
0.616999 0.475608 0.415061
0.65893 0.494163 0.43154
0.397086 0.427451 0.355383
0.437995 0.447105 0.372824
0.478111 0.465583 0.389105
0.518685 0.484184 0.405509
0.559777 0.502953 0.422049
0.601312 0.521859 0.438743
0.643229 0.540917 0.455558
0.685588 0.560128 0.472511
0.728344 0.579461 0.489586
0.462913 0.511116 0.411917
0.503334 0.530129 0.428595
0.544305 0.54931 0.445411
0.585718 0.568627 0.462364
0.627512 0.588052 0.479423
0.669764 0.607599 0.496574
0.712398 0.627298 0.513893
0.755398 0.647135 0.531319
0.798795 0.667094 0.548882
0.529 0.596231 0.468727
0.57026 0.615915 0.485924
0.611872 0.635615 0.503182
0.654017 0.655543 0.520607
0.696574 0.675608 0.538155
0.739452 0.695766 0.55581
0.782742 0.71606 0.573587
0.826398 0.736461 0.59147
0.870344 0.756985 0.609461
0.596429 0.683726 0.52694
0.638437 0.704021 0.544625
0.680858 0.724407 0.562371
0.723568 0.744808 0.580179
0.766766 0.765408 0.598184
0.81033 0.78616 0.616281
0.854185 0.806989 0.634485
0.898421 0.827939 0.652796
0.93669 0.848173 0.670375
0.665202 0.77351 0.586496
0.707851 0.794324 0.604593
0.750942 0.815274 0.622812
0.7944 0.836316 0.641123
0.838163 0.85745 0.659525
0.882246 0.878599 0.677974
0.926711 0.899947 0.696559
0.962417 0.920226 0.714076
0.968261 0.936584 0.727703
0 0 0
0.00302129 0.000396735 0.000396735
0.042649 0.00581369 0.00898756
0.0923781 0.0138247 0.033402
0.148043 0.0363012 0.0658427
0.210407 0.0761425 0.104509
0.273121 0.115969 0.14313
0.335683 0.155306 0.181231
0.39736 0.193515 0.218143
0.0440681 0.0290074 0.0428473
0.104738 0.0689555 0.0814374
0.166125 0.109102 0.120195
0.227848 0.149111 0.15877
0.289326 0.188418 0.196628
0.34966 0.226246 0.23299
0.408438 0.262211 0.26743
0.465141 0.29575 0.299413
0.51902 0.326192 0.328267
0.183474 0.181811 0.173495
0.24361 0.221027 0.211063
0.302602 0.25864 0.246983
0.359884 0.294102 0.280735
0.414801 0.326848 0.311757
0.466804 0.356298 0.339467
0.514885 0.381506 0.362936
0.558343 0.401862 0.381491
0.599832 0.419944 0.397772
0.311818 0.325307 0.292988
0.364904 0.357259 0.323064
0.414801 0.385641 0.349538
0.460578 0.409506 0.371466
0.502159 0.428809 0.388846
0.542962 0.447059 0.405112
0.584268 0.465492 0.421576
0.626017 0.484077 0.438163
0.668055 0.502724 0.454841
0.406531 0.436637 0.37879
0.446601 0.455421 0.395483
0.486839 0.473976 0.411948
0.527504 0.492653 0.428504
0.568704 0.511467 0.445212
0.610346 0.53048 0.462089
0.652354 0.549599 0.479057
0.694804 0.568872 0.496162
0.737636 0.588281 0.513405
0.471641 0.519646 0.434958
0.512169 0.538735 0.451804
0.553216 0.557977 0.468772
0.594736 0.577356 0.485878
0.636622 0.596841 0.50309
0.678965 0.616464 0.520424
0.721706 0.63624 0.537896
0.764782 0.656138 0.555474
0.80824 0.676158 0.57319
0.537926 0.605035 0.492317
0.579232 0.624689 0.509606
0.620996 0.644541 0.527062
0.663233 0.664546 0.544656
0.705867 0.684672 0.562356
0.748837 0.70489 0.580148
0.792203 0.725231 0.598032
0.83592 0.745693 0.616053
0.879942 0.766278 0.63418
0.605539 0.692775 0.551003
0.647639 0.71313 0.568826
0.69015 0.733577 0.586755
0.732952 0.754025 0.6047
0.776226 0.774701 0.622843
0.819867 0.795499 0.641077
0.863798 0.816388 0.659403
0.90811 0.837385 0.677852
0.941192 0.856977 0.694865
0.674495 0.782788 0.611063
0.717235 0.803662 0.629282
0.760403 0.824674 0.647639
0.803937 0.845762 0.666087
0.847761 0.866941 0.684581
0.89192 0.888136 0.703166
0.936461 0.90956 0.721904
0.966308 0.929076 0.738766
0.972168 0.945495 0.752499
0 0 3.0518e-05
0.0087892 0.00149538 0.00747692
0.0549783 0.00856031 0.0315557
0.106233 0.0197299 0.0601511
0.16582 0.0532235 0.0966201
0.22826 0.0931258 0.13547
0.290883 0.13283 0.174075
0.353079 0.171817 0.211933
0.414176 0.209415 0.248325
0.0614481 0.0458381 0.0733654
0.122347 0.0859693 0.112245
0.18378 0.126131 0.151125
0.24535 0.165927 0.189624
0.30631 0.204685 0.22707
0.365988 0.241871 0.262821
0.423957 0.276982 0.296498
0.479515 0.309361 0.327443
0.532052 0.33843 0.355032
0.200671 0.198581 0.204227
0.260319 0.237263 0.241367
0.318563 0.274083 0.276616
0.374838 0.308522 0.309453
0.428595 0.340047 0.339376
0.479133 0.368032 0.365698
0.525154 0.39115 0.387167
0.567254 0.410132 0.404456
0.608774 0.428214 0.420829
0.326253 0.339406 0.321355
0.377997 0.370016 0.350179
0.426398 0.396811 0.375158
0.470069 0.418555 0.395056
0.510887 0.437064 0.411734
0.551797 0.455406 0.428199
0.59321 0.473899 0.444831
0.634974 0.492485 0.46154
0.67718 0.511299 0.478431
0.415381 0.445228 0.401923
0.455238 0.463752 0.418448
0.495567 0.482383 0.43508
0.536355 0.501122 0.451804
0.577646 0.520043 0.468696
0.619379 0.539101 0.48571
0.661463 0.558282 0.502815
0.704005 0.57763 0.520073
0.746929 0.597101 0.537453
0.480354 0.528176 0.458274
0.521004 0.547341 0.475288
0.562173 0.566674 0.492439
0.603769 0.586114 0.509697
0.645762 0.605676 0.527062
0.688182 0.62536 0.544549
0.731014 0.645212 0.562173
0.774166 0.665156 0.579889
0.817716 0.685237 0.597742
0.546868 0.613855 0.516167
0.588266 0.63357 0.533623
0.630121 0.653483 0.551217
0.67245 0.673548 0.568933
0.71516 0.693736 0.58677
0.758206 0.714 0.6047
0.801663 0.734401 0.622751
0.845472 0.754955 0.640925
0.88957 0.775586 0.65919
0.614664 0.701839 0.575357
0.65687 0.722255 0.593317
0.699458 0.742763 0.611383
0.742336 0.763272 0.629465
0.785702 0.784009 0.64773
0.829419 0.804852 0.666117
0.873426 0.825788 0.684565
0.9178 0.846845 0.703136
0.945068 0.865705 0.719478
0.683803 0.792081 0.635859
0.726619 0.813016 0.6542
0.769879 0.834073 0.672679
0.813489 0.855222 0.691249
0.857328 0.876356 0.70985
0.901625 0.897704 0.728618
0.946242 0.919173 0.747478
0.970199 0.937957 0.763668
0.976089 0.954421 0.777523
0.000549325 0.000549325 0.00900282
0.0189517 0.00399786 0.0303655
0.0675975 0.0115206 0.0574044
0.121813 0.030518 0.0890059
0.183612 0.070161 0.127764
0.246082 0.110063 0.166705
0.308522 0.149584 0.205219
0.370245 0.188083 0.242679
0.430671 0.224994 0.278477
0.0789044 0.0627604 0.104326
0.139971 0.102998 0.14342
0.201358 0.143069 0.1823
0.262699 0.182605 0.22063
0.323095 0.220783 0.257572
0.38204 0.257206 0.292699
0.439033 0.29131 0.325475
0.49337 0.322454 0.355261
0.54435 0.349996 0.38143
0.217639 0.215152 0.235096
0.276692 0.253178 0.271672
0.334142 0.289143 0.306172
0.389349 0.322499 0.338018
0.44181 0.352697 0.366705
0.490593 0.378866 0.391348
0.534646 0.400061 0.410925
0.576104 0.418341 0.427604
0.617716 0.4365 0.444144
0.340169 0.352987 0.349477
0.390524 0.382162 0.376959
0.437034 0.40705 0.400153
0.479011 0.427054 0.418402
0.519585 0.445335 0.434928
0.560662 0.463767 0.451575
0.602152 0.482338 0.46836
0.644022 0.500999 0.485237
0.68632 0.519875 0.502297
0.423941 0.453544 0.42504
0.463874 0.472099 0.441703
0.50428 0.490791 0.458473
0.54519 0.509606 0.475349
0.586587 0.528603 0.492409
0.628428 0.547753 0.509575
0.670619 0.56701 0.526864
0.713237 0.586404 0.544274
0.756176 0.605859 0.561746
0.489113 0.536736 0.48191
0.52987 0.555993 0.499077
0.57113 0.575387 0.516381
0.612833 0.594888 0.533791
0.654902 0.614496 0.551293
0.697429 0.634272 0.568933
0.740337 0.654169 0.586694
0.783566 0.674189 0.604547
0.827176 0.694316 0.622507
0.555825 0.62269 0.540307
0.597314 0.642466 0.55787
0.639261 0.662455 0.575616
0.681682 0.682582 0.593484
0.724483 0.702815 0.61146
0.767605 0.723156 0.629526
0.811139 0.743603 0.647715
0.855024 0.764218 0.666026
0.899199 0.784909 0.684413
0.623819 0.710933 0.599954
0.666102 0.731395 0.618051
0.708721 0.751858 0.636179
0.751736 0.772519 0.654459
0.795178 0.793317 0.672862
0.838972 0.814221 0.691341
0.88304 0.835203 0.709926
0.927489 0.856321 0.728618
0.948928 0.874464 0.744335
0.693111 0.801389 0.660868
0.736034 0.822385 0.679362
0.779355 0.843488 0.697978
0.823041 0.864683 0.71667
0.866957 0.885863 0.735393
0.91133 0.907286 0.754284
0.955978 0.928801 0.773266
0.974105 0.946853 0.788785
0.980011 0.963363 0.802762
0.00195315 0.00195315 0.0319829
0.0308385 0.00686656 0.0561685
0.0811475 0.0168002 0.0845045
0.13933 0.0472267 0.120165
0.201404 0.0871138 0.159243
0.263828 0.12694 0.198199
0.326009 0.166171 0.236545
0.387121 0.204074 0.273442
0.446784 0.240208 0.308553
0.0963912 0.0797284 0.135637
0.157549 0.119997 0.174868
0.218845 0.15993 0.213733
0.279744 0.198962 0.251682
0.33959 0.236591 0.288121
0.397696 0.27216 0.322484
0.453605 0.30515 0.354253
0.50663 0.334951 0.382788
0.555718 0.360586 0.407111
0.234424 0.231495 0.266056
0.292744 0.268757 0.301961
0.349294 0.303777 0.335607
0.403342 0.335943 0.366339
0.454383 0.364691 0.393668
0.501152 0.388846 0.416358
0.543679 0.408469 0.434501
0.58497 0.426566 0.451057
0.626673 0.444816 0.467765
0.353536 0.366018 0.377356
0.402411 0.393668 0.403403
0.446815 0.416419 0.424521
0.487709 0.435294 0.441764
0.528359 0.453635 0.458427
0.569528 0.472145 0.475242
0.611124 0.490791 0.49218
0.653101 0.509529 0.509224
0.695476 0.528481 0.52639
0.432486 0.46183 0.448417
0.472541 0.480476 0.465217
0.513039 0.499214 0.482155
0.55407 0.518135 0.499214
0.595575 0.537209 0.516411
0.637491 0.55642 0.533745
0.679759 0.575738 0.551156
0.722469 0.595209 0.568719
0.765499 0.614725 0.586343
0.497902 0.545342 0.505806
0.53875 0.56466 0.523125
0.580102 0.5841 0.540566
0.621897 0.603677 0.558129
0.664057 0.623362 0.575769
0.706661 0.643198 0.59353
0.74966 0.663157 0.611429
0.792966 0.683223 0.629419
0.836667 0.703426 0.647532
0.564721 0.631449 0.564599
0.606378 0.651377 0.582391
0.648432 0.671427 0.600275
0.690929 0.691615 0.61828
0.733822 0.71191 0.636393
0.77702 0.732296 0.654597
0.82063 0.752834 0.672908
0.864591 0.773495 0.691356
0.908843 0.794247 0.709865
0.632975 0.720027 0.624781
0.675349 0.740536 0.643015
0.718044 0.761059 0.66125
0.761151 0.781796 0.679667
0.804669 0.80264 0.698207
0.848539 0.823606 0.716823
0.892683 0.844648 0.735531
0.937194 0.865797 0.754345
0.952789 0.883223 0.769406
0.702449 0.810712 0.686137
0.745449 0.831754 0.704753
0.788846 0.852918 0.723491
0.832547 0.874067 0.74226
0.8766 0.895399 0.761151
0.921035 0.916884 0.780163
0.964858 0.938308 0.799115
0.978027 0.955749 0.814084
0.983948 0.972305 0.828168
0.00370794 0.00349432 0.0564736
0.0433051 0.00982681 0.0824903
0.0956588 0.0247654 0.112902
0.157031 0.0641337 0.151812
0.21915 0.104036 0.190967
0.281437 0.143694 0.229862
0.343236 0.182528 0.267872
0.403708 0.219791 0.304234
0.462516 0.255039 0.338552
0.113924 0.0967269 0.167315
0.175082 0.136965 0.206607
0.236194 0.176654 0.245319
0.296605 0.215167 0.282826
0.355734 0.252064 0.318624
0.412924 0.286671 0.352117
0.467674 0.318486 0.382773
0.519249 0.346838 0.409949
0.566293 0.370413 0.432273
0.250874 0.247532 0.296986
0.308415 0.28397 0.332143
0.363958 0.317952 0.364828
0.41677 0.348837 0.3944
0.4663 0.376043 0.420249
0.510979 0.398077 0.440909
0.552468 0.416663 0.458076
0.593851 0.434821 0.4748
0.63566 0.453147 0.491661
0.366308 0.37847 0.404913
0.413443 0.404334 0.429282
0.45594 0.425147 0.448554
0.496391 0.443549 0.46537
0.537148 0.461952 0.4822
0.578408 0.480522 0.499138
0.620035 0.499184 0.516182
0.66212 0.518059 0.53341
0.704631 0.537102 0.550759
0.441047 0.470146 0.472038
0.481209 0.488853 0.489021
0.521828 0.507683 0.506111
0.562966 0.52668 0.523339
0.604562 0.54583 0.540688
0.646525 0.565087 0.558129
0.68893 0.584482 0.575708
0.731731 0.604013 0.593408
0.774838 0.623621 0.61117
0.506691 0.553948 0.529961
0.547631 0.573327 0.547433
0.58909 0.592844 0.564981
0.630915 0.612467 0.582666
0.673228 0.632227 0.600473
0.715923 0.65214 0.618387
0.758999 0.67216 0.636423
0.80238 0.692287 0.654551
0.846159 0.712551 0.672801
0.573709 0.640314 0.589227
0.615427 0.660304 0.607126
0.657603 0.68043 0.625177
0.700191 0.700679 0.64332
0.74316 0.721035 0.661555
0.78645 0.741482 0.679881
0.830121 0.762066 0.698299
0.874174 0.782773 0.716869
0.91812 0.80354 0.735454
0.642145 0.729137 0.649821
0.684596 0.749706 0.668177
0.727382 0.770291 0.68658
0.770581 0.791074 0.705119
0.814176 0.811978 0.723781
0.858106 0.83299 0.742519
0.902342 0.854093 0.761349
0.946044 0.875196 0.780179
0.956664 0.892012 0.79469
0.711803 0.82005 0.71162
0.754864 0.841154 0.730373
0.798352 0.862364 0.749218
0.842115 0.883558 0.768078
0.886244 0.904952 0.787091
0.93077 0.926467 0.806226
0.972839 0.947723 0.825086
0.981964 0.96466 0.839628
0.9879 0.981262 0.853803
