luts/Retro Yellow 01.cube
TITLE "Generated by Resolve"
LUT_3D_SIZE 9
0 0 0.00221256
0.0218051 0.0184176 0.0278019
0.0493477 0.0347601 0.0518349
0.0923323 0.0470588 0.0725719
0.155947 0.0549325 0.0899825
0.24448 0.0587472 0.105104
0.358831 0.0599069 0.120119
0.492805 0.059678 0.136004
0.644099 0.0563058 0.149462
0.0480507 0.0698558 0.0768444
0.074052 0.0894636 0.098909
0.113771 0.108797 0.121202
0.189899 0.12285 0.138842
0.304814 0.129671 0.149676
0.450736 0.128893 0.152941
0.611017 0.125612 0.153628
0.766232 0.124559 0.156237
0.922759 0.123888 0.158816
0.0654307 0.175235 0.137285
0.101595 0.204944 0.15816
0.158816 0.229633 0.174121
0.27071 0.240833 0.176913
0.424964 0.241367 0.169757
0.602884 0.23566 0.157412
0.777447 0.231632 0.147738
0.92813 0.234211 0.14583
1 0.239094 0.147326
0.0342718 0.329335 0.160815
0.0828412 0.359487 0.172503
0.157748 0.382757 0.179919
0.298405 0.388693 0.172717
0.477714 0.384161 0.15787
0.669642 0.375586 0.141711
0.844312 0.37171 0.132662
0.984222 0.376669 0.134661
1 0.384298 0.141268
0 0.502541 0.14725
0.0483864 0.528557 0.158343
0.140688 0.547555 0.166491
0.299733 0.547936 0.159869
0.490135 0.538933 0.14728
0.684352 0.528099 0.135714
0.854139 0.523201 0.13109
0.986969 0.527276 0.135821
1 0.533471 0.14313
0 0.670756 0.133837
0.0340429 0.690837 0.15053
0.137346 0.704387 0.163912
0.3019 0.700557 0.160647
0.492058 0.688472 0.149676
0.68336 0.675319 0.138338
0.848814 0.667903 0.133501
0.976257 0.669169 0.138186
1 0.672663 0.145922
0 0.821378 0.138231
0.0402686 0.83772 0.156298
0.142901 0.848035 0.169253
0.305333 0.84094 0.16582
0.491722 0.825635 0.15523
0.677256 0.809079 0.144381
0.835691 0.798001 0.139742
0.956085 0.795392 0.143862
1 0.795361 0.150698
0 0.957839 0.145922
0.0502937 0.969833 0.164111
0.151247 0.975418 0.176959
0.308583 0.963638 0.173053
0.48809 0.944671 0.162325
0.665766 0.925078 0.150896
0.817441 0.91165 0.145327
0.933013 0.907042 0.148043
1 0.905394 0.153307
0 1 0.154742
0.0614481 1 0.171527
0.157946 1 0.182788
0.308721 1 0.177813
0.481178 1 0.166201
0.652522 1 0.153933
0.799466 1 0.147402
0.912169 1 0.149325
1 1 0.15407
0.0059968 0.0059968 0.0128023
0.0286412 0.0243076 0.0423743
0.0568093 0.0398718 0.0697642
0.102037 0.0513466 0.0943923
0.169863 0.0584268 0.116716
0.264912 0.0613413 0.137926
0.386404 0.0612802 0.159991
0.525093 0.0597238 0.183322
0.678279 0.0552377 0.204074
0.0518196 0.0760815 0.100114
0.0787518 0.0956436 0.127657
0.121004 0.115572 0.157504
0.20177 0.129076 0.18265
0.321553 0.134203 0.200336
0.471916 0.131777 0.2103
0.634928 0.127306 0.217792
0.790768 0.125689 0.227131
0.945769 0.124681 0.235615
0.0662699 0.184649 0.183047
0.103487 0.213352 0.211383
0.16286 0.2374 0.235096
0.278325 0.247196 0.244556
0.436042 0.246311 0.243397
0.616312 0.239551 0.236393
0.791547 0.234974 0.231601
0.941405 0.237446 0.233921
1 0.242252 0.23859
0.0319982 0.338552 0.230167
0.082475 0.367453 0.248203
0.159594 0.389914 0.261387
0.302846 0.394736 0.258671
0.483696 0.388998 0.247166
0.676799 0.380179 0.23415
0.851118 0.376043 0.227298
0.989929 0.381003 0.230838
1 0.388708 0.238254
0 0.510048 0.234287
0.0495766 0.535119 0.249088
0.14345 0.553307 0.260014
0.303792 0.553002 0.255283
0.494514 0.543374 0.243732
0.688655 0.532418 0.232654
0.858106 0.527321 0.227863
0.990448 0.531136 0.232288
1 0.53724 0.239384
0 0.675898 0.229603
0.0383154 0.695399 0.247425
0.141741 0.708629 0.260853
0.306065 0.704479 0.257313
0.495918 0.692134 0.246067
0.686778 0.678752 0.234394
0.851682 0.671138 0.22916
0.978408 0.672114 0.233204
1 0.675334 0.240146
0 0.825116 0.234821
0.0446479 0.841169 0.252628
0.147112 0.851087 0.26511
0.309041 0.843488 0.26096
0.495033 0.828031 0.249912
0.679805 0.8112 0.238285
0.837354 0.799802 0.232563
0.957137 0.797009 0.235645
1 0.796796 0.241291
0 0.960204 0.241154
0.0547646 0.971664 0.258427
0.155322 0.976776 0.270268
0.312032 0.964767 0.2654
0.490791 0.945708 0.253681
0.667689 0.926085 0.241199
0.818555 0.912444 0.234348
0.933883 0.907988 0.236301
1 0.906386 0.240681
0 1 0.246708
0.0655528 1 0.262379
0.161563 1 0.272572
0.311696 1 0.266636
0.483482 1 0.254108
0.654261 1 0.241001
0.800626 1 0.233539
0.913298 1 0.235004
1 1 0.239155
0.0123293 0.0123293 0.0264439
0.0350958 0.0298314 0.059266
0.06421 0.0448157 0.0905928
0.11194 0.0555123 0.119631
0.184039 0.0617075 0.147311
0.286229 0.0637064 0.175723
0.414969 0.0623484 0.205585
0.557366 0.0594034 0.236362
0.712169 0.0539406 0.264332
0.0554971 0.0823835 0.127108
0.08365 0.10219 0.161181
0.128161 0.12224 0.198917
0.213352 0.134936 0.231983
0.337743 0.138323 0.256519
0.492607 0.134417 0.273259
0.658106 0.128832 0.287266
0.814191 0.126741 0.3028
0.9682 0.125658 0.316793
0.0666972 0.193805 0.23444
0.105241 0.221683 0.270436
0.166598 0.244785 0.301488
0.285588 0.253223 0.317281
0.446235 0.250797 0.321309
0.629038 0.243336 0.319371
0.804761 0.23827 0.318807
0.953429 0.240558 0.324544
1 0.245655 0.332158
0.0297093 0.347082 0.304204
0.0822614 0.375235 0.328389
0.161486 0.39675 0.346578
0.307164 0.400519 0.347707
0.489754 0.393973 0.339178
0.683497 0.38468 0.328466
0.857435 0.380392 0.323308
0.994812 0.385031 0.327581
1 0.393027 0.335546
0 0.516777 0.323934
0.0510414 0.541344 0.342061
0.14641 0.558785 0.3552
0.307881 0.55787 0.351827
0.49897 0.54786 0.341024
0.692897 0.53669 0.329931
0.861936 0.53135 0.324865
0.993637 0.534768 0.328786
1 0.540841 0.335653
0 0.680659 0.326253
0.0426947 0.699748 0.344762
0.146059 0.712764 0.358022
0.309957 0.708095 0.353964
0.499748 0.695735 0.342641
0.690074 0.682063 0.330495
0.854353 0.674189 0.324697
0.980377 0.674922 0.328038
1 0.677882 0.334127
0 0.828748 0.331609
0.049012 0.84448 0.349035
0.151385 0.854063 0.361044
0.31284 0.846006 0.356176
0.498192 0.830228 0.344335
0.682124 0.813092 0.331762
0.838865 0.80145 0.325002
0.958114 0.798566 0.327108
1 0.79823 0.33164
0 0.962417 0.336278
0.0593423 0.973373 0.352605
0.159289 0.977981 0.363226
0.315358 0.965774 0.357336
0.493339 0.946639 0.344625
0.669535 0.927031 0.331151
0.819791 0.913375 0.323293
0.934752 0.908949 0.324331
1 0.907362 0.32784
0 1 0.338399
0.0695201 1 0.352865
0.164828 1 0.361807
0.314549 1 0.355138
0.485725 1 0.341772
0.655894 1 0.32781
0.801984 1 0.319738
0.914443 1 0.320562
1 1 0.324178
0.0184634 0.0184634 0.0425269
0.0412146 0.0349889 0.0784924
0.0715038 0.0495613 0.114427
0.122194 0.0596323 0.148669
0.199298 0.0649882 0.182712
0.308156 0.0657816 0.218601
0.443503 0.0629892 0.256596
0.589288 0.0587472 0.294911
0.74548 0.0524147 0.3299
0.0589609 0.0885939 0.157839
0.0886854 0.109026 0.199939
0.135439 0.129015 0.246113
0.224674 0.140459 0.286824
0.353246 0.142061 0.317861
0.512596 0.136782 0.34139
0.6804 0.130236 0.361547
0.836393 0.127749 0.38265
0.989425 0.126711 0.401587
0.0667735 0.202579 0.291279
0.106737 0.229725 0.334936
0.170092 0.251835 0.37293
0.29247 0.258946 0.394522
0.456275 0.255314 0.403418
0.641093 0.247028 0.405722
0.817136 0.241581 0.408728
0.964736 0.243793 0.417304
1 0.249165 0.427161
0.0275425 0.355367 0.382712
0.0821546 0.382666 0.412314
0.163424 0.403265 0.434836
0.311284 0.405951 0.439002
0.495567 0.39884 0.43299
0.689799 0.38912 0.424033
0.863264 0.38471 0.42005
0.999557 0.389441 0.424918
1 0.39733 0.432792
0 0.523552 0.416052
0.052842 0.547311 0.436667
0.149584 0.56405 0.451408
0.311727 0.562249 0.448569
0.503349 0.552224 0.438361
0.697032 0.540887 0.4271
0.865522 0.535164 0.421561
0.996887 0.538537 0.425269
1 0.544381 0.431586
0 0.685405 0.423468
0.0470436 0.704021 0.442039
0.150317 0.716747 0.455024
0.314031 0.711833 0.450675
0.503517 0.699245 0.438956
0.693339 0.685344 0.426322
0.856687 0.676951 0.419593
0.982162 0.677562 0.422263
1 0.680232 0.427329
0 0.832242 0.428168
0.053315 0.847608 0.445106
0.155627 0.85687 0.45655
0.316747 0.848524 0.451026
0.501381 0.832395 0.438285
0.684367 0.814893 0.424598
0.840223 0.80293 0.416632
0.959014 0.800031 0.417807
1 0.799619 0.421317
0 0.96437 0.430762
0.0638285 0.974914 0.446128
0.163134 0.979004 0.455451
0.318669 0.966751 0.448661
0.495811 0.94754 0.434836
0.67126 0.927886 0.420386
0.821012 0.91429 0.411643
0.935637 0.909911 0.41181
1 0.908354 0.414511
0 1 0.429419
0.0735027 1 0.442756
0.1682 1 0.450568
0.317342 1 0.44303
0.487938 1 0.428885
0.657557 1 0.41416
0.803342 1 0.405493
0.915618 1 0.405722
1 1 0.408759
0.0242466 0.0242466 0.0610819
0.047303 0.0400854 0.100771
0.0786603 0.0540932 0.141344
0.132555 0.0635691 0.181567
0.21529 0.0681315 0.223102
0.331243 0.0676432 0.267369
0.471962 0.0632334 0.313146
0.619471 0.0577859 0.358236
0.778088 0.0507668 0.400702
0.0621042 0.0945449 0.192172
0.0935378 0.11577 0.243732
0.142657 0.135683 0.299168
0.235767 0.145708 0.347326
0.368811 0.145663 0.384909
0.531899 0.138949 0.414496
0.701671 0.131548 0.440269
0.857053 0.128679 0.466117
1 0.127886 0.489616
0.0664683 0.210864 0.353307
0.107988 0.237461 0.40473
0.173404 0.258595 0.449226
0.299016 0.264378 0.475944
0.465827 0.259678 0.489174
0.65243 0.250645 0.495048
0.828733 0.244907 0.500984
0.975219 0.24712 0.511788
1 0.25275 0.523308
0.0255589 0.363363 0.465324
0.0822156 0.389776 0.499641
0.165469 0.409522 0.525795
0.315328 0.41117 0.532341
0.501152 0.403601 0.528328
0.695766 0.393545 0.520562
0.868528 0.388922 0.517128
1 0.393805 0.522255
1 0.401572 0.529931
0 0.530007 0.510048
0.054963 0.553017 0.532555
0.153002 0.569116 0.548363
0.315984 0.566827 0.545937
0.507637 0.556512 0.535622
0.70103 0.544961 0.524086
0.869062 0.538979 0.518151
1 0.54226 0.521492
1 0.547921 0.527245
0 0.689921 0.520851
0.0514382 0.708247 0.539254
0.154376 0.720485 0.55172
0.318029 0.71545 0.547097
0.507164 0.702602 0.534905
0.696483 0.688502 0.521721
0.85919 0.679927 0.51429
0.983856 0.680201 0.515999
1 0.682475 0.519844
0 0.835676 0.524514
0.0576638 0.850645 0.540841
0.159518 0.859251 0.551293
0.3205 0.850828 0.545205
0.504479 0.834409 0.531548
0.686412 0.816495 0.516625
0.841657 0.804501 0.507759
0.959854 0.801434 0.50779
1 0.800946 0.510277
0 0.966186 0.524636
0.0681773 0.976242 0.538872
0.167071 0.980072 0.547112
0.32195 0.967697 0.5393
0.498299 0.94844 0.524468
0.672816 0.928603 0.508812
0.822217 0.915206 0.499382
0.936507 0.910857 0.498726
1 0.909361 0.500694
0 1 0.519646
0.0773632 1 0.531945
0.171618 1 0.538796
0.320134 1 0.530388
0.49012 1 0.515465
0.65919 1 0.499992
0.804746 1 0.490806
0.916854 1 0.490486
1 1 0.492866
0.0295872 0.0295872 0.0817273
0.0532692 0.0450141 0.126085
0.0858625 0.0585489 0.171923
0.142931 0.0672618 0.218402
0.232013 0.0711223 0.269001
0.355032 0.0691997 0.322118
0.500404 0.0631418 0.375372
0.650217 0.0566262 0.42742
0.809705 0.0489967 0.476402
0.0654002 0.101045 0.232242
0.0982071 0.122408 0.292927
0.149538 0.142016 0.357733
0.246159 0.150408 0.412695
0.383948 0.149004 0.457221
0.550607 0.140963 0.492439
0.722026 0.132784 0.523201
0.877104 0.129763 0.553414
1 0.129168 0.580514
0.0660105 0.218997 0.420935
0.109026 0.2448 0.479484
0.176532 0.265049 0.530053
0.305104 0.269413 0.560983
0.474937 0.26392 0.578225
0.663111 0.254215 0.586984
0.839063 0.24799 0.594873
0.985 0.250568 0.607767
1 0.256458 0.620325
0.023743 0.370993 0.551675
0.0824445 0.396582 0.590005
0.167605 0.415534 0.61912
0.319463 0.416388 0.627588
0.506554 0.40827 0.624857
0.701411 0.39794 0.617807
0.873335 0.393088 0.614374
1 0.398123 0.619516
1 0.405722 0.626886
0 0.536171 0.605631
0.0573892 0.558465 0.629419
0.156558 0.573938 0.645731
0.320348 0.571313 0.643381
0.511925 0.560784 0.632822
0.704967 0.548974 0.62092
0.872511 0.542748 0.614511
1 0.545861 0.61735
1 0.551369 0.622461
0 0.69427 0.618173
0.055787 0.712352 0.636316
0.158541 0.724239 0.648325
0.322072 0.71902 0.643336
0.51075 0.705867 0.630518
0.699367 0.691386 0.61648
0.861479 0.682689 0.608347
0.985397 0.682734 0.609049
1 0.684688 0.611734
0 0.838972 0.620569
0.0620432 0.853544 0.63621
0.16379 0.86183 0.645899
0.324163 0.852964 0.638773
0.507362 0.83621 0.624048
0.688472 0.818082 0.608057
0.843061 0.806027 0.598215
0.960723 0.802853 0.597192
1 0.802121 0.598489
0 0.96791 0.61799
0.0722972 0.977325 0.630777
0.170901 0.981003 0.638041
0.325109 0.968536 0.629191
0.500725 0.94931 0.613413
0.674556 0.929503 0.596872
0.823438 0.916136 0.586587
0.937392 0.911818 0.585138
1 0.910185 0.58616
0.00251774 1 0.609232
0.0808576 1 0.620264
0.174914 1 0.626413
0.322866 1 0.617197
0.492103 1 0.601373
0.660914 1 0.585458
0.806165 1 0.575723
0.918135 1 0.574899
1 1 0.576837
0.0347448 0.0347448 0.10518
0.0590829 0.0497444 0.154528
0.0932479 0.0629587 0.206699
0.154101 0.0710613 0.260761
0.249058 0.0738384 0.320317
0.378698 0.0703593 0.382406
0.528267 0.0626993 0.442908
0.680415 0.0552682 0.501884
0.84036 0.0471962 0.556878
0.0686656 0.10779 0.278141
0.102846 0.129168 0.348455
0.156115 0.148043 0.421927
0.256428 0.154955 0.483696
0.39852 0.152071 0.534463
0.568566 0.14284 0.574868
0.740932 0.133898 0.609598
0.89604 0.130922 0.6439
1 0.130587 0.67393
0.0652781 0.226856 0.493996
0.109911 0.251804 0.559075
0.17937 0.271031 0.61474
0.311147 0.274464 0.649943
0.483619 0.268055 0.670222
0.673182 0.257771 0.681239
0.849149 0.251377 0.690806
0.994003 0.254108 0.704845
1 0.260304 0.717968
0.0221561 0.378286 0.641382
0.0828717 0.403067 0.683024
0.16965 0.420981 0.714031
0.323583 0.421469 0.724285
0.511742 0.412863 0.722271
0.706722 0.402319 0.715465
0.878004 0.397498 0.711864
1 0.402426 0.716686
1 0.409827 0.723674
0 0.542077 0.70248
0.0601358 0.563729 0.727016
0.160174 0.578439 0.743191
0.324727 0.575677 0.740703
0.516106 0.564965 0.72987
0.708553 0.552682 0.717296
0.875898 0.546517 0.710658
1 0.549386 0.712825
1 0.554696 0.717159
0 0.698528 0.715404
0.0600748 0.716335 0.733181
0.162737 0.727947 0.744762
0.326055 0.722484 0.739239
0.514351 0.709102 0.72578
0.70219 0.69424 0.710811
0.863584 0.685313 0.701747
0.986725 0.685039 0.70132
1 0.686748 0.702861
0 0.8421 0.716213
0.066392 0.856291 0.731075
0.168078 0.864302 0.739971
0.327901 0.855055 0.731792
0.510185 0.837919 0.715862
0.69044 0.819608 0.698787
0.844358 0.807462 0.687922
0.961547 0.804227 0.685908
1 0.803372 0.686198
0 0.969451 0.710613
0.076585 0.978469 0.722179
0.174746 0.981933 0.728328
0.328161 0.96936 0.718395
0.502907 0.949996 0.701549
0.676249 0.930373 0.684321
0.824659 0.917067 0.673243
0.938247 0.912749 0.671
1 0.911238 0.671412
0.00663767 1 0.698131
0.0845808 1 0.708202
0.178149 1 0.713436
0.325551 1 0.703471
0.494255 1 0.686976
0.662654 1 0.670497
0.807614 1 0.660227
0.919295 1 0.658747
1 1 0.660471
0.0397345 0.0397345 0.131716
0.0647135 0.0542611 0.186252
0.100587 0.0672007 0.245563
0.165927 0.0748455 0.309056
0.266911 0.0763714 0.378088
0.402274 0.0711376 0.448341
0.554925 0.0619669 0.515114
0.709667 0.0537423 0.581231
0.869886 0.0453803 0.641779
0.0716259 0.114366 0.329244
0.107286 0.135805 0.410163
0.162356 0.153735 0.491737
0.266453 0.159258 0.560189
0.412558 0.15491 0.616434
0.585702 0.144579 0.661387
0.759213 0.135073 0.699748
0.913893 0.132189 0.73727
1 0.132158 0.769528
0.0643473 0.234394 0.572198
0.110674 0.258534 0.64329
0.182147 0.276829 0.703456
0.31693 0.279301 0.742107
0.491844 0.272068 0.764752
0.682521 0.261234 0.777295
0.858534 0.254826 0.788098
1 0.25774 0.802762
1 0.26424 0.815961
0.0208286 0.38526 0.734127
0.0834974 0.409293 0.778378
0.172045 0.426535 0.811048
0.327703 0.426413 0.822141
0.516777 0.417395 0.82034
0.711467 0.406409 0.813016
0.882368 0.401862 0.809201
1 0.406668 0.813718
1 0.413764 0.820127
0 0.547723 0.800305
0.0630655 0.568612 0.824903
0.164263 0.583047 0.84094
0.329046 0.579965 0.837919
0.520195 0.569024 0.826703
0.712291 0.556542 0.813703
0.879179 0.550225 0.8065
1 0.552911 0.80795
1 0.557733 0.811139
0 0.702754 0.812543
0.0640879 0.719966 0.829602
0.166888 0.731548 0.840894
0.329961 0.725811 0.83473
0.517845 0.712215 0.820554
0.705089 0.697154 0.804746
0.865644 0.687938 0.794598
0.98793 0.687282 0.792905
1 0.688594 0.793133
0 0.845136 0.81149
0.0706035 0.858778 0.82533
0.172244 0.866529 0.833341
0.331533 0.856977 0.824094
0.512779 0.839399 0.806836
0.692424 0.821118 0.788891
0.845609 0.808835 0.776959
0.96231 0.805524 0.773968
1 0.804654 0.773388
0 0.970794 0.802457
0.0808118 0.979522 0.812894
0.178531 0.982818 0.817945
0.331243 0.970184 0.807004
0.505135 0.950744 0.789166
0.677913 0.931243 0.771191
0.825864 0.917998 0.75938
0.939132 0.913695 0.756405
1 0.912322 0.756252
0.0106661 1 0.786374
0.0882582 1 0.795575
0.181369 1 0.799954
0.328176 1 0.789212
0.496406 1 0.772152
0.664424 1 0.755138
0.80911 1 0.744366
0.920623 1 0.742397
1 1 0.74377
0.0445716 0.0445716 0.161395
0.0703288 0.0586862 0.221866
0.107729 0.0711528 0.288212
0.177996 0.0784314 0.36289
0.285206 0.0786603 0.442084
0.425757 0.0715801 0.51989
0.581933 0.0610513 0.593103
0.738033 0.0521401 0.665049
0.898085 0.0436255 0.730404
0.074342 0.120882 0.386023
0.11136 0.142107 0.477302
0.168093 0.158923 0.566125
0.276143 0.163302 0.641596
0.426139 0.15761 0.702754
0.60209 0.146273 0.751476
0.776654 0.136355 0.792859
0.930632 0.133577 0.832761
1 0.133928 0.866651
0.0632792 0.241566 0.654932
0.11136 0.264973 0.731472
0.184848 0.282399 0.795422
0.32253 0.284016 0.836881
0.499672 0.276036 0.861173
0.691173 0.264637 0.874449
0.867277 0.258381 0.886152
1 0.261494 0.900893
1 0.268254 0.913603
0.019791 0.391974 0.829236
0.0843366 0.415213 0.875257
0.174609 0.431952 0.909117
0.331838 0.431266 0.920485
0.521706 0.421927 0.918456
0.716243 0.410788 0.910475
0.886641 0.406195 0.906065
1 0.410834 0.910185
1 0.417716 0.916045
0 0.553155 0.898451
0.066392 0.573449 0.922759
0.168597 0.587564 0.938155
0.333394 0.584253 0.934691
0.524117 0.572915 0.922881
0.715938 0.560342 0.909438
0.882307 0.553826 0.901579
1 0.556374 0.902251
1 0.561028 0.904494
0 0.706889 0.909163
0.068452 0.723857 0.925765
0.17113 0.735119 0.936431
0.333883 0.729061 0.929488
0.520989 0.714931 0.914183
0.707805 0.699901 0.897627
0.867582 0.69044 0.886397
0.988998 0.689372 0.883375
1 0.690593 0.882582
0 0.847944 0.905852
0.0751354 0.861387 0.918914
0.176364 0.86865 0.925719
0.335012 0.858732 0.915251
0.515511 0.840986 0.896941
0.694377 0.822614 0.877974
0.846891 0.810254 0.865049
0.962921 0.806638 0.860899
1 0.805936 0.859678
0.00358587 0.971862 0.89308
0.0849775 0.980484 0.90251
0.182208 0.983642 0.906477
0.334264 0.970993 0.894636
0.507454 0.951598 0.875975
0.679606 0.932143 0.857221
0.827085 0.918959 0.844694
0.940002 0.914641 0.84097
1 0.913466 0.84036
0.0145418 1 0.873625
0.0918441 1 0.882017
0.184543 1 0.885618
0.330648 1 0.874052
0.498604 1 0.856565
0.666224 1 0.839048
0.810666 1 0.827817
0.922087 1 0.825467
1 1 0.825666
