luts/Retro Yellow 01.cube
TITLE "Generated by Resolve"
LUT_3D_SIZE 33
0 0 0.00221256
0.00463874 0.00427253 0.0081178
0.0100557 0.00898756 0.0146334
0.0159152 0.0138399 0.0213779
0.0218051 0.0184176 0.0278019
0.0279393 0.0228275 0.0340887
0.0344244 0.027039 0.0402228
0.0414282 0.0310216 0.046128
0.0493477 0.0347601 0.0518349
0.0586099 0.0383307 0.0574807
0.0687266 0.0415198 0.0627298
0.079942 0.0444343 0.0677653
0.0923323 0.0470588 0.0725719
0.105943 0.0493782 0.0771038
0.120974 0.0514534 0.0814984
0.137774 0.0533608 0.0858778
0.155947 0.0549325 0.0899825
0.175631 0.0562142 0.0938888
0.196628 0.0571908 0.0975509
0.219226 0.0579538 0.101137
0.24448 0.0587472 0.105104
0.271183 0.0592966 0.108949
0.299336 0.059678 0.112749
0.328542 0.0598306 0.116411
0.358831 0.0599069 0.120119
0.390723 0.060029 0.124102
0.42414 0.0601053 0.128267
0.458061 0.0599985 0.132219
0.492805 0.059678 0.136004
0.528588 0.0591745 0.13962
0.565545 0.0584421 0.143069
0.604395 0.057496 0.14641
0.644099 0.0563058 0.149462
0.0148318 0.0163577 0.0229953
0.0201877 0.021088 0.029221
0.025864 0.0258488 0.035584
0.0314946 0.0302892 0.0415808
0.0373541 0.0346075 0.0474708
0.0435645 0.038819 0.0532845
0.050309 0.0429084 0.0590219
0.0580301 0.047013 0.0648814
0.0667582 0.05066 0.0702678
0.0768749 0.0539406 0.0753338
0.0882277 0.0569314 0.0801404
0.100908 0.059678 0.0847791
0.115175 0.062211 0.0893111
0.131395 0.0646525 0.0939345
0.148852 0.0665904 0.098024
0.16791 0.0681926 0.101839
0.188983 0.0695811 0.105577
0.212314 0.0708171 0.109377
0.237934 0.0718853 0.113176
0.265629 0.0727245 0.116915
0.294347 0.0731365 0.120195
0.324773 0.0733501 0.123415
0.356939 0.0734569 0.126665
0.39057 0.0734112 0.1299
0.425223 0.0733043 0.133165
0.460426 0.0731975 0.136461
0.495628 0.0729534 0.139574
0.531533 0.0726177 0.142641
0.568185 0.0721447 0.145586
0.60557 0.0715038 0.148333
0.644083 0.0707866 0.151034
0.68365 0.0698558 0.15349
0.723796 0.0686961 0.155642
0.0281071 0.0336309 0.0427253
0.0335241 0.0381476 0.0484779
0.0390784 0.0425879 0.054139
0.0448615 0.0469825 0.0598154
0.0509804 0.0513466 0.0654917
0.0575418 0.0556191 0.071107
0.0648814 0.0599069 0.0768292
0.0729992 0.063859 0.0821851
0.0827039 0.0675364 0.0873426
0.0942855 0.0709087 0.0922866
0.107454 0.0740215 0.0970016
0.122087 0.0767834 0.101427
0.138781 0.0794232 0.105867
0.157321 0.0817273 0.110033
0.17818 0.0838483 0.114168
0.201266 0.0856794 0.11812
0.226291 0.087068 0.121675
0.253315 0.0880903 0.124941
0.28307 0.0889906 0.128252
0.314443 0.0894942 0.131212
0.347601 0.0897078 0.133944
0.381994 0.0896315 0.136416
0.41738 0.0893416 0.138689
0.454475 0.0890364 0.141085
0.491279 0.0885634 0.143221
0.528054 0.0881514 0.145403
0.56492 0.0877241 0.147585
0.601862 0.0873579 0.149752
0.63975 0.0869001 0.151873
0.678782 0.0864271 0.153994
0.717662 0.0857404 0.15581
0.757259 0.0848859 0.157397
0.797559 0.0839094 0.158801
0.0390631 0.051194 0.0604715
0.0446937 0.0557259 0.065919
0.0505226 0.0602579 0.0713817
0.0565652 0.0647288 0.0768292
0.0629892 0.0691997 0.0822919
0.0702373 0.0739147 0.0880903
0.0781567 0.0783856 0.0936751
0.0872663 0.0826734 0.0990921
0.0981918 0.0865034 0.104097
0.111376 0.090013 0.108827
0.12697 0.0935531 0.113756
0.144549 0.0968338 0.118471
0.164202 0.0996872 0.12282
0.185916 0.102068 0.126726
0.209888 0.104067 0.130297
0.236393 0.10573 0.133623
0.265934 0.10724 0.136919
0.297078 0.10808 0.139528
0.330007 0.108492 0.141711
0.364584 0.108522 0.143542
0.400671 0.108248 0.145068
0.437919 0.107759 0.146395
0.476661 0.107256 0.147784
0.515099 0.106493 0.148806
0.553429 0.105852 0.14992
0.591608 0.105333 0.151186
0.629648 0.104936 0.152529
0.667781 0.104585 0.153933
0.706691 0.104326 0.155398
0.745235 0.103914 0.156649
0.784253 0.103456 0.157809
0.823926 0.102876 0.158801
0.864027 0.102205 0.15967
0.0480507 0.0698558 0.0768444
0.0540322 0.0745556 0.0821241
0.0603037 0.079408 0.0875715
0.0669718 0.0844587 0.0932631
0.074052 0.0894636 0.098909
0.0816968 0.094316 0.104433
0.090425 0.0992142 0.110048
0.100862 0.104158 0.115755
0.113771 0.108797 0.121202
0.129503 0.113024 0.126314
0.147311 0.11667 0.130816
0.167315 0.119921 0.134966
0.189899 0.12285 0.138842
0.21503 0.125338 0.142321
0.242496 0.12726 0.145235
0.272709 0.128817 0.147814
0.304814 0.129671 0.149676
0.338949 0.130037 0.151049
0.374899 0.129976 0.152026
0.412268 0.129564 0.152621
0.450736 0.128893 0.152941
0.490929 0.128222 0.153307
0.530953 0.127321 0.153384
0.57116 0.126406 0.15346
0.611017 0.125612 0.153628
0.650065 0.125078 0.154025
0.689479 0.124926 0.154818
0.727871 0.124727 0.15552
0.766232 0.124559 0.156237
0.804654 0.124422 0.156939
0.843275 0.124254 0.157595
0.88246 0.12401 0.15816
0.922759 0.123888 0.158816
0.0554208 0.0906691 0.0925917
0.0618906 0.0957656 0.0978408
0.0686961 0.101122 0.103334
0.0759747 0.106798 0.109178
0.0838788 0.112642 0.11519
0.0926528 0.118532 0.121248
0.10251 0.124208 0.127108
0.114107 0.12958 0.132662
0.128847 0.134798 0.138094
0.146639 0.139193 0.142687
0.167025 0.143084 0.146792
0.189715 0.14638 0.150286
0.214923 0.14905 0.153185
0.242969 0.151308 0.155657
0.273396 0.152911 0.157488
0.306065 0.153841 0.158633
0.340902 0.154192 0.159197
0.3776 0.154086 0.159304
0.416083 0.153613 0.159045
0.456428 0.153033 0.158679
0.497398 0.152071 0.157916
0.538766 0.150942 0.157
0.580301 0.149844 0.1561
0.621775 0.148821 0.155276
0.662623 0.148043 0.154696
0.703014 0.147799 0.154635
0.741787 0.147631 0.154635
0.780056 0.147646 0.154833
0.818128 0.147753 0.155108
0.856138 0.147936 0.155459
0.894179 0.148135 0.15581
0.933257 0.148455 0.156283
0.971832 0.148547 0.156512
0.0609903 0.114397 0.107851
0.0684215 0.120806 0.113787
0.0760204 0.127108 0.119615
0.0838941 0.13341 0.125429
0.0924086 0.139803 0.131304
0.10193 0.146304 0.137255
0.112947 0.152819 0.143221
0.12604 0.158984 0.148806
0.142168 0.164141 0.153384
0.161837 0.168429 0.157092
0.184329 0.172061 0.160143
0.209354 0.175082 0.162585
0.237232 0.177584 0.164477
0.26772 0.17937 0.165682
0.300465 0.180438 0.166186
0.335714 0.180957 0.166125
0.373144 0.180926 0.165545
0.41239 0.180438 0.164492
0.453513 0.179751 0.163241
0.495537 0.178714 0.161669
0.538216 0.177462 0.159915
0.581201 0.176181 0.158129
0.623957 0.174975 0.15642
0.666255 0.173922 0.154894
0.708278 0.173404 0.153887
0.748119 0.173114 0.153155
0.786862 0.173159 0.152789
0.824781 0.173449 0.152651
0.862272 0.173846 0.152682
0.900175 0.174548 0.153002
0.937453 0.175143 0.153231
0.974884 0.175647 0.153399
1 0.17615 0.153582
0.0647593 0.14287 0.123369
0.0726482 0.14963 0.128893
0.0808576 0.156664 0.13463
0.0894484 0.163851 0.140459
0.0986648 0.170916 0.146166
0.108904 0.177874 0.151751
0.120684 0.184665 0.157107
0.13463 0.190707 0.161776
0.152224 0.195834 0.165499
0.17377 0.199908 0.168185
0.198306 0.203235 0.170153
0.225834 0.20621 0.17171
0.255894 0.208225 0.172366
0.28864 0.209537 0.172351
0.323827 0.210224 0.17171
0.361395 0.2103 0.17052
0.401297 0.21001 0.168933
0.443015 0.209323 0.166995
0.485771 0.208179 0.16466
0.529335 0.206821 0.162142
0.573419 0.205356 0.159564
0.617548 0.203952 0.157061
0.661601 0.202853 0.15491
0.704753 0.201923 0.152956
0.746303 0.201266 0.151354
0.786038 0.201129 0.150301
0.824414 0.201404 0.149706
0.86183 0.201968 0.149432
0.899168 0.202884 0.149538
0.935714 0.203754 0.149676
0.971954 0.204654 0.149874
1 0.205509 0.150088
1 0.206378 0.150332
0.0654307 0.175235 0.137285
0.0739757 0.182574 0.142458
0.0826886 0.189929 0.147646
0.091722 0.197314 0.152834
0.101595 0.204944 0.15816
0.112398 0.211994 0.162997
0.124788 0.218616 0.167422
0.139773 0.224628 0.171283
0.158816 0.229633 0.174121
0.182284 0.23357 0.175906
0.209125 0.236881 0.17705
0.238483 0.239216 0.177325
0.27071 0.240833 0.176913
0.305684 0.241794 0.175875
0.343114 0.24213 0.174289
0.383001 0.241978 0.172229
0.424964 0.241367 0.169757
0.468223 0.240208 0.166842
0.512612 0.238804 0.163745
0.557626 0.237278 0.160571
0.602884 0.23566 0.157412
0.648142 0.234302 0.154513
0.692607 0.233127 0.151904
0.735836 0.232151 0.149554
0.777447 0.231632 0.147738
0.816922 0.231662 0.146563
0.85481 0.232151 0.145907
0.892103 0.233219 0.145846
0.92813 0.234211 0.14583
0.963684 0.23534 0.146029
0.998947 0.236545 0.146349
1 0.23772 0.146715
1 0.239094 0.147326
0.0623941 0.210544 0.148211
0.071519 0.218082 0.152712
0.0807965 0.22562 0.157214
0.090486 0.233463 0.161929
0.100847 0.240818 0.166339
0.112352 0.247959 0.17052
0.125628 0.254673 0.174304
0.141665 0.26067 0.177417
0.162173 0.265522 0.179431
0.18764 0.269413 0.180468
0.216251 0.272175 0.180529
0.247669 0.274205 0.179934
0.281971 0.275471 0.178653
0.318959 0.276051 0.176761
0.358724 0.27631 0.174548
0.400381 0.275731 0.171649
0.443854 0.274662 0.168383
0.48867 0.273228 0.164828
0.534386 0.27158 0.161151
0.580606 0.269932 0.157565
0.627131 0.268406 0.154162
0.67274 0.26685 0.150851
0.717311 0.265553 0.147936
0.760616 0.264607 0.145449
0.802075 0.264179 0.143572
0.841413 0.264515 0.142519
0.879011 0.265339 0.142061
0.915038 0.266377 0.141909
0.950225 0.267613 0.142061
0.984848 0.268986 0.142443
1 0.270451 0.143008
1 0.272068 0.143786
1 0.27364 0.144594
0.0557717 0.248112 0.155612
0.0657206 0.256016 0.159594
0.0757458 0.263722 0.163516
0.0860304 0.271321 0.167407
0.0970474 0.278752 0.171191
0.109316 0.285878 0.174746
0.123507 0.292546 0.177935
0.140871 0.298848 0.180667
0.162905 0.303487 0.181994
0.189944 0.306783 0.182071
0.220432 0.309178 0.181369
0.253742 0.310872 0.180041
0.289967 0.311818 0.178088
0.329152 0.312367 0.175769
0.370306 0.311986 0.172732
0.413565 0.311055 0.169268
0.458503 0.309697 0.165499
0.504662 0.308034 0.161532
0.551553 0.306233 0.157549
0.598886 0.304585 0.153796
0.645655 0.302739 0.150027
0.691676 0.301122 0.146593
0.736431 0.29984 0.143633
0.779706 0.298939 0.141161
0.821057 0.298695 0.139452
0.859998 0.299214 0.138582
0.896681 0.300053 0.138201
0.93196 0.301259 0.138277
0.966339 0.302693 0.138705
1 0.30428 0.139376
1 0.306249 0.140505
1 0.307897 0.141421
1 0.30956 0.142473
0.0461891 0.288014 0.159838
0.0570077 0.295674 0.163043
0.0678569 0.303273 0.166339
0.0789349 0.310887 0.169726
0.0908064 0.318334 0.173053
0.103975 0.325444 0.176165
0.119295 0.332357 0.179065
0.137667 0.33814 0.181094
0.161166 0.34255 0.181903
0.189944 0.345556 0.18143
0.222202 0.347631 0.180179
0.257252 0.348943 0.178317
0.29546 0.349859 0.176074
0.335988 0.349752 0.173083
0.378698 0.349065 0.16965
0.423362 0.347829 0.165835
0.469535 0.346197 0.161761
0.517098 0.344594 0.157794
0.564797 0.34255 0.153597
0.612436 0.34052 0.149569
0.659663 0.338582 0.145769
0.705898 0.336904 0.142367
0.750713 0.335622 0.139498
0.794202 0.335012 0.137392
0.83505 0.334737 0.135805
0.873182 0.33518 0.135042
0.909239 0.336141 0.134951
0.943771 0.337484 0.135332
0.977417 0.339132 0.136141
1 0.341085 0.137377
1 0.342931 0.138613
1 0.344747 0.139925
1 0.346563 0.141344
0.0342718 0.329335 0.160815
0.046128 0.336858 0.163531
0.0579538 0.344396 0.1664
0.0699626 0.351888 0.16939
0.0828412 0.359487 0.172503
0.0970474 0.366613 0.175372
0.113298 0.373068 0.177783
0.132845 0.378637 0.179492
0.157748 0.382757 0.179919
0.188128 0.385412 0.179065
0.222232 0.387442 0.17763
0.258946 0.388479 0.175479
0.298405 0.388693 0.172717
0.340337 0.388251 0.169451
0.384329 0.387228 0.165805
0.430167 0.385733 0.161822
0.477714 0.384161 0.15787
0.52575 0.382025 0.153597
0.574075 0.379797 0.149401
0.622156 0.37763 0.145418
0.669642 0.375586 0.141711
0.715984 0.373846 0.138476
0.761044 0.372824 0.136049
0.803891 0.371954 0.133974
0.844312 0.37171 0.132662
0.881895 0.372198 0.132219
0.917296 0.373236 0.132464
0.951186 0.374746 0.133303
0.984222 0.376669 0.134661
1 0.3785 0.136065
1 0.380423 0.137682
1 0.382361 0.139422
1 0.384298 0.141268
0.0210117 0.371786 0.159304
0.0340276 0.379141 0.161685
0.046952 0.386542 0.164309
0.0600595 0.394141 0.167208
0.0739147 0.401465 0.170077
0.0890822 0.40827 0.172717
0.106401 0.414527 0.174975
0.127123 0.419867 0.176532
0.153384 0.423697 0.176776
0.185412 0.426276 0.175875
0.220859 0.42771 0.174121
0.258915 0.428336 0.171771
0.299702 0.428229 0.168887
0.342855 0.427466 0.16553
0.387945 0.426139 0.161822
0.435035 0.424689 0.158068
0.483024 0.422553 0.153918
0.531685 0.420203 0.149722
0.580468 0.417807 0.145663
0.62884 0.415503 0.141848
0.676768 0.413642 0.138613
0.723064 0.411841 0.135637
0.767544 0.410468 0.133257
0.810056 0.409598 0.131518
0.850034 0.409369 0.130571
0.887037 0.409888 0.13051
0.922087 0.411261 0.131426
0.955169 0.412757 0.132616
0.987167 0.414496 0.134173
1 0.416419 0.136034
1 0.418387 0.138003
1 0.420294 0.13994
1 0.422446 0.142123
0.00738537 0.41503 0.156115
0.0216373 0.422126 0.158312
0.0358282 0.429664 0.161028
0.049958 0.436835 0.16376
0.0648203 0.443793 0.166522
0.0810254 0.450385 0.169146
0.099382 0.456367 0.171389
0.121324 0.461601 0.173037
0.148959 0.465293 0.173373
0.182177 0.467247 0.172259
0.21886 0.468254 0.170413
0.258137 0.468528 0.168063
0.300023 0.468071 0.165194
0.344381 0.467216 0.162051
0.390448 0.465721 0.158511
0.43798 0.463676 0.15465
0.486549 0.461311 0.150668
0.535637 0.458762 0.14667
0.58468 0.456184 0.142824
0.633448 0.454002 0.139513
0.681102 0.451804 0.1364
0.727214 0.449912 0.133745
0.771374 0.448478 0.131716
0.813458 0.447547 0.130343
0.852934 0.447318 0.129809
0.889677 0.448157 0.130495
0.923781 0.449256 0.131563
0.956268 0.450706 0.133028
0.987793 0.452384 0.134722
1 0.4542 0.136599
1 0.456092 0.138567
1 0.458198 0.140749
1 0.459937 0.142596
0 0.458686 0.151843
0.00978103 0.465812 0.154223
0.0250248 0.472694 0.156771
0.040238 0.479561 0.159564
0.0561227 0.486259 0.162417
0.0733501 0.492576 0.165148
0.0928206 0.498436 0.16762
0.115862 0.503395 0.169406
0.144518 0.506569 0.169726
0.178897 0.508156 0.168688
0.216693 0.508797 0.166934
0.256992 0.508751 0.164706
0.299962 0.508171 0.162127
0.345068 0.50692 0.159106
0.391684 0.505028 0.155688
0.439734 0.502724 0.152041
0.488716 0.50016 0.148318
0.538064 0.497429 0.144625
0.587549 0.495003 0.14139
0.635996 0.492409 0.138186
0.683406 0.490028 0.135378
0.729259 0.48806 0.133135
0.773068 0.48658 0.131533
0.814939 0.485832 0.130785
0.854063 0.485588 0.130556
0.890135 0.486015 0.131029
0.924025 0.487022 0.132097
0.956344 0.488396 0.133562
0.98764 0.489952 0.135225
1 0.49189 0.137285
1 0.49366 0.139208
1 0.495354 0.14107
1 0.497002 0.142916
0 0.502541 0.14725
0 0.509026 0.149584
0.0152132 0.515587 0.1523
0.0314946 0.522164 0.155276
0.0483864 0.528557 0.158343
0.066804 0.53492 0.161517
0.0871595 0.540307 0.164111
0.111025 0.544732 0.165972
0.140688 0.547555 0.166491
0.176074 0.548806 0.165652
0.214878 0.549203 0.164187
0.256199 0.549035 0.162356
0.299733 0.547936 0.159869
0.345312 0.546273 0.157015
0.392447 0.544137 0.153887
0.440833 0.541604 0.150546
0.490135 0.538933 0.14728
0.539727 0.536187 0.144091
0.588876 0.533303 0.140978
0.637171 0.530587 0.138201
0.684352 0.528099 0.135714
0.7299 0.525994 0.133639
0.773678 0.52459 0.132296
0.815274 0.523629 0.131411
0.854139 0.523201 0.13109
0.889982 0.523507 0.131502
0.923598 0.52433 0.132494
0.955657 0.525567 0.133898
0.986969 0.527276 0.135821
1 0.528878 0.137652
1 0.530465 0.139498
1 0.53196 0.141299
1 0.533471 0.14313
0 0.545754 0.142611
0 0.551858 0.145174
0.00686656 0.558068 0.148135
0.0241703 0.564309 0.1514
0.042237 0.570703 0.154986
0.0613718 0.576394 0.158236
0.0825971 0.581445 0.16112
0.107317 0.585519 0.163272
0.137835 0.587991 0.16405
0.174105 0.588952 0.163546
0.213825 0.589181 0.162509
0.255604 0.588479 0.160815
0.299657 0.587076 0.158618
0.345632 0.585122 0.156069
0.393042 0.582742 0.153307
0.441749 0.580118 0.150484
0.491157 0.57731 0.147662
0.540505 0.574212 0.144579
0.589471 0.57116 0.141573
0.637629 0.568322 0.138811
0.684672 0.565744 0.136309
0.730358 0.563821 0.134508
0.773709 0.562066 0.132906
0.814939 0.560815 0.131838
0.853574 0.560265 0.131487
0.889204 0.560464 0.131914
0.922728 0.561334 0.133059
0.954589 0.562509 0.134539
0.985321 0.56379 0.136141
1 0.565209 0.137942
1 0.56669 0.139834
1 0.568048 0.141634
1 0.569558 0.143648
0 0.588281 0.138552
0 0.594003 0.141436
0.000366217 0.599847 0.144732
0.0188449 0.606073 0.148592
0.037583 0.611749 0.152285
0.0575265 0.617075 0.155871
0.0795453 0.621805 0.159106
0.105028 0.625544 0.161608
0.136538 0.628 0.163012
0.173419 0.628519 0.162768
0.213458 0.628153 0.161852
0.255711 0.627161 0.16051
0.300145 0.625498 0.158724
0.346365 0.623331 0.156558
0.39408 0.620996 0.154253
0.442588 0.618067 0.151385
0.491722 0.614954 0.148348
0.540948 0.611749 0.145251
0.589761 0.60856 0.142214
0.637781 0.605631 0.139452
0.68481 0.603098 0.137118
0.730007 0.600748 0.135012
0.773144 0.598886 0.13341
0.814115 0.597482 0.132311
0.85243 0.596735 0.131899
0.887892 0.596887 0.132433
0.921141 0.597635 0.133608
0.95259 0.59855 0.134981
0.982971 0.599649 0.136584
1 0.60087 0.138338
1 0.602167 0.14023
1 0.603601 0.142306
1 0.604883 0.144274
0 0.629923 0.135485
0 0.635523 0.138964
0 0.641016 0.142687
0.0153048 0.646525 0.146685
0.0348516 0.651865 0.150774
0.0555276 0.656809 0.154742
0.0782025 0.661158 0.158328
0.104616 0.664866 0.161501
0.136446 0.666667 0.163012
0.173831 0.66688 0.163165
0.214191 0.666224 0.162524
0.25655 0.664973 0.161318
0.300969 0.663157 0.159579
0.347387 0.661143 0.157656
0.394736 0.658396 0.155047
0.443091 0.655314 0.152117
0.492012 0.652003 0.149004
0.54107 0.64863 0.145876
0.589776 0.645396 0.142901
0.637751 0.642481 0.140291
0.684306 0.639536 0.137697
0.729198 0.637003 0.135531
0.772061 0.634974 0.133928
0.812787 0.633463 0.132876
0.851087 0.632853 0.132799
0.886061 0.63267 0.133181
0.918776 0.633036 0.134142
0.949889 0.633814 0.135576
0.979965 0.634791 0.137255
1 0.635966 0.139178
1 0.637217 0.141253
1 0.638254 0.14313
1 0.639277 0.145068
0 0.670756 0.133837
0 0.675731 0.13756
0 0.680766 0.141634
0.0138094 0.685863 0.146029
0.0340429 0.690837 0.15053
0.0553902 0.695445 0.15491
0.0789502 0.699763 0.159213
0.105394 0.702831 0.16231
0.137346 0.704387 0.163912
0.174731 0.704448 0.164065
0.215045 0.70367 0.163409
0.257618 0.702556 0.162463
0.3019 0.700557 0.160647
0.34786 0.698039 0.158343
0.395087 0.695155 0.155734
0.443305 0.691936 0.152804
0.492058 0.688472 0.149676
0.541146 0.685176 0.146777
0.589532 0.681682 0.143709
0.637034 0.678386 0.140887
0.68336 0.675319 0.138338
0.727962 0.672602 0.136187
0.770489 0.67039 0.134585
0.811093 0.668925 0.133806
0.848814 0.667903 0.133501
0.883482 0.667582 0.133959
0.915831 0.667765 0.134966
0.946517 0.668315 0.136385
0.976257 0.669169 0.138186
1 0.670268 0.140307
1 0.671183 0.14226
1 0.671962 0.144106
1 0.672663 0.145922
0 0.710063 0.133532
0 0.714565 0.137636
0 0.719234 0.142168
0.0145266 0.72398 0.146914
0.0352941 0.728832 0.151812
0.0568551 0.733303 0.156359
0.0800946 0.737163 0.160342
0.106523 0.740108 0.163424
0.138415 0.741482 0.164965
0.175692 0.741329 0.165026
0.216144 0.740627 0.164569
0.258381 0.739116 0.163363
0.302556 0.73695 0.161532
0.348348 0.734249 0.159197
0.395361 0.731136 0.156512
0.443366 0.727718 0.153567
0.492226 0.724392 0.15079
0.54081 0.720668 0.147631
0.588907 0.716976 0.144549
0.636072 0.713436 0.141695
0.682078 0.710201 0.139178
0.72639 0.707362 0.137133
0.768841 0.705226 0.135882
0.808804 0.703304 0.134859
0.846098 0.702037 0.134554
0.880385 0.701549 0.135088
0.912383 0.701595 0.136202
0.942901 0.702174 0.137957
0.972061 0.702647 0.13959
1 0.703243 0.141375
1 0.703929 0.143328
1 0.704524 0.145235
1 0.705043 0.147097
0 0.747936 0.134844
0 0.752132 0.139101
0 0.756588 0.143648
0.0162356 0.761379 0.148562
0.0369116 0.766003 0.153353
0.0583047 0.770169 0.157733
0.0814527 0.773816 0.161608
0.107836 0.776577 0.164645
0.139696 0.777798 0.166201
0.177188 0.777752 0.166552
0.217243 0.776562 0.165774
0.259251 0.774777 0.164462
0.303288 0.772427 0.162615
0.348959 0.769574 0.160342
0.395987 0.766491 0.1579
0.443809 0.762905 0.155001
0.492073 0.75906 0.151904
0.540398 0.755169 0.148806
0.588235 0.751339 0.14583
0.635081 0.747631 0.143038
0.680934 0.744396 0.140826
0.724849 0.741344 0.138811
0.766674 0.738796 0.137362
0.806271 0.736706 0.136446
0.843107 0.73521 0.136141
0.876875 0.734386 0.136584
0.908614 0.734371 0.137911
0.938491 0.734493 0.139406
0.967239 0.734783 0.141085
0.995163 0.735103 0.142824
1 0.735439 0.14461
1 0.735759 0.14641
1 0.736263 0.14847
0 0.785016 0.136522
0 0.78912 0.140826
0 0.793576 0.14551
0.0179904 0.797955 0.150164
0.0385138 0.802274 0.154803
0.0599069 0.806287 0.159182
0.0830243 0.809735 0.163027
0.109438 0.812375 0.166125
0.141329 0.813489 0.167773
0.178454 0.812985 0.167834
0.218418 0.811612 0.167102
0.260288 0.809628 0.165789
0.304082 0.807004 0.163912
0.349722 0.804105 0.161822
0.396445 0.800732 0.15935
0.443961 0.796918 0.156466
0.491936 0.792859 0.153399
0.539879 0.788724 0.150317
0.58735 0.784665 0.147387
0.634104 0.781033 0.144991
0.679347 0.777401 0.142611
0.722759 0.774044 0.140551
0.764035 0.771176 0.13901
0.803143 0.768826 0.138079
0.839567 0.767132 0.13785
0.873152 0.766354 0.138613
0.904128 0.765774 0.139544
0.933471 0.76556 0.140871
0.961791 0.765591 0.142473
0.989364 0.765743 0.144213
1 0.766125 0.146273
1 0.766186 0.147921
1 0.766217 0.149569
0 0.821378 0.138231
0 0.825452 0.142672
0 0.829511 0.147143
0.0198215 0.833661 0.151751
0.0402686 0.83772 0.156298
0.0616159 0.841489 0.160647
0.0848554 0.844862 0.16463
0.111269 0.847318 0.167788
0.142901 0.848035 0.169253
0.179843 0.847242 0.169268
0.219669 0.845655 0.168551
0.261418 0.843488 0.16733
0.305333 0.84094 0.16582
0.3505 0.837583 0.163546
0.396811 0.833875 0.160967
0.444038 0.829862 0.158175
0.491722 0.825635 0.15523
0.539437 0.821408 0.152361
0.586511 0.817136 0.149508
0.632486 0.81297 0.146761
0.677256 0.809079 0.144381
0.720241 0.805554 0.142412
0.761028 0.802441 0.140871
0.799741 0.799954 0.140032
0.835691 0.798001 0.139742
0.868605 0.796765 0.140169
0.899229 0.796033 0.141131
0.928191 0.795621 0.142397
0.956085 0.795392 0.143862
0.983459 0.795514 0.145754
1 0.795544 0.147494
1 0.795483 0.149126
1 0.795361 0.150698
0 0.857099 0.140185
0 0.860685 0.144335
0.00154116 0.86453 0.148791
0.0218814 0.868482 0.153429
0.042359 0.872343 0.158022
0.0638895 0.876051 0.16257
0.0869154 0.879011 0.166384
0.113115 0.881071 0.169406
0.144701 0.881605 0.170947
0.181521 0.880568 0.171008
0.221225 0.878767 0.170367
0.262943 0.876509 0.16936
0.306355 0.873487 0.167651
0.351278 0.869947 0.165469
0.397208 0.86595 0.162905
0.443961 0.861585 0.160021
0.491295 0.857191 0.157168
0.538582 0.852735 0.15436
0.585122 0.848173 0.151446
0.630564 0.843732 0.148669
0.674723 0.839506 0.146136
0.717174 0.835721 0.144091
0.757687 0.832578 0.142763
0.79588 0.829847 0.141817
0.831312 0.827634 0.14139
0.863767 0.826139 0.14168
0.894011 0.825208 0.14255
0.922667 0.824674 0.143801
0.950484 0.824537 0.14551
0.97734 0.824277 0.14699
1 0.824094 0.148547
1 0.823896 0.150088
1 0.823682 0.151583
0 0.891737 0.142031
0 0.895048 0.146151
0.00383001 0.898589 0.150546
0.024155 0.902281 0.155184
0.0449073 0.906111 0.160082
0.0661936 0.909361 0.164431
0.0891585 0.912032 0.168246
0.115236 0.913771 0.171237
0.1467 0.914031 0.172793
0.183474 0.91284 0.173022
0.223117 0.910903 0.17258
0.264271 0.908125 0.171313
0.307256 0.904753 0.169497
0.351797 0.900923 0.167315
0.397391 0.896727 0.164828
0.443992 0.892363 0.162264
0.490654 0.887541 0.159197
0.537209 0.882643 0.1561
0.583246 0.877867 0.153155
0.628244 0.873274 0.150423
0.672053 0.868986 0.148013
0.714107 0.865095 0.146044
0.753948 0.861585 0.144411
0.791669 0.858625 0.143328
0.826749 0.856321 0.142901
0.858854 0.854704 0.143145
0.888869 0.853712 0.144015
0.917266 0.853086 0.145235
0.94461 0.852628 0.146578
0.971237 0.852293 0.148028
0.997406 0.852003 0.149508
1 0.851667 0.150896
1 0.851484 0.152468
0 0.925292 0.143923
0 0.928389 0.148119
0.00682078 0.931914 0.15285
0.0270848 0.935271 0.157458
0.0474861 0.938537 0.162036
0.0687572 0.941512 0.16643
0.0917067 0.943923 0.170321
0.117662 0.945357 0.173312
0.149157 0.945464 0.175067
