luts/Retro Summer.cube
TITLE "Generated by Resolve"
LUT_3D_SIZE 33
0.100343 0.0677043 0.0578317
0.10576 0.0669261 0.0569772
0.110491 0.0667582 0.0567941
0.114748 0.0667124 0.056733
0.118975 0.0665599 0.0565499
0.123842 0.0662699 0.0562295
0.130114 0.0655222 0.0554055
0.138964 0.0640269 0.0538033
0.152697 0.0611582 0.0507362
0.172534 0.0566262 0.0459602
0.198718 0.0504311 0.0394903
0.233646 0.0418402 0.0306249
0.274784 0.0315557 0.0200656
0.318898 0.0204623 0.00869764
0.36556 0.00859083 0
0.415381 0 0
0.46772 0 0
0.522606 0 0
0.579644 0 0
0.638453 0 0
0.698741 0 0
0.759533 0 0
0.82031 0 0
0.880201 0 0
0.940414 0 0
1 0 0
1 0 0
1 0 0
1 0 0
1 0 0
1 0 0
1 0 0
1 0 0
0.098024 0.0721904 0.0552071
0.103899 0.0716716 0.0546426
0.108583 0.0714275 0.0543679
0.112703 0.0712291 0.054139
0.116869 0.0709697 0.0538491
0.121523 0.0704356 0.0532692
0.127657 0.0696117 0.052369
0.136431 0.0680858 0.0507362
0.149966 0.0652323 0.0476997
0.169162 0.0608682 0.043061
0.194446 0.0548409 0.0367742
0.228061 0.0464332 0.0281071
0.268788 0.0362707 0.0176699
0.312764 0.0252537 0.00639353
0.359319 0.0135348 0
0.408942 0.000976577 0
0.461219 0 0
0.515999 0 0
0.573159 0 0
0.632166 0 0
0.692439 0 0
0.753704 0 0
0.814572 0 0
0.875242 0 0
0.935699 0 0
0.996872 0 0
1 0 0
1 0 0
1 0 0
1 0 0
1 0 0
1 0 0
1 0 0
0.0967727 0.0763867 0.0536507
0.10248 0.0757153 0.0529488
0.107103 0.0751659 0.0524453
0.111147 0.0748913 0.0522011
0.115129 0.0746166 0.0517281
0.11989 0.0740978 0.0511482
0.125994 0.0732433 0.0502174
0.134585 0.0716869 0.0485542
0.14786 0.0687572 0.0454261
0.166873 0.0644541 0.0408637
0.191394 0.0586557 0.0348211
0.224414 0.0505684 0.0264744
0.264912 0.040528 0.0161593
0.308568 0.029572 0.00494392
0.355245 0.0178225 0
0.404761 0.00543221 0
0.457099 0 0
0.512108 0 0
0.569451 0 0
0.628687 0 0
0.689632 0 0
0.751049 0 0
0.812512 0 0
0.87361 0 0
0.934798 0 0
0.996658 0 0
1 0 0
1 0 0
1 0 0
1 0 0
1 0 0
1 0 0
1 0 0
0.0951858 0.0800183 0.0518807
0.100893 0.0792554 0.0510719
0.105562 0.0787518 0.0506142
0.109621 0.0784009 0.050309
0.113725 0.0779736 0.0499123
0.118456 0.0773938 0.0493935
0.124575 0.076524 0.0484932
0.133227 0.0749828 0.0468299
0.146532 0.0721904 0.0438544
0.165347 0.0679789 0.0393835
0.189425 0.0623026 0.0334478
0.221836 0.0544747 0.0253758
0.262242 0.0445258 0.0151675
0.306188 0.0336461 0.00402838
0.352804 0.0220951 0
0.402518 0.00973526 0
0.455421 0 0
0.51075 0 0
0.568368 0 0
0.627771 0 0
0.689342 0 0
0.751583 0 0
0.813733 0 0
0.875486 0 0
0.93727 0 0
1 0 0
1 0 0
1 0 0
1 0 0
1 0 0
1 0 0
1 0 0
1 0 0
0.093492 0.0835737 0.0498665
0.0990463 0.0826734 0.0489662
0.103807 0.0821546 0.0484779
0.107866 0.0818341 0.0482032
0.112016 0.0814984 0.0479133
0.116884 0.0809644 0.047425
0.123049 0.0801251 0.0465553
0.131731 0.0784924 0.0450752
0.145281 0.0757458 0.0424811
0.163943 0.0717174 0.0380102
0.187747 0.0662852 0.0323339
0.219699 0.058732 0.0245212
0.260121 0.0488441 0.0143893
0.304387 0.038117 0.00341802
0.351278 0.0267033 0
0.401541 0.0144656 0
0.454551 0.00149538 0
0.510552 0 0
0.568765 0 0
0.629099 0 0
0.691066 0 0
0.754452 0 0
0.817807 0 0
0.880583 0 0
0.943557 0 0
1 0 0
1 0 0
1 0 0
1 0 0
1 0 0
1 0 0
1 0 0
1 0 0
0.0909895 0.0873121 0.0470893
0.0967422 0.0865339 0.0462501
0.101472 0.0860609 0.0458228
0.105638 0.0857404 0.0455177
0.109804 0.0853895 0.0451972
0.114687 0.0849775 0.044831
0.120958 0.0841993 0.0440833
0.129809 0.0827649 0.0427253
0.143374 0.0802014 0.0402991
0.162264 0.076112 0.0364385
0.185931 0.0709544 0.0309148
0.217456 0.0636912 0.0234073
0.257969 0.0540017 0.0134737
0.302464 0.0434882 0.00274662
0.35024 0.0322881 0
0.400839 0.0202487 0
0.454505 0.00755322 0
0.51107 0 0
0.570352 0 0
0.632227 0 0
0.695567 0 0
0.759487 0 0
0.823362 0 0
0.8869 0 0
0.951064 0 0
1 0 0
1 0 0
1 0 0
1 0 0
1 0 0
1 0 0
1 0 0
1 0 0
0.0872663 0.0917372 0.043061
0.0933089 0.0910201 0.0423133
0.0980545 0.0906539 0.0418708
0.102358 0.0904097 0.0416266
0.106691 0.0902266 0.0414435
0.111635 0.0899214 0.0411383
0.118029 0.0892805 0.040528
0.126955 0.0880751 0.0393988
0.140444 0.0856641 0.0370642
0.159243 0.0818036 0.0334173
0.183108 0.0768902 0.0287633
0.21416 0.0702068 0.0218814
0.255009 0.0608377 0.0122835
0.300069 0.0505379 0.00177005
0.348104 0.0395361 0
0.399847 0.0279393 0
0.454765 0.0155184 0
0.512367 0.00254826 0
0.572717 0 0
0.635004 0 0
0.699245 0 0
0.764401 0 0
0.829038 0 0
0.892363 0 0
0.957351 0 0
1 0 0
1 0 0
1 0 0
1 0 0
1 0 0
1 0 0
1 0 0
1 0 0
0.0814984 0.0975814 0.0369573
0.0878004 0.0968948 0.0362707
0.0928817 0.0964981 0.035874
0.0973983 0.0964523 0.0358129
0.1019 0.0964218 0.0357671
0.107134 0.0962692 0.0356146
0.113664 0.0958114 0.0351568
0.122774 0.0949416 0.0342565
0.136248 0.0929122 0.032105
0.154696 0.0896468 0.0287938
0.178027 0.0852216 0.0244907
0.208453 0.0791028 0.0185855
0.249958 0.0703136 0.0100252
0.295796 0.0603647 6.10361e-05
0.344579 0.0496529 0
0.396841 0.0382391 0
0.452476 0.0260624 0
0.511223 0.0132448 0
0.572305 0 0
0.635264 0 0
0.699748 0 0
0.764874 0 0
0.829801 0 0
0.89369 0 0
0.958663 0 0
1 0 0
1 0 0
1 0 0
1 0 0
1 0 0
1 0 0
1 0 0
1 0 0
0.0724193 0.105425 0.0269474
0.0784619 0.104982 0.0264744
0.0838483 0.104692 0.0261387
0.0888991 0.104799 0.0262913
0.0940108 0.105104 0.0266117
0.0995346 0.105165 0.0266728
0.106538 0.105028 0.0265202
0.11577 0.104372 0.0257115
0.12958 0.102907 0.0241703
0.14789 0.100359 0.0214389
0.170352 0.0969406 0.0178531
0.199069 0.0916609 0.0124514
0.238468 0.08365 0.00440986
0.284764 0.0741283 0
0.334478 0.0636912 0
0.387335 0.052491 0
0.443519 0.0404364 0
0.502373 0.0277409 0
0.563378 0.0144198 0
0.626413 0.000595102 0
0.691081 0 0
0.756573 0 0
0.821851 0 0
0.886198 0 0
0.951003 0 0
1 0 0
1 0 0
1 0 0
1 0 0
1 0 0
1 0 0
1 0 0
1 0 0
0.0610666 0.115221 0.0137026
0.067277 0.115129 0.013611
0.0725414 0.115343 0.0138247
0.0774701 0.115877 0.0143893
0.0830701 0.116274 0.0148318
0.0896315 0.116838 0.0154421
0.0973678 0.117128 0.0157473
0.107393 0.116884 0.0154879
0.12134 0.115694 0.0141909
0.139422 0.113634 0.0118715
0.16083 0.110796 0.00885023
0.187335 0.106813 0.00459297
0.223819 0.100023 0
0.269306 0.0908217 0
0.318395 0.0807965 0
0.370504 0.0699168 0
0.426123 0.0581979 0
0.484672 0.0456245 0
0.545708 0.0324102 0
0.609079 0.0186465 0
0.674388 0.00448615 0
0.740536 0 0
0.806043 0 0
0.87097 0 0
0.935775 0 0
1 0 0
1 0 0
1 0 0
1 0 0
1 0 0
1 0 0
1 0 0
1 0 0
0.0493172 0.126528 9.15541e-05
0.0560006 0.126925 0.000518807
0.0618601 0.127657 0.00137331
0.0672618 0.128679 0.00247196
0.0726635 0.129625 0.00347906
0.0790875 0.130556 0.00445563
0.0877241 0.130968 0.00502022
0.0985275 0.131121 0.00517281
0.11313 0.130205 0.00415045
0.131243 0.128481 0.00225834
0.151736 0.12604 0
0.176318 0.122515 0
0.208576 0.116991 0
0.252583 0.108476 0
0.300969 0.0988174 0
0.352621 0.0881819 0
0.407599 0.0767224 0
0.465476 0.0645609 0
0.526192 0.0517586 0
0.589548 0.0384375 0
0.65481 0.0246433 0
0.720897 0.0105898 0
0.78706 0 0
0.852918 0 0
0.918379 0 0
0.984863 0 0
1 0 0
1 0 0
1 0 0
1 0 0
1 0 0
1 0 0
1 0 0
0.0385138 0.139971 0
0.0453956 0.140581 0
0.0514382 0.141558 0
0.0570687 0.142947 0
0.0629435 0.144381 0
0.069398 0.145647 0
0.0773632 0.146624 0
0.0889448 0.146578 0
0.104189 0.145678 0
0.122499 0.143908 0
0.14255 0.141711 0
0.165515 0.138781 0
0.195026 0.134264 0
0.235676 0.126802 0
0.283452 0.117403 0
0.334524 0.10721 0
0.38912 0.0961471 0
0.447059 0.0843977 0
0.507591 0.071931 0
0.570687 0.0590829 0
0.635843 0.0457008 0
0.702235 0.0320897 0
0.768872 0.0185092 0
0.835584 0.00527962 0
0.900984 0 0
0.967697 0 0
1 0 0
1 0 0
1 0 0
1 0 0
1 0 0
1 0 0
1 0 0
0.0271153 0.15491 0
0.034287 0.156054 0
0.040528 0.157443 0
0.046067 0.158984 0
0.0518502 0.160571 0
0.0582589 0.16202 0
0.0662547 0.163165 0
0.0770428 0.16347 0
0.0931106 0.162387 0
0.1122 0.160525 0
0.132296 0.158602 0
0.154543 0.156191 0
0.181613 0.152514 0
0.218097 0.146334 0
0.264942 0.137438 0
0.315908 0.127565 0
0.370596 0.117037 0
0.428153 0.105715 0
0.48864 0.0937667 0
0.551965 0.081239 0
0.617411 0.0683146 0
0.684413 0.0552377 0
0.751934 0.0424048 0
0.81912 0.029572 0
0.885695 0.0172274 0
0.952529 0.00529488 0
1 0 0
1 0 0
1 0 0
1 0 0
1 0 0
1 0 0
1 0 0
0.0140688 0.171878 0
0.0210117 0.173129 0
0.0270542 0.17467 0
0.0324559 0.176532 0
0.038056 0.178332 0
0.0443885 0.180072 0
0.0522316 0.181323 0
0.0628824 0.181888 0
0.0789654 0.181064 0
0.0993668 0.179232 0
0.119966 0.17734 0
0.142077 0.175219 0
0.167529 0.172244 0
0.200473 0.167407 0
0.245411 0.159487 0
0.296544 0.150134 0
0.350896 0.139956 0
0.408621 0.129152 0
0.469535 0.117861 0
0.533043 0.105974 0
0.599283 0.0936446 0
0.667079 0.0811475 0
0.735668 0.0688792 0
0.804349 0.0568704 0
0.872297 0.0451972 0
0.939651 0.0341497 0
1 0.0236667 0
1 0.0135348 0
1 0.00341802 0
1 0 0
1 0 0
1 0 0
1 0 0
0 0.190753 0
0.00386053 0.192264 0
0.0096437 0.194202 0
0.0146334 0.196338 0
0.0199283 0.198627 0
0.0257725 0.200748 0
0.0334173 0.202396 0
0.0439765 0.203372 0
0.0598764 0.20296 0
0.0816968 0.200977 0
0.104067 0.199084 0
0.126482 0.197177 0
0.151324 0.194705 0
0.181964 0.191043 0
0.223865 0.184573 0
0.274983 0.175769 0
0.329534 0.166155 0
0.387732 0.15584 0
0.449256 0.145159 0
0.514076 0.134203 0
0.581247 0.122667 0
0.650034 0.110842 0
0.719982 0.099321 0
0.790585 0.0882887 0
0.860716 0.0777752 0
0.929625 0.06804 0
0.999268 0.0579995 0
1 0.0483558 0
1 0.0387732 0
1 0.0282444 0
1 0.0161746 0
1 0.00331121 0
1 0 0
0 0.212711 0
0 0.21471 0
0 0.217075 0
0 0.219776 0
0 0.222446 0
0.00111391 0.224964 0
0.00863661 0.227222 0
0.01944 0.228687 0
0.0358129 0.228504 0
0.0577707 0.226856 0
0.0817731 0.225071 0
0.105348 0.223499 0
0.130724 0.221668 0
0.160021 0.218906 0
0.197925 0.214084 0
0.248966 0.20618 0
0.304952 0.197238 0
0.364355 0.187533 0
0.4271 0.177646 0
0.492897 0.167361 0
0.561852 0.156802 0
0.632731 0.146044 0
0.704341 0.135256 0
0.776761 0.124895 0
0.848417 0.114733 0
0.918959 0.104921 0
0.989013 0.0953078 0
1 0.0858167 0
1 0.0763714 0
1 0.0662394 0
1 0.0543374 0
1 0.0413672 0
1 0.0284428 0
0 0.237507 0
0 0.239689 0
0 0.242588 0
0 0.245624 0
0 0.248722 0
0 0.251881 0
0 0.254444 0
0 0.256352 0
0.010605 0.256779 0
0.0324102 0.255909 0
0.0576638 0.254398 0
0.0825208 0.253605 0
0.108095 0.252735 0
0.136904 0.251164 0
0.171847 0.248127 0
0.219562 0.242161 0
0.276112 0.234653 0
0.336904 0.226474 0
0.4009 0.21735 0
0.468009 0.207584 0
0.53814 0.19733 0
0.610513 0.186725 0
0.684245 0.176074 0
0.758129 0.165377 0
0.831357 0.154955 0
0.903639 0.144961 0
0.974701 0.135378 0
1 0.125795 0
1 0.116548 0
1 0.106218 0
1 0.0942397 0
1 0.0812543 0
1 0.0683452 0
0 0.264103 0
0 0.266789 0
0 0.269993 0
0 0.273548 0
0 0.277546 0
0 0.281147 0
0 0.284367 0
0 0.28687 0
0 0.28806 0
0.00823987 0.28809 0
0.0337224 0.287755 0
0.0603342 0.287144 0
0.0869764 0.287434 0
0.115633 0.287572 0
0.149248 0.28661 0
0.192584 0.283268 0
0.248508 0.27686 0
0.308751 0.269368 0
0.37258 0.261097 0
0.439673 0.251957 0
0.509972 0.242039 0
0.583078 0.231922 0
0.65716 0.221302 0
0.732097 0.210513 0
0.806851 0.199863 0
0.881025 0.189517 0
0.953567 0.179995 0
1 0.170367 0
1 0.160586 0
1 0.149859 0
1 0.137621 0
1 0.124331 0
1 0.111376 0
0 0.292836 0
0 0.296223 0
0 0.300114 0
0 0.304494 0
0 0.308919 0
0 0.313512 0
0 0.317678 0
0 0.321035 0
0 0.323339 0
0 0.324407 0
0.0114595 0.325414 0
0.0398871 0.325948 0
0.0679332 0.326696 0
0.0965896 0.327672 0
0.128725 0.328145 0
0.167956 0.326574 0
0.220401 0.321462 0
0.280262 0.314687 0
0.343618 0.306889 0
0.410483 0.298344 0
0.480766 0.289006 0
0.553429 0.278996 0
0.627695 0.268635 0
0.703059 0.258091 0
0.778607 0.247593 0
0.853727 0.237507 0
0.927687 0.227878 0
1 0.218402 0
1 0.208637 0
1 0.197955 0
1 0.185382 0
1 0.171725 0
1 0.158053 0
0 0.324331 0
0 0.328603 0
0 0.333532 0
0 0.33872 0
0 0.344015 0
0 0.349584 0
0 0.355032 0
0 0.360174 0
0 0.363333 0
0 0.365179 0
0 0.366659 0
0.01944 0.368002 0
0.0490272 0.369024 0
0.0780194 0.370672 0
0.108843 0.371588 0
0.144991 0.371191 0
0.192248 0.367864 0
0.250797 0.361547 0
0.313756 0.354223 0
0.380316 0.346319 0
0.45008 0.337285 0
0.522454 0.327626 0
0.596689 0.317586 0
0.672297 0.307286 0
0.748821 0.297261 0
0.82446 0.28716 0
0.899184 0.27744 0
0.97232 0.268238 0
1 0.258701 0
1 0.248188 0
1 0.236011 0
1 0.222354 0
1 0.208652 0
0 0.359655 0
0 0.36463 0
0 0.370565 0
0 0.377096 0
0 0.383856 0
0 0.390417 0
0 0.397009 0
0 0.402472 0
0 0.406271 0
0 0.408606 0
0 0.410376 0
0 0.412482 0
0.0291447 0.413687 0
0.058793 0.415183 0
0.0892042 0.416526 0
0.123049 0.417075 0
0.164965 0.415549 0
0.221164 0.410651 0
0.283314 0.40383 0
0.349218 0.396063 0
0.418479 0.387488 0
0.490608 0.378225 0
0.564599 0.368643 0
0.640696 0.358938 0
0.717235 0.348791 0
0.793698 0.338735 0
0.869047 0.329107 0
0.943038 0.319997 0
1 0.310872 0
1 0.300481 0
1 0.288289 0
1 0.274525 0
1 0.260899 0
0 0.399329 0
0 0.405524 0
0 0.412238 0
0 0.419394 0
0 0.427008 0
0 0.434302 0
0 0.440909 0
0 0.446662 0
0 0.450797 0
0 0.453468 0
0 0.455848 0
0 0.457832 0
0.00770581 0.459495 0
0.0386816 0.461006 0
0.0691997 0.462684 0
0.101656 0.464057 0
0.140063 0.464134 0
0.190799 0.460609 0
0.252049 0.454322 0
0.317113 0.44715 0
0.385855 0.439048 0
0.457588 0.430213 0
0.531853 0.42121 0
0.607446 0.411536 0
0.684245 0.401648 0
0.761227 0.39176 0
0.837537 0.382101 0
0.912917 0.373297 0
0.987366 0.364401 0
1 0.35404 0
1 0.341878 0
1 0.328359 0
1 0.314885 0
0 0.442191 0
0 0.449027 0
0 0.456367 0
0 0.464134 0
0 0.472007 0
0 0.479561 0
0 0.486534 0
0 0.492622 0
0 0.497002 0
0 0.500267 0
0 0.502724 0
0 0.504906 0
0 0.507012 0
0.0181735 0.508614 0
0.0494698 0.510735 0
0.0813001 0.512627 0
0.117021 0.513451 0
0.162005 0.511788 0
0.221073 0.506401 0
0.285466 0.499687 0
0.353674 0.492485 0
0.424949 0.484123 0
0.498558 0.475135 0
0.574197 0.465675 0
0.651316 0.45594 0
0.728435 0.446296 0
0.805646 0.437095 0
0.881346 0.428031 0
0.955917 0.419196 0
1 0.408804 0
1 0.396643 0
1 0.383276 0
1 0.370153 0
0 0.487037 0
0 0.494316 0
0 0.502251 0
0 0.510185 0
0 0.518288 0
0 0.526177 0
0 0.533486 0
0 0.540108 0
0 0.544991 0
0 0.54815 0
0 0.550866 0
0 0.553277 0
0 0.555657 0
0 0.557916 0
0.0293431 0.559823 0
0.0609598 0.561791 0
0.0954299 0.563409 0
0.136004 0.563149 0
0.190082 0.55938 0
0.253742 0.553521 0
0.321141 0.54641 0
0.391897 0.53843 0
0.465003 0.529854 0
0.540307 0.520745 0
0.617151 0.511315 0
0.695079 0.502159 0
0.772198 0.49279 0
0.848524 0.483711 0
0.924239 0.474876 0
1 0.464927 0
1 0.453254 0
1 0.439841 0
1 0.426474 0
0 0.533227 0
0 0.540978 0
0 0.54902 0
0 0.55729 0
0 0.565606 0
0 0.5738 0
0 0.581567 0
0 0.58851 0
0 0.593484 0
0 0.596948 0
0 0.599847 0
0 0.602625 0
0 0.605524 0
0 0.607996 0
0.0091249 0.609979 0
0.0415045 0.612161 0
0.0747692 0.614191 0
0.112596 0.615366 0
0.160769 0.613764 0
0.222751 0.608209 0
0.289265 0.601511 0
0.359167 0.594003 0
0.431739 0.585809 0
0.506798 0.577371 0
0.58349 0.568307 0
0.661036 0.558923 0
0.738476 0.549432 0
0.815229 0.540307 0
0.891737 0.531395 0
0.971832 0.521996 0
1 0.510109 0
1 0.496712 0
1 0.483284 0
0 0.580926 0
0 0.588708 0
0 0.596963 0
0 0.605615 0
0 0.614252 0
0 0.623026 0
0 0.631006 0
0 0.637919 0
0 0.643153 0
0 0.646922 0
0 0.650248 0
0 0.65359 0
0 0.656214 0
0 0.658946 0
0 0.661128 0
0.0221103 0.663249 0
0.0550698 0.665843 0
0.0910658 0.667689 0
0.134569 0.667369 0
0.192187 0.663264 0
0.257664 0.657069 0
0.326665 0.650004 0
0.398764 0.642496 0
0.473365 0.634134 0
0.549615 0.625238 0
0.627024 0.616098 0
0.704799 0.606912 0
0.782025 0.597894 0
0.859312 0.58941 0
0.939116 0.579721 0
1 0.567773 0
1 0.554467 0
1 0.541054 0
0 0.629007 0
0 0.637095 0
0 0.645655 0
0 0.654597 0
0 0.663859 0
0 0.672496 0
0 0.680674 0
0 0.687938 0
0 0.693431 0
0 0.697429 0
0 0.701259 0
0 0.704479 0
0 0.707515 0
0 0.710292 0
0 0.713054 0
0.00350958 0.715694 0
0.0368963 0.718196 0
0.0715648 0.720409 0
0.111452 0.721279 0
0.163302 0.718944 0
0.227604 0.713466 0
0.29604 0.706981 0
0.366979 0.699596 0
0.440543 0.69131 0
0.516274 0.682597 0
0.59321 0.673701 0
0.671168 0.664866 0
0.748745 0.656092 0
0.826261 0.647135 0
0.907027 0.637247 0
0.994232 0.625559 0
1 0.612177 0
1 0.59913 0
0 0.678157 0
0 0.686519 0
0 0.695705 0
0 0.704829 0
0 0.714046 0
0 0.722911 0
0 0.731258 0
0 0.73875 0
0 0.74493 0
