luts/Retro Yellow 01.cube
TITLE "Generated by Resolve"
LUT_3D_SIZE 5
0 0 0.00221256
0.0493477 0.0347601 0.0518349
0.155947 0.0549325 0.0899825
0.358831 0.0599069 0.120119
0.644099 0.0563058 0.149462
0.0654307 0.175235 0.137285
0.158816 0.229633 0.174121
0.424964 0.241367 0.169757
0.777447 0.231632 0.147738
1 0.239094 0.147326
0 0.502541 0.14725
0.140688 0.547555 0.166491
0.490135 0.538933 0.14728
0.854139 0.523201 0.13109
1 0.533471 0.14313
0 0.821378 0.138231
0.142901 0.848035 0.169253
0.491722 0.825635 0.15523
0.835691 0.798001 0.139742
1 0.795361 0.150698
0 1 0.154742
0.157946 1 0.182788
0.481178 1 0.166201
0.799466 1 0.147402
1 1 0.15407
0.0123293 0.0123293 0.0264439
0.06421 0.0448157 0.0905928
0.184039 0.0617075 0.147311
0.414969 0.0623484 0.205585
0.712169 0.0539406 0.264332
0.0666972 0.193805 0.23444
0.166598 0.244785 0.301488
0.446235 0.250797 0.321309
0.804761 0.23827 0.318807
1 0.245655 0.332158
0 0.516777 0.323934
0.14641 0.558785 0.3552
0.49897 0.54786 0.341024
0.861936 0.53135 0.324865
1 0.540841 0.335653
0 0.828748 0.331609
0.151385 0.854063 0.361044
0.498192 0.830228 0.344335
0.838865 0.80145 0.325002
1 0.79823 0.33164
0 1 0.338399
0.164828 1 0.361807
0.485725 1 0.341772
0.801984 1 0.319738
1 1 0.324178
0.0242466 0.0242466 0.0610819
0.0786603 0.0540932 0.141344
0.21529 0.0681315 0.223102
0.471962 0.0632334 0.313146
0.778088 0.0507668 0.400702
0.0664683 0.210864 0.353307
0.173404 0.258595 0.449226
0.465827 0.259678 0.489174
0.828733 0.244907 0.500984
1 0.25275 0.523308
0 0.530007 0.510048
0.153002 0.569116 0.548363
0.507637 0.556512 0.535622
0.869062 0.538979 0.518151
1 0.547921 0.527245
0 0.835676 0.524514
0.159518 0.859251 0.551293
0.504479 0.834409 0.531548
0.841657 0.804501 0.507759
1 0.800946 0.510277
0 1 0.519646
0.171618 1 0.538796
0.49012 1 0.515465
0.804746 1 0.490806
1 1 0.492866
0.0347448 0.0347448 0.10518
0.0932479 0.0629587 0.206699
0.249058 0.0738384 0.320317
0.528267 0.0626993 0.442908
0.84036 0.0471962 0.556878
0.0652781 0.226856 0.493996
0.17937 0.271031 0.61474
0.483619 0.268055 0.670222
0.849149 0.251377 0.690806
1 0.260304 0.717968
0 0.542077 0.70248
0.160174 0.578439 0.743191
0.516106 0.564965 0.72987
0.875898 0.546517 0.710658
1 0.554696 0.717159
0 0.8421 0.716213
0.168078 0.864302 0.739971
0.510185 0.837919 0.715862
0.844358 0.807462 0.687922
1 0.803372 0.686198
0.00663767 1 0.698131
0.178149 1 0.713436
0.494255 1 0.686976
0.807614 1 0.660227
1 1 0.660471
0.0445716 0.0445716 0.161395
0.107729 0.0711528 0.288212
0.285206 0.0786603 0.442084
0.581933 0.0610513 0.593103
0.898085 0.0436255 0.730404
0.0632792 0.241566 0.654932
0.184848 0.282399 0.795422
0.499672 0.276036 0.861173
0.867277 0.258381 0.886152
1 0.268254 0.913603
0 0.553155 0.898451
0.168597 0.587564 0.938155
0.524117 0.572915 0.922881
0.882307 0.553826 0.901579
1 0.561028 0.904494
0 0.847944 0.905852
0.176364 0.86865 0.925719
0.515511 0.840986 0.896941
0.846891 0.810254 0.865049
1 0.805936 0.859678
0.0145418 1 0.873625
0.184543 1 0.885618
0.498604 1 0.856565
0.810666 1 0.827817
1 1 0.825666
