luts/Retro Summer.cube
TITLE "Generated by Resolve"
LUT_3D_SIZE 9
0.100343 0.0677043 0.0578317
0.118975 0.0665599 0.0565499
0.152697 0.0611582 0.0507362
0.274784 0.0315557 0.0200656
0.46772 0 0
0.698741 0 0
0.940414 0 0
1 0 0
1 0 0
0.093492 0.0835737 0.0498665
0.112016 0.0814984 0.0479133
0.145281 0.0757458 0.0424811
0.260121 0.0488441 0.0143893
0.454551 0.00149538 0
0.691066 0 0
0.943557 0 0
1 0 0
1 0 0
0.0724193 0.105425 0.0269474
0.0940108 0.105104 0.0266117
0.12958 0.102907 0.0241703
0.238468 0.08365 0.00440986
0.443519 0.0404364 0
0.691081 0 0
0.951003 0 0
1 0 0
1 0 0
0.0271153 0.15491 0
0.0518502 0.160571 0
0.0931106 0.162387 0
0.181613 0.152514 0
0.370596 0.117037 0
0.617411 0.0683146 0
0.885695 0.0172274 0
1 0 0
1 0 0
0 0.237507 0
0 0.248722 0
0.010605 0.256779 0
0.108095 0.252735 0
0.276112 0.234653 0
0.53814 0.19733 0
0.831357 0.154955 0
1 0.116548 0
1 0.0683452 0
0 0.359655 0
0 0.383856 0
0 0.406271 0
0.0291447 0.413687 0
0.164965 0.415549 0
0.418479 0.387488 0
0.717235 0.348791 0
1 0.310872 0
1 0.260899 0
0 0.533227 0
0 0.565606 0
0 0.593484 0
0 0.605524 0
0.0747692 0.614191 0
0.289265 0.601511 0
0.58349 0.568307 0
0.891737 0.531395 0
1 0.483284 0
0 0.727886 0
0 0.764538 0
0 0.796292 0
0 0.811551 0
0.0024567 0.823499 0
0.17052 0.826154 0
0.452216 0.798459 0
0.760586 0.763302 0
1 0.715145 0
0 0.944732 0
0 0.984253 0
0 1 0
0 1 0
0 1 0
0.0576333 1 0
0.288579 1 0
0.587686 1 0
0.950225 0.971527 0
0.0991684 0.0664988 0.0817121
0.11812 0.0655833 0.0803845
0.151537 0.0600137 0.0736706
0.272404 0.0307469 0.0430304
0.46511 0 0
0.696284 0 0
0.938491 0 0
1 0 0
1 0 0
0.0923323 0.0822614 0.0727703
0.111101 0.080293 0.0708324
0.144228 0.074815 0.0652781
0.258732 0.0483711 0.037644
0.453986 0.00137331 0
0.691859 0 0
0.945769 0 0
1 0 0
1 0 0
0.0717784 0.104799 0.0500496
0.0937362 0.104845 0.0501564
0.130114 0.103578 0.0486763
0.240879 0.0845655 0.0290532
0.446723 0.0413825 0
0.695018 0 0
0.95523 0 0
1 0 0
1 0 0
0.0281987 0.156374 0
0.0528878 0.162142 0.00460822
0.0945144 0.164187 0.00628672
0.183948 0.154513 0
0.37496 0.119005 0
0.623499 0.0710002 0
0.893172 0.0210117 0
1 0 0
1 0 0
0 0.240513 0
0 0.252384 0
0.0117952 0.261372 0
0.110643 0.258564 0
0.283055 0.241672 0
0.546715 0.205219 0
0.841581 0.162905 0
1 0.124666 0
1 0.0767376 0
0 0.366293 0
0 0.392172 0
0 0.415183 0
0.0341192 0.423117 0
0.171954 0.425162 0
0.427344 0.396979 0
0.727031 0.35848 0
1 0.32079 0
1 0.271489 0
0 0.54316 0
0 0.576104 0
0 0.604471 0
0 0.616739 0
0.0811017 0.62594 0
0.298558 0.612512 0
0.593668 0.579232 0
0.902342 0.542977 0
1 0.494896 0
0 0.739361 0
0 0.776364 0
0 0.808392 0
0 0.823835 0
0.00917067 0.835782 0
0.180148 0.838071 0
0.462577 0.809964 0
0.77174 0.774975 0
1 0.726818 0
0 0.957244 0
0 0.996918 0
0 1 0
0 1 0
0 1 0
0.0649729 1 0
0.299153 1 0
0.600107 1 0
0.96347 0.985733 0
0.0968643 0.0639506 0.124224
0.115663 0.0627298 0.123049
0.148669 0.057023 0.117357
0.266575 0.0284276 0.0882582
0.458808 0 0.0363622
0.690028 0 0
0.933028 0 0
1 0 0
1 0 0
0.0897231 0.0791333 0.11667
0.108751 0.0771954 0.114977
0.141573 0.0719921 0.109712
0.254032 0.0464332 0.0830854
0.449592 6.10361e-05 0.0335851
0.689632 0 0
0.944793 0 0
1 0 0
1 0 0
0.0695048 0.102327 0.095079
0.0918746 0.103014 0.0958267
0.129091 0.102434 0.09514
0.240223 0.0842298 0.0755322
0.446159 0.0410925 0.0313878
0.695003 0 0
0.955703 0 0
1 0 0
1 0 0
0.0278172 0.155978 0.0442664
0.0527047 0.161975 0.0496223
0.0945449 0.164263 0.0515602
0.184329 0.154879 0.0429389
0.376242 0.119905 0.00808728
0.625757 0.0726024 0
0.896712 0.0240024 0
1 0 0
1 0 0
0 0.241184 0
0 0.25391 0
0.0134432 0.263798 0
0.113375 0.262211 0
0.288182 0.246937 0
0.553033 0.211139 0
0.848356 0.169314 0
1 0.131228 0
1 0.0837568 0
0 0.371054 0
0 0.398169 0
0 0.421775 0
0.039292 0.429816 0
0.178042 0.432425 0
0.43476 0.404593 0
0.735012 0.366461 0
1 0.329091 0
1 0.280018 0
0 0.5505 0
0 0.583886 0
0 0.612665 0
0 0.624949 0
0.0875257 0.634607 0
0.306722 0.621393 0
0.602289 0.588174 0
0.91133 0.552163 0
1 0.50396 0
0 0.748058 0
0 0.785397 0
0 0.817395 0
0 0.833173 0
0.0165408 0.845502 0
0.188724 0.847608 0
0.471702 0.819287 0
0.780484 0.784268 0
1 0.735821 0
0 0.966613 0
0 1 0
0 1 0
0 1 0
0 1 0
0.0725719 1 0
0.308415 1 0
0.611475 1 0
0.975494 0.998337 0
0.0862898 0.0528725 0.266987
0.105425 0.0514687 0.262959
0.138491 0.0464332 0.249271
0.250568 0.0214084 0.202243
0.441535 0 0.141466
0.672419 0 0.0778058
0.91635 0 0.0157321
1 0 0
1 0 0
0.0794842 0.0686351 0.248203
0.099382 0.0669566 0.243565
0.132891 0.0625467 0.232074
0.239918 0.0402838 0.193194
0.434852 0 0.138445
0.67599 0 0.0792706
0.932952 0 0.0204318
1 0 0
1 0 0
0.0622721 0.0943923 0.205844
0.0847334 0.0957046 0.208331
0.122957 0.0956283 0.208209
0.230274 0.0795148 0.185061
0.435172 0.0373388 0.137926
0.683574 0 0.0809491
0.945052 0 0.0236973
1 0 0
1 0 0
0.023331 0.150561 0.145922
0.0486 0.156558 0.151919
0.0905623 0.159152 0.154345
0.179141 0.150652 0.1458
0.367361 0.117342 0.112322
0.61651 0.0710765 0.0655222
0.889128 0.0233616 0.0169223
1 0 0
1 0 0
0 0.234943 0.0661479
0 0.248356 0.0697185
0.0156863 0.259236 0.0752728
0.116747 0.258747 0.0845045
0.287892 0.246189 0.0841535
0.551644 0.211643 0.0617075
0.84625 0.170474 0.0315557
1 0.133379 0.0010071
1 0.086656 0
0 0.368475 0
0 0.396353 0
0 0.420417 0
0.0456703 0.428901 0.00267033
0.18233 0.432593 0.0206302
0.436744 0.40589 0.0113222
0.736263 0.367987 0
1 0.33135 0
1 0.282658 0
0 0.549538 0
0 0.583276 0
0 0.612299 0
0 0.625101 0
0.0953384 0.635233 0
0.310796 0.623377 0
0.605417 0.590448 0
0.914855 0.554772 0
1 0.506722 0
0 0.748623 0
0 0.786084 0
0 0.818097 0
0 0.83444 0
0.0249943 0.84686 0
0.19382 0.849867 0
0.475441 0.82179 0
0.783886 0.786801 0
1 0.73846 0
0 0.967926 0
0 1 0
0 1 0
0 1 0
0 1 0
0.0809796 1 0
0.313771 1 0
0.616754 1 0
0.981796 1 0
0.0651255 0.031754 0.537072
0.085008 0.0300145 0.53164
0.118181 0.0251011 0.515221
0.222522 0.00309758 0.461479
0.412802 0 0.381567
0.644953 0 0.290242
0.892393 0 0.197375
1 0 0.109621
1 0 0.0136263
0.0586862 0.0475624 0.514107
0.0791485 0.0459754 0.508965
0.113436 0.0419623 0.495674
0.214206 0.0229191 0.449271
0.409369 0 0.377966
0.652384 0 0.29778
0.912459 0 0.217044
1 0 0.138674
1 0 0.0449378
0.0438392 0.0748913 0.463478
0.0662699 0.0771344 0.469978
0.105638 0.0772259 0.471153
0.208728 0.0632639 0.441779
0.412177 0.0231022 0.381247
0.66154 0 0.307057
0.925109 0 0.229816
1 0 0.155718
1 0 0.0677501
0.0102541 0.13669 0.355398
0.0352941 0.142123 0.370932
0.0771191 0.144594 0.377859
0.165209 0.137865 0.358053
0.350088 0.10782 0.311192
0.600275 0.0642252 0.24773
0.875547 0.0189212 0.181781
1 0 0.123781
1 0 0.0569467
0 0.224796 0.220493
0 0.238148 0.234134
0.0143282 0.249699 0.245899
0.117433 0.251499 0.247074
0.284382 0.242329 0.237125
0.547555 0.209644 0.204196
0.840787 0.17023 0.164889
1 0.134325 0.129076
1 0.0884871 0.0832837
0 0.36379 0.0812695
0 0.392187 0.0980392
0 0.416403 0.116258
0.0517586 0.425772 0.13341
0.186236 0.430701 0.150683
0.436988 0.405524 0.141573
0.73579 0.368246 0.122499
1 0.331792 0.104036
1 0.283223 0.0791333
0 0.546426 0
0 0.58056 0.00314336
0 0.609491 0.0223087
0 0.623026 0.0463111
0.103365 0.633463 0.0720989
0.313313 0.623011 0.080827
0.607309 0.590967 0.0688182
0.916594 0.555367 0.0518959
1 0.507759 0.0319524
0 0.746868 0
0 0.784573 0
0 0.8168 0
0 0.833402 0
0.0337682 0.845853 0
0.198123 0.849683 0.014435
0.477729 0.822416 0.0080415
0.785901 0.78761 0
1 0.739574 0
0 0.967056 0
0 1 0
0 1 0
0 1 0
0 1 0
0.0895247 1 0
0.318578 1 0
0.621347 1 0
0.986755 1 0
0.0399329 0.00616464 0.859907
0.0600443 0.00427253 0.854109
0.0936294 0 0.837201
0.189517 0 0.783856
0.376822 0 0.701534
0.608759 0 0.605585
0.858549 0 0.506142
1 0 0.411719
1 0 0.304387
0.0340429 0.0219577 0.836316
0.0540169 0.0206149 0.831739
0.0894484 0.0167086 0.818479
0.183383 0.000183108 0.773251
0.377096 0 0.701762
0.620432 0 0.619181
0.881605 0 0.533898
1 0 0.450141
1 0 0.348577
0.0210269 0.0501717 0.787472
0.0436103 0.0531167 0.796384
0.083772 0.053666 0.799435
0.181033 0.0414588 0.770108
0.381826 0.00257877 0.708171
0.630716 0 0.631418
0.895109 0 0.549828
1 0 0.471702
1 0 0.37734
0 0.114336 0.673274
0.0138094 0.119738 0.691432
0.0553597 0.12253 0.699886
0.14316 0.116716 0.67837
0.322744 0.0892958 0.630182
0.572747 0.0474098 0.563546
0.850019 0.00361639 0.493385
1 0 0.431144
1 0 0.353201
0 0.202472 0.528862
0 0.216205 0.546792
0.0024567 0.22858 0.561379
0.107332 0.232288 0.560967
0.268315 0.226047 0.54844
0.529229 0.195361 0.508278
0.821988 0.157931 0.455924
1 0.123949 0.404608
1 0.0806287 0.334951
0 0.348013 0.348989
0 0.376059 0.377691
0 0.400092 0.402029
0.0468299 0.410758 0.412085
0.180453 0.417624 0.418036
0.427695 0.395178 0.394659
0.72723 0.360037 0.358663
1 0.325307 0.322606
1 0.278874 0.274754
0 0.537301 0.184009
0 0.570779 0.214145
0 0.599649 0.241215
0 0.614176 0.257481
0.107485 0.625711 0.271809
0.312032 0.618265 0.268284
0.605447 0.588037 0.242893
0.915602 0.553414 0.214343
1 0.506569 0.18262
0 0.742702 0.04477
0 0.780102 0.0719615
0 0.812512 0.100114
0 0.829511 0.121157
0.0419013 0.842481 0.142565
0.20177 0.848005 0.16199
0.478996 0.821591 0.153552
0.786603 0.786892 0.139315
1 0.739162 0.121294
0 0.964279 0
0 1 0
0 1 0
0 1 0.0100252
0 1 0.0380102
0.0987716 1 0.0675669
0.322667 1 0.0798047
0.625208 1 0.072221
0.990631 1 0.054139
0.0144656 0 1
0.033814 0 1
0.068513 0 1
0.156924 0 1
0.33959 0 1
0.570047 0 0.945388
0.821637 0 0.848585
1 0 0.757458
1 0 0.650599
0.00860609 0 1
0.0281529 0 1
0.0648508 0 1
0.153506 0 1
0.343526 0 1
0.58645 0 0.963958
0.848432 0 0.879499
1 0 0.797543
1 0 0.697124
0 0.0250248 1
0.0201724 0.0284428 1
0.0610208 0.0292363 1
0.15346 0.0185092 1
0.349859 0 1
0.597833 0 0.976806
0.862974 0 0.896788
1 0 0.820035
1 0 0.728389
0 0.0901503 1
0 0.0956893 1
0.0320592 0.0988327 1
0.119417 0.0936599 1
0.292973 0.0688029 0.977539
0.542245 0.0282444 0.913512
0.821469 0 0.846052
1 0 0.78529
1 0 0.706737
0 0.177005 0.881804
0 0.19115 0.901213
0 0.20441 0.916701
0.0941024 0.20972 0.917845
0.248341 0.206119 0.907073
0.505196 0.176974 0.864744
0.797055 0.140963 0.81062
1 0.10782 0.756848
1 0.0652628 0.683085
0 0.325643 0.70219
0 0.353964 0.733562
0 0.378302 0.758953
0.0361334 0.389624 0.768414
0.168597 0.397421 0.773404
0.410544 0.376928 0.74847
0.709361 0.342962 0.709606
1 0.308843 0.669566
1 0.26302 0.615259
0 0.517052 0.523949
0 0.550561 0.557885
0 0.57969 0.587366
0 0.59469 0.601846
0.100832 0.606653 0.613291
0.299397 0.601511 0.607248
0.591043 0.572244 0.576654
0.902007 0.538399 0.541985
1 0.49276 0.49482
0 0.725826 0.356878
0 0.762676 0.393393
0 0.795102 0.425681
0 0.812467 0.443183
0.0373541 0.825895 0.456352
0.194308 0.833478 0.464714
0.469337 0.809384 0.441642
0.777401 0.776135 0.410605
1 0.73109 0.369085
0 0.954803 0.159594
0 0.993454 0.19588
0 1 0.228016
0 1 0.246845
0 1 0.262013
0.103456 1 0.278477
0.322606 1 0.280247
0.624735 1 0.262547
0.992676 1 0.230961
0 0 1
0.00787366 0 1
0.0433509 0 1
0.126757 0 1
0.303227 0 1
0.532372 0 1
0.785199 0 1
1 0 1
1 0 0.991012
0 0 1
0.00314336 0 1
0.0403449 0 1
0.125689 0 1
0.310536 0 1
0.552956 0 1
0.815595 0 1
1 0 1
1 0 1
0 0.000427253 1
0 0.00419623 1
0.0376593 0.00514229 1
0.126741 0 1
0.318395 0 1
0.565316 0 1
0.831861 0 1
1 0 1
1 0 1
0 0.0664378 1
0 0.0720989 1
0.00924697 0.0755016 1
0.0964218 0.0709697 1
0.263905 0.0487526 1
0.5122 0.00950637 1
0.793866 0 1
1 0 1
1 0 1
0 0.152514 1
0 0.167132 1
0 0.18172 1
0.0811475 0.188235 1
0.22797 0.187442 1
0.481697 0.159731 1
0.772 0.124681 1
1 0.0919661 1
1 0.0497749 1
0 0.303471 1
0 0.331914 1
0 0.356985 1
0.0260929 0.368704 1
0.157092 0.377264 1
0.39321 0.358679 1
0.690867 0.325353 1
0.995056 0.291341 1
1 0.245655 0.975814
0 0.495567 0.882719
0 0.529244 0.916472
0 0.558907 0.946334
0 0.574151 0.961257
0.0925154 0.585916 0.972778
0.284855 0.583017 0.970123
0.574594 0.554406 0.940841
0.885328 0.520668 0.905943
1 0.475212 0.85742
0 0.705379 0.717235
0 0.742351 0.754696
0 0.77496 0.787274
0 0.792416 0.804639
0.0288701 0.805844 0.817517
0.183261 0.814252 0.825193
0.454185 0.791501 0.801541
0.761791 0.759014 0.768215
1 0.71516 0.723125
0 0.935912 0.505043
0 0.974441 0.544579
0 1 0.578347
0 1 0.595117
0 1 0.60853
0.0979782 1 0.622507
0.3122 1 0.62295
0.613581 1 0.602441
0.982238 0.99939 0.564569
0 0 1
0 0 1
0.0132448 0 1
0.0932784 0 1
0.260471 0 1
0.488075 0 1
0.742321 0 1
0.996841 0 1
1 0 1
0 0 1
0 0 1
0.0109255 0 1
0.0942397 0 1
0.271778 0 1
0.512612 0 1
0.775845 0 1
1 0 1
1 0 1
0 0 1
0 0 1
0.00958267 0 1
0.0961318 0 1
0.280369 0 1
0.525521 0 1
0.793606 0 1
1 0 1
1 0 1
0 0.0379644 1
0 0.0438697 1
0 0.0475929 1
0.0691539 0.0437476 1
0.228412 0.0245518 1
0.47599 0 1
0.759335 0 1
1 0 1
1 0 1
0 0.123461 1
0 0.138262 1
0 0.154009 1
0.0636454 0.161624 1
0.20145 0.163867 1
0.450935 0.13817 1
0.739651 0.104097 1
1 0.0719615 1
1 0.0302434 1
0 0.275639 1
0 0.304387 1
0 0.329763 1
0.0133822 0.341863 1
0.142687 0.350912 1
0.371191 0.335164 1
0.666621 0.3028 1
0.971481 0.268544 1
1 0.223667 1
0 0.468284 1
0 0.502281 1
0 0.532235 1
0 0.547738 1
0.0822156 0.559686 1
0.266117 0.55935 1
0.553429 0.531426 1
0.863157 0.497704 1
1 0.452628 1
0 0.678691 1
0 0.716304 1
0 0.748989 1
0 0.766567 1
0.0186465 0.779965 1
0.16994 0.78912 1
0.434348 0.76791 1
0.74081 0.736339 1
1 0.693614 1
0 0.90959 0.925765
0 0.948333 0.964965
0 0.981537 0.998398
0 0.998703 1
0 1 1
0.0888533 1 1
0.295659 1 1
0.595056 1 1
0.962417 0.9785 0.991638
