luts/Retro Brown 01.cube
TITLE "Generated by Resolve"
LUT_3D_SIZE 33
0 0 0
0 0 0
0 0 0
0 0 0
0 0 0
0 0 0
0 0 0
0.0011902 0.00015259 0.00015259
0.00459297 0.000610361 0.000610361
0.0114443 0.00151064 0.00151064
0.0226902 0.00299077 0.00299077
0.0344549 0.00454719 0.00454719
0.0462654 0.00610361 0.00610361
0.0581674 0.00767529 0.00767529
0.0702068 0.00926223 0.00926223
0.0822919 0.0108644 0.0108644
0.0945144 0.0124819 0.0124819
0.106767 0.0140993 0.0140993
0.119081 0.0157168 0.0157168
0.131746 0.0180056 0.0175784
0.144701 0.0211337 0.0197147
0.157992 0.0249332 0.0220951
0.171908 0.030808 0.0251926
0.18677 0.0390478 0.0291905
0.202121 0.0486763 0.0339971
0.217548 0.0583658 0.0397192
0.233127 0.0681621 0.0461128
0.248707 0.0779583 0.0532845
0.264424 0.0878462 0.0613565
0.280125 0.0977188 0.070161
0.295949 0.107668 0.0796521
0.311681 0.11754 0.0890822
0.327413 0.127398 0.0984817
0 0 0
0 0 0
0 0 0
0 0 0
1.5259e-05 0 0
0.000411994 6.10361e-05 6.10361e-05
0.00296025 0.000396735 0.000396735
0.00993362 0.00131228 0.00131228
0.0203861 0.00268559 0.00268559
0.0321508 0.00424201 0.00424201
0.0440528 0.00581369 0.00581369
0.0560006 0.00738537 0.00738537
0.0680858 0.00898756 0.00898756
0.0802014 0.0105898 0.0105898
0.0923934 0.012192 0.012192
0.104738 0.013901 0.0138399
0.117327 0.0162966 0.0157321
0.13135 0.0225986 0.0189517
0.145754 0.030045 0.0225376
0.160327 0.0381018 0.0263371
0.175387 0.0470588 0.0305028
0.190692 0.0567178 0.0353094
0.206134 0.0664683 0.0407874
0.221622 0.0762493 0.0474403
0.237263 0.0861524 0.0555428
0.252918 0.0960861 0.0646525
0.26862 0.10602 0.0741283
0.284367 0.115969 0.0836042
0.300038 0.125841 0.093019
0.31577 0.135729 0.102434
0.331395 0.145525 0.111757
0.347051 0.155291 0.121065
0.3626 0.164981 0.130266
0 0 0
0 0 0
0 0 0
3.0518e-05 0 0
0.0010071 0.000137331 0.000137331
0.00683604 0.000900282 0.000900282
0.0181582 0.00239567 0.00239567
0.0299687 0.00395209 0.00395209
0.0418708 0.00552377 0.00552377
0.0538949 0.0071107 0.0071107
0.0661784 0.00936904 0.00892653
0.079118 0.0132143 0.0112917
0.0924697 0.018204 0.0140383
0.106172 0.0238956 0.0170291
0.120089 0.0302281 0.0202487
0.13434 0.0373999 0.023743
0.149065 0.045655 0.0276188
0.164233 0.0552682 0.0319371
0.179553 0.0649882 0.0369573
0.194919 0.0747387 0.0429847
0.210254 0.0844434 0.050309
0.22591 0.0944076 0.0591897
0.241535 0.104372 0.0685893
0.257237 0.114351 0.0780957
0.272877 0.124269 0.0875257
0.288548 0.134188 0.0969711
0.304143 0.14403 0.106325
0.319692 0.153826 0.115633
0.335271 0.163577 0.12491
0.350729 0.173236 0.134081
0.366186 0.182834 0.143175
0.381537 0.19234 0.152193
0.396872 0.20177 0.161151
0 0 0
0 0 0
0.000747692 9.15541e-05 9.15541e-05
0.00567636 0.000747692 0.000747692
0.0160372 0.002121 0.002121
0.0279545 0.00393683 0.00376898
0.040177 0.00642405 0.00564584
0.0527657 0.00959792 0.00776684
0.0655985 0.0134432 0.0101167
0.0787518 0.0179904 0.0127108
0.0929427 0.02533 0.0162509
0.107729 0.0344091 0.0203861
0.122789 0.0440223 0.0247196
0.137865 0.0536507 0.0291447
0.153094 0.0633707 0.0341039
0.168368 0.0731365 0.0401617
0.183734 0.0829786 0.0472572
0.199237 0.0929122 0.0550393
0.214755 0.102831 0.0635843
0.230365 0.112825 0.0726787
0.245945 0.122774 0.082063
0.261524 0.132708 0.0915084
0.277043 0.142504 0.100847
0.292576 0.152346 0.110201
0.308125 0.162158 0.119509
0.323568 0.171878 0.128725
0.339025 0.181552 0.137911
0.354345 0.191119 0.146975
0.369589 0.20058 0.155947
0.384833 0.209979 0.164843
0.399908 0.219226 0.173602
0.414954 0.228412 0.182284
0.429847 0.237446 0.190814
0.000366217 4.57771e-05 4.57771e-05
0.00560006 0.000747692 0.000747692
0.014847 0.00195315 0.00195315
0.0259556 0.00369268 0.00350958
0.0386206 0.00746166 0.00581369
0.0524758 0.0145876 0.00926223
0.0669566 0.0231327 0.0131991
0.0817884 0.0326848 0.0174868
0.0967422 0.0423285 0.0218051
0.111727 0.051957 0.0262455
0.126787 0.0616617 0.0310674
0.141985 0.0714427 0.0365759
0.157214 0.081239 0.0427863
0.17258 0.0911421 0.0496986
0.187976 0.101061 0.0578164
0.20354 0.11107 0.0669718
0.219043 0.12105 0.0763867
0.234562 0.131014 0.0858625
0.250141 0.140993 0.0953231
0.265629 0.150881 0.104723
0.281178 0.160769 0.114107
0.29662 0.170565 0.1234
0.312078 0.180331 0.132662
0.327306 0.189853 0.141711
0.342596 0.199435 0.150774
0.357824 0.208911 0.159747
0.3729 0.218235 0.168566
0.387961 0.227497 0.17731
0.402853 0.236606 0.185916
0.417609 0.245563 0.194354
0.432303 0.254429 0.202701
0.44683 0.263096 0.210864
0.461265 0.271656 0.218906
0.0154116 0.0102693 0.00454719
0.028397 0.0165866 0.00767529
0.042237 0.0236667 0.0111086
0.0563821 0.0316472 0.014847
0.0710002 0.0406348 0.0189212
0.085832 0.0502632 0.0232242
0.10074 0.0599069 0.0275425
0.11577 0.0696117 0.0318761
0.130846 0.0793774 0.0371252
0.146105 0.0892653 0.0437629
0.161425 0.0992142 0.0518502
0.176837 0.109239 0.0611429
0.192355 0.119295 0.0706798
0.207797 0.12929 0.0801709
0.223316 0.1393 0.089662
0.238758 0.149233 0.0990768
0.254231 0.159152 0.108492
0.269627 0.168978 0.1178
0.284977 0.178759 0.127062
0.300359 0.188525 0.136309
0.315602 0.198138 0.145388
0.330861 0.207721 0.154452
0.345998 0.217182 0.163394
0.361105 0.226566 0.172274
0.376074 0.235828 0.181018
0.390799 0.2448 0.189502
0.405554 0.253803 0.197971
0.420096 0.262577 0.20621
0.434562 0.271229 0.214343
0.448814 0.279683 0.222278
0.462898 0.287953 0.230015
0.47689 0.296071 0.237613
0.490639 0.303975 0.244984
0.0455329 0.0389258 0.0160678
0.0602426 0.0485389 0.0203555
0.0750134 0.0581826 0.0246586
0.0899367 0.0679026 0.0290837
0.10486 0.0776379 0.033875
0.119951 0.08748 0.0396429
0.135164 0.0974136 0.0473793
0.150454 0.107408 0.0558938
0.165866 0.117464 0.0650034
0.181247 0.127504 0.074403
0.196704 0.137545 0.0839246
0.212085 0.147524 0.09337
0.227436 0.157443 0.102785
0.242847 0.167376 0.112169
0.258167 0.177203 0.121477
0.273503 0.187015 0.130755
0.288731 0.196689 0.13991
0.303944 0.206332 0.14902
0.319051 0.215854 0.158007
0.334081 0.225284 0.166903
0.349081 0.234638 0.175723
0.363928 0.243824 0.18439
0.378729 0.252934 0.192966
0.393362 0.261875 0.201373
0.407935 0.27071 0.209689
0.422309 0.279377 0.217807
0.436423 0.287709 0.22565
0.450553 0.296056 0.233448
0.464347 0.304067 0.240925
0.478035 0.311925 0.248249
0.491463 0.319554 0.255314
0.504662 0.326925 0.26215
0.517723 0.334096 0.268788
0.0791791 0.0758679 0.0311131
0.0940871 0.0856794 0.036759
0.109209 0.0956283 0.0437476
0.124331 0.105577 0.0512856
0.139605 0.115602 0.0596323
0.154864 0.125643 0.0686503
0.170245 0.135714 0.0781109
0.18558 0.145739 0.087602
0.2009 0.155734 0.0970626
0.216281 0.165728 0.106523
0.231586 0.175631 0.115892
0.246891 0.185504 0.125216
0.262074 0.195254 0.134417
0.277211 0.204929 0.143542
0.292348 0.214542 0.152621
0.307347 0.224033 0.161578
0.322347 0.233463 0.170474
0.337163 0.242741 0.179187
0.351965 0.251926 0.187839
0.366598 0.260945 0.196307
0.381109 0.269841 0.204654
0.39556 0.278614 0.212894
0.409796 0.287175 0.22092
0.423941 0.295613 0.228809
0.437888 0.303853 0.2365
0.451728 0.31194 0.244038
0.465339 0.319799 0.251347
0.478737 0.327428 0.258442
0.491875 0.334752 0.265217
0.504784 0.341863 0.271778
0.517494 0.348714 0.27808
0.52987 0.355276 0.284092
0.541985 0.361547 0.289799
0.113558 0.113649 0.0537575
0.128725 0.123705 0.0626383
0.143954 0.133776 0.0721752
0.159258 0.143877 0.0817273
0.174502 0.153903 0.0912032
0.189822 0.163928 0.100679
0.205051 0.173877 0.110079
0.220325 0.183825 0.119478
0.235508 0.193652 0.128771
0.250645 0.203433 0.137987
0.265797 0.213153 0.147143
0.280827 0.222766 0.156207
0.295827 0.232288 0.165194
0.310658 0.241642 0.173983
0.325444 0.250919 0.182696
0.340063 0.260029 0.191257
0.354574 0.269001 0.19968
0.369039 0.277882 0.207996
0.383291 0.286534 0.216098
0.397467 0.295079 0.224079
0.411429 0.30341 0.231861
0.425238 0.311574 0.23946
0.438926 0.31957 0.246906
0.452369 0.327321 0.254093
0.46566 0.33489 0.261097
0.478721 0.342214 0.267872
0.49163 0.349355 0.274434
0.504234 0.356207 0.280735
0.516594 0.362783 0.286763
0.528695 0.369024 0.29247
0.540536 0.375051 0.297948
0.55201 0.380682 0.302998
0.563149 0.385977 0.307729
0.148348 0.151995 0.0852674
0.163592 0.162066 0.0947738
0.178744 0.172061 0.104204
0.193896 0.18201 0.113603
0.209079 0.191943 0.122957
0.224155 0.201755 0.132219
0.239277 0.211536 0.141451
0.254261 0.221225 0.150561
0.269261 0.230854 0.159625
0.284123 0.24033 0.168551
0.298894 0.249699 0.177356
0.313664 0.259007 0.186099
0.328267 0.268147 0.19469
0.342809 0.277195 0.203159
0.357061 0.285954 0.211353
0.371252 0.294591 0.21944
0.385245 0.303044 0.227314
0.399084 0.311315 0.235019
0.412818 0.319432 0.242557
0.426276 0.327291 0.249851
0.439628 0.334981 0.256977
0.45272 0.342443 0.263859
0.465629 0.349676 0.270527
0.478355 0.356695 0.276967
0.490776 0.363409 0.283116
0.503029 0.369894 0.289021
0.514977 0.376104 0.294667
0.526726 0.382055 0.300053
0.538125 0.387686 0.305104
0.549233 0.392996 0.30985
0.560098 0.398016 0.314305
0.570596 0.402655 0.31841
0.580987 0.407187 0.322362
0.182925 0.190204 0.117159
0.197955 0.200076 0.126467
0.213016 0.209934 0.135729
0.227955 0.219669 0.1449
0.242847 0.229313 0.153979
0.25774 0.238895 0.162997
0.27248 0.248341 0.171862
0.287221 0.25771 0.180667
0.301793 0.266941 0.189319
0.316335 0.276081 0.197879
0.330694 0.285023 0.206241
0.344915 0.293812 0.214466
0.359091 0.302495 0.222568
0.373053 0.310979 0.230488
0.386938 0.319326 0.238254
0.400488 0.327352 0.245701
0.41387 0.335164 0.252934
0.427024 0.342748 0.259937
0.439963 0.350103 0.266697
0.45275 0.357259 0.273259
0.465248 0.364111 0.279545
0.477562 0.370748 0.285588
0.489586 0.377096 0.291371
0.501366 0.3832 0.29688
0.512901 0.388998 0.302098
0.524102 0.394461 0.306981
0.535058 0.399649 0.311589
0.545739 0.404578 0.315938
0.556298 0.409323 0.320104
0.56672 0.413947 0.324147
0.577081 0.418494 0.328115
0.587488 0.423041 0.332067
0.597787 0.427482 0.335958
0.21677 0.227802 0.148333
0.231617 0.237446 0.157397
0.246326 0.246967 0.166339
0.261036 0.256428 0.175204
0.275593 0.265736 0.183932
0.29012 0.274952 0.192554
0.304448 0.28397 0.200992
0.318685 0.292866 0.209308
0.332845 0.30164 0.217487
0.346822 0.310216 0.225498
0.360708 0.318669 0.233356
0.374365 0.326879 0.24097
0.387854 0.334905 0.248417
0.401221 0.342763 0.255695
0.414374 0.350393 0.262745
0.427375 0.357824 0.269581
0.440024 0.364935 0.276097
0.452415 0.371725 0.282307
0.464515 0.378241 0.288228
0.476371 0.384482 0.293873
0.487999 0.390448 0.299245
0.49929 0.396078 0.304295
0.510353 0.40145 0.309071
0.521141 0.406546 0.313573
0.531731 0.411444 0.317876
0.542214 0.416159 0.322011
0.552544 0.420737 0.325994
0.56289 0.425284 0.329946
0.57319 0.429816 0.333883
0.583566 0.434379 0.33785
0.593927 0.438926 0.341802
0.604318 0.443488 0.345769
0.614786 0.448066 0.349767
0.249699 0.264546 0.178592
0.264134 0.273823 0.187274
0.278523 0.282963 0.195819
0.292744 0.291951 0.204211
0.306905 0.300832 0.212482
0.320882 0.309514 0.220569
0.334783 0.318059 0.228519
0.34844 0.326375 0.23624
0.361959 0.334508 0.243793
0.375357 0.342489 0.251164
0.388525 0.35024 0.25832
0.401556 0.357794 0.265278
0.414313 0.365072 0.271962
0.426856 0.372122 0.278416
0.439231 0.378958 0.284642
0.451331 0.385534 0.290623
0.463218 0.391836 0.296315
0.474784 0.397818 0.301717
0.485969 0.403372 0.306676
0.496834 0.408621 0.311315
0.507454 0.413611 0.315694
0.517891 0.418372 0.31986
0.528145 0.422934 0.323827
0.538415 0.427497 0.327779
0.548669 0.432029 0.331716
0.558984 0.436591 0.335683
0.569284 0.441138 0.339605
0.579614 0.445716 0.343572
0.590005 0.450309 0.34757
0.600397 0.454887 0.351553
0.610849 0.45951 0.35555
0.621286 0.464118 0.359564
0.631739 0.468727 0.363561
0.281254 0.300023 0.207492
0.295262 0.308843 0.215702
0.309102 0.317464 0.223713
0.322835 0.325933 0.231571
0.33637 0.334188 0.239216
0.349798 0.34229 0.246708
0.362997 0.350164 0.253971
0.376059 0.357839 0.261051
0.38883 0.36524 0.267826
0.401419 0.372412 0.274403
0.413855 0.3794 0.280766
0.426017 0.386099 0.286854
0.437964 0.392554 0.292699
0.449607 0.398688 0.298222
0.460975 0.404532 0.303471
0.472129 0.410117 0.308461
0.482979 0.415396 0.31313
0.493538 0.420356 0.317479
0.503838 0.425055 0.321569
0.514092 0.429648 0.325536
0.524269 0.434195 0.329473
0.534478 0.438743 0.333425
0.544762 0.443336 0.337392
0.555032 0.447913 0.34136
0.565377 0.452506 0.345342
0.575708 0.457099 0.349325
0.586099 0.461723 0.353338
0.596475 0.466346 0.357336
0.606882 0.47097 0.361349
0.617365 0.475608 0.365393
0.627817 0.480262 0.369421
0.638331 0.484932 0.373465
0.648844 0.489586 0.377523
0.310887 0.333715 0.234485
0.324453 0.342046 0.242206
0.337774 0.350134 0.249668
0.35082 0.357916 0.25684
0.363699 0.365499 0.263798
0.376333 0.372808 0.270497
0.388815 0.379934 0.276997
0.401038 0.386786 0.283238
0.413046 0.393378 0.289219
0.42475 0.399664 0.294881
0.436194 0.405676 0.300282
0.44744 0.411429 0.305409
0.458366 0.416876 0.310231
0.469017 0.422004 0.314748
0.479438 0.426902 0.31902
0.489738 0.431647 0.323156
0.500008 0.436316 0.327214
0.510185 0.440909 0.331182
0.520394 0.445487 0.335149
0.530602 0.450065 0.339101
0.540871 0.454658 0.343084
0.551141 0.459266 0.347066
0.561425 0.463874 0.351064
0.571801 0.468528 0.355077
0.582147 0.473152 0.359091
0.592554 0.477806 0.363119
0.60296 0.48246 0.367147
0.613428 0.487144 0.371206
0.62388 0.491814 0.37525
0.634348 0.496483 0.379309
0.644892 0.501198 0.383398
0.655421 0.505882 0.387472
0.66601 0.510613 0.391562
0.338445 0.365393 0.259403
0.351263 0.372992 0.266377
0.363943 0.380392 0.273152
0.376379 0.387549 0.279683
0.388418 0.394308 0.285817
0.400244 0.400778 0.291646
0.411765 0.406943 0.2972
0.423087 0.412863 0.302495
0.434104 0.418479 0.307485
0.444862 0.423789 0.312169
0.45536 0.42884 0.316594
0.465675 0.433707 0.320821
0.475929 0.438422 0.324926
0.48603 0.44303 0.328908
0.496193 0.447623 0.332876
0.506325 0.452216 0.336828
0.516487 0.456794 0.34078
0.526726 0.461418 0.344762
0.53695 0.466041 0.348745
0.54725 0.47068 0.352758
0.557534 0.475303 0.356771
0.56788 0.479973 0.3608
0.578225 0.484627 0.364828
0.588586 0.489281 0.368856
0.599023 0.49398 0.372915
0.609445 0.498665 0.376974
0.619928 0.50338 0.381048
0.630396 0.50808 0.385138
0.64094 0.51281 0.389227
0.651469 0.51754 0.393317
0.662013 0.522271 0.397421
0.672618 0.527016 0.401541
0.683207 0.531777 0.405661
0.363424 0.394583 0.281743
0.375463 0.401373 0.287892
0.387228 0.407874 0.293751
0.398795 0.41413 0.299382
0.410071 0.420096 0.304723
0.420981 0.425666 0.309651
0.43154 0.430854 0.314199
0.441855 0.435767 0.318486
0.452018 0.440513 0.322591
0.462043 0.445106 0.326543
0.472129 0.449714 0.330526
0.4822 0.454307 0.334478
0.492302 0.458915 0.338445
0.502464 0.463539 0.342443
0.512627 0.468162 0.346426
0.522866 0.472816 0.350439
0.533089 0.477455 0.354452
0.543374 0.482124 0.35848
0.553643 0.486778 0.362493
0.563943 0.491447 0.366537
0.574319 0.496147 0.370596
0.58468 0.500832 0.37464
0.595102 0.505547 0.378714
0.605509 0.510246 0.382788
0.615961 0.514977 0.386877
0.626459 0.519722 0.390967
0.636957 0.524453 0.395071
0.647517 0.529213 0.399191
0.658045 0.533974 0.403311
0.668666 0.53875 0.407446
0.679255 0.543526 0.411582
0.68986 0.548318 0.415732
0.700542 0.553124 0.419898
0.385489 0.420935 0.301167
0.396536 0.426734 0.30634
0.40734 0.432242 0.311208
0.417823 0.43743 0.315755
0.428107 0.442374 0.320043
0.438178 0.447089 0.324117
0.448188 0.451728 0.32813
0.458244 0.456352 0.332097
0.468269 0.460975 0.33608
0.47837 0.465614 0.340078
0.488457 0.470253 0.34406
0.498634 0.474907 0.348074
0.508782 0.479561 0.352087
0.518959 0.484215 0.3561
0.529213 0.488899 0.360128
0.539452 0.493584 0.364172
0.549767 0.498283 0.368215
0.560067 0.502983 0.372274
0.570428 0.507698 0.376349
0.580774 0.512413 0.380423
0.59115 0.517128 0.384497
0.601602 0.521874 0.388602
0.612024 0.526619 0.392691
0.622538 0.53138 0.396811
0.633005 0.536141 0.400916
0.643519 0.540902 0.40502
0.654093 0.545693 0.409171
0.664652 0.550484 0.413306
0.675288 0.555306 0.417472
0.685878 0.560113 0.421622
0.696559 0.56495 0.425818
0.70721 0.569772 0.429984
0.717891 0.574594 0.434165
0.404257 0.444083 0.317311
0.414359 0.44892 0.321523
0.424414 0.453681 0.325643
0.43444 0.458366 0.329686
0.444404 0.463004 0.333669
0.454444 0.467658 0.337652
0.464439 0.472282 0.341619
0.474495 0.476921 0.345617
0.484627 0.481605 0.34963
0.494728 0.486275 0.353658
0.504921 0.490974 0.357687
0.515084 0.495659 0.36173
0.525338 0.500374 0.365789
0.535576 0.505074 0.369833
0.54583 0.509789 0.373892
0.556161 0.514519 0.377981
0.566476 0.519249 0.382055
0.576867 0.52401 0.38616
0.587243 0.528756 0.390249
0.597681 0.533532 0.394369
0.608103 0.538293 0.398489
0.618555 0.543069 0.402609
0.629068 0.54786 0.406744
0.639582 0.552651 0.410895
0.650156 0.557473 0.415045
0.6607 0.56228 0.419196
0.67126 0.567086 0.423362
0.681926 0.571939 0.427558
0.692546 0.576791 0.431739
0.703243 0.581659 0.43595
0.713909 0.586511 0.440146
0.724651 0.591379 0.444358
0.735378 0.596262 0.448585
0.420798 0.46508 0.331243
0.430747 0.469734 0.335225
0.440681 0.474388 0.339223
0.450599 0.478965 0.343175
0.460655 0.48365 0.347189
0.470695 0.488319 0.351202
0.480812 0.493019 0.355245
0.490898 0.497704 0.359274
0.501076 0.502419 0.363333
0.511238 0.507134 0.367376
0.521431 0.511849 0.371435
0.531701 0.516609 0.375525
0.541955 0.52134 0.379614
0.552285 0.526116 0.383703
0.5626 0.530861 0.387808
0.572931 0.535622 0.391913
0.583337 0.540413 0.396033
0.593729 0.545205 0.400153
0.604196 0.550011 0.404303
0.614633 0.554803 0.408438
0.625147 0.559625 0.412604
0.635645 0.564446 0.416754
0.646159 0.569268 0.42092
0.656748 0.574105 0.425101
0.667323 0.578958 0.429282
0.677958 0.58381 0.433478
0.688579 0.588678 0.437675
0.699214 0.59353 0.441871
0.709926 0.598428 0.446113
0.720623 0.603311 0.450324
0.73138 0.608225 0.454582
0.742123 0.613138 0.458808
0.752926 0.618067 0.463081
0.436912 0.485725 0.344747
0.446876 0.49041 0.34876
0.456916 0.495109 0.352804
0.466957 0.499825 0.356832
0.477012 0.504524 0.360876
0.487098 0.509178 0.364904
0.497215 0.513909 0.368963
0.507408 0.518654 0.373037
0.517586 0.5234 0.377111
0.527855 0.528161 0.381216
0.538094 0.532921 0.385306
0.548363 0.537697 0.38941
0.558709 0.542489 0.393545
0.569039 0.54728 0.397665
0.579446 0.552102 0.401816
0.589822 0.556893 0.405921
0.600229 0.561715 0.410071
0.610712 0.566552 0.414237
0.621164 0.571389 0.418402
0.631708 0.576242 0.422583
0.642222 0.581094 0.426764
0.652811 0.585962 0.430961
0.663371 0.590829 0.435157
0.673945 0.595697 0.439353
0.684611 0.600595 0.44358
0.695247 0.605478 0.447807
0.705943 0.610391 0.452049
0.716625 0.61529 0.456275
0.727382 0.620218 0.460548
0.738109 0.625147 0.46479
0.748867 0.630091 0.469062
0.759701 0.63505 0.47335
0.770489 0.639994 0.477623
0.453086 0.506508 0.358328
0.463157 0.511254 0.362387
0.473213 0.515984 0.366445
0.48333 0.520745 0.370535
0.493446 0.525505 0.374624
0.503594 0.530266 0.378698
0.513756 0.534966 0.382773
0.523949 0.539742 0.386862
0.534234 0.544549 0.390997
0.544488 0.54934 0.395117
0.554833 0.554162 0.399252
0.565148 0.558968 0.403388
0.575494 0.56379 0.407538
0.585916 0.568643 0.411704
0.596323 0.57348 0.415869
0.606806 0.578347 0.42005
0.617258 0.5832 0.424231
0.627741 0.588052 0.428428
0.638285 0.59295 0.432639
0.648814 0.597833 0.436835
0.659419 0.602731 0.441062
0.670008 0.60763 0.445274
0.680659 0.612543 0.449516
0.691279 0.617472 0.453758
0.70193 0.62237 0.458
0.712657 0.627314 0.462272
0.723354 0.632258 0.466529
0.734127 0.637217 0.470802
0.744869 0.642161 0.475074
0.755688 0.64715 0.479377
0.766491 0.65211 0.483665
0.777295 0.657084 0.487968
0.78819 0.662089 0.492287
0.469413 0.527489 0.372045
0.479484 0.532265 0.376135
0.489632 0.537057 0.38024
0.499779 0.541848 0.384344
0.509987 0.546654 0.388479
0.52018 0.551461 0.392599
0.530404 0.556268 0.396735
0.540703 0.561105 0.400885
0.550927 0.56585 0.404974
0.561273 0.570703 0.40914
0.571618 0.57554 0.413306
0.58204 0.580407 0.417487
0.592432 0.58526 0.421668
0.602838 0.590127 0.425849
0.613336 0.595026 0.43006
0.623804 0.599924 0.434272
0.634363 0.604837 0.438499
0.644892 0.609735 0.44271
0.655436 0.614649 0.446937
0.666056 0.619577 0.451194
0.676646 0.624506 0.455421
0.687327 0.629465 0.459693
0.697978 0.634409 0.463966
0.70869 0.639368 0.468208
0.719371 0.644312 0.47248
0.730098 0.649287 0.476768
0.740887 0.654276 0.481071
0.751644 0.659251 0.485374
0.762478 0.664256 0.489693
0.773281 0.669261 0.493996
0.784161 0.674281 0.498329
0.79501 0.679286 0.502663
0.80589 0.684306 0.506996
0.485832 0.548638 0.38587
0.495949 0.553445 0.38999
0.506111 0.558267 0.394125
0.51635 0.563119 0.398276
0.526558 0.567956 0.402426
0.536843 0.572808 0.406577
0.547127 0.577661 0.410742
0.557427 0.582513 0.414908
0.567803 0.587396 0.419104
0.578103 0.592187 0.423239
0.588525 0.597086 0.427436
0.598932 0.601984 0.431647
0.60943 0.606897 0.435859
0.619883 0.611795 0.440085
0.630381 0.616709 0.444312
0.64094 0.621653 0.448554
0.651484 0.626581 0.452796
0.662104 0.63154 0.457069
0.672694 0.6365 0.461326
0.68336 0.641474 0.465599
0.693996 0.646433 0.469886
0.704662 0.651408 0.474159
0.715404 0.656413 0.478477
0.726116 0.661402 0.482765
0.736904 0.666407 0.487083
0.747662 0.671412 0.491402
0.758434 0.676432 0.49572
0.769284 0.681468 0.500053
0.780118 0.686488 0.504387
0.791012 0.691539 0.508751
0.801877 0.696574 0.5131
0.812818 0.70164 0.517464
0.823728 0.706691 0.521828
0.502297 0.569909 0.399756
0.512505 0.574777 0.403922
0.522728 0.57966 0.408087
0.532952 0.584512 0.412268
0.543267 0.58941 0.416464
0.553567 0.594293 0.420645
0.563928 0.599207 0.424857
0.574289 0.604105 0.429068
0.584665 0.609018 0.43328
0.595117 0.613947 0.437507
0.605554 0.618875 0.441733
0.615991 0.623728 0.44593
0.626474 0.628656 0.450172
0.637018 0.633631 0.454429
0.647562 0.638575 0.458686
0.658122 0.643534 0.462943
0.668742 0.648508 0.467231
0.679362 0.653498 0.471519
0.690044 0.658503 0.475822
0.70071 0.663508 0.480125
0.711437 0.668528 0.484443
0.722133 0.673533 0.488762
0.732876 0.678553 0.49308
0.743679 0.683589 0.497414
0.754452 0.688624 0.501747
0.765286 0.69369 0.506111
0.776104 0.698726 0.51046
0.786954 0.703792 0.514809
0.797864 0.708858 0.519188
0.808743 0.713939 0.523568
0.819699 0.71902 0.527962
0.830625 0.724102 0.532311
0.841611 0.729198 0.536721
0.518898 0.591379 0.413779
0.529122 0.596277 0.417975
0.539422 0.60119 0.422187
0.549706 0.606104 0.426383
0.560021 0.611017 0.430594
0.570413 0.615961 0.434836
0.580789 0.62089 0.439063
0.591226 0.625849 0.443305
0.601648 0.630793 0.447547
0.6121 0.635752 0.451804
0.622629 0.640726 0.456077
0.633127 0.645701 0.460349
0.643641 0.650599 0.464576
0.654185 0.655573 0.468833
0.664805 0.660578 0.473136
0.67541 0.665568 0.477424
0.68603 0.670573 0.481727
0.696742 0.675608 0.486046
0.707408 0.680629 0.490364
0.718166 0.685679 0.494713
0.728878 0.690715 0.499046
0.739681 0.695781 0.50341
0.750454 0.700847 0.507759
0.761242 0.705898 0.512108
0.772107 0.710994 0.516487
0.78294 0.71606 0.520851
0.793851 0.721172 0.525261
0.80473 0.726253 0.529641
0.815625 0.73135 0.534035
0.826596 0.736477 0.538445
0.837537 0.741588 0.542855
0.848554 0.746731 0.54728
0.859525 0.751842 0.551705
0.535531 0.61297 0.427863
0.545861 0.617914 0.43209
0.556161 0.622858 0.436316
0.566537 0.627832 0.440574
0.576898 0.632792 0.444816
0.587289 0.637751 0.449073
0.597757 0.642741 0.453346
0.608209 0.647715 0.457618
0.618723 0.65272 0.461906
0.629206 0.65771 0.466178
0.639735 0.662715 0.470466
0.650324 0.667735 0.474784
0.660899 0.67274 0.479088
0.671534 0.677775 0.483406
0.682094 0.682719 0.487678
0.69279 0.68777 0.492012
0.703456 0.692805 0.496345
0.714153 0.697856 0.500694
0.72491 0.702937 0.505043
0.735653 0.707988 0.509392
0.746456 0.713085 0.513787
0.757244 0.718166 0.518151
0.768109 0.723278 0.522545
0.778927 0.728374 0.526925
0.789792 0.733471 0.531319
0.800717 0.738613 0.535744
0.811612 0.743725 0.540139
0.822568 0.748867 0.544579
0.833509 0.754009 0.549004
0.84448 0.759136 0.553429
0.855497 0.764309 0.557885
0.866499 0.769467 0.562325
0.877577 0.774639 0.566781
0.552316 0.634745 0.442069
0.562646 0.639719 0.446326
0.573037 0.644709 0.450599
0.583413 0.649699 0.454871
0.593866 0.654719 0.459159
