luts/Retro Brown 01.cube
TITLE "Generated by Resolve"
LUT_3D_SIZE 5
0 0 0
0.00459297 0.000610361 0.000610361
0.0945144 0.0124819 0.0124819
0.202121 0.0486763 0.0339971
0.327413 0.127398 0.0984817
0.113558 0.113649 0.0537575
0.235508 0.193652 0.128771
0.354574 0.269001 0.19968
0.46566 0.33489 0.261097
0.563149 0.385977 0.307729
0.363424 0.394583 0.281743
0.452018 0.440513 0.322591
0.533089 0.477455 0.354452
0.615961 0.514977 0.386877
0.700542 0.553124 0.419898
0.502297 0.569909 0.399756
0.584665 0.609018 0.43328
0.668742 0.648508 0.467231
0.754452 0.688624 0.501747
0.841611 0.729198 0.536721
0.6374 0.745769 0.514427
0.722637 0.787167 0.549859
0.80943 0.829053 0.585748
0.897505 0.871229 0.621958
0.956634 0.909926 0.654673
0 0 0
0.0207218 0.00273136 0.00273136
0.117845 0.0167849 0.0165866
0.237354 0.0820325 0.0821393
0.36286 0.160891 0.158007
0.148653 0.14786 0.112642
0.269703 0.22678 0.187762
0.385626 0.298848 0.25594
0.491768 0.359686 0.312825
0.58201 0.403464 0.352605
0.386679 0.417304 0.331319
0.469413 0.457221 0.366629
0.550866 0.494423 0.399191
0.634119 0.53225 0.432334
0.719066 0.570672 0.466056
0.520088 0.587442 0.445441
0.602762 0.626703 0.479561
0.687282 0.66656 0.514229
0.773297 0.706905 0.549355
0.860746 0.747707 0.584939
0.655924 0.764248 0.562203
0.741497 0.80589 0.59823
0.828565 0.847959 0.634668
0.91696 0.890364 0.671458
0.964385 0.927703 0.703151
0 0 0
0.042649 0.00581369 0.00898756
0.148043 0.0363012 0.0658427
0.273121 0.115969 0.14313
0.39736 0.193515 0.218143
0.183474 0.181811 0.173495
0.302602 0.25864 0.246983
0.414801 0.326848 0.311757
0.514885 0.381506 0.362936
0.599832 0.419944 0.397772
0.406531 0.436637 0.37879
0.486839 0.473976 0.411948
0.568704 0.511467 0.445212
0.652354 0.549599 0.479057
0.737636 0.588281 0.513405
0.537926 0.605035 0.492317
0.620996 0.644541 0.527062
0.705867 0.684672 0.562356
0.792203 0.725231 0.598032
0.879942 0.766278 0.63418
0.674495 0.782788 0.611063
0.760403 0.824674 0.647639
0.847761 0.866941 0.684581
0.936461 0.90956 0.721904
0.972168 0.945495 0.752499
0.000549325 0.000549325 0.00900282
0.0675975 0.0115206 0.0574044
0.183612 0.070161 0.127764
0.308522 0.149584 0.205219
0.430671 0.224994 0.278477
0.217639 0.215152 0.235096
0.334142 0.289143 0.306172
0.44181 0.352697 0.366705
0.534646 0.400061 0.410925
0.617716 0.4365 0.444144
0.423941 0.453544 0.42504
0.50428 0.490791 0.458473
0.586587 0.528603 0.492409
0.670619 0.56701 0.526864
0.756176 0.605859 0.561746
0.555825 0.62269 0.540307
0.639261 0.662455 0.575616
0.724483 0.702815 0.61146
0.811139 0.743603 0.647715
0.899199 0.784909 0.684413
0.693111 0.801389 0.660868
0.779355 0.843488 0.697978
0.866957 0.885863 0.735393
0.955978 0.928801 0.773266
0.980011 0.963363 0.802762
0.00370794 0.00349432 0.0564736
0.0956588 0.0247654 0.112902
0.21915 0.104036 0.190967
0.343236 0.182528 0.267872
0.462516 0.255039 0.338552
0.250874 0.247532 0.296986
0.363958 0.317952 0.364828
0.4663 0.376043 0.420249
0.552468 0.416663 0.458076
0.63566 0.453147 0.491661
0.441047 0.470146 0.472038
0.521828 0.507683 0.506111
0.604562 0.54583 0.540688
0.68893 0.584482 0.575708
0.774838 0.623621 0.61117
0.573709 0.640314 0.589227
0.657603 0.68043 0.625177
0.74316 0.721035 0.661555
0.830121 0.762066 0.698299
0.91812 0.80354 0.735454
0.711803 0.82005 0.71162
0.798352 0.862364 0.749218
0.886244 0.904952 0.787091
0.972839 0.947723 0.825086
0.9879 0.981262 0.853803
