luts/Retro Summer.cube
TITLE "Generated by Resolve"
LUT_3D_SIZE 5
0.100343 0.0677043 0.0578317
0.152697 0.0611582 0.0507362
0.46772 0 0
0.940414 0 0
1 0 0
0.0724193 0.105425 0.0269474
0.12958 0.102907 0.0241703
0.443519 0.0404364 0
0.951003 0 0
1 0 0
0 0.237507 0
0.010605 0.256779 0
0.276112 0.234653 0
0.831357 0.154955 0
1 0.0683452 0
0 0.533227 0
0 0.593484 0
0.0747692 0.614191 0
0.58349 0.568307 0
1 0.483284 0
0 0.944732 0
0 1 0
0 1 0
0.288579 1 0
0.950225 0.971527 0
0.0968643 0.0639506 0.124224
0.148669 0.057023 0.117357
0.458808 0 0.0363622
0.933028 0 0
1 0 0
0.0695048 0.102327 0.095079
0.129091 0.102434 0.09514
0.446159 0.0410925 0.0313878
0.955703 0 0
1 0 0
0 0.241184 0
0.0134432 0.263798 0
0.288182 0.246937 0
0.848356 0.169314 0
1 0.0837568 0
0 0.5505 0
0 0.612665 0
0.0875257 0.634607 0
0.602289 0.588174 0
1 0.50396 0
0 0.966613 0
0 1 0
0 1 0
0.308415 1 0
0.975494 0.998337 0
0.0651255 0.031754 0.537072
0.118181 0.0251011 0.515221
0.412802 0 0.381567
0.892393 0 0.197375
1 0 0.0136263
0.0438392 0.0748913 0.463478
0.105638 0.0772259 0.471153
0.412177 0.0231022 0.381247
0.925109 0 0.229816
1 0 0.0677501
0 0.224796 0.220493
0.0143282 0.249699 0.245899
0.284382 0.242329 0.237125
0.840787 0.17023 0.164889
1 0.0884871 0.0832837
0 0.546426 0
0 0.609491 0.0223087
0.103365 0.633463 0.0720989
0.607309 0.590967 0.0688182
1 0.507759 0.0319524
0 0.967056 0
0 1 0
0 1 0
0.318578 1 0
0.986755 1 0
0.0144656 0 1
0.068513 0 1
0.33959 0 1
0.821637 0 0.848585
1 0 0.650599
0 0.0250248 1
0.0610208 0.0292363 1
0.349859 0 1
0.862974 0 0.896788
1 0 0.728389
0 0.177005 0.881804
0 0.20441 0.916701
0.248341 0.206119 0.907073
0.797055 0.140963 0.81062
1 0.0652628 0.683085
0 0.517052 0.523949
0 0.57969 0.587366
0.100832 0.606653 0.613291
0.591043 0.572244 0.576654
1 0.49276 0.49482
0 0.954803 0.159594
0 1 0.228016
0 1 0.262013
0.322606 1 0.280247
0.992676 1 0.230961
0 0 1
0.0132448 0 1
0.260471 0 1
0.742321 0 1
1 0 1
0 0 1
0.00958267 0 1
0.280369 0 1
0.793606 0 1
1 0 1
0 0.123461 1
0 0.154009 1
0.20145 0.163867 1
0.739651 0.104097 1
1 0.0302434 1
0 0.468284 1
0 0.532235 1
0.0822156 0.559686 1
0.553429 0.531426 1
1 0.452628 1
0 0.90959 0.925765
0 0.981537 0.998398
0 1 1
0.295659 1 1
0.962417 0.9785 0.991638
