luts/RFH DENTAL.cube
TITLE "Generated by Resolve"
LUT_3D_SIZE 9
0 0.000793469 0
0 0.000793469 0
0.184619 0.0516213 0.00291447
0.248264 0.0714275 0.000427253
0.79678 0.246296 0
0.893187 0.274296 0
0.893187 0.274296 0
0.893187 0.274296 0
0.893187 0.274296 0
0 0.000793469 0
0 0.000793469 0
0.100664 0.0318456 0.00976577
0.402777 0.153964 0
0.745022 0.23801 0
0.893187 0.274296 0
0.893187 0.274296 0
0.893187 0.274296 0
0.893187 0.274296 0
0.0341955 0.0353704 0.0179751
0.0232242 0.0303349 0.016846
0.0343175 0.0285649 0.0161898
0.323796 0.178164 0.00682078
0.712245 0.277592 0
0.909133 0.325841 0
0.907408 0.319356 0
0.905684 0.313436 0
0.904082 0.308003 0
0.183383 0.0975204 0.00994888
0.166812 0.0877241 0.0111849
0.192813 0.0923476 0.031281
0.308858 0.182818 0.0831464
0.664607 0.349233 0
0.926741 0.410269 0
0.927398 0.413626 0
0.927916 0.416281 0
0.928557 0.419547 0
0.399924 0.204532 0
0.415869 0.212696 0
0.437629 0.215717 0
0.512764 0.213092 0.031754
0.774487 0.418845 0.238911
0.936233 0.589578 0.0031281
0.979294 0.605615 0.00192264
0.979355 0.606699 0.00224308
0.97908 0.601907 0.000839246
0.655848 0.345861 0
0.681224 0.365042 0
0.709331 0.388296 0
0.722637 0.332998 0
0.900557 0.40766 0.321981
0.980362 0.634806 0.486564
0.981781 0.724025 0.4047
0.983398 0.735866 0.318395
0.984985 0.738247 0.225803
0.711696 0.390265 0
0.711696 0.390265 0
0.711696 0.390265 0
0.732677 0.344503 0
0.889784 0.400977 0.262379
0.981872 0.565774 0.568734
0.979767 0.681056 0.619104
0.979767 0.681056 0.619104
0.979767 0.681056 0.619104
0.711696 0.390265 0
0.711696 0.390265 0
0.711696 0.390265 0
0.722164 0.353887 0
0.865797 0.38677 0.218814
0.982437 0.508721 0.522332
0.979767 0.681056 0.619104
0.979767 0.681056 0.619104
0.979767 0.681056 0.619104
0.711696 0.390265 0
0.711696 0.390265 0
0.711696 0.390265 0
0.715969 0.369055 0
0.844739 0.371771 0.173648
0.980972 0.468589 0.459403
0.979767 0.681056 0.619104
0.979767 0.681056 0.619104
0.979767 0.681056 0.619104
0 0.000793469 0
0 0.000793469 0
0.149813 0.0419165 0.00593576
0.493294 0.129503 0.0608225
0.798764 0.24625 9.15541e-05
0.893187 0.274296 0
0.893187 0.274296 0
0.893187 0.274296 0
0.893187 0.274296 0
0 0.000793469 0
0 0.000793469 0
0.0570535 0.0226749 0.0110475
0.426383 0.126421 0
0.765789 0.236698 0
0.893187 0.274296 0
0.893187 0.274296 0
0.893187 0.274296 0
0.893187 0.274296 0
0.00967422 0.0213016 0.0128634
0.00549325 0.0158999 0.0091249
0.0606394 0.0452125 0.0227054
0.350469 0.15082 0.000610361
0.728298 0.238605 0
0.893278 0.274723 0
0.893187 0.274296 0
0.893187 0.274296 0
0.893187 0.274296 0
0.189731 0.100099 0.00935378
0.176226 0.0946212 0.0106203
0.183413 0.0897536 0.0110933
0.327321 0.194675 0.0870832
0.711192 0.344778 0
0.922805 0.389349 0
0.923613 0.393759 0
0.925032 0.401343 0
0.926986 0.41149 0
0.420905 0.215198 0
0.440833 0.225498 0
0.462104 0.236149 0
0.503899 0.209888 0.00349432
0.797574 0.43151 0.244495
0.980072 0.618631 0.00572213
0.980575 0.627802 0.011017
0.980789 0.631937 0.0146029
0.980667 0.629755 0.0127108
0.677043 0.361669 0
0.698833 0.379599 0
0.711696 0.390265 0
0.726589 0.338964 0
0.900587 0.40763 0.320836
0.980346 0.63563 0.484535
0.981537 0.720272 0.421363
0.982055 0.726635 0.388907
0.983185 0.73489 0.329671
0.711696 0.390265 0
0.711696 0.390265 0
0.711696 0.390265 0
0.731579 0.345205 0
0.886687 0.399374 0.257557
0.981994 0.558282 0.564019
0.979767 0.681056 0.619104
0.979767 0.681056 0.619104
0.979767 0.681056 0.619104
0.711696 0.390265 0
0.711696 0.390265 0
0.711696 0.390265 0
0.721294 0.355138 0
0.863355 0.38471 0.213321
0.982376 0.502953 0.515084
0.979767 0.681056 0.619104
0.979767 0.681056 0.619104
0.979767 0.681056 0.619104
0.711696 0.390265 0
0.711696 0.390265 0
0.711696 0.390265 0
0.715557 0.370581 0
0.842466 0.370291 0.168643
0.980331 0.4654 0.452003
0.979828 0.677501 0.617945
0.979767 0.681056 0.619104
0.979767 0.681056 0.619104
0 0.0346227 0.0670634
0 0.0285954 0.0538033
0.0325017 0.0336614 0.0817121
0.493751 0.117433 0.213214
0.82565 0.200656 0.121248
0.923583 0.228031 0.0645457
0.921691 0.23151 0.0411994
0.918746 0.236652 0.0231632
0.914916 0.243137 0.0101778
0 0.0198672 0.0369573
0 0.012314 0.0223392
0.00987259 0.016556 0.0301671
0.440742 0.114015 0.104631
0.780636 0.225269 0.00210575
0.893187 0.274296 0
0.893187 0.274296 0
0.893187 0.274296 0
0.893187 0.274296 0
0.000869764 0.115587 0.151949
0.00122072 0.075227 0.0988785
0.0421302 0.0724651 0.106142
0.412665 0.12195 0
0.77113 0.238392 0
0.893187 0.274296 0
0.893187 0.274296 0
0.893187 0.274296 0
0.893187 0.274296 0
0.122576 0.156588 0.108888
0.19292 0.101396 0.00906386
0.195392 0.102403 0.00881972
0.347036 0.207691 0.0897993
0.761913 0.339529 0
0.918181 0.364782 0
0.919692 0.372824 0
0.922515 0.387854 0
0.92636 0.408301 0
0.436988 0.223453 0
0.451865 0.231373 0
0.468254 0.238987 0
0.511788 0.212558 0.00440986
0.806394 0.438453 0.243748
0.980453 0.625452 0.0089723
0.981033 0.637018 0.0190127
0.981491 0.646296 0.0288548
0.981781 0.652338 0.0376593
0.682795 0.366339 0
0.704479 0.384283 0
0.711696 0.390265 0
0.729381 0.340322 0
0.900236 0.407477 0.320409
0.980331 0.636255 0.481468
0.981491 0.71931 0.425589
0.981765 0.723766 0.405829
0.982238 0.727962 0.379309
0.711696 0.390265 0
0.711696 0.390265 0
0.711696 0.390265 0
0.73048 0.345922 0
0.883528 0.397757 0.252644
0.982132 0.550637 0.559213
0.979767 0.681056 0.619104
0.979767 0.681056 0.619104
0.979767 0.681056 0.619104
0.711696 0.390265 0
0.711696 0.390265 0
0.711696 0.390265 0
0.720577 0.356191 0
0.860868 0.38262 0.207691
0.982315 0.497276 0.507973
0.979767 0.681056 0.619104
0.979767 0.681056 0.619104
0.979767 0.681056 0.619104
0.711696 0.390265 0
0.711696 0.390265 0
0.711696 0.390265 0
0.71519 0.371954 0
0.840223 0.368856 0.163745
0.979461 0.462547 0.444709
0.979934 0.671092 0.615839
0.979767 0.681056 0.619104
0.979767 0.681056 0.619104
0.000793469 0.209522 0.377859
0.000793469 0.209552 0.37792
0.00479133 0.203128 0.526558
0.582208 0.192477 0.578698
0.844724 0.178271 0.415381
0.939284 0.212177 0.349233
0.937423 0.214389 0.32874
0.935699 0.216342 0.310094
0.933959 0.218265 0.291417
0.0150607 0.209247 0.358999
0.000793469 0.195758 0.350225
0.000793469 0.197269 0.353521
0.539208 0.181399 0.544732
0.822217 0.178546 0.346822
0.93228 0.220005 0.27158
0.930694 0.221561 0.251469
0.929854 0.222293 0.238621
0.929717 0.222431 0.236316
0.0754559 0.230228 0.35523
0.0369116 0.214862 0.352499
0.0600595 0.221469 0.347402
0.46685 0.18381 0.513695
0.808957 0.183001 0.289998
0.928664 0.223316 0.219013
0.929137 0.222934 0.227527
0.931121 0.221195 0.257832
0.935042 0.217075 0.303029
0.0929427 0.26482 0.337743
0.0945754 0.26569 0.339269
0.0996719 0.271687 0.345586
0.262165 0.313313 0.371481
0.866621 0.261418 0.0976272
0.927474 0.25568 0.0482643
0.928145 0.253986 0.0615702
0.929412 0.256382 0.0944533
0.929946 0.261112 0.141482
0.394491 0.361303 0.192126
0.389639 0.391546 0.237751
0.386847 0.416922 0.276417
0.51133 0.301747 0.0630655
0.796597 0.460502 0.261631
0.980758 0.630686 0.0301366
0.981384 0.644343 0.0351263
0.982086 0.658885 0.0471962
0.982849 0.675456 0.0757305
0.695003 0.424369 0.0152132
0.713222 0.447822 0.0262455
0.723629 0.463432 0.0359655
0.726162 0.386511 0.00674449
0.885817 0.413275 0.320867
0.980209 0.629847 0.466163
0.981613 0.721355 0.416556
0.981491 0.719448 0.425025
0.981369 0.717403 0.434058
0.722683 0.467369 0.0437629
0.72311 0.466026 0.0408179
0.723613 0.460807 0.0328069
0.733928 0.391287 0.00363165
0.872358 0.398016 0.242847
0.982315 0.533761 0.546014
0.979767 0.681056 0.619104
0.979767 0.681056 0.619104
0.979767 0.681056 0.619104
0.723537 0.451514 0.0216526
0.722652 0.442206 0.0134432
0.721096 0.432044 0.00682078
0.723629 0.38056 0.000549325
0.854871 0.378012 0.194522
0.982086 0.484123 0.490501
0.979767 0.681056 0.619104
0.979767 0.681056 0.619104
0.979767 0.681056 0.619104
0.719173 0.422248 0.00363165
0.717311 0.413489 0.00181582
0.71519 0.404227 0.000808728
0.714183 0.375753 0
0.834867 0.365408 0.15201
0.977401 0.455787 0.427359
0.980194 0.655467 0.610712
0.979767 0.681056 0.619104
0.979767 0.681056 0.619104
0.0979171 0.322164 0.541573
0.0968795 0.321309 0.540398
0.0929427 0.318639 0.537072
0.192569 0.326741 0.891676
0.786938 0.302846 0.907149
0.877974 0.296468 0.851514
0.880568 0.288853 0.832975
0.883177 0.277943 0.808927
0.886198 0.260471 0.770291
0.1084 0.327199 0.539055
0.181247 0.366842 0.560021
0.167773 0.357473 0.551369
0.00418097 0.288289 0.7673
0.76379 0.288777 0.865156
0.88452 0.270848 0.793256
0.885634 0.263935 0.777935
0.885863 0.262562 0.774914
0.88484 0.268833 0.788785
0.186725 0.366522 0.554772
0.205386 0.37557 0.559396
0.230503 0.390768 0.564767
0.151034 0.34609 0.543084
0.748196 0.279942 0.839216
0.884901 0.268482 0.787991
0.882017 0.282811 0.819654
0.876265 0.300862 0.862684
0.866972 0.320745 0.91104
0.231037 0.379843 0.542748
0.237522 0.386908 0.548867
0.25568 0.401617 0.559915
0.27718 0.42089 0.570489
0.716655 0.414832 0.883436
0.901991 0.32726 0.743542
0.898192 0.343633 0.830213
0.881575 0.3691 0.923232
0.860243 0.406317 0.99411
0.285969 0.475364 0.560708
0.297673 0.489494 0.574258
0.309377 0.503548 0.587091
0.320241 0.516518 0.60061
0.625193 0.644938 0.681056
0.942107 0.55407 0.498527
0.941787 0.509682 0.476997
0.938735 0.473167 0.481941
0.940902 0.466239 0.455512
0.354772 0.607721 0.631022
0.365499 0.619913 0.644999
0.372961 0.628443 0.654582
0.362753 0.64239 0.647105
0.791943 0.5626 0.408331
0.976761 0.739864 0.615747
0.981338 0.796246 0.590219
0.980224 0.766476 0.619028
0.979416 0.725444 0.671458
0.378241 0.635813 0.660792
0.37763 0.635447 0.659983
0.375753 0.634318 0.657465
0.370047 0.667369 0.660441
0.802869 0.522637 0.30605
0.966949 0.602731 0.584543
0.979355 0.735012 0.682078
0.9794 0.727764 0.674052
0.979431 0.721538 0.667185
0.371847 0.632486 0.652384
0.36875 0.631571 0.648722
0.365545 0.631495 0.645548
0.365332 0.67039 0.65716
0.790417 0.494896 0.255116
0.945434 0.559487 0.514519
0.9794 0.728695 0.675074
0.979431 0.723369 0.669154
0.979461 0.716472 0.662486
0.361303 0.634928 0.643549
0.358328 0.639185 0.643381
0.355352 0.64828 0.646555
0.355825 0.682292 0.662409
0.778012 0.471351 0.203037
0.922667 0.521233 0.44445
0.980362 0.665965 0.648219
0.979461 0.716808 0.66276
0.979507 0.710155 0.657115
0.207843 0.389624 0.580621
0.181964 0.371862 0.570275
0.146654 0.350973 0.557641
0.0989395 0.323003 0.542718
0.742061 0.334646 0.987366
0.848997 0.360998 0.987396
0.848997 0.360998 0.987396
0.848997 0.360998 0.987396
0.848997 0.360998 0.987396
0.223575 0.400122 0.58854
0.265538 0.426444 0.608789
0.258427 0.421454 0.604959
0.238621 0.41001 0.59617
0.682521 0.336477 0.99266
0.848997 0.360998 0.987396
0.848997 0.360998 0.987396
0.848997 0.360998 0.987396
0.848997 0.360998 0.987396
0.241474 0.411856 0.597589
0.270893 0.430289 0.61178
0.298039 0.450904 0.628214
0.290425 0.445228 0.623652
0.632273 0.340246 0.99527
0.848997 0.360998 0.987396
0.848997 0.360998 0.987396
0.848997 0.360998 0.987396
0.848997 0.360998 0.987396
0.274189 0.432685 0.613657
0.29099 0.44564 0.624002
0.316732 0.465904 0.64239
0.352102 0.50161 0.667308
0.323095 0.393851 0.919707
0.879316 0.480522 0.998688
0.873045 0.458259 0.997436
0.870008 0.446265 0.996704
0.867887 0.437537 0.996155
0.374029 0.524071 0.679881
0.382452 0.535515 0.686687
0.38912 0.548455 0.691691
0.392172 0.560174 0.69485
0.415686 0.596735 0.722072
0.859632 0.68835 0.999329
0.915862 0.638239 0.999786
0.90866 0.595941 0.999817
0.903639 0.571008 0.999817
0.432303 0.656916 0.734951
0.438254 0.664256 0.742306
0.442603 0.669459 0.747646
0.437278 0.663111 0.74107
0.454536 0.690425 0.757763
0.897353 0.900771 0.912306
0.959976 0.848814 0.823575
0.937163 0.774075 0.740871
0.919448 0.702129 0.689448
0.446921 0.676844 0.752255
0.446311 0.676677 0.751324
0.44506 0.676341 0.749401
0.443351 0.679408 0.745647
0.437812 0.698619 0.731182
0.879026 0.769528 0.703044
0.979706 0.836805 0.798474
0.979416 0.811704 0.769039
0.979278 0.78967 0.742977
0.442237 0.67541 0.745174
0.439963 0.674556 0.741772
0.437507 0.673411 0.738155
0.431571 0.671473 0.729381
0.419654 0.693309 0.707698
0.867338 0.706752 0.608835
0.979126 0.804883 0.770748
0.979324 0.800137 0.755184
0.979278 0.78088 0.733074
0.433783 0.671519 0.732799
0.431006 0.670008 0.728832
0.428031 0.668177 0.724651
0.419547 0.662577 0.712932
0.407462 0.696849 0.690333
0.853468 0.653971 0.527443
0.975586 0.750301 0.73463
0.979278 0.786542 0.739437
0.979278 0.775372 0.72694
0.2607 0.423056 0.60618
0.24799 0.415503 0.600397
0.234714 0.407477 0.594217
0.2056 0.388113 0.579492
0.711635 0.33492 0.990524
0.848997 0.360998 0.987396
0.848997 0.360998 0.987396
0.848997 0.360998 0.987396
0.848997 0.360998 0.987396
0.263478 0.424994 0.607675
0.298741 0.451423 0.628641
0.29073 0.445457 0.623835
0.275135 0.433387 0.614206
0.624414 0.34081 0.995666
0.848997 0.360998 0.987396
0.848997 0.360998 0.987396
0.848997 0.360998 0.987396
0.848997 0.360998 0.987396
0.269657 0.429389 0.611078
0.299397 0.451911 0.629053
0.327245 0.475593 0.65066
0.318334 0.467353 0.64387
0.531029 0.346593 0.999008
0.848997 0.360998 0.987396
0.848997 0.360998 0.987396
0.848997 0.360998 0.987396
0.848997 0.360998 0.987396
0.286717 0.44239 0.621393
0.312581 0.462196 0.63859
0.340093 0.488243 0.659648
0.380392 0.532479 0.685283
0.221683 0.416999 0.637598
0.878401 0.477363 0.99852
0.883024 0.495232 0.999252
0.877134 0.472999 0.998291
0.873533 0.460014 0.997543
0.378653 0.529915 0.684077
0.386755 0.543496 0.68986
0.392706 0.562554 0.695476
0.397284 0.584802 0.702022
0.439689 0.660212 0.745861
0.454688 0.613596 0.750011
0.931365 0.715221 0.999741
0.917327 0.646235 0.999786
0.90985 0.603143 0.999802
0.440436 0.664714 0.745663
0.44622 0.673915 0.752056
0.44831 0.677211 0.75436
0.44831 0.677211 0.75436
0.459358 0.689189 0.76701
0.493019 0.729427 0.802899
0.967025 0.914137 0.999649
0.952377 0.848264 0.999664
0.944091 0.780743 0.999695
0.44831 0.677211 0.75436
0.44831 0.677211 0.75436
0.44831 0.677211 0.75436
0.44831 0.677211 0.75436
0.469566 0.69894 0.779522
0.523781 0.774868 0.825238
0.990814 0.999207 0.99939
0.987976 0.989105 0.99469
0.985016 0.964935 0.966293
0.44831 0.677211 0.75436
0.44831 0.677211 0.75436
0.44831 0.677211 0.75436
0.449302 0.678447 0.755611
0.468681 0.697887 0.777661
0.508721 0.756603 0.811231
0.953658 0.967941 0.964645
0.984604 0.953262 0.93576
0.98172 0.906661 0.881148
0.44831 0.677211 0.75436
0.44831 0.677211 0.75436
0.44831 0.677211 0.75436
0.44831 0.677211 0.75436
0.462531 0.695338 0.768521
0.501167 0.758465 0.784115
0.926329 0.88629 0.871931
0.981613 0.904005 0.877989
0.980545 0.87512 0.843626
0.295064 0.448676 0.626444
0.285069 0.441077 0.62034
0.275303 0.433509 0.614298
0.247074 0.415015 0.600015
0.63743 0.339879 0.99501
0.848997 0.360998 0.987396
0.848997 0.360998 0.987396
0.848997 0.360998 0.987396
0.848997 0.360998 0.987396
0.293233 0.447318 0.62533
0.327535 0.475868 0.650874
0.320806 0.469596 0.645945
0.302968 0.454612 0.631495
0.443824 0.34641 0.995331
0.848997 0.360998 0.987396
0.848997 0.360998 0.987396
0.848997 0.360998 0.987396
0.848997 0.360998 0.987396
0.294499 0.448264 0.626093
0.325643 0.474113 0.649485
0.355352 0.504204 0.669017
0.344076 0.493355 0.662425
0.08365 0.314229 0.849348
0.848997 0.360998 0.987396
0.848997 0.360998 0.987396
0.851865 0.37142 0.990662
0.848997 0.360998 0.987396
0.304173 0.455528 0.632319
0.333303 0.481315 0.654932
0.366705 0.515267 0.676036
0.394156 0.571267 0.697734
0.369741 0.519173 0.684062
0.874449 0.463355 0.997742
0.882612 0.493523 0.999191
0.886091 0.5075 0.999573
0.879927 0.482643 0.998795
0.383139 0.536538 0.68716
0.390967 0.555291 0.693568
0.396445 0.581567 0.700908
0.411032 0.61471 0.714946
0.453819 0.683787 0.76112
0.458808 0.682139 0.768246
0.877867 0.694606 0.999985
0.930861 0.712718 0.999741
0.916732 0.643107 0.999786
0.443442 0.669505 0.748989
0.44831 0.677211 0.75436
0.44831 0.677211 0.75436
0.44831 0.677211 0.75436
0.455161 0.685481 0.762875
0.47454 0.705058 0.786374
0.530556 0.772641 0.825406
0.965133 0.907652 0.999649
0.950393 0.835081 0.999664
0.44831 0.677211 0.75436
0.44831 0.677211 0.75436
0.44831 0.677211 0.75436
0.44831 0.677211 0.75436
0.457008 0.687541 0.765118
0.476371 0.707332 0.788693
0.612467 0.843046 0.864027
0.990814 0.999207 0.99939
0.984024 0.982574 0.99942
0.44831 0.677211 0.75436
0.44831 0.677211 0.75436
0.44831 0.677211 0.75436
0.44831 0.677211 0.75436
0.466514 0.695308 0.773693
0.490761 0.731975 0.804852
0.84213 0.954284 0.9561
0.990814 0.999207 0.99939
0.990814 0.999207 0.99939
0.44831 0.677211 0.75436
0.44831 0.677211 0.75436
0.44831 0.677211 0.75436
0.44831 0.677211 0.75436
0.466087 0.694789 0.773159
0.485969 0.723552 0.800381
0.736614 0.907866 0.914336
0.990814 0.999207 0.99939
0.990814 0.999207 0.99939
0.324407 0.472953 0.648585
0.316197 0.465446 0.641917
0.307057 0.457694 0.634272
0.280491 0.437461 0.617426
0.380789 0.34287 0.976471
0.848997 0.360998 0.987396
0.848997 0.360998 0.987396
0.848997 0.360998 0.987396
0.848997 0.360998 0.987396
0.320439 0.469261 0.645685
0.354101 0.503197 0.66836
0.345953 0.49575 0.663722
0.328557 0.476814 0.651606
0.000747692 0.256306 0.637781
0.848997 0.360998 0.987396
0.848997 0.360998 0.987396
0.848997 0.360998 0.987396
0.848997 0.360998 0.987396
0.318746 0.46772 0.644236
0.349813 0.499794 0.666102
0.379675 0.531426 0.684779
0.371572 0.520897 0.679301
0.310719 0.460517 0.636881
0.848997 0.360998 0.987396
0.848997 0.360998 0.987396
0.850843 0.367681 0.989487
0.855222 0.386572 0.992599
0.322148 0.470863 0.646937
0.357122 0.505608 0.669947
0.386374 0.542702 0.68957
0.41268 0.617426 0.716243
0.398001 0.587594 0.702983
0.814389 0.439078 0.998856
0.87953 0.481285 0.998718
0.885771 0.506294 0.999542
0.887785 0.51397 0.999695
0.387747 0.545586 0.690639
0.394156 0.571221 0.697719
0.404868 0.604501 0.710124
0.426352 0.641321 0.730297
0.453178 0.683055 0.760372
0.463752 0.692409 0.770535
0.461158 0.673747 0.771496
0.928344 0.700465 0.999756
0.927855 0.698085 0.999756
0.446464 0.674296 0.752331
0.44831 0.677211 0.75436
0.44831 0.677211 0.75436
0.44831 0.677211 0.75436
0.452918 0.682765 0.760067
0.468406 0.697566 0.777096
0.477943 0.709361 0.790707
0.700694 0.857282 0.89134
0.962646 0.898451 0.999664
0.44831 0.677211 0.75436
0.44831 0.677211 0.75436
0.44831 0.677211 0.75436
0.44831 0.677211 0.75436
0.452735 0.682536 0.759838
0.468284 0.697414 0.776837
0.493065 0.735851 0.806638
0.798566 0.936584 0.940002
0.990814 0.999207 0.99939
0.44831 0.677211 0.75436
0.44831 0.677211 0.75436
0.44831 0.677211 0.75436
0.44831 0.677211 0.75436
0.454368 0.684504 0.761852
0.470893 0.700557 0.78172
0.501823 0.749355 0.812879
0.990814 0.999207 0.99939
0.990814 0.999207 0.99939
0.44831 0.677211 0.75436
0.44831 0.677211 0.75436
0.44831 0.677211 0.75436
0.44831 0.677211 0.75436
0.463752 0.692409 0.770535
0.481804 0.716564 0.795575
0.659602 0.86981 0.883177
0.990814 0.999207 0.99939
0.990814 0.999207 0.99939
