luts/RFH DENTAL.cube
TITLE "Generated by Resolve"
LUT_3D_SIZE 33
0 0.000793469 0
0 0.000793469 0
0 0.000793469 0
0 0.000793469 0
0 0.000793469 0
0 0.000793469 0
0 0.000793469 0
0 0.000793469 0
0.184619 0.0516213 0.00291447
0.185657 0.0519417 0.00282292
0.194568 0.0547341 0.00209049
0.214908 0.0612955 0.00123598
0.248264 0.0714275 0.000427253
0.562173 0.173632 0
0.637369 0.197711 0
0.715908 0.221317 0
0.79678 0.246296 0
0.868086 0.267506 0
0.893187 0.274296 0
0.893187 0.274296 0
0.893187 0.274296 0
0.893187 0.274296 0
0.893187 0.274296 0
0.893187 0.274296 0
0.893187 0.274296 0
0.893187 0.274296 0
0.893187 0.274296 0
0.893187 0.274296 0
0.893187 0.274296 0
0.893187 0.274296 0
0.893187 0.274296 0
0.893187 0.274296 0
0.893187 0.274296 0
0 0.000793469 0
0 0.000793469 0
0 0.000793469 0
0 0.000793469 0
0 0.000793469 0
0 0.000793469 0
0 0.000793469 0
0 0.000793469 0
0.166812 0.0460365 0.00437934
0.168887 0.0466926 0.00421149
0.179583 0.0500343 0.00332647
0.204349 0.057847 0.00149538
0.239841 0.0691081 0.000640879
0.54667 0.16846 0
0.621759 0.19295 0
0.702358 0.217166 0
0.782437 0.241856 0
0.854505 0.264103 0
0.893187 0.274296 0
0.893187 0.274296 0
0.893187 0.274296 0
0.893187 0.274296 0
0.893187 0.274296 0
0.893187 0.274296 0
0.893187 0.274296 0
0.893187 0.274296 0
0.893187 0.274296 0
0.893187 0.274296 0
0.893187 0.274296 0
0.893187 0.274296 0
0.893187 0.274296 0
0.893187 0.274296 0
0.893187 0.274296 0
0 0.000793469 0
0 0.000793469 0
0 0.000793469 0
0 0.000793469 0
0 0.000793469 0
0 0.000793469 0
0 0.000793469 0
0 0.000793469 0
0.146349 0.0411688 0.0062562
0.150134 0.0419928 0.00590524
0.164141 0.0451972 0.00460822
0.192493 0.054078 0.00225834
0.231464 0.0667124 0.000839246
0.529778 0.161975 0
0.606973 0.188144 0
0.688304 0.21297 0
0.76788 0.2374 0
0.840955 0.260594 0
0.893187 0.274296 0
0.893187 0.274296 0
0.893187 0.274296 0
0.893187 0.274296 0
0.893187 0.274296 0
0.893187 0.274296 0
0.893187 0.274296 0
0.893187 0.274296 0
0.893187 0.274296 0
0.893187 0.274296 0
0.893187 0.274296 0
0.893187 0.274296 0
0.893187 0.274296 0
0.893187 0.274296 0
0.893187 0.274296 0
0 0.000793469 0
0 0.000793469 0
0 0.000793469 0
0 0.000793469 0
0 0.000793469 0
0 0.000793469 0
0 0.000793469 0
0 0.000793469 0
0.124102 0.036286 0.00833143
0.130037 0.037583 0.0077821
0.147173 0.0413367 0.0061799
0.180316 0.0502785 0.00326543
0.427359 0.146242 0
0.512596 0.169329 0
0.59469 0.189822 0
0.673716 0.210285 0
0.754665 0.232975 0
0.828046 0.256657 0
0.891585 0.273854 0
0.893187 0.274296 0
0.893187 0.274296 0
0.893187 0.274296 0
0.893187 0.274296 0
0.893187 0.274296 0
0.893187 0.274296 0
0.893187 0.274296 0
0.893187 0.274296 0
0.893187 0.274296 0
0.893187 0.274296 0
0.893187 0.274296 0
0.893187 0.274296 0
0.893187 0.274296 0
0.893187 0.274296 0
0 0.000793469 0
0 0.000793469 0
0 0.000793469 0
0 0.000793469 0
0 0.000793469 0
0 0.000793469 0
0 0.000793469 0
0 0.000793469 0
0.100664 0.0318456 0.00976577
0.10956 0.0334783 0.00927749
0.130373 0.0376593 0.00775158
0.168444 0.0465553 0.00425727
0.402777 0.153964 0
0.495293 0.177203 0
0.58172 0.198016 0
0.66453 0.218555 0
0.745022 0.23801 0
0.81738 0.257496 0
0.879393 0.272068 0
0.893187 0.274296 0
0.893187 0.274296 0
0.893187 0.274296 0
0.893187 0.274296 0
0.893187 0.274296 0
0.893187 0.274296 0
0.893187 0.274296 0
0.893187 0.274296 0
0.893187 0.274296 0
0.893187 0.274296 0
0.893187 0.274296 0
0.893187 0.274296 0
0.893187 0.274296 0
0.893187 0.274296 0
0 0.000793469 0
0 0.000793469 0
0 0.000793469 0
0 0.000793469 0
0 0.000793469 0
0 0.000793469 0
0 0.000793469 0
0 0.000793469 0
0.0764935 0.0273442 0.0110475
0.0892348 0.0297551 0.0103914
0.114443 0.0343786 0.00900282
0.157061 0.0435035 0.0052491
0.380926 0.161624 0.000122072
0.476448 0.18587 0
0.568963 0.207584 0
0.655863 0.228138 0
0.736309 0.247288 0
0.810346 0.266346 0
0.870985 0.283955 0
0.896513 0.288304 0
0.895552 0.285527 0
0.894987 0.282856 0
0.894484 0.280415 0
0.89398 0.278035 0
0.893492 0.2757 0
0.893187 0.274296 0
0.893187 0.274296 0
0.893187 0.274296 0
0.893187 0.274296 0
0.893187 0.274296 0
0.893187 0.274296 0
0.893187 0.274296 0
0.893187 0.274296 0
0 0.000793469 0
0 0.000793469 0
0 0.000793469 0
0 0.000793469 0
0 0.000793469 0
0 0.000793469 0
0 0.000793469 0
0 0.000793469 0
0.0559243 0.0224155 0.0110475
0.0715648 0.0261692 0.0110475
0.10016 0.031754 0.00979629
0.269474 0.141436 0.00906386
0.360204 0.168933 0.00105287
0.457267 0.193454 0
0.555138 0.216648 0
0.645472 0.237827 0
0.727977 0.257267 0
0.80264 0.277958 0
0.864057 0.294148 0
0.902144 0.30222 0
0.901274 0.299657 0
0.900526 0.297429 0
0.899641 0.295399 0
0.898787 0.293462 0
0.897917 0.291493 0
0.897078 0.289586 0
0.896269 0.28777 0
0.895628 0.285863 0
0.895201 0.283818 0
0.894774 0.281834 0
0.894362 0.279881 0
0.89398 0.278035 0
0.893599 0.276234 0
0 0.000793469 0
0 0.000793469 0
0 0.000793469 0
0 0.000793469 0
0 0.000793469 0
0 0.000793469 0
0 0.000793469 0
0.033875 0.0283665 0.0161135
0.0394446 0.0199283 0.01149
0.0571908 0.0227054 0.0110475
0.0882277 0.0295567 0.0104524
0.247761 0.141802 0.0144961
0.339986 0.174151 0.00315862
0.440192 0.200549 0
0.540032 0.224704 0
0.635065 0.246708 0
0.719768 0.267033 0
0.795468 0.287709 0
0.858351 0.304036 0
0.906325 0.315618 0
0.905699 0.313481 0
0.905119 0.311467 0
0.904555 0.30956 0
0.90399 0.307698 0
0.903365 0.305867 0
0.902739 0.303975 0
0.902083 0.302052 0
0.901488 0.300298 0
0.900908 0.298589 0
0.900313 0.296925 0
0.899626 0.295369 0
0.89897 0.293873 0
0.898344 0.29247 0
0.0341955 0.0353704 0.0179751
0.03122 0.0341192 0.0177615
0.0283207 0.0328985 0.0175631
0.0253452 0.031632 0.0173495
0.0232242 0.0303349 0.016846
0.0212558 0.0290837 0.0163119
0.0194095 0.0279088 0.0158236
0.032105 0.0323186 0.0187533
0.0343175 0.0285649 0.0161898
0.0453498 0.0198672 0.0110475
0.168582 0.106996 0.029221
0.232883 0.140764 0.02121
0.323796 0.178164 0.00682078
0.425025 0.207126 0.000137331
0.527199 0.232609 0
0.624872 0.255589 0
0.712245 0.277592 0
0.791226 0.2972 0
0.854109 0.313954 0
0.908537 0.327413 0
0.909133 0.325841 0
0.908705 0.324193 0
0.908293 0.322606 0
0.907851 0.320958 0
0.907408 0.319356 0
0.906981 0.317861 0
0.906538 0.316365 0
0.906111 0.314916 0
0.905684 0.313436 0
0.905272 0.312032 0
0.904875 0.310628 0
0.904479 0.309285 0
0.904082 0.308003 0
0.0348974 0.0356603 0.0180209
0.0319219 0.0344091 0.0178225
0.0292058 0.0332647 0.0176242
0.0266575 0.0321965 0.0174411
0.0246738 0.0312657 0.0172274
0.0235142 0.0305333 0.0169223
0.0227054 0.0300145 0.0167086
0.0988327 0.0651713 0.0319524
0.10988 0.0721752 0.0330205
0.126314 0.0824598 0.0343938
0.162127 0.103777 0.0339208
0.221653 0.139284 0.0286412
0.309026 0.182223 0.0122988
0.408835 0.214054 0.00151064
0.514153 0.241062 0
0.614496 0.265507 0
0.70602 0.288808 0
0.786343 0.307881 0
0.85153 0.325002 0
0.907561 0.339025 0
0.912367 0.338796 0
0.912032 0.337346 0
0.911727 0.336019 0
0.911391 0.334615 0
0.911055 0.333196 0
0.910735 0.33196 0
0.91043 0.33077 0
0.910109 0.329549 0
0.909789 0.328359 0
0.909499 0.32723 0
0.909209 0.326146 0
0.908934 0.325078 0
0.90866 0.324041 0
0.0419928 0.0386511 0.0185245
0.0397192 0.0376898 0.0183719
0.0376135 0.0368048 0.0182193
0.0961624 0.060029 0.0187991
0.0957198 0.058854 0.0217746
0.0979477 0.0602731 0.02533
0.103426 0.0634775 0.0291905
0.111482 0.0677348 0.0327001
0.123415 0.074815 0.0357214
0.138125 0.0836042 0.0388647
0.164675 0.102495 0.0412299
0.215686 0.137819 0.0391394
0.293935 0.185855 0.0224765
0.39086 0.222232 0.00509651
0.49662 0.251026 0.000320439
0.601694 0.278508 0
0.697368 0.30132 0
0.778744 0.320134 0
0.847822 0.337469 0
0.904555 0.352178 0
0.915801 0.353902 0
0.915557 0.352804 0
0.915328 0.351766 0
0.915084 0.350668 0
0.914824 0.349432 0
0.91458 0.348333 0
0.914366 0.347387 0
0.914153 0.346517 0
0.913954 0.345647 0
0.913787 0.3449 0
0.913603 0.344137 0
0.913451 0.34345 0
0.913298 0.342809 0
0.14641 0.0811627 0.0128023
0.137942 0.0779431 0.01355
0.129992 0.0749371 0.0142367
0.124376 0.071931 0.0150607
0.123323 0.0692149 0.0164034
0.126558 0.0692149 0.0200046
0.131823 0.0710155 0.0249638
0.139757 0.0745861 0.0308385
0.15169 0.0809186 0.0373846
0.16495 0.0892348 0.0436103
0.184863 0.103426 0.0507362
0.225467 0.135439 0.0560616
0.28806 0.189044 0.0424659
0.374777 0.234989 0.015671
0.476005 0.268238 0.00242618
0.584314 0.297459 0
0.682094 0.319677 0
0.766934 0.337789 0
0.838727 0.354543 0
0.897032 0.369619 0
0.920272 0.37586 0
0.920226 0.375631 0
0.920195 0.375479 0
0.920165 0.375326 0
0.920134 0.375097 0
0.920104 0.374945 0
0.920073 0.374807 0
0.920043 0.374655 0
0.919997 0.374426 0
0.919982 0.37435 0
0.919982 0.37435 0
0.920012 0.374502 0
0.920058 0.374731 0
0.183383 0.0975204 0.00994888
0.177523 0.0951553 0.0104982
0.172259 0.093019 0.0109865
0.168002 0.0910658 0.0112917
0.166812 0.0877241 0.0111849
0.168338 0.0851453 0.0122225
0.172824 0.085008 0.0157321
0.181094 0.0875715 0.0222782
0.192813 0.0923476 0.031281
0.206867 0.0996567 0.0429084
0.223392 0.109865 0.0570993
0.255497 0.131838 0.0790417
0.308858 0.182818 0.0831464
0.37438 0.246815 0.0460517
0.461982 0.295048 0.0144045
0.564996 0.325643 0.00115969
0.664607 0.349233 0
0.75111 0.367178 0
0.823407 0.38291 0
0.884092 0.39939 0
0.926741 0.410269 0
0.926925 0.411185 0
0.927123 0.412177 0
0.927275 0.413016 0
0.927398 0.413626 0
0.92752 0.414237 0
0.927657 0.414908 0
0.927794 0.415595 0
0.927916 0.416281 0
0.928069 0.417044 0
0.928237 0.417884 0
0.928405 0.418723 0
0.928557 0.419547 0
0.227344 0.117754 0.00622568
0.224277 0.11632 0.00654612
0.221805 0.11516 0.00682078
0.22002 0.114321 0.00701915
0.218997 0.113832 0.00712596
0.220157 0.109148 0.00575265
0.223972 0.106096 0.00552377
0.231647 0.105913 0.00892653
0.242603 0.109331 0.0159152
0.257618 0.11548 0.0280156
0.273869 0.124331 0.0470741
0.298131 0.139467 0.0820172
0.345693 0.172473 0.123247
0.410513 0.235904 0.115557
0.474083 0.315816 0.057023
0.561975 0.361318 0.0149691
0.654765 0.389807 0.00115969
0.739162 0.408743 0
0.809384 0.422965 0
0.869276 0.435935 0
0.921691 0.448341 0
0.934844 0.452949 0
0.93518 0.454734 0
0.9355 0.456443 0
0.935775 0.458 0
0.93608 0.459617 0
0.936355 0.461082 0
0.936629 0.462547 0
0.936889 0.464012 0
0.937133 0.465324 0
0.937392 0.466651 0
0.937621 0.467796 0
0.93785 0.468956 0
0.277684 0.140154 0.00225834
0.276677 0.139666 0.00233463
0.276341 0.139513 0.00236515
0.2766 0.139635 0.00234989
0.277607 0.140108 0.00227359
0.279286 0.140902 0.00215152
0.282887 0.135363 0.000991836
0.28925 0.131655 0.00109865
0.300435 0.131289 0.00274662
0.31458 0.134646 0.00852979
0.329885 0.141604 0.0227054
0.350378 0.154162 0.0526894
0.39237 0.182467 0.119173
0.457862 0.219379 0.175067
0.528176 0.296178 0.152178
0.58645 0.388724 0.066865
0.662745 0.431327 0.0148623
0.738918 0.45185 0.00103761
0.805432 0.466728 0
0.862333 0.479744 0
0.912703 0.492912 0
0.944335 0.502022 0
0.944884 0.504891 0
0.945403 0.507576 0
0.945891 0.509957 0
0.946578 0.511925 0
0.947204 0.513726 0
0.947784 0.515389 0
0.948302 0.516884 0
0.94876 0.518212 0
0.949142 0.51931 0
0.949447 0.52018 0
0.949691 0.520897 0
0.334844 0.169787 0.000732433
0.336019 0.170352 0.000701915
0.337881 0.171267 0.000640879
0.34052 0.172549 0.000549325
0.343847 0.174166 0.000442512
0.347677 0.176013 0.000335698
0.351995 0.178119 0.000198367
0.357717 0.172564 0
0.365637 0.167025 0
0.376745 0.163668 0.000427253
0.391241 0.165713 0.00334173
0.411856 0.174456 0.018616
0.449897 0.196872 0.0766155
0.510903 0.232837 0.170733
0.583383 0.270512 0.235828
0.651591 0.357443 0.193912
0.693828 0.45684 0.0824903
0.755062 0.4972 0.0202487
0.816693 0.515099 0.0024567
0.87071 0.52845 3.0518e-05
0.918334 0.540749 0
0.96144 0.552361 0
0.96228 0.554543 0
0.963027 0.556497 0
0.963638 0.558099 0
0.964218 0.55964 0
0.964736 0.560967 0
0.965179 0.562158 0
0.965499 0.562997 0
0.965743 0.563638 0
0.965881 0.563989 0
0.965911 0.56405 0
0.965805 0.563775 0
0.399924 0.204532 0
0.402975 0.206256 0
0.406821 0.208209 0
0.411139 0.210346 0
0.415869 0.212696 0
0.420905 0.215198 0
0.426139 0.217792 0
0.431281 0.220417 0
0.437629 0.215717 0
0.44715 0.207202 0
0.460349 0.200931 0.000106813
0.47892 0.200336 0.00260929
0.512764 0.213092 0.031754
0.572519 0.250523 0.13312
0.638911 0.291478 0.23827
0.712154 0.329824 0.297215
0.774487 0.418845 0.238911
0.798169 0.520195 0.113024
0.844465 0.562631 0.0400092
0.8925 0.578286 0.0116732
0.936233 0.589578 0.0031281
0.975052 0.600549 0.00111391
0.979156 0.603342 0.0012665
0.979248 0.604776 0.00167849
0.979294 0.605615 0.00192264
0.979339 0.606455 0.00216678
0.97937 0.606867 0.00228885
0.97937 0.606958 0.00231937
0.979355 0.606699 0.00224308
0.979324 0.606027 0.00204471
0.979263 0.60502 0.00175479
0.979187 0.603677 0.00135805
0.97908 0.601907 0.000839246
0.472877 0.241108 0
0.477684 0.24332 0
0.482307 0.245594 0
0.486793 0.247868 0
0.491386 0.250187 0
0.495979 0.252506 0
0.500481 0.25478 0
0.505058 0.256947 0
0.509529 0.259022 0
0.515785 0.253651 0
0.525505 0.240208 0
0.541588 0.231342 7.62951e-05
0.573434 0.234638 0.00965896
0.63444 0.266987 0.0948959
0.698726 0.314549 0.212802
0.764858 0.348272 0.311055
0.83563 0.385306 0.351949
0.883162 0.46865 0.279805
0.893492 0.568917 0.160082
0.921355 0.625437 0.0913252
0.957244 0.647639 0.062974
0.98056 0.661234 0.0536812
0.982269 0.662959 0.0531472
0.982269 0.662791 0.052903
0.982238 0.662058 0.0518349
0.982177 0.661006 0.0502937
0.982116 0.659617 0.0482643
0.98204 0.657816 0.0456397
0.981933 0.655772 0.0426642
0.981826 0.65333 0.0390936
0.981689 0.650553 0.03505
0.981552 0.647532 0.0306401
0.981399 0.644175 0.0257572
0.539208 0.275334 0
0.543236 0.277974 0
0.547097 0.280293 0
0.550866 0.282292 0
0.554391 0.284184 0
0.558007 0.286122 0
0.561761 0.288121 0
0.565728 0.290181 0
0.570138 0.292317 0
0.573388 0.293904 0
0.58117 0.281788 0
0.593881 0.261707 0
0.620874 0.256046 0.00189212
0.681224 0.280262 0.0576181
0.745785 0.328237 0.183841
0.808392 0.366613 0.294606
0.8719 0.393606 0.377661
0.930983 0.431205 0.388266
0.958648 0.516014 0.327459
0.955489 0.619562 0.247227
0.97171 0.683757 0.188678
0.984604 0.720104 0.156481
0.984863 0.720378 0.153765
0.984802 0.718639 0.150805
0.98471 0.716182 0.146624
0.984604 0.713329 0.141787
0.984482 0.71017 0.1364
0.984344 0.7066 0.130343
0.984161 0.702617 0.123537
0.983948 0.698314 0.116182
0.983719 0.693767 0.1084
0.98349 0.688975 0.100221
0.983246 0.683986 0.0914931
0.594446 0.305394 0
0.597833 0.3075 0
0.601297 0.309636 0
0.605158 0.312108 0
0.609277 0.314855 0
0.613474 0.317647 0
0.617746 0.3205 0
0.622019 0.323339 0
0.627268 0.326741 0
0.631312 0.329351 0
0.633021 0.328695 0
0.642496 0.299977 0
0.658976 0.281529 0
0.713893 0.290028 0.0233463
0.774014 0.332113 0.145876
0.832135 0.372549 0.263478
0.893294 0.404959 0.364034
0.951049 0.42768 0.419242
0.979522 0.48426 0.430121
0.977783 0.578073 0.411505
0.979202 0.670237 0.349859
0.9841 0.738445 0.284459
0.984222 0.738888 0.278676
0.98439 0.739559 0.269871
0.984588 0.739818 0.25861
0.984726 0.739254 0.246708
0.984894 0.738582 0.233005
0.985077 0.737865 0.218173
0.985214 0.736538 0.202991
0.985168 0.733211 0.190417
0.985122 0.729747 0.177356
0.985077 0.726207 0.163943
0.984833 0.719738 0.152682
0.655848 0.345861 0
0.661967 0.350423 0
0.668208 0.355077 0
0.674449 0.359716 0
0.681224 0.365042 0
0.688441 0.371023 0
0.695674 0.376989 0
0.702632 0.382757 0
0.709331 0.388296 0
0.711696 0.390265 0
0.711696 0.390265 0
0.713695 0.364981 0
0.722637 0.332998 0
0.75642 0.321248 0.0148318
0.800183 0.34136 0.110796
0.845426 0.37348 0.219348
0.900557 0.40766 0.321981
0.957687 0.431327 0.409125
0.981155 0.475776 0.463615
0.981247 0.550072 0.49752
0.980362 0.634806 0.486564
0.981353 0.716701 0.434073
0.981414 0.718166 0.430671
0.981552 0.720455 0.420508
0.981781 0.724025 0.4047
0.982101 0.727031 0.386084
0.982498 0.729931 0.365209
0.98294 0.733166 0.342077
0.983398 0.735866 0.318395
0.983886 0.737652 0.295018
0.984375 0.739483 0.270878
0.98471 0.739315 0.248051
0.984985 0.738247 0.225803
0.711696 0.390265 0
0.711696 0.390265 0
0.711696 0.390265 0
0.711696 0.390265 0
0.711696 0.390265 0
0.711696 0.390265 0
0.711696 0.390265 0
0.711696 0.390265 0
0.711696 0.390265 0
0.711696 0.390265 0
0.711696 0.390265 0
0.71603 0.368841 0
0.733928 0.343847 0
0.7729 0.337652 0.0165255
0.814496 0.351873 0.101762
0.852415 0.376501 0.189441
0.899947 0.40621 0.278172
0.952224 0.435172 0.371023
0.981109 0.469841 0.462623
0.982116 0.534066 0.533608
0.981003 0.608118 0.564614
0.980194 0.680751 0.564172
0.980133 0.692363 0.559213
0.980163 0.693523 0.553124
0.980224 0.695308 0.543679
0.980392 0.698833 0.524987
0.980591 0.703334 0.501244
0.980819 0.708385 0.47454
0.981186 0.714549 0.446769
0.981598 0.721157 0.417411
0.982086 0.726909 0.386923
0.982681 0.731228 0.355901
0.983276 0.735393 0.324681
0.711696 0.390265 0
0.711696 0.390265 0
0.711696 0.390265 0
0.711696 0.390265 0
0.711696 0.390265 0
0.711696 0.390265 0
0.711696 0.390265 0
0.711696 0.390265 0
0.711696 0.390265 0
0.711696 0.390265 0
0.711696 0.390265 0
0.716487 0.367132 0
0.735042 0.343435 0
0.773632 0.337713 0.0174105
0.814618 0.351949 0.102068
0.852033 0.376257 0.188663
0.898726 0.40557 0.27628
0.949523 0.434302 0.363729
0.980667 0.466514 0.454887
0.982391 0.523583 0.536995
0.981369 0.594415 0.584176
0.980133 0.658793 0.611795
0.979767 0.681056 0.619104
0.979767 0.681056 0.619104
0.979767 0.681056 0.619104
0.979767 0.681056 0.619104
0.979767 0.681056 0.619104
0.979873 0.68426 0.602197
0.980041 0.68954 0.574197
0.980224 0.695308 0.543679
0.980514 0.701701 0.50985
0.980819 0.708324 0.474845
0.981277 0.715892 0.440833
0.711696 0.390265 0
0.711696 0.390265 0
0.711696 0.390265 0
0.711696 0.390265 0
0.711696 0.390265 0
0.711696 0.390265 0
0.711696 0.390265 0
0.711696 0.390265 0
0.711696 0.390265 0
0.711696 0.390265 0
0.711696 0.390265 0
0.716533 0.366964 0
0.734722 0.343557 0
0.772717 0.337621 0.0162966
0.813367 0.351171 0.0989853
0.85005 0.375036 0.184573
0.89543 0.403861 0.271153
0.945266 0.431907 0.356268
0.979507 0.462715 0.445121
0.982467 0.513878 0.528405
0.981613 0.581552 0.57818
0.980346 0.646479 0.607431
0.979767 0.681056 0.619104
0.979767 0.681056 0.619104
0.979767 0.681056 0.619104
0.979767 0.681056 0.619104
0.979767 0.681056 0.619104
0.979767 0.681056 0.619104
0.979767 0.681056 0.619104
0.979767 0.681056 0.619104
0.979767 0.681056 0.619104
0.979873 0.684565 0.600534
0.980087 0.690959 0.566705
0.711696 0.390265 0
0.711696 0.390265 0
0.711696 0.390265 0
0.711696 0.390265 0
0.711696 0.390265 0
0.711696 0.390265 0
0.711696 0.390265 0
0.711696 0.390265 0
0.711696 0.390265 0
0.711696 0.390265 0
0.711696 0.390265 0
0.71603 0.368841 0
0.732677 0.344503 0
0.769741 0.337346 0.0126345
0.810162 0.349493 0.0910506
0.846067 0.37258 0.176379
0.889784 0.400977 0.262379
0.939284 0.428351 0.344625
0.977813 0.45713 0.430793
0.982361 0.502098 0.514015
0.981872 0.565774 0.568734
0.980652 0.631281 0.600855
0.979767 0.681056 0.619104
0.979767 0.681056 0.619104
0.979767 0.681056 0.619104
0.979767 0.681056 0.619104
0.979767 0.681056 0.619104
0.979767 0.681056 0.619104
0.979767 0.681056 0.619104
0.979767 0.681056 0.619104
0.979767 0.681056 0.619104
0.979767 0.681056 0.619104
0.979767 0.681056 0.619104
0.711696 0.390265 0
0.711696 0.390265 0
0.711696 0.390265 0
0.711696 0.390265 0
0.711696 0.390265 0
0.711696 0.390265 0
0.711696 0.390265 0
0.711696 0.390265 0
0.711696 0.390265 0
0.711696 0.390265 0
0.711696 0.390265 0
0.715236 0.371801 0
0.730205 0.346105 0
0.765789 0.33698 0.00784314
0.806271 0.347463 0.0814374
0.841672 0.369787 0.166918
0.883406 0.397696 0.252445
0.932677 0.424445 0.331777
0.974624 0.451621 0.415915
0.982223 0.489906 0.498711
0.982132 0.549966 0.558785
0.980972 0.616022 0.594232
0.979919 0.671717 0.616037
0.979767 0.681056 0.619104
0.979767 0.681056 0.619104
0.979767 0.681056 0.619104
0.979767 0.681056 0.619104
0.979767 0.681056 0.619104
0.979767 0.681056 0.619104
0.979767 0.681056 0.619104
0.979767 0.681056 0.619104
0.979767 0.681056 0.619104
0.979767 0.681056 0.619104
0.711696 0.390265 0
0.711696 0.390265 0
0.711696 0.390265 0
0.711696 0.390265 0
0.711696 0.390265 0
0.711696 0.390265 0
0.711696 0.390265 0
0.711696 0.390265 0
0.711696 0.390265 0
0.711696 0.390265 0
0.711696 0.390265 0
0.714199 0.375708 0
0.727123 0.348089 0
0.76112 0.337331 0.00531014
0.801663 0.345174 0.0700389
0.836805 0.366644 0.156237
0.877317 0.394247 0.241459
0.925551 0.420279 0.319219
0.968872 0.446586 0.400916
0.981796 0.480064 0.482368
0.982315 0.535088 0.547204
0.981292 0.598856 0.586252
0.980148 0.657679 0.611429
0.979767 0.681056 0.619104
0.979767 0.681056 0.619104
0.979767 0.681056 0.619104
0.979767 0.681056 0.619104
0.979767 0.681056 0.619104
0.979767 0.681056 0.619104
0.979767 0.681056 0.619104
0.979767 0.681056 0.619104
0.979767 0.681056 0.619104
0.979767 0.681056 0.619104
0.711696 0.390265 0
0.711696 0.390265 0
0.711696 0.390265 0
0.711696 0.390265 0
0.711696 0.390265 0
0.711696 0.390265 0
0.711696 0.390265 0
0.711696 0.390265 0
0.711696 0.390265 0
