luts/RFH DENTAL.cube
TITLE "Generated by Resolve"
LUT_3D_SIZE 5
0 0.000793469 0
0.184619 0.0516213 0.00291447
0.79678 0.246296 0
0.893187 0.274296 0
0.893187 0.274296 0
0.0341955 0.0353704 0.0179751
0.0343175 0.0285649 0.0161898
0.712245 0.277592 0
0.907408 0.319356 0
0.904082 0.308003 0
0.399924 0.204532 0
0.437629 0.215717 0
0.774487 0.418845 0.238911
0.979294 0.605615 0.00192264
0.97908 0.601907 0.000839246
0.711696 0.390265 0
0.711696 0.390265 0
0.889784 0.400977 0.262379
0.979767 0.681056 0.619104
0.979767 0.681056 0.619104
0.711696 0.390265 0
0.711696 0.390265 0
0.844739 0.371771 0.173648
0.979767 0.681056 0.619104
0.979767 0.681056 0.619104
0 0.0346227 0.0670634
0.0325017 0.0336614 0.0817121
0.82565 0.200656 0.121248
0.921691 0.23151 0.0411994
0.914916 0.243137 0.0101778
0.000869764 0.115587 0.151949
0.0421302 0.0724651 0.106142
0.77113 0.238392 0
0.893187 0.274296 0
0.893187 0.274296 0
0.436988 0.223453 0
0.468254 0.238987 0
0.806394 0.438453 0.243748
0.981033 0.637018 0.0190127
0.981781 0.652338 0.0376593
0.711696 0.390265 0
0.711696 0.390265 0
0.883528 0.397757 0.252644
0.979767 0.681056 0.619104
0.979767 0.681056 0.619104
0.711696 0.390265 0
0.711696 0.390265 0
0.840223 0.368856 0.163745
0.979934 0.671092 0.615839
0.979767 0.681056 0.619104
0.0979171 0.322164 0.541573
0.0929427 0.318639 0.537072
0.786938 0.302846 0.907149
0.880568 0.288853 0.832975
0.886198 0.260471 0.770291
0.186725 0.366522 0.554772
0.230503 0.390768 0.564767
0.748196 0.279942 0.839216
0.882017 0.282811 0.819654
0.866972 0.320745 0.91104
0.285969 0.475364 0.560708
0.309377 0.503548 0.587091
0.625193 0.644938 0.681056
0.941787 0.509682 0.476997
0.940902 0.466239 0.455512
0.378241 0.635813 0.660792
0.375753 0.634318 0.657465
0.802869 0.522637 0.30605
0.979355 0.735012 0.682078
0.979431 0.721538 0.667185
0.361303 0.634928 0.643549
0.355352 0.64828 0.646555
0.778012 0.471351 0.203037
0.980362 0.665965 0.648219
0.979507 0.710155 0.657115
0.2607 0.423056 0.60618
0.234714 0.407477 0.594217
0.711635 0.33492 0.990524
0.848997 0.360998 0.987396
0.848997 0.360998 0.987396
0.269657 0.429389 0.611078
0.327245 0.475593 0.65066
0.531029 0.346593 0.999008
0.848997 0.360998 0.987396
0.848997 0.360998 0.987396
0.378653 0.529915 0.684077
0.392706 0.562554 0.695476
0.439689 0.660212 0.745861
0.931365 0.715221 0.999741
0.90985 0.603143 0.999802
0.44831 0.677211 0.75436
0.44831 0.677211 0.75436
0.469566 0.69894 0.779522
0.990814 0.999207 0.99939
0.985016 0.964935 0.966293
0.44831 0.677211 0.75436
0.44831 0.677211 0.75436
0.462531 0.695338 0.768521
0.926329 0.88629 0.871931
0.980545 0.87512 0.843626
0.324407 0.472953 0.648585
0.307057 0.457694 0.634272
0.380789 0.34287 0.976471
0.848997 0.360998 0.987396
0.848997 0.360998 0.987396
0.318746 0.46772 0.644236
0.379675 0.531426 0.684779
0.310719 0.460517 0.636881
0.848997 0.360998 0.987396
0.855222 0.386572 0.992599
0.387747 0.545586 0.690639
0.404868 0.604501 0.710124
0.453178 0.683055 0.760372
0.461158 0.673747 0.771496
0.927855 0.698085 0.999756
0.44831 0.677211 0.75436
0.44831 0.677211 0.75436
0.452735 0.682536 0.759838
0.493065 0.735851 0.806638
0.990814 0.999207 0.99939
0.44831 0.677211 0.75436
0.44831 0.677211 0.75436
0.463752 0.692409 0.770535
0.659602 0.86981 0.883177
0.990814 0.999207 0.99939
