luts/Science Fiction for Flog.cube
LUT_3D_SIZE 6
0.000000 0.000000 0.000000
0.136922 0.037372 0.026113
0.321046 0.056288 0.055970
0.533523 0.082484 0.096638
0.769325 0.122096 0.135674
0.952241 0.168045 0.176328
0.001670 0.099225 0.019225
0.112907 0.124432 0.026386
0.339821 0.156046 0.013366
0.595338 0.189564 0.043965
0.847910 0.233162 0.067955
0.979402 0.296470 0.133675
0.000160 0.228296 0.055488
0.032428 0.250005 0.041474
0.323737 0.304355 0.056128
0.600359 0.334151 0.029373
0.867503 0.386035 0.030304
0.988059 0.462046 0.078054
0.002551 0.405044 0.084248
0.025478 0.424718 0.058227
0.254961 0.485520 0.057425
0.593105 0.534555 0.077061
0.874888 0.564960 0.039351
0.994213 0.630003 0.084267
0.006030 0.603379 0.120227
0.029329 0.622960 0.085246
0.132101 0.675331 0.078478
0.605587 0.734352 0.097528
0.881487 0.766082 0.127242
0.996889 0.787495 0.126552
0.009371 0.742589 0.161495
0.035334 0.757217 0.143180
0.123847 0.789726 0.104294
0.574740 0.834092 0.137768
0.862886 0.867509 0.163718
0.997197 0.886649 0.172197
0.002397 0.007988 0.205352
0.144297 0.010037 0.237303
0.376899 0.017688 0.218155
0.540876 0.050247 0.185267
0.748697 0.081043 0.203507
0.929339 0.133281 0.250049
0.000000 0.142794 0.222636
0.052417 0.140860 0.213966
0.348818 0.169712 0.196255
0.610206 0.218155 0.222247
0.868586 0.265998 0.252242
0.967770 0.346694 0.320856
0.000000 0.290190 0.235305
0.020264 0.288496 0.214615
0.283088 0.318518 0.229225
0.645993 0.372565 0.215953
0.935509 0.414552 0.184493
0.988744 0.496161 0.289452
0.000000 0.466216 0.264027
0.020912 0.472340 0.240574
0.149487 0.496522 0.243436
0.562170 0.554721 0.256056
0.899818 0.601465 0.231283
0.995543 0.664106 0.278508
0.003352 0.639798 0.270783
0.026094 0.656989 0.247530
0.075250 0.687792 0.244960
0.565454 0.746521 0.274424
0.877255 0.781731 0.280660
0.998412 0.806455 0.305929
0.007345 0.761536 0.265257
0.032218 0.775434 0.248870
0.105907 0.801586 0.244752
0.569087 0.844099 0.267177
0.868388 0.882738 0.306995
0.998164 0.900723 0.315507
0.001065 0.015350 0.362893
0.050456 0.021632 0.408995
0.315035 0.017562 0.439740
0.596309 0.017293 0.438883
0.796846 0.054301 0.406683
0.938797 0.087301 0.380557
0.000000 0.160177 0.419742
0.020928 0.163410 0.427228
0.269846 0.158935 0.443658
0.608848 0.174052 0.431961
0.851280 0.208608 0.365990
0.956212 0.279031 0.393555
0.000000 0.335446 0.444857
0.020091 0.354792 0.451871
0.138786 0.343045 0.444145
0.578753 0.376997 0.418434
0.871691 0.450056 0.438867
0.977633 0.546885 0.520074
0.000000 0.522735 0.463197
0.020091 0.552126 0.462934
0.046640 0.537367 0.437173
0.496990 0.574321 0.462476
0.909269 0.645894 0.458787
0.994509 0.707253 0.516312
0.000011 0.690729 0.462164
0.021584 0.708651 0.446222
0.046283 0.713603 0.423577
0.467492 0.757878 0.473679
0.846911 0.804235 0.496877
0.997657 0.835355 0.526456
0.003751 0.794336 0.433412
0.025828 0.800224 0.411774
0.064012 0.814856 0.402367
0.530374 0.856583 0.435918
0.858282 0.897921 0.490423
0.998222 0.921736 0.522284
0.002423 0.017429 0.509796
0.029133 0.028726 0.614618
0.177791 0.025700 0.623967
0.509231 0.023207 0.648710
0.808486 0.022533 0.655163
0.963564 0.082254 0.635357
0.000000 0.163741 0.631209
0.020143 0.167164 0.635395
0.099041 0.152200 0.646767
0.501568 0.157004 0.669563
0.833158 0.179707 0.670183
0.969933 0.262059 0.632600
0.000000 0.355092 0.650836
0.020091 0.370875 0.659592
0.041306 0.358031 0.667943
0.460569 0.366239 0.692102
0.858427 0.401837 0.675215
0.973733 0.473248 0.636439
0.000000 0.553696 0.668332
0.020091 0.590648 0.679995
0.040149 0.594320 0.685226
0.290264 0.605657 0.692629
0.851574 0.639021 0.658933
0.979854 0.729972 0.717308
0.000000 0.742674 0.680999
0.020091 0.766734 0.679333
0.040149 0.774574 0.676840
0.155432 0.790195 0.677413
0.789191 0.828135 0.714199
0.992854 0.871786 0.750217
0.000000 0.847586 0.662021
0.020098 0.850634 0.643311
0.041256 0.854294 0.627257
0.204525 0.865867 0.613885
0.802982 0.910240 0.662855
0.993528 0.947001 0.734496
0.003693 0.022939 0.672688
0.078776 0.027820 0.771042
0.193813 0.027307 0.772116
0.452914 0.031024 0.786890
0.735429 0.030576 0.792035
0.958424 0.061034 0.800626
0.002901 0.148417 0.785914
0.023464 0.153020 0.787772
0.065760 0.146291 0.790270
0.435471 0.142968 0.804116
0.752626 0.167533 0.810930
0.965422 0.209836 0.815342
0.000000 0.344634 0.792024
0.020091 0.357640 0.796815
0.040823 0.346045 0.805530
0.349491 0.332532 0.827607
0.754456 0.372934 0.830354
0.970017 0.415332 0.830841
0.000000 0.544521 0.804385
0.020091 0.575774 0.814374
0.040149 0.576869 0.822162
0.112341 0.578978 0.843331
0.760400 0.619303 0.852057
0.976117 0.657474 0.849403
0.000000 0.744106 0.817367
0.020091 0.769177 0.827242
0.040149 0.795704 0.837125
0.082249 0.818604 0.852661
0.768267 0.847472 0.863169
0.981654 0.872995 0.874685
0.000000 0.871787 0.833670
0.020091 0.880889 0.836927
0.040149 0.895287 0.842564
0.088363 0.913814 0.849479
0.818512 0.940485 0.870838
0.994152 0.977973 0.909700
0.005185 0.022677 0.802424
0.063436 0.030579 0.875751
0.171442 0.030923 0.876320
0.340120 0.036450 0.882139
0.685751 0.031049 0.886361
0.939298 0.055109 0.888676
0.000000 0.155915 0.887353
0.020764 0.152522 0.889859
0.069791 0.145811 0.893306
0.333685 0.133344 0.895354
0.697147 0.148694 0.898916
0.947461 0.187315 0.902126
0.000000 0.348329 0.887838
0.020091 0.348671 0.893898
0.040149 0.332465 0.900619
0.180342 0.309831 0.910518
0.703140 0.338037 0.915806
0.950469 0.397790 0.918708
0.000000 0.540443 0.894449
0.020091 0.557827 0.901152
0.040149 0.548639 0.907128
0.060417 0.536527 0.918682
0.718907 0.575161 0.939702
0.965004 0.620408 0.942307
0.000000 0.721667 0.900447
0.020091 0.743072 0.906671
0.040149 0.776186 0.922603
0.060270 0.791657 0.936541
0.737820 0.827777 0.957659
0.977667 0.852473 0.969345
0.000000 0.862740 0.917443
0.020091 0.872192 0.922569
0.040149 0.887259 0.930434
0.060245 0.908985 0.943845
0.701524 0.941222 0.964170
0.997348 0.991107 1.028224
