luts/Science Fiction for Flog.cube
LUT_3D_SIZE 16
0.000000 0.000000 0.000000
0.046194 0.008099 0.003536
0.087830 0.024040 0.010993
0.136922 0.037372 0.026113
0.190977 0.045949 0.036808
0.254674 0.051057 0.041471
0.321046 0.056288 0.055970
0.389820 0.065591 0.070549
0.459658 0.073837 0.083751
0.533523 0.082484 0.096638
0.608110 0.088623 0.109838
0.689868 0.102568 0.123241
0.769325 0.122096 0.135674
0.842511 0.135743 0.149357
0.906184 0.143484 0.163272
0.952241 0.168045 0.176328
0.001178 0.036415 0.002523
0.037480 0.042548 0.004858
0.079800 0.051324 0.010383
0.132710 0.061537 0.015368
0.194658 0.069721 0.015093
0.268889 0.072248 0.013340
0.347134 0.075573 0.019381
0.417567 0.086055 0.044761
0.487763 0.097470 0.065520
0.556868 0.109910 0.082765
0.630417 0.122729 0.099071
0.708211 0.142083 0.116558
0.781391 0.162041 0.133666
0.850232 0.179560 0.149815
0.913851 0.196787 0.164621
0.957776 0.220229 0.178877
0.002806 0.066471 0.011553
0.026677 0.072654 0.015773
0.072457 0.080076 0.020871
0.124321 0.088677 0.022630
0.188922 0.099676 0.016618
0.263648 0.106825 0.012619
0.343295 0.117263 0.013815
0.424086 0.127547 0.023619
0.508302 0.135530 0.035632
0.588407 0.143854 0.054081
0.669717 0.158249 0.072323
0.747081 0.175418 0.089981
0.818130 0.192607 0.108655
0.879848 0.214094 0.128721
0.934061 0.235288 0.145117
0.967907 0.256638 0.161237
0.001670 0.099225 0.019225
0.016797 0.105061 0.019958
0.050428 0.113256 0.021989
0.112907 0.124432 0.026386
0.181126 0.134202 0.026172
0.255744 0.145695 0.020610
0.339821 0.156046 0.013366
0.422832 0.167310 0.015967
0.507827 0.178905 0.030732
0.595338 0.189564 0.043965
0.690511 0.202346 0.049345
0.777108 0.216410 0.053757
0.847910 0.233162 0.067955
0.909223 0.252394 0.090258
0.954764 0.273978 0.113727
0.979402 0.296470 0.133675
0.000093 0.135863 0.026712
0.013925 0.140242 0.023549
0.036445 0.147791 0.021722
0.090281 0.160061 0.023483
0.171376 0.175169 0.031883
0.248211 0.185639 0.032815
0.337209 0.197243 0.025950
0.421883 0.209185 0.019407
0.508446 0.221457 0.026704
0.597356 0.234029 0.037016
0.695304 0.249458 0.043936
0.782119 0.266462 0.044332
0.860898 0.283107 0.049717
0.924993 0.297676 0.063760
0.964867 0.318319 0.086528
0.983710 0.347795 0.114106
0.000000 0.178960 0.040712
0.007675 0.184843 0.039106
0.018414 0.189745 0.033810
0.066753 0.202194 0.030422
0.153376 0.219846 0.037441
0.242954 0.236218 0.044719
0.329900 0.246901 0.042355
0.419537 0.256872 0.033885
0.508769 0.268650 0.030240
0.598849 0.282681 0.029616
0.697977 0.299756 0.032305
0.785182 0.319198 0.036138
0.864487 0.335772 0.042185
0.929922 0.349560 0.055624
0.969029 0.370144 0.069720
0.985942 0.403940 0.094089
0.000160 0.228296 0.055488
0.007334 0.234884 0.054493
0.015013 0.239183 0.049538
0.032428 0.250005 0.041474
0.121445 0.270069 0.041869
0.227621 0.289181 0.052012
0.323737 0.304355 0.056128
0.413646 0.314136 0.051363
0.506955 0.321913 0.041187
0.600359 0.334151 0.029373
0.698624 0.349935 0.020766
0.787979 0.368214 0.025582
0.867503 0.386035 0.030304
0.933034 0.406175 0.043812
0.970804 0.429930 0.056135
0.988059 0.462046 0.078054
0.000811 0.282485 0.067779
0.008018 0.289616 0.064685
0.015512 0.292287 0.057106
0.026974 0.301164 0.048496
0.079895 0.320314 0.045347
0.199659 0.341991 0.056157
0.315118 0.362065 0.062379
0.408030 0.373290 0.061867
0.501960 0.383603 0.057932
0.599957 0.389938 0.040375
0.700002 0.402416 0.027394
0.791183 0.421035 0.024596
0.870763 0.442655 0.025875
0.935071 0.465199 0.028849
0.971664 0.490051 0.038348
0.990298 0.518198 0.066869
0.001561 0.339483 0.076017
0.008901 0.350627 0.072878
0.016113 0.351722 0.064017
0.025765 0.359502 0.057108
0.057478 0.377292 0.053140
0.155251 0.399031 0.052514
0.293001 0.420642 0.059977
0.403016 0.438417 0.062810
0.494737 0.449964 0.064022
0.596377 0.461108 0.060331
0.701270 0.468198 0.048325
0.793697 0.480657 0.038445
0.872640 0.503282 0.028839
0.936870 0.526345 0.022425
0.972621 0.548154 0.034814
0.992395 0.574336 0.071720
0.002551 0.405044 0.084248
0.009990 0.418467 0.079400
0.017228 0.419454 0.070543
0.025478 0.424718 0.058227
0.041936 0.440347 0.054392
0.111670 0.463494 0.053937
0.254961 0.485520 0.057425
0.387895 0.506382 0.066387
0.491324 0.523719 0.073356
0.593105 0.534555 0.077061
0.702369 0.545838 0.069513
0.796750 0.553363 0.054182
0.874888 0.564960 0.039351
0.939005 0.584427 0.036757
0.975824 0.604020 0.055772
0.994213 0.630003 0.084267
0.003702 0.474779 0.098971
0.011156 0.487352 0.095972
0.018443 0.488298 0.081258
0.026879 0.492216 0.064180
0.040789 0.504795 0.054608
0.069623 0.526200 0.055583
0.208616 0.549411 0.064077
0.366368 0.571604 0.076368
0.484465 0.591170 0.081357
0.595939 0.607444 0.081248
0.703247 0.618970 0.078258
0.799274 0.629242 0.070282
0.879338 0.636580 0.067945
0.941373 0.644782 0.070727
0.979037 0.661784 0.080405
0.995712 0.687749 0.097267
0.004837 0.540375 0.112470
0.012293 0.552311 0.110692
0.019654 0.554978 0.096454
0.027898 0.557948 0.073084
0.041195 0.570570 0.062078
0.065440 0.592016 0.066298
0.177376 0.614944 0.073166
0.347635 0.637676 0.083178
0.478180 0.658056 0.081772
0.603887 0.678921 0.082279
0.708330 0.689463 0.094659
0.801280 0.700564 0.105819
0.880746 0.709586 0.105488
0.941232 0.716005 0.104221
0.979141 0.724479 0.101935
0.996561 0.741380 0.112044
0.006030 0.603379 0.120227
0.013457 0.614270 0.117369
0.020958 0.619464 0.104297
0.029329 0.622960 0.085246
0.042676 0.634507 0.078264
0.063770 0.653602 0.079440
0.132101 0.675331 0.078478
0.330748 0.695860 0.075064
0.475502 0.714456 0.075400
0.605587 0.734352 0.097528
0.719153 0.750517 0.121035
0.803528 0.756312 0.127268
0.881487 0.766082 0.127242
0.941648 0.771477 0.118822
0.980142 0.777450 0.114819
0.996889 0.787495 0.126552
0.007094 0.658345 0.127489
0.014459 0.666961 0.126555
0.022146 0.673877 0.118240
0.030874 0.676815 0.103520
0.044391 0.687316 0.096330
0.063949 0.703466 0.091259
0.113053 0.722684 0.088925
0.315030 0.741532 0.085472
0.470949 0.759225 0.096539
0.603568 0.777538 0.123053
0.719780 0.793250 0.138805
0.803582 0.799947 0.137794
0.881241 0.807421 0.137208
0.941763 0.813018 0.132738
0.979071 0.818859 0.129200
0.997140 0.828118 0.143114
0.008092 0.704414 0.142974
0.015541 0.710668 0.140426
0.023576 0.717452 0.136833
0.032741 0.720455 0.123125
0.046383 0.729625 0.106525
0.064685 0.743552 0.094466
0.122558 0.760306 0.092805
0.295386 0.776933 0.100319
0.455744 0.793521 0.120406
0.593655 0.810351 0.132758
0.709307 0.825688 0.144907
0.801870 0.837327 0.148367
0.876038 0.840962 0.150245
0.939756 0.846664 0.149494
0.980089 0.851237 0.143900
0.997369 0.859632 0.158536
0.009371 0.742589 0.161495
0.016654 0.747122 0.159677
0.024943 0.753377 0.158070
0.035334 0.757217 0.143180
0.049507 0.765140 0.117490
0.067231 0.776145 0.099506
0.123847 0.789726 0.104294
0.276445 0.803815 0.110726
0.444153 0.819153 0.129922
0.574740 0.834092 0.137768
0.689342 0.847839 0.145319
0.786206 0.861769 0.159354
0.862886 0.867509 0.163718
0.931838 0.873210 0.166114
0.977959 0.878223 0.161793
0.997197 0.886649 0.172197
0.005132 0.004940 0.085132
0.048885 0.010918 0.091442
0.102674 0.016131 0.085893
0.148307 0.027280 0.073948
0.196127 0.034962 0.064694
0.256358 0.040654 0.064422
0.321069 0.046079 0.072630
0.389707 0.053808 0.086868
0.458680 0.062846 0.101505
0.532611 0.071769 0.115337
0.606921 0.075244 0.130438
0.691238 0.090835 0.145669
0.769424 0.111558 0.160797
0.841931 0.124346 0.173260
0.904357 0.133657 0.187807
0.949899 0.159466 0.201862
0.000422 0.045688 0.082346
0.023164 0.049303 0.081485
0.088535 0.055284 0.075551
0.150535 0.066436 0.074253
0.218373 0.072139 0.071108
0.293201 0.077529 0.073371
0.360425 0.088011 0.088500
0.429305 0.099455 0.103060
0.501868 0.109996 0.116894
0.576175 0.121250 0.130865
0.657505 0.134211 0.146692
0.738755 0.152364 0.160655
0.813592 0.167117 0.172565
0.878654 0.186490 0.186718
0.929850 0.200883 0.199697
0.958014 0.225947 0.216832
0.000000 0.077386 0.083329
0.017447 0.081309 0.082646
0.062226 0.085075 0.083267
0.136232 0.096262 0.075321
0.224455 0.106766 0.063029
0.314373 0.110482 0.047877
0.393627 0.116647 0.060408
0.465313 0.127327 0.079037
0.534284 0.140220 0.098381
0.608987 0.155693 0.116947
0.684966 0.173719 0.135872
0.759486 0.193779 0.154883
0.828729 0.212536 0.170940
0.890164 0.233471 0.188417
0.939566 0.252265 0.203014
0.965164 0.273537 0.219674
0.000473 0.114262 0.083315
0.015233 0.117693 0.080328
0.043071 0.121207 0.081658
0.107437 0.129835 0.085380
0.189332 0.143269 0.081036
0.290084 0.155223 0.065258
0.390182 0.164251 0.058137
0.477515 0.173637 0.063277
0.564002 0.182645 0.072680
0.652787 0.194395 0.082732
0.732056 0.209211 0.100261
0.801784 0.227390 0.121898
0.863842 0.246966 0.143569
0.917774 0.266959 0.163042
0.957240 0.288470 0.181701
0.975815 0.310836 0.198971
0.000000 0.154151 0.085808
0.012638 0.156211 0.081638
0.030818 0.158604 0.081009
0.083355 0.166943 0.082723
0.167153 0.180686 0.087710
0.252291 0.193573 0.087809
0.361291 0.208386 0.074304
0.465877 0.221151 0.065209
0.563410 0.232527 0.066768
0.661800 0.244877 0.071470
0.752900 0.257329 0.072753
0.831173 0.272722 0.080130
0.892710 0.289551 0.098312
0.940516 0.309693 0.123608
0.969581 0.333789 0.148087
0.982694 0.358698 0.173191
0.000000 0.196883 0.094646
0.007116 0.201086 0.091520
0.016044 0.201517 0.087779
0.056923 0.209777 0.089088
0.142598 0.224799 0.092497
0.235624 0.241722 0.097071
0.329119 0.254258 0.095017
0.435431 0.267749 0.082441
0.546373 0.283109 0.069512
0.662713 0.298407 0.066237
0.758847 0.313078 0.065526
0.838169 0.328919 0.072057
0.903293 0.341664 0.082696
0.953178 0.358737 0.098911
0.976908 0.389806 0.128729
0.986492 0.416556 0.153909
0.000000 0.245759 0.104654
0.006688 0.251946 0.103834
0.013500 0.251350 0.098451
0.027630 0.258021 0.096681
0.103341 0.274939 0.098460
0.215020 0.293195 0.102107
0.319841 0.310429 0.104015
0.411094 0.319954 0.100709
0.514483 0.332198 0.088412
0.637720 0.347585 0.068613
0.753817 0.366878 0.059366
0.841007 0.384308 0.061939
0.907721 0.400961 0.072975
0.955538 0.422041 0.086677
0.978253 0.452417 0.114558
0.988950 0.473214 0.143451
0.000011 0.299155 0.114378
0.006981 0.306494 0.113951
0.014110 0.305454 0.108263
0.023358 0.309741 0.102539
0.062218 0.325445 0.103681
0.184615 0.346018 0.104697
0.304225 0.366001 0.109388
0.403175 0.380217 0.109397
0.496891 0.388885 0.103602
0.604285 0.396424 0.085525
0.727395 0.417338 0.069244
0.835862 0.443315 0.063405
0.911289 0.464448 0.060903
0.957224 0.486262 0.073101
0.979945 0.512896 0.100818
0.991177 0.528843 0.137157
0.000550 0.356699 0.125018
0.007948 0.367282 0.124914
0.015126 0.365989 0.116983
0.023820 0.369358 0.107147
0.048506 0.382569 0.105709
0.140379 0.403566 0.106330
0.277158 0.425172 0.111940
0.393279 0.444181 0.113455
0.488415 0.456575 0.111031
0.592972 0.465470 0.102153
0.703129 0.473304 0.085207
0.812821 0.496237 0.076469
0.904295 0.524490 0.060930
0.959101 0.548816 0.063442
0.983145 0.572263 0.097878
0.993238 0.584059 0.132267
0.001697 0.421737 0.134667
0.009139 0.433818 0.132062
0.016421 0.434399 0.121879
0.024367 0.436295 0.109218
0.038405 0.447671 0.107599
0.091191 0.469170 0.109730
0.232211 0.490541 0.108168
0.373875 0.510784 0.112538
0.483770 0.528919 0.116411
0.589494 0.539535 0.114938
0.700041 0.549442 0.101731
0.797382 0.556746 0.088709
0.887072 0.575724 0.080927
0.954304 0.602469 0.087276
0.985844 0.630809 0.112157
0.995005 0.640631 0.136163
0.002944 0.488834 0.145220
0.010400 0.500264 0.143002
0.017798 0.502443 0.131619
0.025810 0.503194 0.117356
0.038661 0.512709 0.111016
0.062554 0.532083 0.112103
0.181535 0.554346 0.111161
0.351166 0.575812 0.117671
0.474389 0.595318 0.122417
0.592930 0.613573 0.121071
0.700673 0.623764 0.117476
0.798854 0.633160 0.110186
0.882382 0.639197 0.106739
0.946971 0.651529 0.115281
0.985486 0.681639 0.128626
0.996553 0.698523 0.145524
0.004153 0.552433 0.157085
0.011658 0.563648 0.155112
0.019197 0.569146 0.146847
0.027010 0.569317 0.131982
0.039730 0.579118 0.119937
0.061779 0.597555 0.115591
0.153610 0.619271 0.115798
0.328607 0.641936 0.121396
0.466922 0.662743 0.124169
0.598229 0.683432 0.128980
0.706021 0.695246 0.137511
0.801240 0.705451 0.146514
0.883438 0.713846 0.141260
0.944685 0.719120 0.137515
0.981477 0.730738 0.141747
0.996951 0.749326 0.159274
0.005444 0.614355 0.166102
0.012960 0.624660 0.161937
0.020513 0.632415 0.155130
0.028440 0.632843 0.138291
0.041303 0.642149 0.124293
0.061149 0.658411 0.118698
0.112764 0.679101 0.119663
0.307720 0.699812 0.116514
0.466109 0.718795 0.121596
0.600215 0.739171 0.144322
0.717229 0.755586 0.162508
0.803947 0.761599 0.164319
0.883462 0.770396 0.161571
0.944387 0.775542 0.154333
0.981714 0.781608 0.153276
0.997613 0.792882 0.174693
0.006629 0.666909 0.171806
0.014066 0.675221 0.167265
0.021677 0.683146 0.161456
0.029953 0.684233 0.145548
0.043323 0.693359 0.134964
0.061600 0.707555 0.127947
0.102231 0.726005 0.131103
0.291406 0.745234 0.132342
0.463312 0.763631 0.143100
0.599518 0.781791 0.163312
0.718272 0.797526 0.176857
0.805562 0.805359 0.175581
0.883435 0.812299 0.174463
0.944296 0.817851 0.171123
0.980818 0.823161 0.167596
0.997756 0.833267 0.190033
0.007696 0.710662 0.174113
0.015206 0.716466 0.169965
0.023291 0.723733 0.167413
0.032370 0.726813 0.158174
0.045905 0.734771 0.144608
0.063121 0.747170 0.135902
0.111801 0.763340 0.140271
0.276980 0.780080 0.149435
0.452478 0.797500 0.162974
0.593230 0.814023 0.168877
0.709282 0.829375 0.180710
0.804758 0.841974 0.188279
0.878428 0.845279 0.188945
0.942649 0.850739 0.188436
0.981765 0.855398 0.184521
0.997945 0.863660 0.201963
0.008902 0.746994 0.185053
0.016531 0.752279 0.183591
0.025313 0.759233 0.183725
0.035745 0.763026 0.175263
0.049492 0.769534 0.157375
0.066390 0.779609 0.140699
0.118089 0.792702 0.145898
0.260209 0.806161 0.151847
0.440758 0.821680 0.164997
0.576745 0.836977 0.173520
0.690921 0.850776 0.180475
0.787852 0.864965 0.197060
0.864728 0.871241 0.203717
0.933328 0.876692 0.204825
0.979400 0.881708 0.199859
0.997505 0.890430 0.212159
0.007343 0.011305 0.147689
0.033716 0.014040 0.156182
0.091826 0.016699 0.161637
0.160280 0.018876 0.161937
0.227579 0.024902 0.150116
0.288297 0.029232 0.135340
0.342405 0.032983 0.124249
0.398710 0.037260 0.118712
0.458243 0.045176 0.123441
0.525505 0.058685 0.135025
0.593511 0.061028 0.148261
0.669781 0.069635 0.162624
0.747131 0.095953 0.178358
0.819708 0.108805 0.192540
0.883617 0.117775 0.205864
0.935791 0.138084 0.220221
0.000425 0.051209 0.147245
0.019190 0.053577 0.147328
0.070454 0.054883 0.148702
0.150692 0.056439 0.148612
0.228219 0.059486 0.123979
0.298892 0.058209 0.106374
0.361106 0.068614 0.109363
0.424974 0.081468 0.119615
0.496106 0.093848 0.134893
0.569176 0.105792 0.149714
0.650555 0.116869 0.165835
0.732414 0.137945 0.183092
0.807465 0.153780 0.197141
0.872962 0.174275 0.210870
0.924984 0.189443 0.224547
0.954038 0.213883 0.241305
0.000000 0.086078 0.146544
0.014490 0.089389 0.146237
0.042848 0.089724 0.145424
0.130154 0.095493 0.138556
0.207627 0.107372 0.131542
0.281202 0.117535 0.131647
0.362128 0.130020 0.139277
0.443571 0.142115 0.147592
0.527495 0.153430 0.157691
0.620567 0.166872 0.170111
0.706975 0.181908 0.184708
0.783696 0.199406 0.198191
0.851448 0.217181 0.211063
0.905323 0.234859 0.224031
0.937586 0.255488 0.240756
0.963191 0.283511 0.264546
0.000000 0.129057 0.152088
0.010717 0.132543 0.149298
0.024389 0.131530 0.146673
0.086979 0.135616 0.145366
0.187850 0.148854 0.136864
0.290072 0.162282 0.130674
0.388837 0.172621 0.129352
0.478804 0.180500 0.130634
0.565788 0.190907 0.140064
0.654032 0.205831 0.155213
0.734662 0.224419 0.174224
0.806395 0.244071 0.192279
0.869434 0.263985 0.209172
0.918435 0.284739 0.226453
0.950905 0.305905 0.242647
0.970842 0.334588 0.267948
0.000000 0.172810 0.152947
0.008664 0.174959 0.148284
0.021190 0.172766 0.143888
0.062823 0.175369 0.143079
0.152194 0.184970 0.147249
0.248318 0.201162 0.144740
0.361636 0.216907 0.133367
0.470680 0.229311 0.129409
0.583747 0.239781 0.125023
0.698666 0.249569 0.117790
0.784985 0.263180 0.126918
0.850292 0.281635 0.151740
0.901291 0.301650 0.176719
0.942340 0.321812 0.198054
0.965516 0.344410 0.220255
0.980051 0.374396 0.250722
0.000000 0.217388 0.158043
0.006709 0.220961 0.152893
0.015046 0.218045 0.145608
0.039426 0.219786 0.143368
0.121836 0.229866 0.147868
0.219436 0.245290 0.154482
0.319927 0.260958 0.154870
0.436390 0.276592 0.141703
0.552784 0.292884 0.134991
0.675673 0.309420 0.127216
0.788871 0.320575 0.115099
0.871044 0.331821 0.114242
0.923829 0.347972 0.135378
0.959810 0.373085 0.165250
0.976347 0.399118 0.191354
0.985525 0.428499 0.228111
0.000000 0.266806 0.164618
0.006687 0.272299 0.162199
0.013377 0.269991 0.155799
0.022706 0.269715 0.150038
0.076820 0.280152 0.154514
0.192507 0.296132 0.159301
0.302686 0.314194 0.164794
0.399412 0.327366 0.164500
0.514826 0.342920 0.152039
0.643222 0.360042 0.139015
0.767422 0.376412 0.128911
0.863780 0.391695 0.116980
0.929607 0.409940 0.118923
0.965621 0.439576 0.144375
0.979845 0.461008 0.174070
0.989513 0.484765 0.213957
0.000000 0.320021 0.174268
0.006687 0.326360 0.172241
0.013377 0.325597 0.166513
0.020630 0.322228 0.156922
0.048038 0.331528 0.159943
0.156001 0.349753 0.165934
0.279803 0.369047 0.170351
0.389871 0.386315 0.174192
0.486575 0.396155 0.172021
0.604066 0.408076 0.156870
0.736314 0.429884 0.141849
0.846401 0.453625 0.129347
0.923197 0.475582 0.118257
0.965758 0.503639 0.132814
0.981509 0.522135 0.167209
0.991623 0.540214 0.209318
0.000000 0.378353 0.185802
0.006766 0.387424 0.184369
0.013768 0.388546 0.178948
0.021284 0.383304 0.167956
0.037834 0.389409 0.166474
0.114745 0.407097 0.173129
0.249291 0.427386 0.173254
0.372499 0.447595 0.177207
0.476806 0.463796 0.178719
0.581617 0.473190 0.174136
0.701738 0.483544 0.158308
0.820745 0.509773 0.145434
0.911994 0.535921 0.131366
0.965101 0.558517 0.128043
0.984692 0.580521 0.161824
0.993703 0.595929 0.205690
0.000349 0.443964 0.196284
0.007752 0.454404 0.194992
0.015125 0.457395 0.188877
0.022642 0.451157 0.174512
0.034462 0.456330 0.168604
0.072354 0.472809 0.172907
0.194678 0.492767 0.171882
0.348653 0.514178 0.176109
0.463801 0.532933 0.182968
0.578141 0.547813 0.184822
0.692519 0.556193 0.172274
0.796326 0.565286 0.156604
0.894008 0.587490 0.153022
0.960556 0.611749 0.150995
0.987825 0.640269 0.167089
0.995498 0.650747 0.202670
0.001634 0.507539 0.206219
0.009152 0.516293 0.200738
0.016653 0.521621 0.192205
0.024325 0.517018 0.176487
0.035726 0.522456 0.169522
0.056186 0.537417 0.172759
0.132843 0.557818 0.176361
0.318299 0.578760 0.179026
0.451805 0.598865 0.186689
0.581876 0.619819 0.189399
0.692351 0.630923 0.185011
0.793564 0.639411 0.176636
0.881390 0.644669 0.170550
0.952034 0.661430 0.176859
0.987606 0.693499 0.182870
0.996998 0.708073 0.209707
0.003071 0.567140 0.210517
0.010646 0.576674 0.205253
0.018169 0.584729 0.199587
0.025936 0.582857 0.187113
0.037144 0.589562 0.180843
0.056571 0.604054 0.180022
0.117045 0.623795 0.181248
0.291039 0.645312 0.180072
0.444075 0.665991 0.186235
0.583680 0.687336 0.193222
0.699420 0.704054 0.201077
0.795405 0.711938 0.204869
0.881971 0.718236 0.193389
0.946484 0.723034 0.187747
0.983430 0.737304 0.198369
0.997585 0.757330 0.224559
0.004510 0.626387 0.215797
0.012024 0.635883 0.212233
0.019675 0.643830 0.206198
0.027502 0.644966 0.195703
0.038724 0.651878 0.188410
0.057114 0.664582 0.179116
0.091815 0.682743 0.178450
0.266833 0.702871 0.176851
0.447075 0.722727 0.186845
0.586490 0.743413 0.206034
0.707857 0.760974 0.219907
0.799899 0.768251 0.217444
0.882417 0.775478 0.212022
0.945677 0.779362 0.201415
0.982922 0.786021 0.204903
0.998152 0.799498 0.238038
0.005800 0.677381 0.222332
0.013336 0.684172 0.215958
0.021051 0.691784 0.208774
0.029103 0.694339 0.199434
0.041369 0.701551 0.187967
0.058667 0.713022 0.177388
0.091370 0.729865 0.181162
0.255383 0.748470 0.187047
0.447895 0.768089 0.202130
0.588858 0.786476 0.218525
0.711108 0.802207 0.230120
0.805322 0.812280 0.228348
0.883543 0.818314 0.227413
0.945278 0.823295 0.223204
0.981929 0.828320 0.219350
0.998288 0.839601 0.250885
0.007097 0.718572 0.219412
0.014566 0.723813 0.210790
0.022307 0.729663 0.203430
0.031537 0.734561 0.197418
0.045059 0.741873 0.187345
0.061239 0.752096 0.181503
0.101804 0.767528 0.189870
0.248989 0.783635 0.203076
0.440151 0.801358 0.213468
0.587420 0.818300 0.217955
0.705984 0.833472 0.231757
0.805339 0.847281 0.241259
0.879479 0.850926 0.241133
0.943704 0.856400 0.239745
0.983005 0.860663 0.236325
0.998222 0.869643 0.257692
0.008166 0.753348 0.217001
0.015855 0.758400 0.213349
0.024444 0.764804 0.212398
0.034950 0.769577 0.210155
0.049019 0.775637 0.200452
0.064865 0.784232 0.190160
0.112047 0.796649 0.195254
0.237175 0.810073 0.203077
0.430436 0.825125 0.209521
0.574529 0.840411 0.217246
0.689892 0.854186 0.225151
0.786684 0.868476 0.244201
0.865302 0.875579 0.250403
0.934142 0.881417 0.250785
0.980385 0.886460 0.247930
0.997923 0.895359 0.261947
0.002397 0.007988 0.205352
0.022158 0.007934 0.219182
0.071041 0.008786 0.226268
0.144297 0.010037 0.237303
0.223657 0.009143 0.246369
0.311050 0.010791 0.237651
0.376899 0.017688 0.218155
0.429697 0.029101 0.200485
0.483110 0.038139 0.189838
0.540876 0.050247 0.185267
0.602394 0.046811 0.186029
0.674269 0.053123 0.191528
0.748697 0.081043 0.203507
0.817755 0.101291 0.220514
0.878719 0.112041 0.235617
0.929339 0.133281 0.250049
0.000125 0.055357 0.215527
0.016736 0.055278 0.215064
0.042108 0.053087 0.215956
0.117411 0.053198 0.225284
0.204221 0.055133 0.230362
0.312644 0.053713 0.216086
0.387354 0.057406 0.191779
0.443680 0.063535 0.174511
0.501514 0.072841 0.169423
0.564787 0.083879 0.175429
0.637767 0.094132 0.187096
0.716014 0.118846 0.203189
0.786758 0.139991 0.218092
0.852381 0.155775 0.231063
0.909013 0.172280 0.245121
0.949041 0.204064 0.266612
0.000000 0.096002 0.216917
0.009926 0.096697 0.216253
0.026417 0.094025 0.216737
0.089101 0.094108 0.217212
0.192778 0.097218 0.214992
0.293351 0.102960 0.195212
0.371755 0.107574 0.175447
0.447427 0.118539 0.171777
0.522606 0.131170 0.177682
0.606721 0.147060 0.189866
0.690294 0.163558 0.204367
0.768482 0.181742 0.219272
0.839015 0.199593 0.233632
0.895410 0.221027 0.247535
0.932327 0.244381 0.266754
0.958591 0.269790 0.289303
0.000000 0.142794 0.222636
0.007043 0.144181 0.219112
0.015963 0.142166 0.217049
0.052417 0.140860 0.213966
0.169153 0.146641 0.208324
0.269996 0.158574 0.199427
0.348818 0.169712 0.196255
0.427071 0.185147 0.204836
0.512290 0.202351 0.215186
0.610206 0.218155 0.222247
0.709087 0.232880 0.230087
0.796638 0.249117 0.241037
0.868586 0.265998 0.252242
0.913977 0.285372 0.265894
0.945493 0.313562 0.289840
0.967770 0.346694 0.320856
0.000000 0.190716 0.224913
0.007229 0.192725 0.222378
0.016247 0.193264 0.221117
0.032412 0.187490 0.214332
0.115604 0.193622 0.216091
0.241030 0.208749 0.208814
0.354015 0.225323 0.205000
0.454427 0.239224 0.206853
0.552050 0.251727 0.206856
0.653574 0.265148 0.211018
0.746125 0.280071 0.220359
0.824976 0.297920 0.233674
0.888355 0.317952 0.249146
0.931503 0.337889 0.266058
0.959774 0.364977 0.293130
0.976360 0.401617 0.327663
0.000000 0.238682 0.228883
0.006687 0.242305 0.225609
0.013793 0.244264 0.223414
0.024138 0.236419 0.215360
0.077754 0.240340 0.215665
0.195246 0.251974 0.220996
0.312073 0.269566 0.218389
0.430407 0.286932 0.208841
0.549797 0.305659 0.208720
0.681195 0.318878 0.200448
0.791376 0.329215 0.190017
0.868787 0.340609 0.193001
0.920935 0.356070 0.210512
0.955703 0.378702 0.237322
0.972469 0.409132 0.271766
0.983418 0.444319 0.310716
0.000000 0.290190 0.235305
0.006687 0.294788 0.230868
0.013377 0.299006 0.228128
0.020264 0.288496 0.214615
0.045906 0.292038 0.213288
0.161190 0.302974 0.221044
0.283088 0.318518 0.229225
0.388404 0.334185 0.228196
0.509694 0.354764 0.217173
0.645993 0.372565 0.215953
0.773284 0.388594 0.206855
0.871177 0.399412 0.189897
0.935509 0.414552 0.184493
0.967164 0.444182 0.208117
0.980030 0.469302 0.247867
0.988744 0.496161 0.289452
0.000000 0.342560 0.239735
0.006687 0.348605 0.237507
0.013377 0.354063 0.236168
0.020132 0.342361 0.221575
0.035691 0.343574 0.217749
0.122340 0.356400 0.227018
0.253139 0.372890 0.233717
0.368983 0.390892 0.240139
