luts/SF STYLE.cube
TITLE "Generated by Resolve"
LUT_3D_SIZE 33
0 0 0
0.101762 0 0
0.239551 0 0
0.41593 0 0
0.592325 0 0
0.736156 0 0
0.843168 0 0
0.94342 0 0
1 0 0
1 0 0
1 0 0
1 0 0
1 0 0
1 0 0
1 0 0
1 0 0
1 0 0
0 0.0558328 0
0.0639963 0.0394293 0
0.181308 0.0181277 0
0.349004 0 0
0.527245 0 0
0.688609 0 0
0.807889 0 0
0.908705 0 0
1 0 0
1 0 0
1 0 0
1 0 0
1 0 0
1 0 0
1 0 0
1 0 0
1 0 0
0 0.1122 0
0.0273289 0.0956741 0
0.132876 0.0780499 0
0.282612 0.0484474 0
0.461418 0.0111086 0
0.635935 0 0
0.772244 0 0
0.877623 0 0
0.980545 0 0
1 0 0
1 0 0
1 0 0
1 0 0
1 0 0
1 0 0
1 0 0
1 0 0
0 0.173205 0
0 0.156771 0
0.0891737 0.140673 0
0.219364 0.117754 0
0.39646 0.0824292 0
0.577813 0.0466316 0
0.734722 0.0183566 0
0.851347 0.00205997 0
0.956207 0 0
1 0 0
1 0 0
1 0 0
1 0 0
1 0 0
1 0 0
1 0 0
1 0 0
0 0.242588 0
0 0.226688 0
0.0427558 0.21146 0
0.159945 0.19411 0
0.326589 0.16376 0
0.512535 0.128817 0
0.688457 0.0974746 0
0.822873 0.0784924 0
0.932662 0.067216 0
1 0.0568246 0
1 0.0470588 0
1 0.0378424 0
1 0.0290532 0
1 0.0206149 0
1 0.0124361 0
1 0.00444038 0
1 0 0
0 0.32134 0
0 0.306889 0
0 0.293019 0
0.10396 0.279255 0
0.252735 0.256184 0
0.440681 0.223026 0
0.629023 0.190478 0
0.785016 0.167544 0
0.90425 0.155398 0
1 0.145617 0
1 0.136095 0
1 0.126879 0
1 0.117891 0
1 0.109056 0
1 0.100267 0
1 0.0914778 0
1 0.0825971 0
0 0.406928 0
0 0.394568 0
0 0.382818 0
0.0554971 0.371557 0
0.186038 0.355795 0
0.36733 0.326345 0
0.559335 0.294255 0
0.734462 0.267155 0
0.867277 0.251987 0
0.98172 0.242023 0
1 0.231998 0
1 0.221973 0
1 0.211856 0
1 0.201663 0
1 0.191714 0
1 0.182086 0
1 0.172702 0
0 0.499397 0
0 0.48864 0
0 0.478172 0
0.0146334 0.467933 0
0.133516 0.45655 0
0.296544 0.433021 0
0.488502 0.401465 0
0.675807 0.37116 0
0.824399 0.351476 0
0.941558 0.340276 0
1 0.329747 0
1 0.319341 0
1 0.309071 0
1 0.298894 0
1 0.288792 0
1 0.278752 0
1 0.268727 0
0 0.59559 0
0 0.585931 0
0 0.576257 0
0 0.566522 0
0.0894484 0.556527 0
0.230045 0.538979 0
0.417273 0.508141 0
0.608637 0.476204 0
0.775509 0.451316 0
0.901869 0.437842 0
1 0.427848 0
1 0.417762 0
1 0.407691 0
1 0.397589 0
1 0.387457 0
1 0.377142 0
1 0.366583 0
0 0.690333 0
0 0.68127 0
0 0.671901 0
0 0.662226 0
0.0523537 0.652598 0
0.175113 0.640192 0
0.347478 0.614115 0
0.539254 0.582681 0
0.720989 0.55404 0
0.861082 0.53695 0
0.976318 0.52665 0
1 0.516426 0
1 0.505989 0
1 0.495323 0
1 0.484398 0
1 0.473167 0
1 0.461601 0
0 0.780056 0
0 0.771481 0
0 0.762936 0
0 0.754376 0
0.0256046 0.745769 0
0.138796 0.736507 0
0.287968 0.717159 0
0.476127 0.686809 0
0.664515 0.656184 0
0.820493 0.634333 0
0.939666 0.622385 0
1 0.611994 0
1 0.601068 0
1 0.589685 0
1 0.577844 0
1 0.565484 0
1 0.552575 0
0 0.866957 0
0 0.859144 0
0 0.851255 0
0 0.843244 0
0.00843824 0.835081 0
0.117815 0.826673 0
0.244785 0.813107 0
0.422095 0.785199 0
0.609796 0.754009 0
0.780377 0.727123 0
0.908446 0.711559 0
1 0.700587 0
1 0.688945 0
1 0.676722 0
1 0.663935 0
1 0.650568 0
1 0.636622 0
0 0.952361 0
0 0.944533 0
0 0.936522 0
0 0.928283 0
0 0.919768 0
0.104524 0.910887 0
0.216876 0.900282 0
0.373022 0.876982 0
0.557885 0.845106 0
0.737926 0.813931 0
0.87921 0.792935 0
0.988861 0.780133 0
1 0.767605 0
1 0.754498 0
1 0.740856 0
1 0.72668 0
1 0.711986 0
0 1 0
0 1 0
0 1 0
0 1 0
0 0.999741 0
0.0910201 0.989654 0
0.197086 0.978973 0
0.329122 0.960464 0
0.5075 0.928466 0
0.68957 0.89485 0
0.846571 0.867643 0
0.96257 0.851286 0
1 0.837827 0
1 0.823758 0
1 0.809232 0
1 0.794232 0
1 0.77882 0
0 1 0
0 1 0
0 1 0
0 1 0
0 1 0
0.0725414 1 0
0.176852 1 0
0.2907 1 0
0.4533 1 0
0.634577 0.970871 0
0.805173 0.938079 0
0.933593 0.916503 0
1 0.901503 0
1 0.886366 0
1 0.870939 0
1 0.855222 0
1 0.839261 0
0 1 0
0 1 0
0 1 0
0 1 0
0 1 0
0.0491798 1 0
0.151904 1 0
0.256168 1 0
0.395773 1 0
0.573816 1 0
0.751675 1 0
0.896529 0.978698 0
1 0.961028 0
1 0.945113 0
1 0.928923 0
1 0.912596 0
1 0.896147 0
0 1 0
0 1 0
0 1 0
0 1 0
0 1 0
0.0208591 1 0
0.122301 1 0
0.223407 1 0
0.341772 1 0
0.510216 1 0
0.68893 1 0
0.850446 1 0
0.969421 1 0
1 1 0
1 0.985336 0
1 0.968673 0
1 0.951995 0
0 0.000793469 0.0441138
0.0976883 0 0.038407
0.233158 0 0.0255894
0.409094 0 0.00434882
0.585855 0 0
0.731502 0 0
0.839475 0 0
0.939727 0 0
1 0 0
1 0 0
1 0 0
1 0 0
1 0 0
1 0 0
1 0 0
1 0 0
1 0 0
0 0.0568399 0.0284276
0.0602121 0.0404364 0.0226596
0.175875 0.0196078 0.0136263
0.342092 0 0
0.520485 0 0
0.683482 0 0
0.803998 0 0
0.905486 0 0
1 0 0
1 0 0
1 0 0
1 0 0
1 0 0
1 0 0
1 0 0
1 0 0
1 0 0
0 0.113146 0.0105135
0.0238804 0.0967269 0.0055848
0.128725 0.079408 0
0.276219 0.0505226 0
0.454887 0.0133516 0
0.630289 0 0
0.768551 0 0
0.874708 0 0
0.977737 0 0
1 0 0
1 0 0
1 0 0
1 0 0
1 0 0
1 0 0
1 0 0
1 0 0
0 0.174151 0
0 0.15787 0
0.0864424 0.142 0
0.214633 0.119844 0
0.39089 0.0849928 0
0.572473 0.0493782 0
0.731228 0.0208438 0
0.84918 0.00442512 0
0.954192 0 0
1 0 0
1 0 0
1 0 0
1 0 0
1 0 0
1 0 0
1 0 0
1 0 0
0 0.243687 0
0 0.228016 0
0.0415045 0.213016 0
0.157519 0.196246 0
0.322255 0.16669 0
0.508263 0.132006 0
0.685481 0.100587 0
0.821653 0.0814069 0
0.931823 0.0702678 0
1 0.0601205 0
1 0.0505379 0
1 0.041474 0
1 0.0328222 0
1 0.0244755 0
1 0.0163729 0
1 0.00840772 0
1 0.000503548 0
0 0.322957 0
0 0.30869 0
0 0.295048 0
0.103578 0.281605 0
0.250233 0.259403 0
0.437873 0.226581 0
0.626673 0.194141 0
0.784527 0.170886 0
0.904662 0.158633 0
1 0.149004 0
1 0.139605 0
1 0.130465 0
1 0.121538 0
1 0.112734 0
1 0.10396 0
1 0.09514 0
1 0.0862593 0
0 0.409247 0
0 0.397101 0
0 0.385534 0
0.0561685 0.374411 0
0.185199 0.359213 0
0.365072 0.330297 0
0.557244 0.298283 0
0.733928 0.270802 0
0.868193 0.255268 0
0.982925 0.245228 0
1 0.235264 0
1 0.225223 0
1 0.215061 0
1 0.204913 0
1 0.195071 0
1 0.185534 0
1 0.176242 0
0 0.502297 0
0 0.49163 0
0 0.48127 0
0.0156863 0.471107 0
0.133852 0.459968 0
0.294652 0.437079 0
0.486366 0.4056 0
0.674403 0.375051 0
0.824765 0.354788 0
0.942473 0.343328 0
1 0.33286 0
1 0.322499 0
1 0.312261 0
1 0.302113 0
1 0.292042 0
1 0.282002 0
1 0.271977 0
0 0.598886 0
0 0.589227 0
0 0.579553 0
0 0.569772 0
0.0902724 0.559762 0
0.228809 0.542687 0
0.415106 0.512078 0
0.606683 0.480156 0
0.775326 0.454826 0
0.902937 0.441062 0
1 0.431083 0
1 0.420996 0
1 0.410925 0
1 0.400824 0
1 0.390646 0
1 0.38024 0
1 0.369589 0
0 0.693858 0
0 0.684703 0
0 0.675212 0
0 0.665537 0
0.0529793 0.655909 0
0.17464 0.64387 0
0.345129 0.618326 0
0.53695 0.586892 0
0.719936 0.557885 0
0.861738 0.540291 0
0.977279 0.52987 0
1 0.519554 0
1 0.509056 0
1 0.498299 0
1 0.487282 0
1 0.475944 0
1 0.464271 0
0 0.783719 0
0 0.775158 0
0 0.766613 0
0 0.758038 0
0.0257267 0.749401 0
0.138598 0.740215 0
0.285588 0.721431 0
0.473335 0.691127 0
0.662135 0.660304 0
0.819974 0.637827 0
0.940093 0.625513 0
1 0.614984 0
1 0.603922 0
1 0.592386 0
1 0.580377 0
1 0.567819 0
1 0.554742 0
0 0.870893 0
0 0.86305 0
0 0.855146 0
0 0.847074 0
0.00796521 0.838834 0
0.117342 0.83035 0
0.242649 0.817136 0
0.418418 0.789532 0
0.60618 0.758175 0
0.778256 0.730709 0
0.907729 0.714565 0
1 0.703304 0
1 0.691524 0
1 0.679118 0
1 0.666117 0
1 0.652552 0
1 0.638437 0
0 0.956313 0
0 0.948425 0
0 0.940337 0
0 0.932006 0
0 0.923384 0
0.10341 0.914382 0
0.214923 0.903838 0
0.36875 0.880995 0
0.553277 0.848997 0
0.734035 0.817426 0
0.877028 0.795743 0
0.987198 0.782574 0
1 0.769879 0
1 0.756588 0
1 0.742763 0
1 0.72842 0
1 0.713542 0
0 1 0
0 1 0
0 1 0
0 1 0
0 1 0
0.0893111 0.992721 0
0.195056 0.981918 0
0.32491 0.963806 0
0.502251 0.931899 0
0.684321 0.898085 0
0.842924 0.870237 0
0.960021 0.853376 0
1 0.839765 0
1 0.825544 0
1 0.810849 0
1 0.795712 0
1 0.780163 0
0 1 0
0 1 0
0 1 0
0 1 0
0 1 0
0.0704051 1 0
0.174563 1 0
0.286992 1 0
0.447471 1 0
0.62855 0.973709 0
0.800214 0.940444 0
0.930159 0.918273 0
1 0.903059 0
1 0.887831 0
1 0.872297 0
1 0.856489 0
1 0.840452 0
0 1 0
0 1 0
0 1 0
0 1 0
0 1 0
0.046479 1 0
0.149081 1 0
0.252796 1 0
0.38999 1 0
0.567498 1 0
0.745632 1 0
0.892302 0.98024 0
1 0.962264 0
1 0.946303 0
1 0.930053 0
1 0.91368 0
1 0.897215 0
0 1 0
0 1 0
0 1 0
0 1 0
0 1 0
0.0177157 1 0
0.119051 1 0
0.22005 1 0
0.33666 1 0
0.503502 1 0
0.682231 1 0
0.845212 1 0
0.965606 1 0
1 1 0
1 0.986343 0
1 0.96968 0
1 0.953002 0
0 0.00189212 0.0890364
0.0936446 0 0.0831311
0.226856 0 0.0705425
0.402289 0 0.0492561
0.579339 0 0.0276341
0.726833 0 0.0121157
0.835798 0 0.00459297
0.936049 0 0
1 0 0
1 0 0
1 0 0
1 0 0
1 0 0
1 0 0
1 0 0
1 0 0
1 0 0
0 0.0578622 0.0726635
0.0564736 0.0414588 0.0668498
0.170565 0.021088 0.0581521
0.33521 0 0.0392615
0.51371 0 0.0178073
0.678264 0 0
0.80032 0 0
0.901991 0 0
1 0 0
1 0 0
1 0 0
1 0 0
1 0 0
1 0 0
1 0 0
1 0 0
1 0 0
0 0.114137 0.0551003
0.0203708 0.0977951 0.050309
0.124575 0.0807507 0.0448157
0.269886 0.0526131 0.0310216
0.448386 0.0156405 0.0106508
0.624613 0 0
0.764828 0 0
0.871824 0 0
0.975006 0 0
1 0 0
1 0 0
1 0 0
1 0 0
1 0 0
1 0 0
1 0 0
1 0 0
0 0.175143 0.031281
0 0.15903 0.0292515
0.0837415 0.143374 0.0271916
0.210025 0.121965 0.0205234
0.385321 0.0876326 0.00402838
0.567132 0.0522011 0
0.727703 0.0234379 0
0.847044 0.00688182 0
0.952255 0 0
1 0 0
1 0 0
1 0 0
1 0 0
1 0 0
1 0 0
1 0 0
1 0 0
0 0.244877 0
0 0.229435 0
0.0402686 0.214649 0.00135805
0.155215 0.198459 0.00184634
0.318013 0.169726 0
0.50399 0.135302 0
0.68246 0.103807 0
0.820417 0.0843977 0
0.931044 0.0734112 0
1 0.0634623 0
1 0.054078 0
1 0.0451514 0
1 0.0366217 0
1 0.0283665 0
1 0.020325 0
1 0.0123903 0
1 0.00448615 0
0 0.324636 0
0 0.310582 0
0 0.297139 0
0.103304 0.284031 0
0.247868 0.262684 0
0.435126 0.230213 0
0.624277 0.197879 0
0.783978 0.174289 0
0.905074 0.161929 0
1 0.152438 0
1 0.143145 0
1 0.134081 0
1 0.1252 0
1 0.116411 0
1 0.107637 0
1 0.0987869 0
1 0.0899519 0.00221256
0 0.411627 0
0 0.399695 0
0 0.388296 0
0.0569162 0.377295 0
0.184512 0.362661 0
0.36286 0.334279 0
0.555154 0.302327 0
0.733333 0.274479 0
0.869078 0.258564 0
0.983825 0.248524 0
1 0.238529 0
1 0.228443 0
1 0.21825 0
1 0.208194 0
1 0.198459 0
1 0.189014 0
1 0.179797 0.000991836
0 0.505211 0
0 0.494667 0
0 0.484382 0
0.0167239 0.474296 0
0.134279 0.463386 0
0.29279 0.441138 0
0.484215 0.40972 0
0.672877 0.378943 0
0.825055 0.358099 0
0.943435 0.346395 0
1 0.336004 0
1 0.325673 0
1 0.31548 0
1 0.305348 0
1 0.295293 0
1 0.285267 0
1 0.275242 0
0 0.602197 0
0 0.592538 0
0 0.582834 0
0 0.573007 0
0.0911269 0.562966 0
0.227649 0.546349 0
0.41294 0.51603 0
0.604715 0.484138 0
0.775097 0.458366 0
0.903975 0.444282 0
1 0.434318 0
1 0.424247 0
1 0.41416 0
1 0.404044 0
1 0.393805 0
1 0.383322 0
1 0.37258 0
0 0.697368 0
0 0.688106 0
0 0.678508 0
0 0.668849 0
0.0536507 0.65922 0
0.174273 0.647501 0
0.34284 0.622522 0
0.534661 0.591089 0
0.718837 0.561746 0
0.862348 0.543633 0
0.978271 0.533043 0
1 0.522683 0
1 0.512093 0
1 0.501259 0
1 0.490135 0
1 0.478676 0
1 0.46688 0
0 0.787381 0
0 0.778836 0
0 0.770291 0
0 0.7617 0
0.0258793 0.753033 0
0.138476 0.743893 0
0.283284 0.725658 0
0.470603 0.695399 0
0.659724 0.664408 0
0.819409 0.641306 0
0.940505 0.628595 0
1 0.617945 0
1 0.606729 0
1 0.595026 0
1 0.582834 0
1 0.570108 0
1 0.556848 0
0 0.874815 0
0 0.866957 0
0 0.859007 0
0 0.850889 0
0.00749218 0.842557 0
0.116899 0.833982 0
0.24062 0.821103 0
0.414725 0.79382 0
0.602533 0.762295 0
0.776028 0.734264 0
0.90695 0.717525 0
1 0.706035 0
1 0.694041 0
1 0.681422 0
1 0.668238 0
1 0.65449 0
1 0.640177 0
0 0.960235 0
0 0.952285 0
0 0.944121 0
0 0.935699 0
0 0.926955 0
0.102235 0.917845 0
0.213031 0.907317 0
0.364477 0.884947 0
0.548653 0.852827 0
0.730022 0.820874 0
0.874769 0.798489 0
0.985534 0.784955 0
1 0.772091 0
1 0.758633 0
1 0.744625 0
1 0.730083 0
1 0.715038 0
0 1 0
0 1 0
0 1 0
0 1 0
0 1 0
0.0875563 0.995712 0
0.193011 0.984787 0
0.32076 0.967056 0
0.49691 0.935286 0
0.678981 0.901289 0
0.83917 0.872801 0
0.957412 0.855436 0
1 0.841657 0
1 0.827268 0
1 0.812421 0
1 0.797131 0
1 0.78146 0
0 1 0
0 1 0
0 1 0
0 1 0
0 1 0
0.0682078 1 0
0.172213 1 0
0.28333 1 0
0.441596 1 0
0.622461 0.976501 0
0.795132 0.942779 0
0.926635 0.920012 0
1 0.904585 0
1 0.88925 0
1 0.873625 0
1 0.85774 0
1 0.841611 0
0 1 0
0 1 0
0 1 0
0 1 0
0 1 0
0.0437476 1 0
0.146197 1 0
0.249424 1 0
0.384268 1 0
0.561181 1 0
0.739498 1 0
0.887953 0.981781 0
0.997772 0.96347 0
1 0.947463 0
1 0.931167 0
1 0.914763 0
1 0.898268 0
0 1 0
0 1 0
0 1 0
0 1 0
0 1 0
0.0145418 1 0
0.11577 1 0
0.216678 1 0
0.331624 1 0
0.496773 1 0
0.675486 1 0
0.839887 1 0
0.961746 1 0
1 1 0
1 0.98735 0
1 0.970687 0
1 0.954009 0
0 0.00271611 0.138384
0.0890669 0 0.131777
0.220142 0 0.118959
0.395087 0 0.0971847
0.572412 0 0.0749676
0.721798 0 0.0585946
0.831907 0 0.0504616
0.932235 0 0.0445716
1 0 0.038819
1 0 0.0333562
1 0 0.0282444
1 0 0.0235142
1 0 0.0192111
1 0 0.0154269
1 0 0.0122072
1 0 0.00955215
1 0 0.00746166
0 0.0587015 0.119738
0.0524147 0.0423285 0.11339
0.165103 0.0224308 0.10457
0.32813 0 0.0856794
0.506828 0 0.0639353
0.672862 0 0.0451209
0.796597 0 0.0350042
0.898543 0 0.0299687
1 0 0.0254063
1 0 0.0212863
1 0 0.0177005
1 0 0.0146944
1 0 0.0122377
1 0 0.0103609
1 0 0.00907912
1 0 0.00839246
