luts/SK7.cube
TITLE "Generated by Resolve"
LUT_3D_SIZE 33
0 0 0
0 0 0
0 0 0
0 0 0
0 0 0
0 0 0
0 0 0
0 0 0
0 0 0
0.0325322 0 0
0.0916609 0 0
0.268498 0 0
0.416129 0 0
0.529824 0 0
0.633417 0 0
0.731548 0 0
0.667857 0 0
0.463081 0 0
0.48452 0 0
0.521614 0 0
0.556848 0 0
0.590188 0 0
0.62388 0 0
0.651362 0 0
0.678752 0 0
0.706065 0 0
0.733257 0 0
0.760327 0 0
0.787305 0 0
0.814282 0 0
0.84126 0 0
0.868162 0 0
0.895308 0 0
0 0 0
0 0 0
0 0 0
0 0 0
0 0 0
0 0 0
0 0 0
0 0 0
0 0 0
0.0315251 0 0
0.0907301 0 0
0.274144 0 0
0.421469 0 0
0.535225 0 0
0.639506 0 0
0.736034 0 0
0.648142 0 0
0.451835 0 0
0.487221 0 0
0.524544 0 0
0.559106 0 0
0.593881 0 0
0.627253 0 0
0.654871 0 0
0.682795 0 0
0.710536 0 0
0.738262 0 0
0.766003 0 0
0.793744 0 0
0.8215 0 0
0.849424 0 0
0.877501 0 0
0.906157 0 0
0 0 0
0 0 0
0 0 0
0 0 0
0 0 0
0 0 0
0 0 0
0 0 0
0 0 0
0.0302281 0 0
0.0894331 0 0
0.280201 0 0
0.427192 0 0
0.540749 0 0
0.646311 0 0
0.741009 0 0
0.626093 0 0
0.450004 0 0
0.489769 0 0
0.527001 0 0
0.563073 0 0
0.598428 0 0
0.631113 0 0
0.659327 0 0
0.687922 0 0
0.716442 0 0
0.745083 0 0
0.773754 0 0
0.802701 0 0
0.832181 0 0
0.862348 0 0
0.894514 0 0
0.93283 0 0
0 0 0
0 0 0
0 0 0
0 0 0
0 0 0
0 0 0
0 0 0
0 0 0
0 0 0
0.0285649 0 0
0.0877546 0 0
0.286275 0 0
0.43299 0 0
0.546792 0 0
0.653681 0 0
0.745357 0 0
0.590692 0 0
0.452583 0 0
0.493416 0 0
0.531411 0 0
0.568032 0 0
0.604227 0 0
0.636255 0 0
0.665492 0 0
0.69514 0 0
0.725093 0 0
0.755474 0 0
0.786908 0 0
0.82153 0 0
0.859052 0 0
0.890272 0 0
0.919905 0 0
0.948547 0 0
0 0 0
0 0 0
0 0 0
0 0 0
0 0 0
0 0 0
0 0 0
0 0 0
0 0 0
0.0264897 0 0
0.0855268 0 0
0.292485 0 0
0.438865 0 0
0.553658 0 0
0.662196 0 0
0.735897 0 0
0.548241 0 0
0.457237 0 0
0.498558 0 0
0.537194 0 0
0.57499 0 0
0.612314 0 0
0.644007 0 0
0.675471 0 0
0.708537 0 0
0.747845 0 0
0.781918 0 0
0.813092 0 0
0.842985 0 0
0.871962 0 0
0.900191 0 0
0.927962 0 0
0.955154 0 0
0 0 0
0 0 0
0 0 0
0 0 0
0 0 0
0 0 0
0 0 0
0 0 0
0 0 0
0.0238041 0 0
0.0862745 0 0
0.299001 0 0
0.445457 0 0
0.56083 0 0
0.672175 0 0
0.725902 0 0
0.495384 0 0
0.463691 0 0
0.506004 0 0
0.546639 0 0
0.58706 0 0
0.626978 0 0
0.667048 0 0
0.700648 0 0
0.732204 0 0
0.762463 0 0
0.792035 0 0
0.819333 0.00248722 0.000213626
0.845624 0.00590524 0.000503548
0.871565 0.00909438 0.00077821
0.897231 0.0121462 0.00103761
0.92256 0.0149844 0.00128176
0.947295 0.0178073 0.0015259
0 0 0
0 0 0
0 0 0
0 0 0
0 0 0
0 0 0
0 0 0
0 0 0
0 0 0
0.0204623 0 0
0.0890516 0 0
0.305791 0 0
0.453315 0 0
0.571283 0 0
0.687266 0 0
0.708415 0 0
0.458701 0 0
0.475868 0 0
0.525887 0 0
0.573571 0.00117494 0.000106813
0.606302 0.0144045 0.00123598
0.635004 0.0190127 0.00163272
0.663432 0.0230106 0.00196841
0.691554 0.0266575 0.00227359
0.719265 0.0299687 0.00256352
0.746746 0.0330816 0.00273136
0.773709 0.0360571 0.00289921
0.80032 0.038819 0.00303655
0.826642 0.0415503 0.00318914
0.852598 0.0440833 0.00332647
0.878157 0.0465858 0.00344854
0.90341 0.0489815 0.00358587
0.928512 0.0513619 0.00370794
0 0 0
0 0 0
0 0 0
0 0 0
0 0 0
0 0 0
0 0 0
0 0 0
0 0 0
0.0158236 0 0
0.089601 0 0
0.313161 0 0
0.463813 0 0
0.588815 0 0
0.714061 0 0
0.553658 0 0
0.452552 0.0053254 0.000457771
0.488609 0.0226444 0.0019379
0.522393 0.0364233 0.00291447
0.555077 0.0481422 0.00354009
0.585794 0.0568551 0.00399786
0.613489 0.0597391 0.00415045
0.64123 0.062501 0.00427253
0.669062 0.0651408 0.00437934
0.696773 0.0676585 0.00448615
0.724208 0.0700694 0.00457771
0.751217 0.0724498 0.00468452
0.777829 0.0746471 0.00476081
0.804105 0.0769055 0.00485237
0.83003 0.079057 0.00494392
0.855634 0.081117 0.00502022
0.880964 0.0831617 0.00511177
0.90602 0.0851911 0.00518807
0 0 0
0 0 0
0 0 0
0 0 0
0 0 0
0 0 0
0 0 0
0 0 0
0 0 0
0.00630198 0 0
0.0755474 0 0
0.324544 0 0
0.504509 0 0
0.633951 0 0
0.728923 0 0
0.519341 0.000335698 3.0518e-05
0.423758 0.052079 0.00375372
0.459403 0.0666972 0.00444038
0.493111 0.0785992 0.00492866
0.525429 0.0891585 0.00535592
0.557046 0.0983139 0.0056611
0.584329 0.100725 0.00573739
0.611261 0.102785 0.00579843
0.638117 0.104829 0.00585946
0.665003 0.106767 0.0059205
0.692134 0.10869 0.00598154
0.719112 0.110613 0.00604257
0.7458 0.112428 0.00610361
0.77203 0.114336 0.00616464
0.798032 0.116152 0.00622568
0.823667 0.117861 0.00628672
0.848981 0.119661 0.00633249
0.874067 0.121355 0.00639353
0 0 0
0 0 0
0 0 0
0 0 0
0 0 0
0 0 0
0 0 0
0 0 0
0 0.0030518 0.000259403
0.00363165 0.00318914 0.000274662
0.098558 0.0041352 0.000350958
0.329717 0.00283818 0.000244144
0.475624 0.00296025 0.000259403
0.593851 0.00376898 0.000320439
0.705531 0.00483711 0.000411994
0.634073 0.0108644 0.0009308
0.384817 0.090135 0.00538643
0.41944 0.105776 0.00588998
0.453834 0.117723 0.00627146
0.486854 0.127977 0.00656138
0.518929 0.137163 0.00679026
0.548424 0.143206 0.00694286
0.574594 0.144778 0.00698863
0.600656 0.146349 0.00701915
0.626581 0.147921 0.00706493
0.652522 0.149493 0.00709544
0.678599 0.151064 0.00714122
0.704967 0.152529 0.00717174
0.731243 0.154101 0.00721752
0.757244 0.155657 0.00724804
0.782986 0.157137 0.00727855
0.808392 0.158694 0.00730907
0.833509 0.16025 0.00733959
0 0.0247807 0.002121
0 0.0276341 0.00236515
0 0.0309148 0.00262455
0 0.0346532 0.00282292
0 0.0389258 0.0030518
0 0.0552071 0.00390631
0 0.0645457 0.00436408
0 0.0726024 0.00468452
0 0.0695811 0.00456245
0.00122072 0.0584115 0.00408942
0.0586709 0.0576944 0.00404364
0.306798 0.0450294 0.00337224
0.448966 0.0448005 0.00335698
0.565209 0.0440833 0.00332647
0.679057 0.0425116 0.00323491
0.660578 0.0473182 0.00349432
0.389517 0.122545 0.00642405
0.400046 0.141146 0.00689708
0.435142 0.152758 0.007187
0.468864 0.162676 0.00738537
0.501183 0.17142 0.00756847
0.531594 0.178332 0.00770581
0.557473 0.179644 0.00772107
0.582986 0.18085 0.00775158
0.608438 0.182086 0.0077821
0.633768 0.183398 0.00779736
0.659266 0.184726 0.00782788
0.684932 0.185962 0.00784314
0.710628 0.187289 0.00787366
0.736477 0.188617 0.00788891
0.762081 0.189944 0.00790417
0.787305 0.191287 0.00793469
0.812345 0.192615 0.00796521
0 0.0990311 0.00567636
0 0.129549 0.00660716
0 0.173831 0.00761425
0 0.193729 0.00798047
0 0.20766 0.00819409
0 0.217487 0.00834669
0 0.223438 0.00842298
0 0.224903 0.00843824
0 0.216754 0.00833143
0 0.199298 0.00807202
0.0113375 0.19588 0.00801099
0.20412 0.196521 0.00801099
0.391562 0.180011 0.00773632
0.514733 0.174212 0.00761425
0.629419 0.167773 0.00749218
0.736904 0.160891 0.00735485
0.623697 0.197467 0.00802625
0.45069 0.242512 0.00865187
0.457038 0.229404 0.00848402
0.468376 0.210834 0.00823987
0.488807 0.203784 0.00813306
0.519951 0.211185 0.00825513
0.545617 0.212146 0.00827039
0.570932 0.213123 0.00828565
0.595987 0.214115 0.00830091
0.62089 0.215183 0.00831617
0.645792 0.216281 0.00833143
0.670771 0.217365 0.00834669
0.695796 0.218463 0.00836194
0.721202 0.219562 0.00836194
0.746517 0.220768 0.0083772
0.771572 0.221866 0.00839246
0.796445 0.223072 0.00840772
0 0.307256 0.00915541
0 0.32285 0.00921645
0 0.33518 0.00926223
0 0.34493 0.00929274
0 0.352483 0.00929274
0 0.357259 0.009308
0 0.359564 0.009308
0 0.357977 0.009308
0 0.347372 0.00929274
0 0.327718 0.00924697
0.0091249 0.323323 0.00923171
0.13257 0.327718 0.00924697
0.306859 0.325658 0.00923171
0.462303 0.309071 0.00917067
0.585367 0.298375 0.00910964
0.695064 0.291295 0.00906386
0.741802 0.296407 0.00909438
0.645518 0.326741 0.00923171
0.542824 0.353719 0.009308
0.554131 0.34551 0.00929274
0.557046 0.321386 0.00921645
0.541146 0.276448 0.0089723
0.539086 0.24567 0.00868238
0.562081 0.243961 0.00866712
0.586877 0.244724 0.00868238
0.611444 0.245563 0.00868238
0.635828 0.246509 0.00869764
0.660288 0.247379 0.0087129
0.684764 0.248356 0.0087129
0.709499 0.249317 0.00872816
0.73434 0.250294 0.00872816
0.759197 0.25127 0.00874342
0.783856 0.252262 0.00874342
0 0.449363 0.0091249
0 0.458183 0.00909438
0 0.465385 0.0090486
0 0.471031 0.00901808
0 0.475181 0.00898756
0 0.477516 0.0089723
0 0.477607 0.0089723
0 0.474327 0.00898756
0 0.462943 0.00906386
0 0.443381 0.00915541
0.00698863 0.436896 0.00918593
0.0636454 0.436377 0.00918593
0.257481 0.43505 0.00920119
0.386007 0.433463 0.00920119
0.524681 0.418921 0.00924697
0.660075 0.400107 0.00929274
0.735637 0.396918 0.009308
0.712154 0.409979 0.00927749
0.657023 0.426123 0.00923171
0.614664 0.437003 0.00918593
0.629847 0.430533 0.00921645
0.640787 0.416236 0.00926223
0.631693 0.381552 0.009308
0.59733 0.319554 0.00921645
0.616556 0.314565 0.00918593
0.645243 0.320043 0.00921645
0.674022 0.325765 0.00923171
0.702831 0.331518 0.00926223
0.73257 0.338216 0.00927749
0.762661 0.345037 0.00929274
0.793042 0.352132 0.00929274
0.823041 0.359319 0.009308
0.852827 0.366506 0.00932326
0 0.566659 0.00819409
0 0.572671 0.00813306
0 0.577478 0.00808728
0 0.581125 0.0080415
0 0.583474 0.00801099
0 0.584207 0.00801099
0 0.582971 0.00802625
0 0.578576 0.00807202
0 0.566552 0.00819409
0 0.546685 0.00840772
0.00627146 0.538857 0.00848402
0.0287633 0.53518 0.00851453
0.20528 0.52929 0.00857557
0.345693 0.528923 0.00859083
0.463188 0.526223 0.00860609
0.593256 0.513497 0.0087129
0.699794 0.497215 0.00883497
0.716716 0.497337 0.00883497
0.692729 0.505531 0.00877394
0.66833 0.512993 0.0087129
0.679713 0.511772 0.00872816
0.698054 0.50515 0.00877394
0.706798 0.489265 0.00889601
0.706523 0.464775 0.00906386
0.728359 0.462715 0.00906386
0.755505 0.466255 0.0090486
0.782116 0.469429 0.00903334
0.808774 0.472618 0.00900282
0.83505 0.475776 0.00898756
0.86128 0.479088 0.00895705
0.887465 0.482521 0.00894179
0.913344 0.485954 0.00891127
0.93901 0.489372 0.00889601
0 0.652689 0.0071107
0 0.654169 0.00709544
0 0.655268 0.00708019
0 0.655985 0.00706493
0 0.656138 0.00706493
0 0.655772 0.00706493
0 0.654765 0.00708019
0 0.652445 0.00712596
0 0.647288 0.007187
0 0.637842 0.00732433
0.00578317 0.631098 0.00741588
0.0187076 0.630335 0.00741588
0.129061 0.621515 0.00753796
0.307317 0.617319 0.00759899
0.422477 0.618799 0.00756847
0.537026 0.614145 0.00762951
0.643397 0.596246 0.0078584
0.683848 0.585077 0.00799573
0.690761 0.584329 0.00801099
0.699275 0.585855 0.0466468
0.72314 0.585107 0.0487373
0.744656 0.581491 0.045655
0.759152 0.571481 0.0342718
0.7691 0.557031 0.017319
0.791318 0.555337 0.0162509
0.816922 0.557488 0.019791
0.842298 0.559777 0.0235904
0.867582 0.56199 0.0273899
0.892622 0.564279 0.0311894
0.917617 0.566903 0.0351263
0.942458 0.56936 0.0392004
0.967117 0.571893 0.0431373
0.987686 0.574563 0.047013
0 0.629862 0.00743114
0 0.630472 0.00741588
0.00627146 0.630838 0.00741588
0.0145266 0.630838 0.00741588
0.0226139 0.630579 0.00741588
0.0304112 0.629847 0.00743114
0.0378729 0.628504 0.0074464
0.0514839 0.62678 0.00746166
0.0484321 0.633158 0.00738537
0.038056 0.643488 0.00724804
0.0401617 0.647761 0.007187
0.0391852 0.664729 0.0069276
0.0590219 0.711894 0.0061799
0.249012 0.7066 0.00627146
0.394934 0.702663 0.00633249
0.511757 0.69482 0.00645457
0.621454 0.671473 0.00682078
0.6795 0.651881 0.0187533
0.708034 0.651072 0.0894179
0.736355 0.652918 0.0929732
0.762249 0.653132 0.0941329
0.785748 0.651743 0.093492
0.803586 0.644938 0.0866712
0.817868 0.634928 0.0761578
0.840345 0.633722 0.0757763
0.865263 0.635309 0.0784772
0.890043 0.637217 0.0813916
0.914519 0.638941 0.0843214
0.938811 0.640665 0.0872511
0.963027 0.64271 0.0903029
0.987198 0.644785 0.0935836
0.987259 0.64686 0.0967727
0.987213 0.648951 0.0999466
0.0137331 0.680644 0.0884565
0.0210269 0.681895 0.0890822
0.0284428 0.682628 0.0891737
0.0360113 0.682857 0.0885328
0.0437781 0.682155 0.0870069
0.05243 0.68069 0.084596
0.101411 0.677974 0.0806744
0.170428 0.673228 0.074815
0.249653 0.663294 0.0625772
0.332525 0.646479 0.043122
0.38468 0.639338 0.0350347
0.428397 0.634562 0.0296483
0.276799 0.717433 0.00608835
0.272404 0.768078 0.00518807
0.408576 0.765118 0.00523384
0.541482 0.747906 0.00555428
0.651057 0.720012 0.00604257
0.709743 0.709545 0.122972
0.741939 0.713817 0.129107
0.770932 0.716014 0.132616
0.797543 0.716747 0.134386
0.822232 0.71606 0.134768
0.842344 0.711727 0.130648
0.859602 0.704875 0.123888
0.882551 0.704128 0.123903
0.90692 0.70544 0.12607
0.931136 0.706584 0.12845
0.955077 0.707927 0.130846
0.978943 0.709499 0.133364
0.988891 0.710979 0.135882
0.988891 0.712581 0.138521
0.988907 0.714275 0.141146
0.988891 0.715999 0.143893
0.0207065 0.736309 0.121492
0.0278477 0.73695 0.121462
0.0351263 0.737194 0.120851
0.0425727 0.736843 0.119814
0.0502327 0.735973 0.117952
0.0641337 0.734279 0.115312
0.112474 0.731579 0.111666
0.181949 0.727275 0.106157
0.26389 0.718608 0.0959029
0.35201 0.704784 0.0800946
0.40763 0.698909 0.0736248
0.453925 0.694865 0.069398
0.498817 0.696208 0.0716106
0.461845 0.760449 0.0053254
0.489723 0.789364 0.00477607
0.600855 0.776562 0.00502022
0.695201 0.755581 0.137392
0.735042 0.763699 0.153353
0.768414 0.768811 0.159915
0.798413 0.771435 0.164019
0.826368 0.773434 0.166873
0.852659 0.774105 0.168765
0.875822 0.772503 0.167895
0.89546 0.767956 0.163592
0.918486 0.767437 0.163836
0.942443 0.768063 0.165469
0.96614 0.768811 0.167224
0.989624 0.769879 0.169085
0.991485 0.770748 0.170962
0.991501 0.77174 0.172946
0.991501 0.772839 0.174929
0.991531 0.77406 0.17702
0.991531 0.775189 0.179126
0.0257267 0.783123 0.144808
0.0327459 0.783475 0.144411
0.0399481 0.783276 0.143435
0.047303 0.782773 0.142046
0.054902 0.781674 0.140047
0.069688 0.779843 0.137316
0.118547 0.777127 0.133547
0.187747 0.772961 0.128191
0.271061 0.764767 0.118578
0.361852 0.752483 0.10454
0.419623 0.747097 0.0986191
0.467979 0.743297 0.0947127
0.510307 0.740276 0.0919356
0.566537 0.756786 0.111482
0.580896 0.793103 0.0517128
0.645304 0.798047 0.0873884
0.709056 0.796735 0.159014
0.74905 0.806317 0.170764
0.783169 0.811597 0.177539
0.814145 0.814923 0.182116
0.843183 0.817472 0.185794
0.870588 0.819181 0.18851
0.894972 0.818463 0.188769
0.917266 0.816464 0.187198
0.940764 0.816007 0.187808
0.964431 0.816281 0.188952
0.987778 0.816739 0.190311
0.993957 0.817227 0.191669
0.993957 0.817823 0.193057
0.993957 0.818341 0.194537
0.993973 0.819074 0.196124
0.993988 0.819791 0.19762
0.994003 0.820539 0.199237
0.0297551 0.825513 0.163455
0.0367132 0.825437 0.162692
0.0438239 0.825162 0.161456
0.0511177 0.82443 0.159838
0.0586557 0.822995 0.157717
0.0731365 0.821241 0.154864
0.12398 0.818326 0.151019
0.192218 0.814252 0.145708
0.274968 0.806287 0.1364
0.367453 0.794629 0.122942
0.426551 0.789563 0.117311
0.476066 0.785885 0.113573
0.519844 0.782971 0.110842
0.562417 0.78407 0.112734
0.623621 0.808072 0.140536
0.672541 0.82208 0.157107
0.71632 0.832914 0.170092
0.756939 0.842725 0.181888
0.793057 0.849683 0.190249
0.824918 0.853376 0.195178
0.854597 0.85597 0.198993
0.882673 0.857939 0.202075
0.908003 0.857939 0.202945
0.931243 0.856504 0.20235
0.955047 0.856352 0.20296
0.978714 0.856474 0.203952
0.996017 0.856718 0.204959
0.996017 0.856977 0.206073
0.996017 0.857328 0.207294
0.996017 0.85771 0.20853
0.996033 0.858198 0.209781
0.996033 0.858686 0.211124
0.996048 0.859297 0.212482
0.0330968 0.864622 0.178683
0.0399939 0.864302 0.177691
0.0470588 0.863905 0.176425
0.0543221 0.86305 0.174807
0.0618296 0.861708 0.172488
0.0746777 0.859831 0.169635
0.128603 0.856916 0.165805
0.195941 0.852735 0.160494
0.278035 0.845014 0.151461
0.37116 0.833616 0.138506
0.431174 0.828763 0.132891
0.48191 0.824918 0.129061
0.526589 0.822278 0.126299
0.566934 0.819852 0.124193
0.617197 0.831739 0.138277
0.673823 0.852979 0.162753
0.719554 0.865278 0.177295
0.761944 0.876204 0.190173
0.799939 0.884215 0.199969
0.832944 0.888533 0.205692
0.863294 0.891569 0.209537
0.891859 0.893675 0.212818
0.91809 0.89427 0.214191
0.941894 0.893172 0.21384
0.965927 0.892821 0.214359
0.989624 0.892912 0.215198
0.99765 0.893034 0.216083
0.99765 0.893156 0.21706
0.99765 0.8934 0.218067
0.99765 0.893645 0.219165
0.997665 0.894011 0.220279
0.997665 0.894377 0.221408
0.997681 0.894759 0.222629
0.0341344 0.893599 0.183261
0.0409857 0.893233 0.182147
0.0480201 0.892729 0.180682
0.0552682 0.891951 0.179049
0.0627909 0.890639 0.176959
0.0783246 0.889036 0.174487
0.127001 0.886915 0.171298
0.194461 0.883635 0.167224
0.277592 0.877974 0.160311
0.372061 0.868864 0.149706
0.433371 0.864454 0.144884
0.485069 0.861265 0.141558
0.530831 0.858595 0.139086
0.572335 0.856504 0.137148
0.610178 0.854765 0.135653
0.669001 0.877485 0.161837
0.719722 0.894453 0.181384
0.764141 0.906722 0.195605
0.804578 0.916671 0.20734
0.839002 0.922072 0.214038
0.870192 0.9252 0.218448
0.899474 0.927749 0.221881
0.926421 0.92874 0.223835
0.95082 0.927779 0.223713
0.975006 0.927428 0.224125
0.998871 0.927398 0.224842
0.998856 0.927398 0.225605
0.998856 0.927413 0.226459
0.998856 0.92752 0.227344
0.998871 0.927749 0.228321
0.998871 0.927993 0.229313
0.998871 0.928237 0.230304
0.998886 0.928512 0.231418
0.0345464 0.919493 0.184802
0.0413519 0.919203 0.183566
0.0483558 0.918486 0.182071
0.0555734 0.917601 0.180331
0.0630503 0.916167 0.178134
0.0775464 0.914549 0.17554
0.122148 0.912215 0.172335
0.189364 0.90901 0.168154
0.271672 0.903243 0.161135
0.366552 0.895003 0.151522
0.428138 0.891203 0.147311
0.480613 0.88838 0.14435
0.527169 0.886152 0.142138
0.569467 0.884321 0.140536
0.608316 0.882734 0.139208
0.648112 0.885298 0.142657
0.710063 0.913161 0.174304
0.758602 0.929061 0.192813
0.802075 0.941588 0.207248
0.839078 0.948989 0.216144
0.87158 0.95317 0.2215
0.901884 0.956252 0.22565
0.930007 0.957992 0.228458
0.955108 0.957824 0.22884
0.979644 0.957366 0.229221
0.999557 0.957214 0.229725
0.999557 0.95697 0.230228
0.999557 0.956847 0.230854
0.999557 0.956725 0.231479
0.999542 0.95671 0.232212
0.999542 0.95671 0.232959
0.999542 0.956725 0.233707
0.999542 0.956832 0.23447
0.0349126 0.94519 0.186297
0.0417029 0.94461 0.184955
0.0486763 0.943771 0.183352
0.055848 0.94287 0.181491
0.0633097 0.941421 0.179278
0.0765393 0.939773 0.176577
0.117327 0.937331 0.173358
0.184146 0.934096 0.168963
0.266072 0.92813 0.161929
0.360449 0.91989 0.1523
0.422034 0.915969 0.14789
0.474601 0.913237 0.1449
0.521492 0.910903 0.142565
0.564248 0.908965 0.140749
0.603555 0.907454 0.139391
0.643381 0.909331 0.142123
0.705638 0.936965 0.17351
0.754726 0.953201 0.192111
0.798764 0.965743 0.206638
0.836378 0.973266 0.215641
0.869322 0.977554 0.220905
0.900038 0.980529 0.224933
0.92842 0.982361 0.227726
0.953933 0.981979 0.228
0.978653 0.981521 0.228275
0.999863 0.981247 0.228748
0.999863 0.981003 0.229145
0.999863 0.980774 0.229648
0.999863 0.980636 0.230274
0.999863 0.980514 0.230884
0.999863 0.980499 0.23151
0.999863 0.980407 0.232242
0.999863 0.980499 0.23299
0.0352789 0.970352 0.187579
0.0420386 0.969635 0.186221
0.0489815 0.968872 0.184604
0.0561379 0.967681 0.182635
0.0635538 0.966293 0.180301
0.0753796 0.964446 0.177584
0.113146 0.961898 0.174273
0.179019 0.958663 0.169848
0.260594 0.952682 0.162722
0.354589 0.944411 0.152987
0.416144 0.94049 0.148547
0.468894 0.937636 0.145342
0.515999 0.935393 0.142901
0.559075 0.933349 0.141039
0.598779 0.93164 0.139574
0.64004 0.934585 0.143282
0.702235 0.961868 0.174273
0.751644 0.977752 0.192508
0.795972 0.990158 0.20676
0.833906 0.997345 0.215412
0.867338 0.999146 0.2206
0.89836 0.999146 0.224598
0.927092 0.999146 0.227298
0.952605 0.999146 0.227527
0.977523 0.999146 0.22768
1 0.99913 0.227939
1 0.99913 0.228305
1 0.99913 0.228702
1 0.99913 0.229191
1 0.99913 0.229801
1 0.99913 0.230411
1 0.99913 0.231037
1 0.99913 0.231662
0.0356298 0.995117 0.18883
0.042359 0.9944 0.187457
0.0492714 0.993515 0.185718
0.0563973 0.992294 0.183642
0.063798 0.990814 0.181308
0.0743877 0.988861 0.178485
0.109209 0.986389 0.175051
0.174014 0.98294 0.170626
0.255161 0.977035 0.1635
0.349004 0.968582 0.153658
0.410529 0.964645 0.149096
0.463249 0.961685 0.145876
0.510704 0.959335 0.143313
0.554009 0.957366 0.141344
0.594003 0.955749 0.139757
0.636423 0.959472 0.144442
0.698802 0.986496 0.175021
0.74876 0.999191 0.192966
0.794736 0.999161 0.207294
0.833082 0.999161 0.215869
0.86656 0.999146 0.220966
0.897581 0.999146 0.224826
0.926207 0.999146 0.227314
0.95172 0.999146 0.227329
0.976547 0.999146 0.227451
1 0.999146 0.227695
1 0.99913 0.228046
1 0.99913 0.228321
1 0.99913 0.228794
1 0.99913 0.229297
1 0.99913 0.229801
1 0.99913 0.230304
1 0.99913 0.230915
0.0359503 0.999191 0.190585
0.0426642 0.999191 0.189075
0.049546 0.999207 0.187213
0.0566567 0.999207 0.185107
0.0640269 0.999207 0.182712
0.0740978 0.999207 0.179721
0.107469 0.999222 0.176211
0.170764 0.999222 0.171588
0.250156 0.999237 0.164202
