luts/SK7.cube
TITLE "Generated by Resolve"
LUT_3D_SIZE 5
0 0 0
0 0 0
0.667857 0 0
0.678752 0 0
0.895308 0 0
0 0 0
0 0 0
0.423758 0.052079 0.00375372
0.665003 0.106767 0.0059205
0.874067 0.121355 0.00639353
0 0.629862 0.00743114
0.0484321 0.633158 0.00738537
0.621454 0.671473 0.00682078
0.840345 0.633722 0.0757763
0.987213 0.648951 0.0999466
0.0349126 0.94519 0.186297
0.266072 0.92813 0.161929
0.705638 0.936965 0.17351
0.978653 0.981521 0.228275
0.999863 0.980499 0.23299
0.0374609 0.999176 0.198962
0.251301 0.999237 0.170581
0.699245 0.999207 0.183581
0.972 0.99913 0.227955
1 0.99913 0.228321
0 0 0
0 0 0
0.681483 0 0
0.699321 0 0.0897078
0.926314 0 0.117906
0 0 0
0 0 0
0.448066 0.0517128 0.0751202
0.687816 0.101625 0.137133
0.895811 0.114977 0.153674
0 0.629328 0.285435
0.0334783 0.636927 0.186404
0.607446 0.665705 0.0205997
0.824125 0.618845 0.375235
0.964538 0.632471 0.397147
0.0322423 0.939818 0.495125
0.0963455 0.9234 0.467903
0.658061 0.92697 0.467216
0.971191 0.974563 0.523751
0.999588 0.972244 0.528634
0.0345159 0.999115 0.502586
0.0973373 0.9991 0.472587
0.627039 0.9991 0.474891
0.960342 0.99913 0.520958
1 0.99913 0.520836
0 0 0.352667
0 0 0.411673
0.749157 0 0.749233
0.776761 0 0.46424
0.962432 0 0.512413
0 0 0.406195
0 0 0.33257
0.42533 0.0841535 0.475105
0.726833 0.145281 0.535714
0.958587 0.161349 0.547753
0 0.623972 0.723918
0.0286412 0.625345 0.734752
0.36463 0.610712 0.747127
0.939757 0.527687 0.536767
0.934447 0.546609 0.57528
0.0303197 0.931807 0.816526
0.0931716 0.915953 0.793698
0.415686 0.893843 0.756191
0.962036 0.966323 0.832944
0.999176 0.961883 0.839323
0.0319677 0.999573 0.818433
0.0938582 0.999527 0.790341
0.342809 0.999451 0.752438
0.941436 0.999588 0.826734
1 0.999588 0.824826
0 0 0.550515
0 0 0.542535
0.290272 0 0.529274
0.82295 0 0.736339
0.972778 0 0.789487
0 0 0.536522
0 0 0.58204
0.342123 0 0.583001
0.715587 0.164263 0.78941
0.959899 0.174472 0.794522
0 0.548455 0.868406
0.0497597 0.515099 0.839933
0.108858 0.4318 0.765576
0.496452 0.426917 0.760845
0.754299 0.450706 0.776471
0.0377356 0.959167 1
0.10042 0.942184 1
0.202991 0.919753 1
0.913741 0.991135 1
1 0.982361 1
0.0387121 1 1
0.100237 1 1
0.165026 1 1
0.874556 1 1
1 1 1
0 0 0.748135
0 0 0.741939
0.275975 0 0.733455
0.824537 0 0.945724
0.975021 0 1
0 0 0.752453
0 0 0.787854
0.326925 0 0.78677
0.694697 0.169329 0.989258
0.951553 0.178042 0.993301
0 0.560784 1
0.0532845 0.524529 1
0.107942 0.441932 0.974411
0.37821 0.437659 0.975143
0.679149 0.457633 0.98819
0.0386358 0.958328 1
0.101442 0.940444 1
0.216983 0.916289 1
0.925353 0.987167 1
1 0.980133 1
0.0391089 1 1
0.100587 1 1
0.165225 1 1
0.870161 1 1
1 1 1
