luts/SK7.cube
TITLE "Generated by Resolve"
LUT_3D_SIZE 9
0 0 0
0 0 0
0 0 0
0.416129 0 0
0.667857 0 0
0.556848 0 0
0.678752 0 0
0.787305 0 0
0.895308 0 0
0 0 0
0 0 0
0 0 0
0.438865 0 0
0.548241 0 0
0.57499 0 0
0.708537 0 0
0.842985 0 0
0.955154 0 0
0 0 0
0 0 0
0 0 0
0.504509 0 0
0.423758 0.052079 0.00375372
0.557046 0.0983139 0.0056611
0.665003 0.106767 0.0059205
0.77203 0.114336 0.00616464
0.874067 0.121355 0.00639353
0 0.307256 0.00915541
0 0.352483 0.00929274
0 0.347372 0.00929274
0.306859 0.325658 0.00923171
0.741802 0.296407 0.00909438
0.557046 0.321386 0.00921645
0.586877 0.244724 0.00868238
0.684764 0.248356 0.0087129
0.783856 0.252262 0.00874342
0 0.629862 0.00743114
0.0226139 0.630579 0.00741588
0.0484321 0.633158 0.00738537
0.0590219 0.711894 0.0061799
0.621454 0.671473 0.00682078
0.762249 0.653132 0.0941329
0.840345 0.633722 0.0757763
0.938811 0.640665 0.0872511
0.987213 0.648951 0.0999466
0.0297551 0.825513 0.163455
0.0586557 0.822995 0.157717
0.274968 0.806287 0.1364
0.519844 0.782971 0.110842
0.71632 0.832914 0.170092
0.854597 0.85597 0.198993
0.955047 0.856352 0.20296
0.996017 0.857328 0.207294
0.996048 0.859297 0.212482
0.0349126 0.94519 0.186297
0.0633097 0.941421 0.179278
0.266072 0.92813 0.161929
0.521492 0.910903 0.142565
0.705638 0.936965 0.17351
0.869322 0.977554 0.220905
0.978653 0.981521 0.228275
0.999863 0.980636 0.230274
0.999863 0.980499 0.23299
0.0362707 0.999191 0.19234
0.0642557 0.999207 0.184207
0.25034 0.999237 0.165576
0.501701 0.999298 0.14432
0.69752 0.999222 0.177569
0.865461 0.999146 0.221836
0.974823 0.999146 0.227436
1 0.99913 0.228077
1 0.99913 0.229801
0.0374609 0.999176 0.198962
0.0651255 0.999191 0.189975
0.251301 0.999237 0.170581
0.501305 0.999283 0.148348
0.699245 0.999207 0.183581
0.863828 0.999146 0.224079
0.972 0.99913 0.227955
1 0.999146 0.22768
1 0.99913 0.228321
0 0 0
0 0 0
0 0 0
0.417884 0 0
0.665095 0 0
0.559091 0 0
0.681346 0 0
0.790585 0 0
0.899947 0 0
0 0 0
0 0 0
0 0 0
0.446937 0 0
0.522469 0 0
0.58233 0 0
0.726543 0 0
0.849058 0 0
0.957473 0 0
0 0 0
0 0 0
0 0 0
0.534356 0 0
0.429694 0.0550851 0.00390631
0.561456 0.0989242 0.00567636
0.668742 0.106401 0.0059205
0.775235 0.113512 0.00614939
0.876738 0.120363 0.00636301
0 0.32639 0.00923171
0 0.362982 0.009308
0 0.354437 0.009308
0.309071 0.329671 0.00924697
0.743099 0.298116 0.00910964
0.559411 0.321035 0.00921645
0.588647 0.243366 0.00865187
0.686503 0.246662 0.00869764
0.785534 0.250431 0.00872816
0 0.629953 0.120882
0.0226291 0.630426 0.132418
0.0440833 0.632609 0.0397803
0.0555428 0.712001 0.0061799
0.619577 0.670726 0.00683604
0.760342 0.650645 0.226719
0.835615 0.630823 0.208377
0.930724 0.637217 0.219318
0.979492 0.644953 0.231159
0.0288853 0.824872 0.298939
0.057557 0.822431 0.292332
0.197589 0.805554 0.269505
0.498817 0.781613 0.242527
0.710674 0.831022 0.299535
0.852247 0.853666 0.32781
0.95227 0.853788 0.331701
0.993698 0.854505 0.335973
0.993744 0.856123 0.341085
0.0339666 0.944076 0.319844
0.0621958 0.940307 0.312322
0.182177 0.927199 0.29395
0.485863 0.909621 0.273304
0.691569 0.934676 0.301885
0.864561 0.975601 0.348837
0.976425 0.979461 0.356313
0.999786 0.978332 0.35819
0.999771 0.977966 0.360891
0.0352483 0.999069 0.324727
0.0631113 0.999069 0.316136
0.168841 0.999069 0.296727
0.456168 0.999084 0.274556
0.676112 0.999069 0.305074
0.858549 0.999054 0.349096
0.971679 0.999054 0.354726
1 0.999054 0.355337
1 0.999054 0.356939
0.0363928 0.999069 0.330358
0.0639658 0.999069 0.32105
0.169558 0.999069 0.301137
0.454994 0.999084 0.278233
0.677272 0.999069 0.310491
0.856275 0.999054 0.350942
0.968322 0.999054 0.354864
1 0.999054 0.354376
1 0.999054 0.355093
0 0 0
0 0 0
0 0 0
0.407599 0 0
0.681483 0 0
0.56994 0 0.0657969
0.699321 0 0.0897078
0.811887 0 0.100877
0.926314 0 0.117906
0 0 0
0 0 0
0 0 0
0.444739 0 0
0.521721 0 0
0.607706 0 0.0987106
0.763241 0 0.144183
0.885039 0 0.163333
0.962676 0 0.177356
0 0 0
0 0 0
0 0 0
0.546395 0 0
0.448066 0.0517128 0.0751202
0.583368 0.0945296 0.128267
0.687816 0.101625 0.137133
0.793606 0.108461 0.145541
0.895811 0.114977 0.153674
0 0.330785 0.00924697
0 0.361639 0.009308
0 0.35053 0.00929274
0.302998 0.322606 0.00921645
0.746105 0.287648 0.0090486
0.564126 0.309606 0.167605
0.594446 0.237644 0.0865187
0.689281 0.240787 0.09308
0.786648 0.244327 0.099443
0 0.629328 0.285435
0.0175174 0.627695 0.300114
0.0334783 0.636927 0.186404
0.0444495 0.702693 0.00633249
0.607446 0.665705 0.0205997
0.753063 0.641184 0.394812
0.824125 0.618845 0.375235
0.912642 0.625101 0.385901
0.964538 0.632471 0.397147
0.0269322 0.819577 0.475044
0.0552224 0.817319 0.468177
0.0907149 0.800504 0.443671
0.433707 0.776379 0.413031
0.694499 0.824262 0.466346
0.845228 0.846815 0.494575
0.945022 0.846433 0.498573
0.990082 0.846784 0.503059
0.990173 0.848295 0.508324
0.0322423 0.939818 0.495125
0.0601968 0.936263 0.487373
0.0963455 0.9234 0.467903
0.402319 0.905913 0.4448
0.658061 0.92697 0.467216
0.854047 0.97026 0.515785
0.971191 0.974563 0.523751
0.999603 0.972885 0.52575
0.999588 0.972244 0.528634
0.0334325 0.999115 0.498238
0.0610819 0.9991 0.489433
0.0968185 0.999084 0.4692
0.354833 0.999069 0.445319
0.62678 0.9991 0.470039
0.843748 0.99913 0.515297
0.964828 0.99913 0.521218
1 0.99913 0.521798
1 0.99913 0.523491
0.0345159 0.999115 0.502586
0.0619059 0.999115 0.493156
0.0973373 0.9991 0.472587
0.353552 0.999069 0.448249
0.627039 0.9991 0.474891
0.840375 0.99913 0.516854
0.960342 0.99913 0.520958
1 0.99913 0.520226
1 0.99913 0.520836
0 0 0.454185
0 0 0.451637
0 0 0.413382
0.30074 0 0.340658
0.858228 0 0.252064
0.585107 0 0.266773
0.726787 0 0.289357
0.84567 0 0.300298
0.949859 0 0.3187
0 0 0.452369
0 0 0.464103
0 0 0.444114
0.34995 0 0.393408
0.915099 0 0.343832
0.643336 0 0.318959
0.794339 0 0.34786
0.929564 0 0.375616
0.967102 0 0.395727
0 0 0.382208
0 0 0.435248
0 0 0.528313
0.4878 0 0.52253
0.836805 0 0.418372
0.595956 0.102602 0.349035
0.705043 0.0960555 0.338048
0.816571 0.104005 0.345159
0.924041 0.116197 0.357794
0 0.308263 0.394903
0 0.333745 0.425574
0 0.320455 0.411032
0.133516 0.280415 0.362142
0.802441 0.23917 0.274296
0.53724 0.265538 0.327596
0.60621 0.229953 0.287358
0.696269 0.233249 0.291356
0.789487 0.237095 0.295842
0 0.639597 0.40531
0 0.636515 0.422644
0.0135653 0.648539 0.30193
0.0269474 0.674723 0.126299
0.574395 0.659724 0.115251
0.752316 0.624598 0.573907
0.810224 0.598825 0.551339
0.886793 0.604837 0.561028
0.943694 0.612451 0.571511
0.0249943 0.811627 0.663661
0.0529183 0.809064 0.658198
0.0876173 0.79266 0.634897
0.254414 0.769238 0.600412
0.630167 0.813474 0.643381
0.835523 0.837659 0.674022
0.937896 0.836545 0.678935
0.986358 0.836316 0.683726
0.986572 0.837659 0.688853
0.0306249 0.934005 0.684062
0.0582895 0.930648 0.677211
0.0938888 0.918074 0.658228
0.225422 0.901595 0.632822
0.560311 0.907179 0.634974
0.834928 0.963729 0.695659
0.964736 0.968536 0.704616
0.999298 0.966217 0.70695
0.999237 0.965209 0.710079
0.0316472 0.999344 0.685206
0.0590372 0.999329 0.677058
0.0943618 0.999298 0.657145
0.17731 0.996155 0.631495
0.504326 0.999268 0.638743
0.815061 0.999359 0.694423
0.955428 0.999359 0.700755
1 0.999359 0.701106
1 0.999359 0.702998
0.0326085 0.999344 0.68809
0.0597848 0.999329 0.679103
0.0948653 0.999298 0.65861
0.175799 0.999252 0.633097
0.508141 0.999283 0.645685
0.81004 0.999359 0.695506
0.949523 0.999359 0.699916
1 0.999359 0.698711
1 0.999359 0.699184
0 0 0.352667
0 0 0.355825
0 0 0.411673
0.085008 0 0.576745
0.749157 0 0.749233
0.62884 0 0.445319
0.776761 0 0.46424
0.909316 0 0.481331
0.962432 0 0.512413
0 0 0.337484
0 0 0.323629
0 0 0.345785
0.120531 0 0.394156
0.599725 0 0.578668
0.716136 0 0.521935
0.866423 0.0061799 0.548272
0.951751 0.0216526 0.564569
0.976425 0.0341344 0.577203
0 0 0.406195
0 0 0.310124
0 0 0.33257
0.166659 0 0.334173
0.42533 0.0841535 0.475105
0.593896 0.138598 0.532387
0.726833 0.145281 0.535714
0.84799 0.153628 0.541711
0.958587 0.161349 0.547753
0 0.250095 0.677897
0 0.269642 0.649699
0 0.253849 0.67805
0.0284276 0.207477 0.704662
0.744366 0.156115 0.895399
0.483543 0.256306 0.468055
0.607462 0.263249 0.471031
0.709758 0.268208 0.473625
0.810452 0.273259 0.477668
0 0.623972 0.723918
0.0192569 0.622568 0.721874
0.0286412 0.625345 0.734752
0.0287938 0.62681 0.74844
0.36463 0.610712 0.747127
0.868376 0.575021 0.678233
0.939757 0.527687 0.536767
0.93753 0.536278 0.553597
0.934447 0.546609 0.57528
0.0270695 0.818524 0.806668
0.0548714 0.815503 0.802548
0.0890364 0.797864 0.781231
0.134112 0.773144 0.74847
0.288243 0.893568 0.415091
0.819593 0.839261 0.758694
0.940871 0.830884 0.809262
0.984512 0.830503 0.813809
0.984802 0.831754 0.818296
0.0303197 0.931807 0.816526
0.0578622 0.92842 0.810773
0.0931716 0.915953 0.793698
0.132067 0.899886 0.769635
0.415686 0.893843 0.756191
0.794034 0.960876 0.823301
0.962036 0.966323 0.832944
0.999207 0.963241 0.835843
0.999176 0.961883 0.839323
0.0311437 0.999573 0.81651
0.0584115 0.999557 0.809155
0.0934462 0.999527 0.790341
0.131548 0.994217 0.765438
0.352789 0.987732 0.752728
0.761242 0.999588 0.821515
0.948653 0.999603 0.827909
1 0.999588 0.827817
1 0.999603 0.829953
0.0319677 0.999573 0.818433
0.0590219 0.999557 0.810086
0.0938582 0.999527 0.790341
0.131716 0.999466 0.764965
0.342809 0.999451 0.752438
0.753872 0.999588 0.822095
0.941436 0.999588 0.826734
1 0.999588 0.824491
1 0.999588 0.824826
0 0 0.439261
0 0 0.439612
0 0 0.429313
0.117372 0 0.413993
0.355978 0 0.465309
0.645823 0 0.58468
0.81445 0 0.617014
0.940352 0 0.632837
0.970871 0 0.670481
0 0 0.437308
0 0 0.442542
0 0 0.439017
0.132769 0 0.431724
0.40415 0 0.509133
0.735836 0.000915541 0.664561
0.872282 0.0227207 0.688487
0.954543 0.0341039 0.699275
0.978653 0.0440528 0.708141
0 0 0.41886
0 0 0.442054
0 0 0.467857
0.16405 0 0.466667
0.395102 0.0497749 0.555383
0.582757 0.149783 0.666835
0.725429 0.161776 0.67631
0.851591 0.167834 0.679423
0.961532 0.173632 0.682765
0 0.135637 0.439734
0 0.143023 0.451698
0 0.132509 0.446326
0.0288701 0.116197 0.437842
0.203326 0.166629 0.499702
0.427527 0.271168 0.613352
0.578561 0.288472 0.626902
0.699123 0.291997 0.6262
0.813123 0.296025 0.627207
0 0.593179 0.806668
0.0287022 0.593805 0.809049
0.0622263 0.570825 0.787747
0.0974899 0.535225 0.756558
0.0895857 0.576989 1
0.715251 0.523522 1
0.865324 0.453407 1
0.857008 0.46305 1
0.846372 0.475441 1
0.0313725 0.834104 0.942382
0.0591135 0.830884 0.939239
0.0934462 0.813382 0.921248
0.130053 0.789334 0.89633
0.318715 0.781811 0.888563
0.618601 0.84744 1
0.951263 0.830747 0.973571
0.952224 0.831861 0.973434
0.952895 0.834333 0.975357
0.0366979 0.95697 0.961471
0.0641031 0.952789 0.956481
0.0989395 0.938582 0.93991
0.136202 0.919402 0.916304
0.286229 0.9122 0.903456
0.576638 0.999466 0.764019
0.90753 0.999222 0.607996
1 0.999237 0.615564
1 0.999252 0.633204
0.0374609 0.999908 0.961944
0.0645762 0.999893 0.955169
0.0991073 0.999847 0.93637
0.136141 0.999786 0.910307
0.229007 0.999756 0.895842
0.564721 0.999496 0.774487
0.901228 0.999237 0.615213
1 0.999222 0.611734
1 0.999237 0.61857
0.0382544 0.999908 0.963714
0.0651102 0.999893 0.95555
0.099443 0.999847 0.935546
0.136339 0.999786 0.90866
0.231189 0.999741 0.89395
0.557092 0.999527 0.789975
0.898207 0.999252 0.633341
0.999512 0.999237 0.620005
1 0.999237 0.617624
0 0 0.550515
0 0 0.55111
0 0 0.542535
0.1131 0 0.529519
0.290272 0 0.529274
0.602045 0 0.662806
0.82295 0 0.736339
0.942382 0 0.752789
0.972778 0 0.789487
0 0 0.550027
0 0 0.555337
0 0 0.553262
0.130373 0 0.54905
0.327245 0 0.563989
0.728862 0.00497444 0.777783
0.869123 0.0268559 0.802197
0.954726 0.0371862 0.811749
0.978775 0.046479 0.81976
0 0 0.536522
0 0 0.570504
0 0 0.58204
0.157214 0 0.579767
0.342123 0 0.583001
0.568185 0.14789 0.773953
0.715587 0.164263 0.78941
0.845518 0.169329 0.791791
0.959899 0.174472 0.794522
0 0.139605 0.555108
0 0.142519 0.562158
0 0.134386 0.559304
0.0298772 0.1205 0.552209
0.157275 0.116991 0.552575
0.372549 0.256626 0.7093
0.539956 0.293782 0.746731
0.675914 0.296208 0.745083
0.802457 0.299474 0.744732
0 0.548455 0.868406
0.0185855 0.548684 0.871122
0.0497597 0.515099 0.839933
0.0802014 0.459373 0.787762
0.108858 0.4318 0.765576
0.600183 0.413535 1
0.496452 0.426917 0.760845
0.63743 0.437232 0.766506
0.754299 0.450706 0.776471
0.0314794 0.832044 1
0.0591897 0.828229 1
0.0933242 0.809308 1
0.129595 0.782452 1
0.192248 0.771893 0.995789
0.22182 0.845975 1
0.912337 0.807095 1
0.913436 0.808301 1
0.916396 0.811643 1
0.0377356 0.959167 1
0.0652171 0.955123 1
0.10042 0.942184 1
0.138445 0.925658 1
0.202991 0.919753 1
0.132982 1 1
0.913741 0.991135 1
1 0.98323 1
1 0.982361 1
0.0381933 1 1
0.0653544 1 1
0.100191 1 1
0.137774 1 1
0.165469 1 1
0.133165 1 1
0.884215 1 1
1 1 1
1 1 1
0.0387121 1 1
0.0656443 1 1
0.100237 1 1
0.13756 1 1
0.165026 1 1
0.134218 1 1
0.874556 1 1
1 1 1
1 1 1
0 0 0.65156
0 0 0.652506
0 0 0.644587
0.104356 0 0.632853
0.282292 0 0.633814
0.599542 0 0.769726
0.823453 0 0.843153
0.944106 0 0.864393
0.974014 0 0.898573
0 0 0.65275
0 0 0.658625
0 0 0.657557
0.125124 0 0.655024
0.337621 0 0.683772
0.722683 0.013138 0.88867
0.863905 0.0311589 0.908461
0.954925 0.040528 0.917235
0.978897 0.0490272 0.924681
0 0 0.645441
0 0 0.680659
0 0 0.687709
0.150927 0 0.684352
0.333852 0 0.687709
0.55668 0.151888 0.879759
0.705226 0.166567 0.894179
0.837568 0.171252 0.896666
0.956374 0.176196 0.899367
0 0.142138 0.660883
0 0.144335 0.667185
0 0.135851 0.663722
0.0301976 0.122179 0.655711
0.144732 0.11902 0.656214
0.350835 0.260594 0.815717
0.515831 0.295445 0.852369
0.658778 0.297383 0.851514
0.79028 0.300084 0.851057
0 0.554345 0.977005
0.0204013 0.553491 0.978775
0.0514839 0.519448 0.947753
0.0818189 0.463661 0.895659
0.106706 0.436423 0.872511
0.600488 0.418418 1
0.424491 0.431647 0.871473
0.578897 0.440772 0.87808
0.712489 0.453361 0.887266
0.0322423 0.83267 1
0.0599374 0.828473 1
0.0941329 0.809186 1
0.13051 0.781857 1
0.193927 0.771267 1
0.237659 0.845121 1
0.913283 0.80856 1
0.913985 0.808911 1
0.916289 0.811505 1
0.0381476 0.958572 1
0.0656443 0.954376 1
0.100893 0.94107 1
0.13904 0.924056 1
0.2094 0.917647 1
0.133623 1 1
0.923552 0.987915 1
1 0.982116 1
1 0.980041 1
0.038468 1 1
0.0656291 1 1
0.100481 1 1
0.138079 1 1
0.165759 1 1
0.133394 1 1
0.884215 1 1
1 1 1
1 1 1
0.0388495 1 1
0.0657664 1 1
0.100328 1 1
0.137591 1 1
0.164935 1 1
0.134066 1 1
0.867216 1 1
1 1 1
1 1 1
0 0 0.748135
0 0 0.749325
0 0 0.741939
0.0974136 0 0.731319
0.275975 0 0.733455
0.607614 0 0.879728
0.824537 0 0.945724
0.947723 0 0.97908
0.975021 0 1
0 0 0.750912
0 0 0.757458
0 0 0.757687
0.124483 0 0.758419
0.339193 0 0.789746
0.715755 0.0208591 0.991669
0.85803 0.0354772 1
0.955123 0.0440833 1
0.979034 0.0518807 1
0 0 0.752453
0 0 0.783658
0 0 0.787854
0.145937 0 0.783551
0.326925 0 0.78677
0.545861 0.156329 0.979156
0.694697 0.169329 0.989258
0.828931 0.173556 0.991318
0.951553 0.178042 0.993301
0 0.144839 0.76112
0 0.146532 0.766766
0 0.137713 0.7626
0.0305943 0.123964 0.754009
0.134829 0.120912 0.754406
0.338262 0.265141 0.916228
0.50106 0.297581 0.9514
0.644602 0.299077 0.951476
0.777661 0.301396 0.951308
0 0.560784 1
0.0223087 0.558968 1
0.0532845 0.524529 1
0.0835126 0.469276 0.992538
0.107942 0.441932 0.974411
0.607492 0.423484 1
0.37821 0.437659 0.975143
0.53489 0.445991 0.981598
0.679149 0.457633 0.98819
0.0330816 0.833783 1
0.0607614 0.829236 1
0.0949721 0.809781 1
0.13138 0.78233 1
0.198352 0.771634 1
0.255863 0.845106 1
0.91133 0.810636 1
0.915526 0.810636 1
0.917357 0.812726 1
0.0386358 0.958328 1
0.0661479 0.953994 1
0.101442 0.940444 1
0.139666 0.923064 1
0.216983 0.916289 1
0.134615 1 1
0.925353 0.987167 1
1 0.982971 1
1 0.980133 1
0.038819 1 1
0.0659953 1 1
0.100877 1 1
0.138552 1 1
0.166339 1 1
0.133974 1 1
0.892302 1 1
1 1 1
1 1 1
0.0391089 1 1
0.0660105 1 1
0.100587 1 1
0.137865 1 1
0.165225 1 1
0.134356 1 1
0.870161 1 1
1 1 1
1 1 1
