luts/Soft Moody Blue_Nahin V1.cube
TITLE "Generated by Resolve"
LUT_3D_SIZE 33
0 0.00662242 0.130709
0 0.00611887 0.130388
0 0.00628672 0.13051
0 0.00653086 0.130648
0 0.00662242 0.130709
0 0.00662242 0.130709
0.0109407 0.00672923 0.13077
0.0464179 0.00695811 0.130922
0.082063 0.00735485 0.131167
0.117601 0.00758373 0.131304
0.15378 0.00776684 0.131426
0.188479 0.00794995 0.131533
0.220691 0.00807202 0.131609
0.251606 0.00819409 0.131685
0.281529 0.00842298 0.131823
0.310124 0.00842298 0.131823
0.337713 0.00834669 0.131777
0.364416 0.00819409 0.131685
0.38674 0.00796521 0.131548
0.408881 0.00773632 0.131395
0.432364 0.00737011 0.131167
0.456672 0.00679026 0.130816
0.482673 0.00657664 0.130678
0.510445 0.00575265 0.130175
0.53933 0.00477607 0.129564
0.568902 0.00376898 0.128939
0.597986 0.00238041 0.128084
0.624491 0.00077821 0.127077
0.652293 0 0.125841
0.685389 0 0.123705
0.730907 0 0.119524
0.795483 0 0.111986
0.875242 0 0.101793
0 0.0281529 0.130419
0 0.0284581 0.130602
0 0.0286107 0.130694
0 0.0286717 0.130709
0 0.028809 0.130709
0 0.0289769 0.130709
0.0108492 0.02916 0.130739
0.04654 0.0295262 0.130968
0.0818189 0.0296941 0.131075
0.11722 0.0298466 0.131167
0.153307 0.029984 0.131243
0.187991 0.0301213 0.131334
0.220432 0.030396 0.131502
0.25127 0.0304417 0.131533
0.280919 0.030457 0.131533
0.309483 0.0304265 0.131518
0.337072 0.0303197 0.131456
0.363806 0.0301823 0.131365
0.386343 0.030045 0.131289
0.408347 0.0296788 0.13106
0.431693 0.0291905 0.130755
0.45597 0.0286107 0.130694
0.48188 0.0278935 0.130251
0.509712 0.0271153 0.129778
0.538659 0.0261845 0.129198
0.568017 0.0249943 0.12845
0.597131 0.0235904 0.127596
0.623728 0.021973 0.126589
0.651484 0.0199435 0.125322
0.684688 0.0165866 0.123247
0.730098 0.00975052 0.11902
0.794644 0 0.111437
0.874388 0 0.101244
0 0.0510109 0.130495
0 0.0511482 0.130571
0 0.0511482 0.130571
0 0.0511635 0.130587
0 0.0512551 0.130648
0 0.0514839 0.130709
0.0104677 0.0516518 0.130709
0.0457923 0.0518044 0.130709
0.0810254 0.0519417 0.13077
0.11635 0.0520485 0.130831
0.152331 0.0521248 0.130892
0.187304 0.0523842 0.131044
0.219471 0.0524453 0.13109
0.250309 0.0524758 0.131106
0.279942 0.0524605 0.13109
0.308507 0.0523842 0.131044
0.336126 0.0522774 0.130983
0.362997 0.0522164 0.130938
0.385519 0.0519265 0.13077
0.407492 0.0515297 0.130709
0.430777 0.0510109 0.130495
0.454994 0.0504005 0.130114
0.480934 0.0497597 0.129717
0.508705 0.0489662 0.129229
0.53753 0.0479438 0.128588
0.566888 0.0467231 0.12784
0.596048 0.045304 0.12697
0.622766 0.0436713 0.125948
0.65066 0.0417945 0.124788
0.683726 0.0383307 0.122637
0.729076 0.0314183 0.118364
0.793622 0.0191806 0.11078
0.873365 0.00318914 0.100587
0 0.0733654 0.130526
0 0.0734417 0.130571
0 0.0733806 0.130526
0 0.0733501 0.13051
0 0.073518 0.130617
0 0.07364 0.130694
0.0100557 0.0737163 0.130709
0.045304 0.0738079 0.130709
0.0804456 0.0738994 0.130709
0.115724 0.0739757 0.130709
0.151949 0.0742046 0.130755
0.186618 0.0742504 0.13077
0.218753 0.0742657 0.130785
0.249577 0.0742657 0.130785
0.279225 0.0742199 0.130755
0.308019 0.0742962 0.1308
0.335576 0.0741436 0.130709
0.362264 0.0738994 0.130709
0.384909 0.0735943 0.130663
0.406867 0.0731975 0.130419
0.430137 0.072694 0.130098
0.454459 0.0721904 0.129793
0.480247 0.0714427 0.129335
0.507881 0.0705577 0.128786
0.53669 0.0695201 0.128145
0.566064 0.0682994 0.127382
0.595315 0.0669261 0.126528
0.622217 0.0653849 0.125582
0.649912 0.0633402 0.124315
0.682979 0.0598611 0.122164
0.728328 0.0529488 0.117891
0.792874 0.0407111 0.110307
0.872663 0.0243076 0.100145
0 0.0954604 0.130541
0 0.0955062 0.130571
0 0.0954757 0.130556
0 0.095491 0.130556
0 0.095491 0.130556
0 0.0955215 0.130571
0.00970474 0.0955825 0.130602
0.044892 0.0956283 0.130648
0.0802167 0.0958267 0.130709
0.115465 0.0958877 0.130709
0.151354 0.0959182 0.130709
0.186038 0.0959487 0.130709
0.218158 0.0959487 0.130709
0.248981 0.0959182 0.130709
0.278843 0.0960098 0.130709
0.307408 0.0959029 0.130709
0.334981 0.0957198 0.130694
0.361685 0.0954757 0.130541
0.384421 0.09514 0.130343
0.406348 0.0947433 0.130083
0.429709 0.0943465 0.129854
0.45388 0.0937057 0.129458
0.479606 0.0929427 0.128985
0.50721 0.0920424 0.12842
0.536004 0.0909895 0.127779
0.565423 0.0897993 0.127031
0.594797 0.0885176 0.126238
0.621653 0.0868696 0.125216
0.649332 0.0848096 0.123949
0.682383 0.0813306 0.121782
0.727749 0.0744182 0.11751
0.792447 0.0623484 0.110033
0.87219 0.0458839 0.0998398
0 0.117342 0.130587
0 0.117418 0.130632
0 0.117372 0.130602
0 0.117266 0.130541
0 0.11722 0.13051
0 0.11722 0.130495
0.00944533 0.117235 0.13051
0.044831 0.117403 0.130617
0.079942 0.117479 0.130663
0.115099 0.117479 0.130663
0.150927 0.117479 0.130663
0.185595 0.117479 0.130663
0.217731 0.117464 0.130663
0.248783 0.117586 0.130709
0.278401 0.117494 0.130678
0.30695 0.117357 0.130587
0.334539 0.117174 0.13048
0.361242 0.116915 0.130312
0.384207 0.116747 0.130205
0.406119 0.11632 0.129946
0.429297 0.115755 0.129595
0.453437 0.115114 0.129198
0.479149 0.114351 0.128725
0.506737 0.113451 0.128176
0.535729 0.112566 0.127626
0.565103 0.11133 0.126864
0.594339 0.109911 0.125978
0.621256 0.108248 0.124956
0.64892 0.106203 0.12369
0.681987 0.102724 0.121538
0.727504 0.0959945 0.117357
0.79205 0.0837568 0.109789
0.871794 0.0673075 0.0995956
0 0.139208 0.130709
0 0.139162 0.130709
0 0.138979 0.130632
0 0.138842 0.130556
0 0.138781 0.13051
0 0.138842 0.130556
0.00965896 0.138903 0.130587
0.0447547 0.138903 0.130587
0.0797894 0.138918 0.130602
0.114916 0.138918 0.130602
0.150729 0.138903 0.130587
0.18558 0.13901 0.130663
0.217746 0.139025 0.130663
0.248554 0.138964 0.130632
0.278172 0.138857 0.130571
0.306706 0.13872 0.13048
0.334295 0.138506 0.130358
0.361166 0.138399 0.130282
0.384009 0.138064 0.130068
0.405905 0.137636 0.129809
0.429068 0.137072 0.129458
0.453208 0.136431 0.129061
0.478904 0.135668 0.128588
0.506645 0.134905 0.128115
0.53547 0.133883 0.127489
0.564858 0.132647 0.126726
0.59411 0.131228 0.125841
0.621057 0.12958 0.124819
0.648722 0.127535 0.123552
0.681956 0.124239 0.121508
0.727321 0.117342 0.117235
0.791867 0.105119 0.109667
0.871626 0.0886702 0.0994888
0 0.160723 0.130709
0 0.160662 0.130709
0 0.160464 0.130678
0 0.160296 0.130571
0 0.160281 0.130571
0 0.160327 0.130602
0.00962844 0.160296 0.130587
0.0447089 0.160281 0.130571
0.0796979 0.160281 0.130571
0.114794 0.16025 0.130556
0.150774 0.160342 0.130617
0.185519 0.160372 0.130632
0.217609 0.160327 0.130602
0.248402 0.160266 0.130556
0.278004 0.160159 0.130495
0.306554 0.160006 0.130404
0.33434 0.159976 0.130373
0.361044 0.159701 0.130205
0.383886 0.15935 0.129992
0.405768 0.158907 0.129732
0.428946 0.158358 0.129381
0.453178 0.157794 0.12903
0.47895 0.157122 0.128618
0.506539 0.156222 0.128054
0.535332 0.155169 0.127413
0.564721 0.153948 0.12665
0.593988 0.152529 0.12578
0.621042 0.150973 0.124804
0.648798 0.149035 0.123613
0.68188 0.145571 0.121462
0.727245 0.138674 0.117205
0.791806 0.126467 0.109636
0.87158 0.110033 0.0994583
0 0.182147 0.130709
0 0.182055 0.130709
0 0.181842 0.130709
0 0.181827 0.130709
0 0.18172 0.130648
0 0.181643 0.130602
0.00961318 0.181613 0.130571
0.0446632 0.181582 0.130556
0.0797436 0.181643 0.130587
0.115007 0.181704 0.130632
0.150774 0.181674 0.130617
0.185412 0.181643 0.130587
0.217502 0.181598 0.130556
0.248295 0.181521 0.13051
0.278004 0.181476 0.130495
0.306676 0.18143 0.130465
0.334249 0.181216 0.130327
0.360952 0.180957 0.130159
0.38381 0.180606 0.129946
0.405707 0.180179 0.129686
0.428946 0.179675 0.129381
0.453193 0.179141 0.129046
0.478889 0.178393 0.128573
0.506477 0.177493 0.128023
0.535286 0.176455 0.127382
0.564691 0.17525 0.126635
0.594003 0.173877 0.12578
0.621118 0.172381 0.124865
0.648798 0.170367 0.123613
0.681895 0.166918 0.121477
0.727291 0.160037 0.11722
0.791867 0.147845 0.109667
0.871809 0.131594 0.0995956
0 0.203479 0.130709
0 0.203387 0.130709
0 0.203311 0.130709
0 0.203113 0.130709
0 0.202991 0.130632
0 0.202914 0.130587
0.00956741 0.202869 0.130556
0.0446784 0.202884 0.130571
0.0798657 0.202991 0.130632
0.114946 0.202945 0.130617
0.150713 0.202914 0.130587
0.185351 0.202869 0.130571
0.217441 0.202823 0.130541
0.248295 0.202792 0.13051
0.27808 0.202808 0.130526
0.306615 0.20267 0.130434
0.334203 0.202457 0.130312
0.360906 0.202197 0.130144
0.38378 0.201862 0.129931
0.405844 0.201602 0.129778
0.429038 0.201053 0.129442
0.453178 0.200427 0.129046
0.478889 0.19968 0.128588
0.506493 0.198795 0.128038
0.535317 0.197772 0.127398
0.564935 0.19675 0.126757
0.594202 0.195361 0.125902
0.62118 0.193744 0.124895
0.648875 0.19173 0.123659
0.681987 0.188296 0.121538
0.727398 0.18146 0.117296
0.792142 0.169436 0.10985
0.871962 0.153048 0.0997024
0 0.224613 0.130709
0 0.224659 0.130709
0 0.224414 0.130709
0 0.224201 0.130694
0 0.224079 0.130617
0 0.224002 0.130571
0.00978103 0.224125 0.130632
0.044831 0.224079 0.130617
0.0797894 0.224063 0.130602
0.11487 0.224018 0.130587
0.150622 0.223987 0.130556
0.185275 0.223957 0.130541
0.217624 0.224079 0.130617
0.248417 0.224002 0.130571
0.278035 0.223896 0.13051
0.306584 0.223758 0.130419
0.334173 0.22356 0.130297
0.360891 0.223301 0.130129
0.383948 0.223148 0.130037
0.405859 0.222736 0.129778
0.429053 0.222202 0.129442
0.453208 0.221576 0.129061
0.47895 0.220859 0.128603
0.506554 0.220005 0.128069
0.535561 0.219135 0.127535
0.565026 0.21799 0.126818
0.594324 0.216632 0.125963
0.621302 0.215045 0.124987
0.649027 0.213077 0.123751
0.682139 0.209705 0.12163
0.727749 0.203082 0.11751
0.79237 0.190951 0.109987
0.872206 0.174578 0.099855
0 0.246235 0.130709
0 0.246098 0.130709
0 0.245853 0.130709
0 0.24564 0.130648
0 0.245502 0.130571
0 0.245579 0.130617
0.00965896 0.245533 0.130587
0.0447089 0.245502 0.130571
0.0796674 0.245487 0.130556
0.114763 0.245441 0.130541
0.15053 0.245411 0.130526
0.185412 0.245533 0.130602
0.217548 0.245518 0.130587
0.248356 0.245457 0.130541
0.277989 0.24535 0.13048
0.306554 0.245212 0.130404
0.334157 0.245029 0.130282
0.361089 0.244938 0.130236
0.383948 0.244617 0.130037
0.405875 0.244205 0.129793
0.429084 0.243671 0.129473
0.453269 0.243046 0.129091
0.479103 0.242405 0.128695
0.506859 0.241642 0.128237
0.535729 0.240635 0.127611
0.565179 0.239445 0.126894
0.594476 0.238071 0.126055
0.621454 0.236484 0.125078
0.649271 0.234577 0.123903
0.682536 0.231281 0.121889
0.727993 0.224491 0.117662
0.79263 0.212467 0.110155
0.872496 0.196216 0.100038
0 0.268193 0.130709
0 0.268055 0.130709
0 0.267796 0.130709
0 0.267582 0.130571
0 0.267628 0.130602
0 0.267536 0.130556
0.00947585 0.267491 0.130526
0.0445258 0.26746 0.13051
0.0794995 0.267445 0.130495
0.114748 0.267506 0.130541
0.150668 0.267567 0.130571
0.185321 0.267552 0.130556
0.217441 0.267506 0.130541
0.248264 0.26746 0.130495
0.277913 0.267369 0.130449
0.3066 0.267323 0.130419
0.33434 0.267247 0.130373
0.361089 0.267002 0.130236
0.383963 0.266682 0.130037
0.405905 0.2663 0.129809
0.429129 0.265782 0.129503
0.453391 0.265217 0.129168
0.479301 0.264622 0.128801
0.506981 0.263767 0.128298
0.535866 0.26276 0.127703
0.565362 0.261601 0.127001
0.594675 0.260212 0.126162
0.621683 0.25864 0.125231
0.649607 0.256809 0.124117
0.682795 0.253361 0.122057
0.728298 0.246403 0.117861
0.792981 0.234104 0.110369
0.872862 0.217853 0.100282
0 0.290318 0.130709
0 0.290196 0.130709
0 0.290013 0.130632
0 0.289891 0.130556
0 0.289769 0.13048
0 0.289693 0.130434
0.00918593 0.289647 0.130419
0.0442512 0.289631 0.130404
0.0793317 0.289677 0.130434
0.114626 0.289769 0.130495
0.150423 0.289754 0.13048
0.185122 0.289754 0.13048
0.217288 0.289738 0.130465
0.248127 0.289693 0.130449
0.277852 0.289662 0.130419
0.30663 0.289693 0.130434
0.334279 0.28954 0.130343
0.361059 0.289311 0.13022
0.383948 0.289021 0.130037
0.405905 0.28864 0.129809
0.429343 0.288319 0.129625
0.453574 0.287724 0.129274
0.479393 0.287037 0.128862
0.507103 0.286198 0.128359
0.536019 0.285222 0.127779
0.56553 0.284062 0.127092
0.595071 0.282902 0.126406
0.622049 0.281346 0.125475
0.649882 0.279377 0.1243
0.683101 0.275929 0.12224
0.728634 0.268956 0.118074
0.793362 0.256504 0.110628
0.873442 0.239963 0.100649
0 0.312642 0.130571
0 0.312566 0.130526
0 0.312444 0.130465
0 0.31223 0.130343
0 0.312123 0.130266
0 0.312047 0.130236
0.00863661 0.312016 0.130205
0.0439918 0.312184 0.130312
0.0790112 0.3122 0.130312
0.114137 0.312184 0.130312
0.14995 0.312184 0.130312
0.18471 0.312184 0.130312
0.216907 0.312184 0.130312
0.248051 0.312352 0.130404
0.27776 0.312306 0.130373
0.306401 0.312215 0.130327
0.334066 0.312062 0.130236
0.360876 0.311864 0.130129
0.383841 0.311604 0.129961
0.405966 0.311406 0.129854
0.429267 0.310948 0.12958
0.453529 0.310399 0.129244
0.479393 0.309728 0.128862
0.507149 0.308934 0.128389
0.53611 0.307988 0.127825
0.565805 0.307012 0.127245
0.595239 0.305745 0.126497
0.622217 0.304219 0.125582
0.650111 0.302296 0.124437
0.683375 0.298878 0.122423
0.728939 0.291905 0.118273
0.793881 0.279606 0.110948
0.873884 0.262806 0.100923
0 0.335256 0.130419
0 0.335134 0.130358
0 0.33489 0.130205
0 0.334691 0.130098
0 0.334585 0.130037
0 0.334539 0.130007
0.00831617 0.334676 0.130083
0.0434424 0.334691 0.130098
0.0784772 0.334722 0.130114
0.113634 0.334737 0.130129
0.149477 0.334752 0.130129
0.184314 0.334783 0.130159
0.216754 0.334951 0.130251
0.247745 0.334981 0.130266
0.277485 0.334966 0.130251
0.306172 0.334905 0.13022
0.333898 0.334783 0.130159
0.360739 0.334615 0.130053
0.383917 0.334554 0.130022
0.405936 0.334249 0.129839
0.429267 0.333806 0.12958
0.453559 0.333288 0.129259
0.479454 0.332647 0.128893
0.507332 0.331975 0.128481
0.536477 0.331182 0.128023
0.566079 0.330114 0.127382
0.595483 0.328847 0.126635
0.622477 0.327352 0.12575
0.650416 0.32546 0.124636
0.683787 0.322148 0.122683
0.729534 0.315358 0.118654
0.794339 0.302861 0.111254
0.874388 0.286015 0.101244
0 0.357809 0.130083
0 0.357702 0.130022
0 0.357473 0.129885
0 0.35729 0.129778
0 0.357198 0.129732
0 0.357336 0.129809
0.00758373 0.357351 0.129809
0.0427253 0.357382 0.129824
0.0778058 0.357412 0.129854
0.112978 0.357443 0.12987
0.148989 0.35758 0.129946
0.184024 0.357733 0.130037
0.216342 0.357778 0.130068
0.247318 0.357809 0.130083
0.277119 0.357809 0.130083
0.305867 0.357778 0.130068
0.333715 0.357763 0.130068
0.360754 0.357763 0.130053
0.383795 0.357549 0.129931
0.405844 0.357275 0.129778
0.429206 0.356878 0.129534
0.453559 0.35642 0.129259
0.47953 0.355871 0.128939
0.507546 0.355306 0.128603
0.536614 0.354437 0.128099
0.566262 0.353429 0.127489
0.595728 0.352209 0.126772
0.622736 0.350774 0.125933
0.650752 0.348943 0.124849
0.684276 0.3458 0.122988
0.729961 0.338933 0.118929
0.794842 0.326482 0.111559
0.874937 0.309636 0.101595
0 0.380484 0.129641
0 0.380392 0.129595
0 0.380179 0.129473
0 0.380087 0.129412
0 0.380133 0.129442
0 0.380118 0.129427
0.0065919 0.380133 0.129442
0.0417639 0.380179 0.129473
0.0768902 0.38027 0.129519
0.112169 0.380362 0.12958
0.148302 0.380575 0.129702
0.183276 0.380652 0.129747
0.215686 0.380743 0.129793
0.246754 0.380804 0.129839
0.276646 0.38085 0.12987
0.30547 0.38088 0.129885
0.333501 0.381003 0.129961
0.360464 0.380926 0.1299
0.383612 0.380774 0.129824
0.405692 0.380529 0.129671
0.429084 0.380179 0.129473
0.453666 0.379934 0.12932
0.479683 0.379431 0.129015
0.507591 0.378775 0.128634
0.536721 0.377966 0.128145
0.566415 0.376989 0.127581
0.595926 0.37583 0.126894
0.623117 0.374624 0.126177
0.651225 0.3729 0.125154
0.684627 0.369619 0.123217
0.730358 0.362799 0.119188
0.7953 0.350423 0.111864
0.875471 0.333639 0.10193
0 0.40325 0.129091
0 0.403189 0.129046
0 0.403021 0.128954
0 0.403037 0.128954
0 0.402991 0.128939
0 0.403006 0.128939
0.0053254 0.403052 0.128969
0.0405432 0.403128 0.129015
0.0760052 0.403418 0.129183
0.111284 0.40351 0.129244
0.14725 0.403616 0.129305
0.182345 0.403738 0.129381
0.214862 0.403861 0.129442
0.246021 0.403967 0.129519
0.276219 0.404227 0.129671
0.305119 0.404303 0.129717
0.333028 0.404303 0.129717
0.360052 0.404257 0.129686
0.383322 0.404166 0.129625
0.405463 0.403998 0.129534
0.429038 0.403845 0.129442
0.453513 0.40351 0.129244
0.479561 0.403037 0.128954
0.507546 0.402441 0.128603
0.536751 0.401724 0.128176
0.566506 0.400809 0.127626
0.596201 0.399832 0.127047
0.623331 0.398596 0.126314
0.651484 0.396918 0.125307
0.684962 0.393759 0.12343
0.730755 0.386999 0.119432
0.795743 0.374685 0.112139
0.876158 0.358175 0.102373
0 0.425971 0.128389
0 0.426108 0.128481
0 0.425956 0.128389
0 0.425849 0.128313
0 0.425834 0.128313
0 0.425879 0.128328
0.0037995 0.425971 0.128389
0.0393225 0.42623 0.128542
0.0745861 0.426398 0.128649
0.109911 0.426535 0.128725
0.145922 0.426688 0.128817
0.181201 0.426856 0.128923
0.21384 0.427024 0.129015
0.245274 0.427283 0.129183
0.27541 0.427482 0.129305
0.304402 0.427588 0.129366
0.332403 0.427665 0.129412
0.359518 0.427665 0.129412
0.382925 0.427604 0.129381
0.405295 0.42768 0.129412
0.428779 0.427451 0.129274
0.453285 0.427146 0.129091
0.479377 0.426734 0.128847
0.507408 0.4262 0.128527
0.536736 0.425589 0.128161
0.566735 0.424903 0.127749
0.596368 0.423896 0.127138
0.623453 0.42266 0.126406
0.651667 0.421057 0.125429
0.685222 0.41799 0.123598
0.731151 0.41146 0.119677
0.796368 0.399496 0.112535
0.876646 0.382895 0.102693
0 0.44889 0.127642
0 0.448936 0.127657
0 0.448814 0.127596
0 0.448737 0.12755
0 0.448768 0.127565
0 0.448844 0.127611
0.00221256 0.449149 0.127794
0.0375677 0.449302 0.127886
0.0728771 0.4495 0.128008
0.108278 0.449668 0.128115
0.144289 0.449851 0.128222
0.179843 0.450141 0.128389
0.212833 0.450477 0.128603
0.244221 0.450675 0.128725
0.274388 0.450843 0.128832
0.303471 0.450996 0.128923
0.331594 0.451118 0.129
0.358862 0.45124 0.129076
0.382605 0.451392 0.129168
0.404822 0.451331 0.129122
0.428351 0.451164 0.129015
0.452903 0.450919 0.128878
0.479072 0.450599 0.128679
0.507179 0.450156 0.128405
0.536706 0.449729 0.128145
0.566629 0.448981 0.127687
0.596353 0.448051 0.127138
0.623529 0.446937 0.126452
0.651804 0.445411 0.125521
0.685435 0.442435 0.123735
0.731563 0.436164 0.119951
0.796719 0.424247 0.112764
0.877119 0.407935 0.102983
0 0.471672 0.126696
0 0.471702 0.126711
0 0.471611 0.12665
0 0.47158 0.126635
0 0.471702 0.126711
0 0.471962 0.126864
0 0.472114 0.126955
0.0354314 0.472313 0.127077
0.0708019 0.472541 0.12723
0.10631 0.472786 0.127367
0.142428 0.473045 0.127535
0.178286 0.473457 0.127794
0.211276 0.473716 0.127947
0.242817 0.473976 0.128115
0.273152 0.47422 0.128267
0.302358 0.474434 0.128389
0.330587 0.474601 0.128496
0.358129 0.474907 0.128679
0.381949 0.474998 0.12874
0.404242 0.475013 0.12874
0.427787 0.474907 0.128679
0.452384 0.474723 0.128573
0.478782 0.474632 0.128511
0.506981 0.474296 0.128298
0.536416 0.473777 0.127993
0.566415 0.473106 0.127581
0.596216 0.472267 0.127047
0.623484 0.471229 0.126421
0.652033 0.470008 0.125673
0.685756 0.467201 0.123934
0.731777 0.460914 0.120073
0.796994 0.449226 0.112947
0.87747 0.433127 0.103212
0 0.494514 0.125536
0 0.494591 0.125582
0 0.494545 0.125566
0 0.49456 0.125566
0 0.49485 0.12575
0 0.495018 0.125856
0 0.495247 0.125994
0.0329137 0.495491 0.126146
0.0683757 0.495766 0.126314
0.104234 0.496208 0.126589
0.140383 0.496529 0.126787
0.176211 0.496849 0.126986
0.20943 0.497169 0.127184
0.241108 0.497475 0.127367
0.271595 0.49778 0.127565
0.301198 0.498222 0.127825
0.329595 0.498497 0.128008
0.357031 0.49868 0.128115
0.381109 0.498817 0.128191
0.403464 0.498894 0.128252
0.42707 0.498878 0.128237
0.451896 0.498924 0.128267
0.478172 0.498772 0.128176
0.506416 0.498482 0.127993
0.535943 0.498054 0.127733
0.566064 0.49749 0.127382
0.595972 0.496742 0.126909
0.623468 0.495918 0.126406
0.651972 0.494652 0.125628
0.685771 0.491936 0.123949
0.731899 0.485801 0.120165
0.797223 0.474327 0.113085
0.877775 0.458579 0.103395
0 0.517464 0.124132
0 0.517586 0.124208
0 0.517754 0.124315
0 0.517845 0.124361
0 0.517998 0.124468
0 0.518212 0.12459
0 0.518486 0.124773
0.0297704 0.518791 0.124956
0.0655528 0.519265 0.125261
0.101289 0.519631 0.12549
0.137438 0.519982 0.125704
0.173526 0.520363 0.125948
0.20705 0.520745 0.126192
0.238941 0.521111 0.126421
0.269764 0.521584 0.126726
0.299397 0.521996 0.12697
0.327932 0.522301 0.127169
0.355566 0.522576 0.127352
0.379995 0.522789 0.127474
0.40238 0.522927 0.127565
0.426215 0.523171 0.127718
0.450965 0.523171 0.127718
0.477256 0.523079 0.127657
0.505531 0.52285 0.12752
0.535134 0.522499 0.127306
0.565469 0.522118 0.127062
0.595636 0.521599 0.126726
0.623148 0.52076 0.126207
0.651667 0.519554 0.125444
0.685542 0.516945 0.123796
0.731777 0.511025 0.120073
0.79733 0.499931 0.113146
0.87808 0.484474 0.103609
0 0.540505 0.12256
0 0.54078 0.122728
0 0.540902 0.122805
0 0.541039 0.122881
0 0.541253 0.123018
0 0.541527 0.123201
0 0.541833 0.1234
0.0265202 0.542382 0.123735
0.0621958 0.542794 0.123995
0.0979934 0.543191 0.124239
0.134142 0.543603 0.124498
0.170443 0.54403 0.124773
0.20441 0.544533 0.125093
0.236728 0.545113 0.12546
0.267597 0.545556 0.125734
0.297322 0.545953 0.125994
0.326024 0.546334 0.126223
0.353826 0.54667 0.126452
0.378744 0.547036 0.126665
0.401358 0.547417 0.126909
0.42501 0.547524 0.126986
0.449805 0.547585 0.127016
0.476112 0.547585 0.127016
0.504509 0.547494 0.126955
0.534295 0.547311 0.126848
0.564767 0.547036 0.12668
0.594949 0.546487 0.126329
0.622644 0.545769 0.125872
0.651286 0.544686 0.125185
0.685267 0.542199 0.123629
0.73167 0.536492 0.120012
0.797314 0.525612 0.113146
0.878111 0.510475 0.103624
0 0.564218 0.120867
0 0.564446 0.121004
0 0.564553 0.12108
0 0.564721 0.121187
0 0.565011 0.12137
0 0.565393 0.121614
0 0.565942 0.12195
0.022446 0.566369 0.12221
0.0582132 0.566827 0.122499
0.0941329 0.5673 0.122789
0.130358 0.567819 0.12311
0.166934 0.568353 0.123445
0.201434 0.569039 0.123873
0.233799 0.569558 0.124193
0.264927 0.570092 0.124529
0.294896 0.570611 0.124849
0.323827 0.571069 0.125139
0.351827 0.571511 0.125414
0.377356 0.572076 0.12575
0.399878 0.572427 0.125963
0.423575 0.572656 0.126116
0.448447 0.572808 0.126207
0.474754 0.572885 0.126253
0.503426 0.573068 0.126375
0.533272 0.572946 0.126299
0.56376 0.572671 0.126131
0.594095 0.572213 0.125841
0.621988 0.571557 0.125429
0.650736 0.570596 0.124834
0.685023 0.568399 0.123476
0.731472 0.562646 0.11989
0.797116 0.55169 0.113008
0.878004 0.53669 0.103548
0 0.588663 0.118776
0 0.588968 0.118959
0 0.589166 0.119081
0 0.58941 0.119234
0 0.589761 0.119448
0 0.590387 0.119814
0 0.590875 0.120119
0.017731 0.591394 0.120439
0.0536049 0.591959 0.120775
0.0896162 0.592508 0.121096
0.126192 0.593286 0.121569
0.162997 0.593942 0.121965
0.197726 0.594568 0.122347
0.230365 0.595193 0.122713
0.261723 0.595804 0.123095
0.291951 0.596429 0.123461
0.321416 0.597238 0.123949
0.349615 0.597787 0.124269
0.375662 0.59826 0.124559
0.398093 0.598703 0.124819
0.421805 0.599054 0.125032
0.446784 0.599359 0.1252
0.473335 0.599771 0.12546
0.501823 0.599847 0.125505
0.531746 0.599802 0.125475
0.562402 0.599634 0.125383
0.592966 0.599313 0.125185
0.621149 0.598795 0.12488
0.650095 0.598062 0.124437
0.684321 0.595697 0.123018
0.730907 0.589914 0.119539
0.796719 0.57882 0.112764
0.877745 0.563684 0.103395
0 0.614618 0.116381
0 0.614984 0.116594
0 0.615274 0.116762
0 0.615793 0.117067
0 0.616281 0.117357
0 0.6168 0.117647
0 0.61738 0.117983
0.0121767 0.618006 0.118349
0.0482338 0.618692 0.118746
