luts/Soft Moody Blue_Nahin V1.cube
TITLE "Generated by Resolve"
LUT_3D_SIZE 9
0 0.00662242 0.130709
0 0.00662242 0.130709
0.082063 0.00735485 0.131167
0.220691 0.00807202 0.131609
0.337713 0.00834669 0.131777
0.432364 0.00737011 0.131167
0.53933 0.00477607 0.129564
0.652293 0 0.125841
0.875242 0 0.101793
0 0.0954604 0.130541
0 0.095491 0.130556
0.0802167 0.0958267 0.130709
0.218158 0.0959487 0.130709
0.334981 0.0957198 0.130694
0.429709 0.0943465 0.129854
0.536004 0.0909895 0.127779
0.649332 0.0848096 0.123949
0.87219 0.0458839 0.0998398
0 0.182147 0.130709
0 0.18172 0.130648
0.0797436 0.181643 0.130587
0.217502 0.181598 0.130556
0.334249 0.181216 0.130327
0.428946 0.179675 0.129381
0.535286 0.176455 0.127382
0.648798 0.170367 0.123613
0.871809 0.131594 0.0995956
0 0.268193 0.130709
0 0.267628 0.130602
0.0794995 0.267445 0.130495
0.217441 0.267506 0.130541
0.33434 0.267247 0.130373
0.429129 0.265782 0.129503
0.535866 0.26276 0.127703
0.649607 0.256809 0.124117
0.872862 0.217853 0.100282
0 0.357809 0.130083
0 0.357198 0.129732
0.0778058 0.357412 0.129854
0.216342 0.357778 0.130068
0.333715 0.357763 0.130068
0.429206 0.356878 0.129534
0.536614 0.354437 0.128099
0.650752 0.348943 0.124849
0.874937 0.309636 0.101595
0 0.44889 0.127642
0 0.448768 0.127565
0.0728771 0.4495 0.128008
0.212833 0.450477 0.128603
0.331594 0.451118 0.129
0.428351 0.451164 0.129015
0.536706 0.449729 0.128145
0.651804 0.445411 0.125521
0.877119 0.407935 0.102983
0 0.540505 0.12256
0 0.541253 0.123018
0.0621958 0.542794 0.123995
0.20441 0.544533 0.125093
0.326024 0.546334 0.126223
0.42501 0.547524 0.126986
0.534295 0.547311 0.126848
0.651286 0.544686 0.125185
0.878111 0.510475 0.103624
0 0.64213 0.113283
0 0.644099 0.114427
0.0413062 0.647074 0.116152
0.187137 0.650339 0.118044
0.313664 0.653971 0.12015
0.4168 0.657053 0.121935
0.526909 0.658671 0.122881
0.647074 0.65803 0.122499
0.876081 0.623148 0.102327
0 0.798749 0.0386664
0 0.80238 0.0407874
0 0.806989 0.0434424
0 0.812512 0.0466468
0.150271 0.818387 0.0500649
0.293187 0.823957 0.0532998
0.411154 0.829023 0.0562295
0.542062 0.835798 0.0601663
0.795102 0.819455 0.0506752
0 0.00582895 0.187442
0 0.00662242 0.187945
0.0814679 0.00698863 0.188464
0.220264 0.0077821 0.188952
0.337255 0.00798047 0.189075
0.431937 0.00694286 0.188418
0.538796 0.00430304 0.186496
0.65182 0 0.182757
0.874739 0 0.158663
0 0.0951553 0.187564
0 0.0951095 0.187549
0.0792554 0.0952468 0.187625
0.217456 0.0954604 0.187762
0.334356 0.0952163 0.18761
0.429175 0.0938277 0.18674
0.535393 0.0904555 0.184665
0.648814 0.0842756 0.180835
0.871672 0.0453651 0.15671
0 0.181659 0.187823
0 0.181201 0.187549
0.0787671 0.181033 0.187442
0.216724 0.181064 0.187457
0.333593 0.180682 0.187228
0.428336 0.179095 0.186236
0.534691 0.175952 0.184283
0.648341 0.169879 0.180529
0.871199 0.130968 0.156405
0 0.267628 0.187823
0 0.266987 0.187442
0.078645 0.266911 0.187396
0.216709 0.266987 0.187442
0.333577 0.266606 0.187213
0.428672 0.265309 0.186435
0.535393 0.262348 0.184665
0.649271 0.256443 0.181125
0.872587 0.217563 0.15729
0 0.35729 0.186999
0 0.35671 0.186664
0.0770733 0.356954 0.186801
0.215747 0.357366 0.187045
0.333227 0.357351 0.187045
0.428946 0.356619 0.186603
0.536416 0.354253 0.185214
0.650645 0.348837 0.181994
0.874922 0.309621 0.15877
0 0.448463 0.184604
0 0.448447 0.184588
0.0724651 0.449241 0.185077
0.21239 0.450156 0.185626
0.331518 0.451072 0.186191
0.428397 0.451209 0.186267
0.536873 0.449882 0.185458
0.652064 0.44567 0.18291
0.877501 0.408347 0.160418
0 0.540383 0.17969
0 0.541222 0.180209
0.0623178 0.54287 0.181262
0.204623 0.544686 0.182406
0.326452 0.546654 0.183658
0.425467 0.547982 0.184482
0.534905 0.547829 0.18439
0.652049 0.545449 0.182895
0.879088 0.511482 0.16144
0 0.642374 0.170626
0 0.644511 0.171862
0.0420081 0.647532 0.173617
0.18822 0.651087 0.175677
0.314748 0.654887 0.17789
0.417777 0.658106 0.179767
0.528374 0.660029 0.18088
0.648585 0.659693 0.180682
0.877882 0.625147 0.160662
0 0.799573 0.0966049
0 0.803418 0.0988327
0 0.808194 0.10161
0 0.813947 0.104952
0.152956 0.820096 0.108522
0.295567 0.825895 0.111879
0.414328 0.832456 0.115694
0.549462 0.84268 0.121614
0.805722 0.831113 0.114916
0 0.0055848 0.246464
0 0.00628672 0.246891
0.0807507 0.00662242 0.247364
0.219532 0.00727855 0.247822
0.336568 0.00741588 0.247898
0.431159 0.00662242 0.247135
0.538033 0.00363165 0.245258
0.651148 0 0.241489
0.874052 0 0.217395
0 0.0946059 0.246418
0 0.0945144 0.246357
0.0782177 0.0946059 0.246403
0.216464 0.094789 0.246525
0.333486 0.0945144 0.246342
0.428275 0.0929274 0.245365
0.534554 0.0897383 0.243381
0.648112 0.0835584 0.239551
0.870817 0.0444648 0.215335
0 0.180972 0.246586
0 0.180346 0.246189
0.0775769 0.180316 0.246174
0.215656 0.180331 0.246174
0.332708 0.179965 0.245945
0.427619 0.178378 0.244968
0.533898 0.17525 0.24303
0.647654 0.169192 0.239277
0.870573 0.130327 0.215183
0 0.26688 0.246555
0 0.266148 0.246128
0.0774701 0.266178 0.246128
0.215702 0.266285 0.246204
0.332723 0.265888 0.24596
0.428031 0.264652 0.245228
0.534722 0.261738 0.243473
0.648585 0.255726 0.239872
0.87216 0.217121 0.21619
0 0.356466 0.245686
0 0.356039 0.245441
0.0760662 0.356313 0.245609
0.214923 0.356771 0.245869
0.332601 0.356832 0.245899
0.428504 0.356161 0.245502
0.535973 0.353857 0.244144
0.650401 0.348577 0.241016
0.874784 0.309468 0.217868
0 0.447837 0.243397
0 0.447959 0.243473
0.0717937 0.448829 0.243992
0.211841 0.44979 0.244587
0.331228 0.450828 0.245212
0.428275 0.451087 0.24538
0.536675 0.449699 0.244526
0.652201 0.445808 0.242161
0.877745 0.408621 0.21976
0 0.540108 0.238697
0 0.541024 0.239277
0.0618753 0.542611 0.240269
0.204685 0.544717 0.241596
0.32668 0.546838 0.242939
0.425834 0.548318 0.243885
0.53547 0.548318 0.24387
0.652674 0.54609 0.242466
0.879896 0.512306 0.221134
0 0.642451 0.229847
0 0.644739 0.231174
0.0424811 0.647837 0.232975
0.18909 0.651698 0.235218
0.315709 0.655695 0.237537
0.418677 0.659068 0.23949
0.529702 0.661265 0.240772
0.649943 0.661204 0.240726
0.879561 0.627008 0.22092
0 0.800214 0.155825
0 0.804242 0.15816
0 0.809323 0.16112
0.00129702 0.81532 0.164614
0.15552 0.821729 0.168322
0.297948 0.827832 0.171878
0.417578 0.83595 0.176577
0.558022 0.850675 0.185138
0.819226 0.84596 0.182391
0 0.00520333 0.307912
0 0.00567636 0.308232
0.0798047 0.00645457 0.308736
0.21857 0.00663767 0.309163
0.335698 0.00671397 0.309209
0.43035 0.00585946 0.308339
0.537118 0.00283818 0.306371
0.650355 0 0.302419
0.873137 0 0.276799
0 0.0939345 0.307668
0 0.0936599 0.307485
0.076936 0.093843 0.307607
0.21529 0.0939956 0.307698
0.332418 0.0936446 0.307485
0.42742 0.0920882 0.306462
0.533593 0.0888991 0.304387
0.647288 0.0827192 0.300389
0.870008 0.0436408 0.274693
0 0.180163 0.307744
0 0.179492 0.307317
0.0762036 0.179477 0.307317
0.214405 0.179492 0.307317
0.331456 0.178958 0.306966
0.42678 0.177554 0.306065
0.532967 0.174456 0.304036
0.64686 0.168353 0.300084
0.869856 0.12958 0.274586
0 0.266011 0.307713
0 0.265293 0.307256
0.0761273 0.265324 0.307286
0.214527 0.265461 0.307362
0.331777 0.265095 0.307134
0.427298 0.263905 0.306386
0.533944 0.261036 0.304585
0.64799 0.255085 0.300847
0.871611 0.216571 0.275776
0 0.355581 0.306798
0 0.355245 0.3066
0.0749065 0.355581 0.306798
0.213703 0.355901 0.306996
0.331884 0.356207 0.307195
0.42797 0.355612 0.306813
0.535286 0.353231 0.305348
0.650065 0.348211 0.302235
0.874556 0.309224 0.27776
0 0.447181 0.304524
0 0.447395 0.304662
0.0710002 0.448341 0.305257
0.211261 0.449393 0.305928
0.330846 0.450523 0.306645
0.428031 0.450828 0.306859
0.536583 0.449622 0.306081
0.652262 0.445884 0.3037
0.877974 0.40885 0.28011
0 0.539757 0.299779
0 0.54078 0.300465
0.0616159 0.542443 0.301564
0.204623 0.544686 0.303044
0.326802 0.546944 0.30454
0.425895 0.548379 0.305486
0.535988 0.548775 0.305745
0.6533 0.546731 0.304402
0.880705 0.51313 0.282002
0 0.642496 0.290761
0 0.644923 0.292241
0.0429999 0.648157 0.294224
0.189822 0.652216 0.296696
0.316609 0.656443 0.29926
0.419516 0.659953 0.301396
0.531044 0.662501 0.302953
0.651316 0.662699 0.303059
0.881071 0.628687 0.282246
0 0.800809 0.216312
0 0.804852 0.218662
0 0.810361 0.221866
0.0033875 0.816678 0.225528
0.158129 0.823392 0.229435
0.301091 0.830411 0.233509
0.421881 0.840513 0.239368
0.567224 0.859358 0.250309
0.833295 0.861433 0.251514
0 0.00457771 0.381949
0 0.00489815 0.382269
0.0784619 0.00564584 0.383001
0.217273 0.00622568 0.383566
0.334524 0.00624094 0.383581
0.429358 0.00488289 0.382254
0.535958 0.00183108 0.379217
0.649348 0 0.373495
0.872053 0 0.342855
0 0.0930343 0.381308
0 0.0926528 0.380926
0.075288 0.0928359 0.381109
0.213764 0.092958 0.381231
0.331075 0.0925612 0.380835
0.426352 0.0910353 0.379309
0.532372 0.0878462 0.376196
0.646189 0.08159 0.370748
0.869001 0.0426032 0.340581
0 0.179095 0.381262
0 0.178439 0.380621
0.074464 0.178424 0.380606
0.212848 0.178439 0.380606
0.330159 0.177905 0.380087
0.425727 0.176532 0.378714
0.531807 0.173434 0.375738
0.645808 0.167285 0.370413
0.86894 0.128634 0.340536
0 0.264744 0.381064
0 0.26421 0.380545
0.0744488 0.264271 0.380591
0.212787 0.26424 0.380575
0.330571 0.264088 0.380423
0.426368 0.262959 0.379324
0.53283 0.260044 0.376577
0.647211 0.254261 0.371633
0.870893 0.215839 0.341985
0 0.354543 0.379873
0 0.354238 0.379599
0.0733654 0.354604 0.379934
0.212436 0.355016 0.380331
0.330922 0.355398 0.380697
0.427268 0.354879 0.380209
0.534569 0.35259 0.378042
0.649546 0.347646 0.373678
0.874144 0.308782 0.344411
0 0.446326 0.376608
0 0.446601 0.376867
0.0695964 0.447471 0.377676
0.210407 0.448798 0.378973
0.330266 0.450034 0.380179
0.427588 0.450401 0.380529
0.536294 0.449348 0.379507
0.65214 0.445762 0.376074
0.877913 0.408789 0.34728
0 0.539208 0.370459
0 0.540322 0.37142
0.0610971 0.542138 0.372992
0.204349 0.544503 0.375082
0.326726 0.546883 0.377356
0.425971 0.54847 0.378943
0.536294 0.54902 0.379507
0.653773 0.547204 0.377676
0.881193 0.513619 0.349798
0 0.642359 0.359518
0 0.644724 0.361288
0.0432898 0.648356 0.364019
0.190341 0.652567 0.367239
0.317052 0.656825 0.370565
0.420279 0.660761 0.373693
0.53225 0.66363 0.376089
0.652613 0.664118 0.376532
0.883162 0.631006 0.351324
0 0.801282 0.278553
0 0.805524 0.281209
0 0.811261 0.284779
0.00517281 0.817838 0.288853
0.160067 0.824643 0.293019
0.304601 0.83331 0.298299
0.428016 0.846952 0.3066
0.57911 0.87068 0.321202
0.849012 0.878721 0.326268
0 0.00349432 0.488365
0 0.00373846 0.488609
0.0764324 0.00440986 0.489342
0.215366 0.00492866 0.489891
0.332647 0.00471504 0.489662
0.427924 0.00347906 0.48835
0.53431 0.000411994 0.485054
0.647944 0 0.478523
0.870649 0 0.437949
0 0.091722 0.487404
0 0.0912795 0.486946
0.0729686 0.0914321 0.487098
0.211643 0.0915236 0.487205
0.329168 0.0910201 0.486656
0.424872 0.0895857 0.485115
0.530709 0.0863813 0.481712
0.644709 0.0800488 0.474983
0.867613 0.0411688 0.43476
0 0.177523 0.487083
0 0.176989 0.486519
0.0720684 0.176974 0.486503
0.210605 0.176913 0.486458
0.328374 0.176471 0.485969
0.424277 0.175097 0.484504
0.530068 0.171939 0.481132
0.64448 0.165911 0.474739
0.867658 0.127306 0.434806
0 0.263249 0.486992
0 0.26273 0.486458
0.0721141 0.262806 0.486534
0.210727 0.262806 0.486534
0.328893 0.262684 0.486412
0.42501 0.261585 0.485267
0.531289 0.258656 0.482261
0.646067 0.25304 0.476463
0.869841 0.214755 0.437095
0 0.353094 0.485817
0 0.35285 0.485557
0.0711528 0.353185 0.485908
0.210605 0.353719 0.486442
0.329473 0.354177 0.486915
0.426047 0.353628 0.486351
0.533455 0.351568 0.48426
0.648707 0.346746 0.479347
0.873396 0.307973 0.440848
0 0.445106 0.482444
0 0.445457 0.482795
0.0678569 0.446387 0.483772
0.208988 0.447822 0.485283
0.329229 0.44918 0.486702
0.42678 0.449592 0.487129
0.535607 0.448753 0.486259
0.651698 0.445289 0.482628
0.877501 0.408362 0.445197
0 0.538308 0.475273
0 0.539361 0.476417
0.059968 0.541466 0.478676
0.20354 0.543969 0.481392
0.326146 0.546426 0.484062
0.425742 0.548241 0.486046
0.536217 0.548959 0.486824
0.653864 0.547295 0.485008
0.881544 0.51397 0.449454
0 0.641779 0.461601
0 0.644358 0.464103
0.0430304 0.648188 0.467857
0.190402 0.652613 0.472206
0.317281 0.657008 0.476555
0.420706 0.661219 0.480735
0.533028 0.664363 0.483864
0.653513 0.66511 0.484627
0.885374 0.633463 0.453529
0 0.801221 0.34963
0 0.805875 0.352941
0 0.811872 0.357259
0.00650034 0.818692 0.362325
0.162127 0.825971 0.367895
0.307912 0.836057 0.375952
0.434928 0.854215 0.392676
0.593439 0.884657 0.420951
0.867506 0.899046 0.434638
0 0.00164797 0.607446
0 0.00196841 0.607752
0.0734112 0.00257877 0.608347
0.212573 0.00303655 0.608774
0.330266 0.0027924 0.60853
0.425925 0.00151064 0.607324
0.532006 0 0.604334
0.645823 0 0.598047
0.868681 0 0.556863
0 0.0896315 0.606363
0 0.0893263 0.606088
0.0697185 0.0894636 0.606195
0.208484 0.0894026 0.606149
0.326665 0.0890059 0.605768
0.422812 0.0875563 0.604364
0.528374 0.0843671 0.601236
0.642756 0.0780346 0.594812
0.865675 0.0391852 0.553521
0 0.175509 0.606165
0 0.174975 0.605646
0.0687266 0.174945 0.605631
0.207446 0.174807 0.605478
0.325887 0.174472 0.605158
0.422278 0.173129 0.603845
0.527764 0.169924 0.600702
0.642603 0.163973 0.594644
0.865827 0.125429 0.553674
0 0.261173 0.606073
0 0.26067 0.6056
0.0687266 0.260685 0.605615
0.207843 0.260807 0.605737
0.326528 0.260731 0.605661
0.423133 0.259663 0.604669
0.529213 0.256794 0.601953
0.644373 0.251255 0.596536
0.868238 0.213123 0.556359
0 0.351064 0.605081
0 0.350866 0.604883
0.0679484 0.351171 0.605173
0.20798 0.351873 0.605814
0.327367 0.352392 0.606302
0.424323 0.351858 0.605814
0.531701 0.349981 0.604059
0.647334 0.345266 0.599634
0.871962 0.306447 0.56051
0 0.44332 0.602182
0 0.443656 0.602502
0.0652628 0.444785 0.603586
0.20676 0.446296 0.605035
0.327321 0.447623 0.606271
0.425498 0.448295 0.606912
0.53434 0.447623 0.606287
0.650782 0.444312 0.603143
0.876738 0.407538 0.565789
0 0.536904 0.595682
0 0.538064 0.596902
0.0579538 0.540276 0.599191
0.201923 0.542901 0.601862
0.324865 0.545419 0.604364
0.42501 0.547539 0.606455
0.535607 0.54844 0.60734
0.653483 0.546914 0.605844
0.881392 0.513832 0.570947
0 0.64065 0.582437
0 0.643427 0.585168
0.041886 0.64744 0.58912
0.189654 0.652094 0.593637
0.316976 0.656764 0.598154
0.420691 0.661219 0.602319
0.533303 0.664607 0.605417
0.653986 0.665629 0.606348
0.887297 0.635569 0.577417
0 0.800687 0.456458
0 0.805661 0.461295
0 0.811963 0.46743
0.00701915 0.819028 0.474388
0.164233 0.827329 0.482643
0.312016 0.839475 0.49485
0.442115 0.861738 0.517479
0.607462 0.899138 0.555642
0.888029 0.921599 0.57821
0 0 0.734112
0 0 0.73434
0.0675975 0 0.734844
0.207111 0 0.735134
0.32575 0 0.734951
0.422217 0 0.733715
0.527764 0 0.730709
0.642237 0 0.724681
0.865095 0 0.68751
0 0.0860304 0.732815
0 0.0856947 0.732494
0.0636759 0.0857862 0.73257
0.20293 0.0856794 0.732479
0.322057 0.0853132 0.732128
0.419104 0.0838788 0.730739
0.523934 0.0805219 0.727535
0.639185 0.0743725 0.721675
0.862135 0.0355383 0.684611
0 0.171817 0.732525
0 0.171283 0.732006
0.0626535 0.171267 0.731975
0.201938 0.171115 0.731853
0.321294 0.170809 0.731548
0.418616 0.169482 0.730282
0.523598 0.166308 0.727245
0.639139 0.160403 0.72163
0.862394 0.121904 0.684871
0 0.257374 0.732448
0 0.256901 0.731991
0.0625772 0.25684 0.731945
0.202457 0.257084 0.732174
0.322072 0.257053 0.732143
0.419425 0.255879 0.73106
0.525261 0.253254 0.728634
0.641108 0.247776 0.723552
0.864866 0.209689 0.687282
0 0.347311 0.731548
0 0.347036 0.731289
0.062211 0.347509 0.731731
0.202884 0.348302 0.732448
0.323201 0.348913 0.732998
0.421042 0.34847 0.732601
0.528054 0.346654 0.730953
0.644358 0.342046 0.726741
0.869123 0.303395 0.691478
0 0.439841 0.728893
0 0.440177 0.729213
0.0599832 0.441505 0.730434
0.202121 0.443137 0.73196
0.323522 0.444511 0.733242
0.422568 0.44535 0.734035
0.531167 0.444816 0.733532
0.648066 0.441459 0.730404
0.874403 0.405051 0.696666
0 0.533776 0.722942
0 0.53518 0.724315
0.0533303 0.537514 0.726589
0.197879 0.540276 0.729274
0.321675 0.542916 0.731838
0.422599 0.545205 0.734066
0.533135 0.546334 0.735164
0.651484 0.544884 0.733761
0.879774 0.512169 0.701946
0 0.63772 0.711269
0 0.640803 0.714015
0.038117 0.644999 0.717769
0.186099 0.649622 0.721904
0.314611 0.654765 0.726497
0.419104 0.659525 0.730755
0.531807 0.663233 0.734066
0.653544 0.665156 0.73579
0.888655 0.637079 0.710689
0 0.798566 0.600275
0 0.803754 0.605051
0 0.810315 0.61091
0.00474556 0.817548 0.617243
0.164385 0.827436 0.625879
0.316472 0.843214 0.639948
0.450523 0.870466 0.664317
0.620508 0.913787 0.703059
0.907454 0.942977 0.729168
0 0 0.933486
0 0 0.933639
0.0520638 0 0.934096
0.192706 0 0.934249
0.313741 0 0.934096
0.41268 0 0.93283
0.516701 0 0.929763
0.632944 0 0.923766
0.855787 0 0.88661
0 0.0765393 0.931991
0 0.076173 0.931624
0.0479133 0.0762341 0.931685
0.188403 0.0760967 0.931563
0.309895 0.0757305 0.931212
0.409598 0.0742962 0.929839
0.512932 0.0709392 0.926635
0.629908 0.0648051 0.92079
0.852872 0.0260014 0.883741
0 0.162249 0.931609
0 0.1617 0.93109
0.0466163 0.161532 0.930938
0.187411 0.161547 0.930953
0.309163 0.161257 0.930663
0.409003 0.159777 0.929259
0.512673 0.156802 0.926421
0.629969 0.150958 0.920836
0.853208 0.112444 0.884077
0 0.247517 0.931563
0 0.247059 0.931136
0.0469062 0.247028 0.931105
0.188067 0.247303 0.931365
0.310094 0.247318 0.931365
0.410117 0.24622 0.930343
0.514549 0.243687 0.927993
0.632151 0.238361 0.922988
0.855985 0.200595 0.886793
0 0.337392 0.930755
0 0.337118 0.930495
0.0467842 0.337697 0.931029
0.1888 0.338567 0.931807
0.31133 0.339086 0.93228
0.411978 0.338933 0.932143
0.517693 0.33724 0.930602
0.63566 0.332662 0.926436
0.860594 0.294224 0.891325
0 0.43035 0.928298
0 0.430762 0.928695
0.0450141 0.432181 0.930007
0.188525 0.433936 0.93164
0.312352 0.435462 0.933059
0.41384 0.436423 0.933959
0.521279 0.436011 0.933577
0.639872 0.432792 0.930587
0.866377 0.396475 0.897017
0 0.524941 0.922576
0 0.526543 0.924132
0.0390478 0.52903 0.926543
0.184573 0.531762 0.929213
0.311086 0.534737 0.932113
0.414405 0.537179 0.934493
0.523751 0.538338 0.935622
0.643931 0.53727 0.934585
0.872511 0.504753 0.903044
0 0.628626 0.911406
0 0.631937 0.914351
0.0247807 0.636362 0.918288
0.173587 0.641199 0.922606
0.304753 0.646555 0.927398
0.411704 0.651576 0.931884
0.523384 0.655406 0.935317
0.647898 0.65893 0.938476
0.886213 0.634379 0.916518
0 0.790249 0.800824
0 0.795697 0.805707
0 0.802502 0.811795
0 0.810224 0.818692
0.1552 0.82153 0.828809
0.314809 0.841825 0.846952
0.455497 0.875563 0.877119
0.631037 0.925628 0.921889
0.917952 0.954498 0.947723
