luts/Soft Moody Blue_Nahin V1.cube
TITLE "Generated by Resolve"
LUT_3D_SIZE 5
0 0.00662242 0.130709
0.082063 0.00735485 0.131167
0.337713 0.00834669 0.131777
0.53933 0.00477607 0.129564
0.875242 0 0.101793
0 0.182147 0.130709
0.0797436 0.181643 0.130587
0.334249 0.181216 0.130327
0.535286 0.176455 0.127382
0.871809 0.131594 0.0995956
0 0.357809 0.130083
0.0778058 0.357412 0.129854
0.333715 0.357763 0.130068
0.536614 0.354437 0.128099
0.874937 0.309636 0.101595
0 0.540505 0.12256
0.0621958 0.542794 0.123995
0.326024 0.546334 0.126223
0.534295 0.547311 0.126848
0.878111 0.510475 0.103624
0 0.798749 0.0386664
0 0.806989 0.0434424
0.150271 0.818387 0.0500649
0.411154 0.829023 0.0562295
0.795102 0.819455 0.0506752
0 0.0055848 0.246464
0.0807507 0.00662242 0.247364
0.336568 0.00741588 0.247898
0.538033 0.00363165 0.245258
0.874052 0 0.217395
0 0.180972 0.246586
0.0775769 0.180316 0.246174
0.332708 0.179965 0.245945
0.533898 0.17525 0.24303
0.870573 0.130327 0.215183
0 0.356466 0.245686
0.0760662 0.356313 0.245609
0.332601 0.356832 0.245899
0.535973 0.353857 0.244144
0.874784 0.309468 0.217868
0 0.540108 0.238697
0.0618753 0.542611 0.240269
0.32668 0.546838 0.242939
0.53547 0.548318 0.24387
0.879896 0.512306 0.221134
0 0.800214 0.155825
0 0.809323 0.16112
0.15552 0.821729 0.168322
0.417578 0.83595 0.176577
0.819226 0.84596 0.182391
0 0.00457771 0.381949
0.0784619 0.00564584 0.383001
0.334524 0.00624094 0.383581
0.535958 0.00183108 0.379217
0.872053 0 0.342855
0 0.179095 0.381262
0.074464 0.178424 0.380606
0.330159 0.177905 0.380087
0.531807 0.173434 0.375738
0.86894 0.128634 0.340536
0 0.354543 0.379873
0.0733654 0.354604 0.379934
0.330922 0.355398 0.380697
0.534569 0.35259 0.378042
0.874144 0.308782 0.344411
0 0.539208 0.370459
0.0610971 0.542138 0.372992
0.326726 0.546883 0.377356
0.536294 0.54902 0.379507
0.881193 0.513619 0.349798
0 0.801282 0.278553
0 0.811261 0.284779
0.160067 0.824643 0.293019
0.428016 0.846952 0.3066
0.849012 0.878721 0.326268
0 0.00164797 0.607446
0.0734112 0.00257877 0.608347
0.330266 0.0027924 0.60853
0.532006 0 0.604334
0.868681 0 0.556863
0 0.175509 0.606165
0.0687266 0.174945 0.605631
0.325887 0.174472 0.605158
0.527764 0.169924 0.600702
0.865827 0.125429 0.553674
0 0.351064 0.605081
0.0679484 0.351171 0.605173
0.327367 0.352392 0.606302
0.531701 0.349981 0.604059
0.871962 0.306447 0.56051
0 0.536904 0.595682
0.0579538 0.540276 0.599191
0.324865 0.545419 0.604364
0.535607 0.54844 0.60734
0.881392 0.513832 0.570947
0 0.800687 0.456458
0 0.811963 0.46743
0.164233 0.827329 0.482643
0.442115 0.861738 0.517479
0.888029 0.921599 0.57821
0 0 0.933486
0.0520638 0 0.934096
0.313741 0 0.934096
0.516701 0 0.929763
0.855787 0 0.88661
0 0.162249 0.931609
0.0466163 0.161532 0.930938
0.309163 0.161257 0.930663
0.512673 0.156802 0.926421
0.853208 0.112444 0.884077
0 0.337392 0.930755
0.0467842 0.337697 0.931029
0.31133 0.339086 0.93228
0.517693 0.33724 0.930602
0.860594 0.294224 0.891325
0 0.524941 0.922576
0.0390478 0.52903 0.926543
0.311086 0.534737 0.932113
0.523751 0.538338 0.935622
0.872511 0.504753 0.903044
0 0.790249 0.800824
0 0.802502 0.811795
0.1552 0.82153 0.828809
0.455497 0.875563 0.877119
0.917952 0.954498 0.947723
