luts/Sony S-Log3 to Rec.709.cube
TITLE "Generated by Resolve"
LUT_3D_SIZE 33
0.0117494 0.015671 0.0175631
0.0169223 0.0155642 0.0181277
0.0211032 0.0154879 0.0185855
0.0265507 0.0144961 0.0180819
0.0419776 0.0111849 0.0161135
0.0645914 0.00616464 0.0129702
0.0908675 9.15541e-05 0.00898756
0.122118 0 0.00411994
0.156725 0 0
0.193454 0 0
0.234958 0 0
0.281193 0 0
0.333333 0 0
0.390982 0 0
0.456321 0 0
0.531853 0 0
0.615763 0 0
0.706477 0 0
0.796643 0 0
0.881544 0 0
0.959884 0 0
1 0 0
1 0 0
1 0 0
1 0 0
1 0 0
1 0 0
1 0 0
1 0 0
1 0 0
1 0 0
1 0 0
1 0 0
0.00982681 0.019501 0.0174105
0.0141909 0.0188754 0.0172122
0.0180514 0.0184176 0.0171664
0.0236973 0.0175631 0.0168612
0.0393835 0.0143435 0.0149538
0.0621347 0.00941482 0.0118868
0.0886397 0.00347906 0.00801099
0.120256 0 0.00328069
0.155261 0 0
0.192676 0 0
0.234577 0 0
0.281575 0 0
0.335805 0 0
0.396887 0 0
0.466743 0 0
0.546899 0 0
0.634958 0 0
0.728023 0 0
0.818998 0 0
0.904768 0 0
0.983001 0 0
1 0 0
1 0 0
1 0 0
1 0 0
1 0 0
1 0 0
1 0 0
1 0 0
1 0 0
1 0 0
1 0 0
1 0 0
0.00799573 0.0221561 0.0167849
0.0123293 0.0216526 0.0166934
0.0161135 0.0213016 0.0167697
0.0218967 0.0205539 0.0166171
0.0378424 0.0174258 0.0148623
0.0607919 0.012604 0.0119173
0.0874952 0.00683604 0.00823987
0.119905 0 0.00375372
0.155779 0 0
0.195026 0 0
0.239887 0 0
0.289967 0 0
0.346899 0 0
0.411765 0 0
0.485878 0 0
0.570321 0 0
0.662638 0 0
0.757504 0 0
0.848249 0 0
0.933104 0 0
1 0 0
1 0 0
1 0 0
1 0 0
1 0 0
1 0 0
1 0 0
1 0 0
1 0 0
1 0 0
1 0 0
1 0 0
1 0 0
0.00500496 0.0258183 0.0155184
0.00939956 0.025452 0.01561
0.0132601 0.0252537 0.0158389
0.018967 0.0246433 0.0158389
0.0352331 0.0217594 0.014435
0.058732 0.0175021 0.0122225
0.086305 0.0126802 0.00985733
0.121675 0.00637827 0.00714122
0.159792 0 0.00378424
0.201297 0 0
0.248478 0 0
0.301244 0 0
0.361654 0 0
0.429953 0 0
0.508827 0 0
0.596735 0 0
0.691966 0 0
0.786984 0 0
0.877348 0 0
0.960281 0 0
1 0 0
1 0 0
1 0 0
1 0 0
1 0 0
1 0 0
1 0 0
1 0 0
1 0 0
1 0 0
1 0 0
1 0 0
1 0 0
0 0.0337835 0.00860609
0 0.033753 0.00915541
0.0034638 0.0342565 0.0103914
0.0100404 0.0347448 0.0118563
0.0267185 0.0332189 0.0121614
0.0510262 0.0299687 0.0112917
0.079057 0.0259556 0.00988785
0.11722 0.0201419 0.00781262
0.157244 0.012726 0.00518807
0.201297 0.00291447 0.00167849
0.250858 0 0
0.30602 0 0
0.368429 0 0
0.43917 0 0
0.5205 0 0
0.611292 0 0
0.708415 0 0
0.804181 0 0
0.894087 0 0
0.976272 0 0
1 0 0
1 0 0
1 0 0
1 0 0
1 0 0
1 0 0
1 0 0
1 0 0
1 0 0
1 0 0
1 0 0
1 0 0
1 0 0
0 0.0472725 0.000335698
0 0.0483711 0.00259403
0 0.0496376 0.00497444
0 0.0506294 0.00720226
0.0146944 0.0497292 0.00825513
0.0386206 0.0473335 0.0084535
0.0670024 0.0439918 0.00791943
0.107317 0.0388647 0.0065156
0.149722 0.0319371 0.00433356
0.195956 0.0226291 0.00131228
0.247395 0.00999466 0
0.304128 0 0
0.368185 0 0
0.440803 0 0
0.52401 0 0
0.616358 0 0
0.715724 0 0
0.811841 0 0
0.902083 0 0
0.984268 0 0
1 0 0
1 0 0
1 0 0
1 0 0
1 0 0
1 0 0
1 0 0
1 0 0
1 0 0
1 0 0
1 0 0
1 0 0
1 0 0
0 0.0648356 0
0 0.0664225 0
0 0.0683299 0
0 0.0699321 0.00288396
0.00112917 0.0697337 0.00434882
0.0248417 0.0678569 0.00488289
0.0525063 0.0649424 0.00500496
0.0937362 0.0600595 0.00418097
0.139269 0.0534371 0.00254826
0.187472 0.0445106 0
0.240696 0.0323339 0
0.299153 0.0162356 0
0.364813 0 0
0.439445 0 0
0.524407 0 0
0.61857 0 0
0.718914 0 0
0.815869 0 0
0.906569 0 0
0.989044 0 0
1 0 0
1 0 0
1 0 0
1 0 0
1 0 0
1 0 0
1 0 0
1 0 0
1 0 0
1 0 0
1 0 0
1 0 0
1 0 0
0 0.0887312 0
0 0.0919509 0
0 0.0953078 0
0 0.0983444 0
0 0.0988327 0
0.00529488 0.0975357 0
0.0323186 0.0954147 0.000198367
0.0717021 0.0916915 0.000274662
0.122301 0.0854047 0
0.174182 0.0759442 0
0.23032 0.0630961 0
0.291188 0.0460517 0
0.358984 0.0234989 0
0.435966 0 0
0.523156 0 0
0.61883 0 0
0.720363 0 0
0.818402 0 0
0.909865 0 0
0.992599 0 0
1 0 0
1 0 0
1 0 0
1 0 0
1 0 0
1 0 0
1 0 0
1 0 0
1 0 0
1 0 0
1 0 0
1 0 0
1 0 0
0 0.118044 0
0 0.121721 0
0 0.125612 0
0 0.129152 0
0 0.130251 0
0 0.129717 0
0.00698863 0.128557 0
0.0439918 0.126101 0
0.0975814 0.121416 0
0.154971 0.11429 0
0.214817 0.103761 0
0.278843 0.0881666 0
0.349203 0.0651865 0
0.428565 0.0343175 0
0.518318 0 0
0.616342 0 0
0.719219 0 0
0.818936 0 0
0.911482 0 0
0.994736 0 0
1 0 0
1 0 0
1 0 0
1 0 0
1 0 0
1 0 0
1 0 0
1 0 0
1 0 0
1 0 0
1 0 0
1 0 0
1 0 0
0 0.149691 0
0 0.154009 0
0 0.158587 0
0 0.162814 0
0 0.164584 0
0 0.16495 0
0 0.164401 0
0.00970474 0.162844 0
0.0613565 0.159716 0
0.127153 0.154314 0
0.192905 0.146136 0
0.261326 0.134112 0
0.334981 0.116518 0
0.417182 0.0891432 0
0.509499 0.0473487 0
0.61001 0 0
0.715068 0 0
0.816373 0 0
0.910262 0 0
0.994278 0 0
1 0 0
1 0 0
1 0 0
1 0 0
1 0 0
1 0 0
1 0 0
1 0 0
1 0 0
1 0 0
1 0 0
1 0 0
1 0 0
0 0.184909 0
0 0.190051 0
0 0.195529 0
0 0.200671 0
0 0.203265 0
0 0.204288 0
0 0.204562 0
0 0.203876 0
0.0151827 0.201785 0
0.0842145 0.198154 0
0.161196 0.191852 0
0.2365 0.182376 0
0.314855 0.16875 0
0.400717 0.148379 0
0.496086 0.117082 0
0.599207 0.066392 0
0.706722 0 0
0.809888 0 0
0.905913 0 0
0.991028 0 0
1 0 0
1 0 0
1 0 0
1 0 0
1 0 0
1 0 0
1 0 0
1 0 0
1 0 0
1 0 0
1 0 0
1 0 0
1 0 0
0 0.224887 0
0 0.230854 0
0 0.237125 0
0 0.243107 0
0 0.246632 0
0 0.248447 0
0 0.249424 0
0 0.249516 0
0 0.248371 0
0.0218662 0.245853 0
0.112261 0.241596 0
0.200504 0.234119 0
0.286458 0.223331 0
0.377417 0.207568 0
0.477165 0.184054 0
0.583688 0.149371 0
0.693965 0.0961166 0
0.799374 0.020737 0
0.897566 0 0
0.984283 0 0
1 0 0
1 0 0
1 0 0
1 0 0
1 0 0
1 0 0
1 0 0
1 0 0
1 0 0
1 0 0
1 0 0
1 0 0
1 0 0
0 0.26978 0
0 0.276646 0
0 0.283925 0
0 0.290867 0
0 0.295186 0
0 0.297948 0
0 0.29987 0
0 0.300832 0
0 0.300542 0
0 0.299046 0
0.0315557 0.295995 0
0.14464 0.290883 0
0.245319 0.282261 0
0.344656 0.269795 0
0.450584 0.251423 0
0.561654 0.225315 0
0.675624 0.188922 0
0.783963 0.140185 0
0.884504 0.0707408 0
0.973663 0 0
1 0 0
1 0 0
1 0 0
1 0 0
1 0 0
1 0 0
1 0 0
1 0 0
1 0 0
1 0 0
1 0 0
1 0 0
1 0 0
0 0.321065 0
0 0.328374 0
0 0.336782 0
0 0.344915 0
0 0.350225 0
0 0.353765 0
0 0.356558 0
0 0.358541 0
0 0.359274 0
0 0.358831 0
0 0.356909 0
0.0464027 0.353079 0
0.182208 0.347143 0
0.298466 0.337057 0
0.414237 0.322301 0
0.531929 0.3019 0
0.650874 0.274372 0
0.763027 0.240055 0
0.866514 0.198367 0
0.958328 0.149477 0
1 0.0901961 0
1 0.0165255 0
1 0 0
1 0 0
1 0 0
1 0 0
1 0 0
1 0 0
1 0 0
1 0 0
1 0 0
1 0 0
1 0 0
0 0.378561 0
0 0.387869 0
0 0.396963 0
0 0.406455 0
0 0.413046 0
0 0.417609 0
0 0.421286 0
0 0.424201 0
0 0.425879 0
0 0.426276 0
0 0.42565 0
0 0.423072 0
0.0667124 0.418555 0
0.226871 0.41149 0
0.362356 0.399542 0
0.490867 0.383215 0
0.617121 0.361593 0
0.734447 0.335409 0
0.841856 0.30515 0
0.936538 0.272251 0
1 0.239887 0
1 0.202716 0
1 0.159533 0
1 0.108141 0
1 0.0460365 0
1 0 0
1 0 0
1 0 0
1 0 0
1 0 0
1 0 0
1 0 0
1 0 0
0 0.443854 0
0 0.455161 0
0 0.465797 0
0 0.476219 0
0 0.483818 0
0 0.489342 0
0 0.493919 0
0 0.497673 0
0 0.500313 0
0 0.501656 0
0 0.501686 0
0 0.500038 0
0 0.496773 0
0.101183 0.491264 0
0.283513 0.482628 0
0.432807 0.469245 0
0.570687 0.451835 0
0.695491 0.431098 0
0.808362 0.407599 0
0.907256 0.382727 0
0.987854 0.359274 0
1 0.334981 0
1 0.308156 0
1 0.280064 0
1 0.251179 0
1 0.221469 0
1 0.190585 0
1 0.158343 0
1 0.12076 0
1 0.0760204 0
1 0.0289158 0
1 0 0
1 0 0
0 0.515755 0
0 0.528603 0
0 0.541268 0
0 0.552239 0
0 0.560693 0
0 0.567147 0
0 0.572549 0
0 0.577066 0
0 0.580514 0
0 0.582696 0
0 0.583535 0
0 0.582803 0
0 0.580514 0
0 0.576242 0
0.159289 0.569421 0
0.351812 0.559457 0
0.510231 0.545022 0
0.646281 0.528099 0
0.766506 0.509194 0
0.870665 0.489403 0
0.955001 0.470893 0
1 0.452689 0
1 0.43331 0
1 0.413092 0
1 0.392309 0
1 0.371435 0
1 0.3505 0
1 0.329671 0
1 0.307424 0
1 0.284321 0
1 0.26006 0
1 0.236347 0
1 0.210086 0
0 0.593133 0
0 0.607111 0
0 0.620691 0
0 0.63267 0
0 0.640742 0
0 0.647379 0
0 0.653056 0
0 0.657816 0
0 0.66154 0
0 0.664164 0
0 0.665507 0
0 0.66537 0
0 0.663752 0
0 0.660426 0
0 0.654871 0
0.24094 0.646647 0
0.432731 0.635554 0
0.586267 0.621332 0
0.716533 0.605585 0
0.82739 0.589288 0
0.916304 0.574121 0
0.994446 0.558602 0
1 0.543389 0
1 0.52726 0
1 0.510536 0
1 0.49369 0
1 0.476829 0
1 0.459983 0
1 0.442695 0
1 0.424567 0
1 0.405661 0
1 0.387228 0
1 0.367224 0
0 0.670924 0
0 0.684703 0
0 0.698085 0
0 0.710063 0
0 0.717891 0
0 0.7243 0
0 0.729992 0
0 0.734813 0
0 0.738643 0
0 0.741436 0
0 0.743023 0
0 0.743328 0
0 0.742199 0
0 0.739483 0
0 0.734829 0
0.0285649 0.727749 0
0.338964 0.718517 0
0.515373 0.707073 0
0.65948 0.693385 0
0.778637 0.67921 0
0.87277 0.665934 0
0.95494 0.652216 0
1 0.638148 0
1 0.625071 0
1 0.611231 0
1 0.596933 0
1 0.582589 0
1 0.568338 0
1 0.553384 0
1 0.537835 0
1 0.521599 0
1 0.505547 0
1 0.488716 0
0 0.74583 0
0 0.759106 0
0 0.771908 0
0 0.783444 0
0 0.791333 0
0 0.79707 0
0 0.802487 0
0 0.807172 0
0 0.810941 0
0 0.813703 0
0 0.815366 0
0 0.815885 0
0 0.815015 0
0 0.812711 0
0 0.808545 0
0 0.802167 0
0.213794 0.793744 0
0.436973 0.783795 0
0.596201 0.771984 0
0.725567 0.759106 0
0.825666 0.747173 0
0.912322 0.734874 0
0.986831 0.722042 0
1 0.709346 0
1 0.697749 0
1 0.685359 0
1 0.672831 0
1 0.66009 0
1 0.64686 0
1 0.633829 0
1 0.61973 0
1 0.605371 0
1 0.590265 0
0 0.815869 0
0 0.828275 0
0 0.840177 0
0 0.850614 0
0 0.857557 0
0 0.862303 0
0 0.866819 0
0 0.870695 0
0 0.873808 0
0 0.876066 0
0 0.877272 0
0 0.87747 0
0 0.876432 0
0 0.874083 0
0 0.870024 0
0 0.863996 0
0 0.856138 0
0.352682 0.846952 0
0.532403 0.836713 0
0.671946 0.825162 0
0.779171 0.814008 0
0.870802 0.80264 0
0.948959 0.790906 0
1 0.779248 0
1 0.768307 0
1 0.758236 0
1 0.747585 0
1 0.736828 0
1 0.725567 0
1 0.713985 0
1 0.702235 0
1 0.689906 0
1 0.677073 0
0 0.876875 0
0 0.887129 0
0 0.897093 0
0 0.906035 0
0 0.91223 0
0 0.916564 0
0 0.920684 0
0 0.924178 0
0 0.92694 0
0 0.928893 0
0 0.92987 0
0 0.9299 0
0 0.928725 0
0 0.926406 0
0 0.922545 0
0 0.916777 0
0 0.909285 0
0.249454 0.900511 0
0.468315 0.890806 0
0.618219 0.880796 0
0.732341 0.870436 0
0.829328 0.85977 0
0.911528 0.848783 0
0.979797 0.837781 0
1 0.827314 0
1 0.81796 0
1 0.808454 0
1 0.798718 0
1 0.788602 0
1 0.778347 0
1 0.768093 0
1 0.757198 0
1 0.746136 0
0 0.929381 0
0 0.938811 0
0 0.947692 0
0 0.95555 0
0 0.960967 0
0 0.964675 0
0 0.9682 0
0 0.971176 0
0 0.97348 0
0 0.975021 0
0 0.975662 0
0 0.975448 0
0 0.974182 0
0 0.971786 0
0 0.967895 0
0 0.962509 0
0 0.955398 0
0.0822003 0.947051 0
0.394476 0.937819 0
0.564294 0.928084 0
0.683146 0.918959 0
0.785412 0.90901 0
0.872312 0.898726 0
0.944457 0.888472 0
1 0.878492 0
1 0.869108 0
1 0.860975 0
1 0.852552 0
1 0.843778 0
1 0.834913 0
1 0.826062 0
1 0.816754 0
1 0.807401 0
0 0.975433 0
0 0.983597 0
0 0.991211 0
0 0.997971 0
0 1 0
0 1 0
0 1 0
0 1 0
0 1 0
0 1 0
0 1 0
0 1 0
0 1 0
0 1 0
0 1 0
0 1 0
0 0.99443 0
0 0.986526 0
0.30338 0.977829 0
0.502739 0.968612 0
0.633539 0.959899 0
0.738918 0.95111 0
0.831327 0.941421 0
0.907942 0.931762 0
0.969818 0.922454 0
1 0.913741 0
1 0.905943 0
1 0.898909 0
1 0.891508 0
1 0.883848 0
1 0.876387 0
1 0.868345 0
1 0.860609 0
0 1 0
0 1 0
0 1 0
0 1 0
0 1 0
0 1 0
0 1 0
0 1 0
0 1 0
0 1 0
0 1 0
0 1 0
0 1 0
0 1 0
0 1 0
0 1 0
0 1 0
0 1 0
0.17911 1 0
0.433906 1 0
0.581369 0.994125 0
0.69485 0.985885 0
0.789395 0.977584 0
0.871015 0.968505 0
0.937255 0.959808 0
0.989914 0.951675 0
1 0.944335 0
1 0.938155 0
1 0.931884 0
1 0.925582 0
1 0.919158 0
1 0.912428 0
1 0.905867 0
0 1 0
0 1 0
0 1 0
0 1 0
0 1 0
0 1 0
0 1 0
0 1 0
0 1 0
0 1 0
0 1 0
0 1 0
0 1 0
0 1 0
0 1 0
0 1 0
0 1 0
0 1 0
0 1 0
0.356008 1 0
0.527153 1 0
0.650523 1 0
0.751202 1 0
0.833921 0.99939 0
0.905013 0.991165 0
0.961288 0.983581 0
1 0.976669 0
1 0.970565 0
1 0.965637 0
1 0.960128 0
1 0.95465 0
1 0.949172 0
1 0.943679 0
0 1 0
0 1 0
0 1 0
0 1 0
0 1 0
0 1 0
0 1 0
0 1 0
0 1 0
0 1 0
0 1 0
0 1 0
0 1 0
0 1 0
0 1 0
0 1 0
0 1 0
0 1 0
0 1 0
0.264363 1 0
0.472023 1 0
0.606226 1 0
0.713542 1 0
0.80148 1 0
0.873091 1 0
0.933303 1 0
0.98056 1 0
1 0.997833 0
1 0.99295 0
1 0.988449 0
1 0.983795 0
1 0.979355 0
1 0.974777 0
0 1 0
0 1 0
0 1 0
0 1 0
0 1 0
0 1 0
0 1 0
0 1 0
0 1 0
