luts/Sony slog3 to correction.cube
TITLE "Generated by Resolve"
LUT_3D_SIZE 9
0.000946059 0.0117037 0.0123751
0.0214694 0.00215152 0.00608835
0.185016 0.0153811 0.0186007
0.499596 0.0810712 0.0870832
0.843229 0.185779 0.194003
1 0.27422 0.285679
1 0.319814 0.33315
1 0.490837 0.498878
1 0.997497 0.996567
0.00515755 0.0455329 0.0197757
0.0090486 0.0256657 0.00292973
0.11548 0.00813306 0.0229648
0.329534 0.0381476 0.0728771
0.664393 0.130144 0.153353
1 0.250416 0.261555
1 0.300175 0.312154
1 0.462608 0.467369
1 0.99266 0.99028
0.0314031 0.168368 0.0560616
0.0256046 0.149187 0.0471199
0.0994888 0.116167 0.0190433
0.363439 0.0727398 0.0406043
0.622477 0.117983 0.164706
0.853407 0.189059 0.256275
0.852796 0.194308 0.314092
0.928191 0.343557 0.49099
1 0.963149 0.892973
0.127245 0.383154 0.147936
0.116548 0.362402 0.137819
0.10074 0.328817 0.114519
0.294041 0.286503 0.0883803
0.647745 0.228595 0.108309
0.946273 0.217182 0.228733
0.99762 0.238605 0.270756
0.921126 0.319554 0.651804
0.928298 0.99292 1
0.25391 0.636957 0.264942
0.24535 0.61973 0.255848
0.230884 0.589899 0.238331
0.243015 0.553613 0.208988
0.570397 0.535241 0.229801
0.932891 0.494255 0.251606
1 0.333852 0.214801
1 0.29929 0.197986
1 0.815167 0.835981
0.39823 0.929076 0.40415
0.39089 0.914092 0.395987
0.371496 0.874586 0.374792
0.359457 0.837964 0.352407
0.524025 0.828565 0.351675
0.879667 0.820203 0.387671
1 0.798886 0.392798
1 0.731365 0.350958
1 0.835554 0.381567
0.616297 1 0.500862
0.60061 1 0.493812
0.559182 1 0.475822
0.495903 1 0.448371
0.608911 1 0.459861
0.897368 1 0.498299
1 1 0.527443
1 1 0.543389
1 1 0.636225
1 1 0.699367
1 1 0.693141
1 1 0.673121
0.958984 1 0.611475
0.883406 1 0.518639
1 1 0.558724
1 1 0.573449
1 1 0.589593
1 1 0.68397
1 1 1
1 1 1
1 1 1
1 1 1
1 1 0.956024
1 1 0.733242
1 1 0.731487
1 1 0.756191
1 1 0.861708
0 0.0062562 0.0429541
0.0188754 0.00106813 0.0412604
0.192355 0.0161135 0.05243
0.518181 0.0855116 0.109895
0.860807 0.190997 0.200656
1 0.276127 0.289067
1 0.327688 0.342718
1 0.522026 0.531594
1 1 1
0.0031281 0.0310369 0.0306401
0.00177005 0.0146792 0.0145113
0.120226 0.00810254 0.0174716
0.423789 0.0593881 0.068452
0.761364 0.16054 0.166369
1 0.257359 0.267613
1 0.301442 0.314794
1 0.469108 0.47602
1 1 1
0.0272374 0.157382 0.0623484
0.0224918 0.140246 0.0520333
0.0852979 0.109163 0.0182345
0.317784 0.0625772 0.0410925
0.567773 0.100969 0.125826
0.806226 0.174304 0.223606
0.855192 0.192081 0.2907
0.959365 0.358206 0.447684
1 0.997055 0.923003
0.122042 0.373281 0.143908
0.11191 0.353674 0.134264
0.097673 0.323384 0.112978
0.276112 0.280934 0.0844892
0.612482 0.222431 0.106706
0.900664 0.202945 0.223301
0.986664 0.229404 0.270588
1 0.254444 0.293446
0.755276 0.886809 0.996811
0.249607 0.628611 0.262028
0.241581 0.612451 0.253513
0.227985 0.584482 0.237201
0.233448 0.549737 0.208255
0.551034 0.530266 0.226459
0.914244 0.490303 0.248127
1 0.333562 0.218021
1 0.293217 0.19939
1 0.65153 0.704631
0.394385 0.921614 0.402075
0.387549 0.907652 0.3944
0.368566 0.868986 0.373709
0.355337 0.83328 0.350652
0.505302 0.823102 0.347677
0.861524 0.814984 0.384176
1 0.79472 0.391318
1 0.737423 0.35555
1 0.821576 0.370581
0.606516 1 0.497948
0.591821 1 0.491295
0.552636 1 0.474205
0.490715 1 0.447974
0.594018 1 0.457084
0.880659 1 0.495094
1 1 0.525292
1 1 0.541146
1 1 0.627222
1 1 0.69633
1 1 0.690455
1 1 0.671244
0.957443 1 0.611322
0.871427 1 0.516075
1 1 0.556863
1 1 0.572091
1 1 0.587427
1 1 0.676524
1 1 1
1 1 1
1 1 1
1 1 1
1 1 0.957427
1 1 0.733455
1 1 0.730465
1 1 0.754055
1 1 0.855772
0 0.0132143 0.219516
0.0112917 0.00495918 0.200397
0.187427 0.0194858 0.197467
0.520333 0.0893568 0.215854
0.867689 0.193179 0.252888
1 0.277195 0.300267
1 0.325093 0.344701
1 0.522698 0.546212
1 1 1
0 0.0141146 0.199145
0.00257877 0.00698863 0.157641
0.130602 0.0103761 0.140764
0.435966 0.0623636 0.166064
0.778943 0.164157 0.210559
1 0.261524 0.276341
1 0.305364 0.323262
1 0.489845 0.509377
1 1 1
0.0176852 0.137118 0.149844
0.0159304 0.121401 0.125719
0.0554971 0.0932021 0.0907759
0.331395 0.0624399 0.0836805
0.68217 0.13489 0.158648
0.978637 0.231327 0.239155
0.978225 0.25388 0.276097
1 0.407797 0.416907
1 0.999954 0.952789
0.11368 0.361608 0.182727
0.103822 0.342672 0.167452
0.0897231 0.312886 0.142596
0.253391 0.274372 0.0885481
0.554681 0.216037 0.115465
0.806287 0.17908 0.175784
0.92137 0.209842 0.252461
0.994339 0.238422 0.305272
0.786572 0.895262 1
0.243687 0.61735 0.259449
0.235843 0.601465 0.250523
0.222202 0.573434 0.234058
0.220905 0.540841 0.205264
0.523445 0.518135 0.218921
0.867735 0.472175 0.240864
0.992218 0.308446 0.225467
1 0.27924 0.206317
1 0.377081 0.273396
0.384161 0.901595 0.395102
0.377844 0.88867 0.388006
0.359197 0.850721 0.36788
0.343557 0.815915 0.343557
0.472145 0.803662 0.336538
0.827466 0.795743 0.373083
1 0.772869 0.382391
1 0.709331 0.346044
1 0.715724 0.314412
0.581735 1 0.490593
0.569528 1 0.484794
0.532662 1 0.469139
0.475166 1 0.447349
0.561944 1 0.449958
0.847257 1 0.487068
1 1 0.51838
1 1 0.533196
1 1 0.611109
1 1 0.688151
1 1 0.682109
0.995331 1 0.663691
0.946944 1 0.604517
0.843275 1 0.508751
0.999603 1 0.550912
1 1 0.567681
1 1 0.58204
1 1 0.662867
1 1 1
1 1 1
1 1 1
1 1 1
1 1 0.953307
1 1 0.727382
1 1 0.725368
1 1 0.746609
1 1 0.844129
0.0166171 0.0386816 0.525917
0.0169223 0.0329442 0.492027
0.16379 0.0316167 0.48043
0.509163 0.104021 0.471672
0.861967 0.200366 0.468589
1 0.282795 0.468177
1 0.324453 0.420737
1 0.510491 0.588006
1 1 1
0.0159762 0.042237 0.548623
0.00892653 0.0307927 0.455817
0.122103 0.0178683 0.4159
0.426276 0.075288 0.399756
0.776684 0.170871 0.393545
1 0.266163 0.409766
1 0.306859 0.384619
1 0.47628 0.545907
1 1 1
0 0.0454108 0.444526
6.10361e-05 0.040589 0.410834
0.0517128 0.014847 0.352834
0.336202 0.0495155 0.322332
0.689708 0.141131 0.317113
0.984665 0.234241 0.327214
1 0.268925 0.309239
1 0.402182 0.44686
1 0.990784 0.97937
0.0955215 0.328542 0.36968
0.0899062 0.31281 0.335912
0.0800946 0.286885 0.293172
0.203525 0.253025 0.245823
0.580728 0.195682 0.207675
0.907668 0.207507 0.239658
1 0.251347 0.252644
0.869383 0.19585 0.289052
0.975296 0.770962 0.787671
0.240589 0.611826 0.358465
0.232303 0.596368 0.337331
0.21857 0.569512 0.31104
0.205692 0.53669 0.271595
0.502068 0.512062 0.229786
0.813657 0.468269 0.261372
0.939284 0.358053 0.236774
0.983352 0.24033 0.22504
1 0.326848 0.227161
0.379873 0.89601 0.413367
0.373312 0.882033 0.401755
0.353857 0.841794 0.375845
0.33756 0.806043 0.347326
0.445624 0.792767 0.3308
0.79527 0.779278 0.363668
1 0.731075 0.366217
0.999863 0.630198 0.320958
1 0.389258 0.149416
0.526055 1 0.477119
0.517159 1 0.471656
0.492714 1 0.457694
0.44152 0.99678 0.447074
0.495262 0.993927 0.428824
0.763806 0.9944 0.460136
1 0.992294 0.494301
1 0.998337 0.50927
1 1 0.578714
0.982605 1 0.664668
0.979858 1 0.659297
0.96553 1 0.640528
0.909773 1 0.581979
0.770306 1 0.489433
0.974701 1 0.532464
1 1 0.554131
1 1 0.568902
1 1 0.631678
1 1 1
1 1 1
1 1 1
1 1 1
1 1 0.934462
1 1 0.702892
1 1 0.703227
1 1 0.721187
1 1 0.813107
0.0603647 0.0822919 0.819181
0.0582132 0.0734722 0.781292
0.0960555 0.0607614 0.75906
0.482124 0.121874 0.751308
0.848249 0.215641 0.747936
1 0.299428 0.779797
1 0.345068 0.88011
1 0.530571 1
1 1 1
0.0583658 0.0845502 0.825696
0.0476234 0.0692607 0.747555
0.0645304 0.0546578 0.708171
0.401755 0.0929274 0.68864
0.763317 0.186969 0.67747
1 0.282094 0.713817
1 0.326207 0.809781
1 0.49546 0.985656
1 0.997742 1
0.0364538 0.0780499 0.764492
0.0401617 0.0728618 0.750179
0.0493019 0.0516213 0.664958
0.324422 0.0669871 0.626322
0.676997 0.157931 0.604746
0.985763 0.246418 0.602594
1 0.283085 0.618784
1 0.408942 0.783841
1 0.955261 1
0.00299077 0.167254 0.671397
6.10361e-05 0.158633 0.639765
0.000167849 0.134813 0.603357
0.187778 0.0978561 0.559823
0.571557 0.128283 0.521584
0.92105 0.218784 0.51635
1 0.256092 0.47332
1 0.265629 0.332738
1 0.796979 0.914382
0.227481 0.573236 0.627405
0.221088 0.560342 0.598169
0.209308 0.53698 0.559609
0.197986 0.508232 0.515694
0.452964 0.485374 0.47126
0.852461 0.429068 0.414405
0.998718 0.335851 0.347295
0.995499 0.244907 0.243305
0.950637 0.252338 0.288792
0.380713 0.884428 0.644083
0.374243 0.872953 0.617517
0.354452 0.835599 0.56466
0.337484 0.801785 0.516732
0.359365 0.79205 0.438758
0.76788 0.771588 0.392142
1 0.731533 0.422583
0.974212 0.660014 0.351232
1 0.343603 0.213123
0.495659 1 0.618158
0.488533 1 0.586664
0.471214 1 0.545144
0.440406 0.997101 0.499367
0.459312 0.993957 0.441871
0.718654 0.993698 0.454231
0.991806 0.989044 0.481361
1 0.956909 0.468711
1 0.955535 0.47425
0.891569 1 0.634943
0.886564 1 0.626871
0.863996 1 0.604212
0.776059 1 0.538186
0.619501 1 0.451514
0.794034 1 0.47776
0.982803 1 0.510719
1 1 0.532265
1 1 0.572671
1 1 1
1 1 1
1 1 1
1 1 0.999329
1 1 0.873671
1 1 0.62768
1 1 0.633783
1 1 0.650156
1 1 0.731426
0.105898 0.123354 1
0.104479 0.116518 0.996262
0.120729 0.106569 0.987366
0.400534 0.136233 0.982177
0.824231 0.229541 0.98323
1 0.318166 1
1 0.366049 1
1 0.545098 1
1 1 1
0.100557 0.12195 1
0.0945144 0.112566 0.984344
0.103105 0.100999 0.954238
0.322576 0.111223 0.932479
0.739971 0.201328 0.927596
1 0.299977 0.971847
1 0.348363 1
1 0.517464 1
1 0.996368 1
0.091783 0.122942 1
0.0858625 0.113176 0.975769
0.0846876 0.0985885 0.919997
0.264576 0.0919661 0.883696
0.653208 0.172519 0.866316
0.98407 0.263035 0.871
1 0.305867 0.936324
1 0.447379 1
1 0.9626 1
0.0298466 0.120958 0.932342
0.0327459 0.115389 0.913359
0.0587625 0.10309 0.900786
0.169024 0.0790723 0.830076
0.55993 0.145998 0.803891
0.913909 0.236667 0.805737
1 0.276844 0.803372
1 0.294194 0.823011
1 0.831662 1
0.149081 0.441108 0.888273
0.144045 0.434836 0.863142
0.133654 0.416739 0.830594
0.124224 0.375677 0.798459
0.442466 0.352041 0.802823
0.833768 0.310689 0.758556
1 0.271778 0.7187
1 0.263432 0.649546
1 0.29662 0.475898
0.365713 0.838224 0.900023
0.361257 0.82887 0.876997
0.343099 0.793301 0.828244
0.329915 0.765103 0.787167
0.342397 0.754452 0.755077
0.721309 0.741573 0.721767
1 0.684123 0.656703
1 0.600809 0.537392
0.990448 0.277699 0.252262
0.49395 1 0.95848
0.488304 1 0.935714
0.474937 1 0.886809
0.443214 0.993561 0.782849
0.437415 0.98584 0.726696
0.576196 0.994904 0.619745
0.9682 0.982284 0.566873
1 0.957916 0.548424
0.993408 0.914946 0.456489
0.728969 1 1
0.723079 1 1
0.703273 1 0.996521
0.635111 1 0.860594
0.523125 1 0.559228
0.658289 1 0.509972
0.93022 1 0.514076
1 1 0.512581
1 1 0.504646
1 1 1
1 1 1
1 1 1
0.998047 1 0.991821
0.884169 1 0.897292
0.796704 1 0.476493
0.971786 1 0.508843
1 1 0.520806
1 1 0.557549
0.127092 0.141405 1
0.127184 0.137484 1
0.145159 0.129625 1
0.226535 0.130404 1
0.786755 0.234012 1
1 0.332494 1
1 0.376608 1
1 0.550668 1
1 1 1
0.121019 0.138399 1
0.118532 0.13341 1
0.12842 0.125536 1
0.18233 0.11545 1
0.703288 0.208392 1
1 0.314046 1
1 0.360525 1
1 0.523812 1
1 0.997925 1
0.112322 0.136416 1
0.108583 0.131991 1
0.114046 0.123705 1
0.155993 0.106783 1
0.605051 0.179294 1
0.979126 0.274144 1
1 0.32282 1
1 0.457649 1
1 0.969177 1
0.0692454 0.140154 1
0.0857557 0.134478 1
0.0954452 0.12578 1
0.104814 0.117281 0.998245
0.531533 0.161944 0.990677
0.900328 0.24921 0.993759
1 0.294697 1
1 0.318563 1
1 0.858579 1
0.0306249 0.1841 1
0.0260319 0.176226 0.999802
0.0222782 0.157015 0.994339
0.0630655 0.12726 0.990829
0.428229 0.165423 0.966064
0.806455 0.227543 0.959045
1 0.280705 0.962509
1 0.285451 0.954772
1 0.343771 0.982589
0.322393 0.759854 1
0.316213 0.748287 1
0.292851 0.705501 1
0.282536 0.679118 0.986007
0.310506 0.656519 0.973938
0.730632 0.638086 0.999283
1 0.570962 0.984573
1 0.408408 0.923125
1 0.272206 0.83209
0.485893 1 1
0.48072 1 1
0.465034 0.996414 1
0.4336 0.968612 0.991363
0.425498 0.948775 0.963943
0.530922 0.968322 0.957519
0.935637 0.949599 0.932708
1 0.916213 0.887053
1 0.841093 0.786694
0.730617 1 1
0.723705 1 1
0.698039 1 1
0.61619 1 1
0.503899 1 0.939025
0.55079 1 0.887358
0.860197 1 0.841016
1 1 0.796231
1 1 0.756603
1 1 1
1 1 1
1 1 1
0.998154 1 1
0.847547 1 1
0.634119 1 0.69984
0.876158 1 0.6103
0.999527 1 0.569162
1 1 0.513237
0.150362 0.159869 1
0.137682 0.146075 1
0.165377 0.139925 1
0.227848 0.141482 1
0.6094 0.203479 1
1 0.343725 1
1 0.390158 1
1 0.568139 1
1 1 1
0.140703 0.152682 1
0.131441 0.14284 1
0.146532 0.133196 1
0.203601 0.130404 1
0.536858 0.183276 1
1 0.328603 1
1 0.372793 1
1 0.54136 1
1 1 1
0.126421 0.144289 1
0.115068 0.136416 1
0.122789 0.12932 1
0.164706 0.114961 1
0.421881 0.149584 1
0.969757 0.275334 1
1 0.334524 1
1 0.474861 1
1 0.977844 1
0.0939193 0.141604 1
0.0975814 0.136446 1
0.103166 0.130999 1
0.119722 0.123873 1
0.367514 0.140124 1
0.878874 0.24947 1
1 0.301595 1
1 0.331594 1
1 0.887877 1
0.0320134 0.175631 1
0.0292363 0.166384 1
0.038529 0.145861 1
0.0618296 0.137224 1
0.323217 0.140475 1
0.812009 0.234424 1
1 0.288487 1
1 0.29424 1
1 0.365789 1
0.110842 0.379522 1
0.124865 0.400732 1
0.110842 0.373358 1
0.106111 0.338827 1
0.307256 0.239826 1
0.728099 0.390341 1
0.999039 0.373205 1
1 0.302434 1
1 0.28687 0.999786
0.474845 1 1
0.468162 0.999161 1
0.44889 0.981826 1
0.407538 0.922469 1
0.400092 0.900801 1
0.549691 0.904967 1
0.944457 0.888197 1
1 0.848997 1
1 0.723217 1
0.730831 1 1
0.722408 1 1
0.695644 1 1
0.606714 1 1
0.489113 1 1
0.531945 1 1
0.831846 1 1
0.998886 1 0.999313
1 0.999023 0.997086
0.99855 1 1
0.999512 1 1
1 1 1
0.999084 1 1
0.840711 1 1
0.59852 1 1
0.828031 1 0.994049
0.976532 1 0.97319
1 1 0.948791
0.260273 0.262501 1
0.233478 0.233249 1
0.2542 0.202136 1
0.329793 0.189548 1
0.762982 0.256367 1
1 0.381338 1
1 0.433341 1
1 0.623652 1
1 1 1
0.261753 0.265385 1
0.222751 0.224308 1
0.229236 0.186694 1
0.295674 0.169818 1
0.591959 0.211994 1
1 0.363851 1
1 0.414405 1
1 0.596262 1
1 1 1
0.275349 0.281712 1
0.17882 0.187472 1
0.152209 0.144732 1
0.210544 0.133852 1
0.256748 0.132937 1
0.990433 0.305226 1
1 0.365087 1
1 0.526085 1
1 0.996384 1
0.177798 0.202625 1
0.122637 0.148989 1
0.107576 0.134249 1
0.139666 0.120577 1
0.197131 0.112078 1
0.751842 0.217777 1
1 0.304433 1
1 0.364981 1
1 0.919722 1
0.0556039 0.200488 1
0.0468757 0.179217 1
0.0519875 0.145113 1
0.0661173 0.138033 1
0.124483 0.1178 1
0.6795 0.203586 1
1 0.288792 1
1 0.295171 1
1 0.399145 1
0.0221256 0.217609 1
0.0156405 0.208331 1
0.0115358 0.191135 1
0.030808 0.164309 1
0.0851606 0.150484 1
0.660716 0.215335 1
0.994156 0.28629 1
1 0.287739 1
1 0.287648 1
0.486931 1 1
0.469596 0.997177 1
0.419333 0.93138 1
0.242481 0.631617 1
0.237995 0.591165 0.997971
0.651972 0.483009 1
0.974273 0.695781 1
1 0.660426 1
0.999542 0.44477 1
0.753292 1 1
0.74226 1 1
0.708431 1 1
0.592081 1 1
0.461555 1 1
0.502312 1 1
0.83447 1 1
1 0.997147 1
1 0.984115 1
0.998367 1 1
0.997696 1 1
0.996445 1 1
0.995041 1 1
0.826551 1 1
0.579507 1 1
0.806928 1 1
0.96495 1 1
0.999969 1 1
