luts/Sony Cinematic light AZ.cube
#Generated with IWLTBAP LUT Generator
#Website: http://luts.iwltbap.com
TITLE "Sony-125"
#LUT size
LUT_3D_SIZE 25
#LUT data points
0.011765 0.011765 0.011765
0.011765 0.011765 0.011765
0.011765 0.011765 0.011765
0.011765 0.011765 0.011765
0.050980 0.011765 0.015686
0.172549 0.015686 0.007843
0.317647 0.023529 0.003922
0.419608 0.011765 0.007843
0.478431 0.027451 0.015686
0.509804 0.031373 0.011765
0.541176 0.035294 0.015686
0.560784 0.031373 0.019608
0.588235 0.031373 0.015686
0.600000 0.031373 0.011765
0.619608 0.035294 0.011765
0.647059 0.031373 0.011765
0.654902 0.039216 0.011765
0.678431 0.039216 0.011765
0.694118 0.031373 0.003922
0.705882 0.031373 0.015686
0.717647 0.031373 0.011765
0.729412 0.035294 0.011765
0.745098 0.035294 0.007843
0.764706 0.031373 0.011765
0.772549 0.031373 0.007843
0.011765 0.011765 0.003922
0.015686 0.007843 0.011765
0.011765 0.011765 0.011765
0.007843 0.015686 0.011765
0.043137 0.007843 0.011765
0.149020 0.015686 0.019608
0.262745 0.023529 0.011765
0.372549 0.023529 0.007843
0.443137 0.031373 0.015686
0.498039 0.031373 0.015686
0.525490 0.035294 0.019608
0.552941 0.035294 0.015686
0.572549 0.031373 0.019608
0.592157 0.039216 0.003922
0.615686 0.039216 0.011765
0.635294 0.039216 0.027451
0.658824 0.035294 0.019608
0.674510 0.035294 0.007843
0.682353 0.039216 0.003922
0.698039 0.035294 0.007843
0.713725 0.043137 0.015686
0.725490 0.043137 0.015686
0.749020 0.035294 0.019608
0.760784 0.039216 0.007843
0.780392 0.039216 0.023529
0.007843 0.015686 0.011765
0.015686 0.015686 0.015686
0.011765 0.011765 0.011765
0.015686 0.007843 0.011765
0.031373 0.015686 0.011765
0.109804 0.015686 0.015686
0.215686 0.023529 0.007843
0.325490 0.019608 0.011765
0.411765 0.031373 0.007843
0.462745 0.035294 0.007843
0.505882 0.039216 0.015686
0.529412 0.039216 0.015686
0.556863 0.039216 0.019608
0.580392 0.035294 0.007843
0.600000 0.047059 0.019608
0.635294 0.035294 0.003922
0.654902 0.039216 0.019608
0.662745 0.043137 0.007843
0.686275 0.039216 0.015686
0.698039 0.035294 0.007843
0.717647 0.039216 0.015686
0.729412 0.035294 0.011765
0.752941 0.035294 0.011765
0.772549 0.035294 0.027451
0.788235 0.035294 0.015686
0.015686 0.007843 0.011765
0.011765 0.019608 0.000000
0.015686 0.007843 0.011765
0.003922 0.011765 0.007843
0.023529 0.015686 0.019608
0.058824 0.031373 0.007843
0.145098 0.031373 0.015686
0.278431 0.031373 0.011765
0.360784 0.035294 0.003922
0.439216 0.031373 0.019608
0.478431 0.039216 0.023529
0.509804 0.047059 0.007843
0.552941 0.039216 0.000000
0.568627 0.047059 0.011765
0.596078 0.035294 0.011765
0.615686 0.039216 0.007843
0.643137 0.039216 0.007843
0.662745 0.039216 0.015686
0.666667 0.047059 0.011765
0.698039 0.043137 0.011765
0.713725 0.043137 0.011765
0.717647 0.043137 0.003922
0.749020 0.035294 0.019608
0.776471 0.043137 0.015686
0.776471 0.039216 0.003922
0.023529 0.023529 0.015686
0.003922 0.023529 0.007843
0.011765 0.031373 0.007843
0.019608 0.027451 0.023529
0.019608 0.027451 0.015686
0.058824 0.047059 0.011765
0.105882 0.058824 0.003922
0.184314 0.058824 0.000000
0.298039 0.047059 0.007843
0.372549 0.039216 0.011765
0.454902 0.047059 0.011765
0.490196 0.047059 0.015686
0.529412 0.047059 0.015686
0.564706 0.043137 0.015686
0.592157 0.039216 0.011765
0.611765 0.047059 0.015686
0.635294 0.043137 0.007843
0.658824 0.043137 0.015686
0.666667 0.047059 0.011765
0.698039 0.043137 0.007843
0.705882 0.047059 0.011765
0.725490 0.043137 0.007843
0.745098 0.047059 0.007843
0.764706 0.043137 0.011765
0.792157 0.039216 0.019608
0.015686 0.054902 0.011765
0.011765 0.066667 0.015686
0.011765 0.066667 0.007843
0.007843 0.062745 0.011765
0.003922 0.070588 0.007843
0.050980 0.086275 0.019608
0.113725 0.105882 0.023529
0.188235 0.121569 0.019608
0.282353 0.125490 0.023529
0.352941 0.121569 0.003922
0.415686 0.101961 0.011765
0.490196 0.054902 0.011765
0.517647 0.054902 0.007843
0.560784 0.050980 0.000000
0.576471 0.050980 0.007843
0.607843 0.047059 0.015686
0.623529 0.047059 0.015686
0.647059 0.043137 0.003922
0.666667 0.047059 0.003922
0.686275 0.047059 0.011765
0.705882 0.047059 0.011765
0.725490 0.050980 0.011765
0.745098 0.050980 0.011765
0.768627 0.047059 0.015686
0.788235 0.050980 0.015686
0.015686 0.101961 0.019608
0.015686 0.098039 0.023529
0.000000 0.113725 0.003922
0.011765 0.109804 0.000000
0.015686 0.109804 0.015686
0.023529 0.125490 0.019608
0.094118 0.156863 0.011765
0.176471 0.168627 0.019608
0.266667 0.184314 0.015686
0.341176 0.192157 0.007843
0.435294 0.184314 0.003922
0.494118 0.164706 0.019608
0.533333 0.141176 0.007843
0.560784 0.105882 0.007843
0.584314 0.066667 0.015686
0.600000 0.058824 0.007843
0.627451 0.054902 0.003922
0.650980 0.054902 0.011765
0.666667 0.050980 0.015686
0.690196 0.050980 0.015686
0.709804 0.050980 0.007843
0.725490 0.050980 0.003922
0.749020 0.050980 0.011765
0.772549 0.050980 0.011765
0.800000 0.050980 0.011765
0.007843 0.149020 0.007843
0.015686 0.149020 0.019608
0.015686 0.149020 0.019608
0.011765 0.152941 0.011765
0.007843 0.156863 0.011765
0.015686 0.164706 0.011765
0.062745 0.192157 0.015686
0.164706 0.219608 0.019608
0.250980 0.231373 0.015686
0.345098 0.243137 0.003922
0.447059 0.254902 0.023529
0.501961 0.250980 0.007843
0.552941 0.239216 0.000000
0.600000 0.227451 0.015686
0.631373 0.196078 0.015686
0.639216 0.172549 0.007843
0.623529 0.074510 0.007843
0.658824 0.062745 0.019608
0.674510 0.054902 0.007843
0.694118 0.058824 0.015686
0.709804 0.058824 0.011765
0.741176 0.062745 0.007843
0.749020 0.058824 0.000000
0.772549 0.058824 0.007843
0.792157 0.062745 0.011765
0.019608 0.180392 0.015686
0.007843 0.184314 0.023529
0.011765 0.200000 0.011765
0.015686 0.200000 0.019608
0.011765 0.200000 0.003922
0.011765 0.203922 0.019608
0.027451 0.215686 0.011765
0.133333 0.258824 0.011765
0.231373 0.290196 0.019608
0.337255 0.301961 0.007843
0.443137 0.321569 0.000000
0.517647 0.309804 0.011765
0.560784 0.309804 0.019608
0.615686 0.301961 0.023529
0.635294 0.290196 0.007843
0.666667 0.278431 0.015686
0.694118 0.254902 0.007843
0.725490 0.227451 0.011765
0.717647 0.152941 0.015686
0.698039 0.070588 0.007843
0.713725 0.074510 0.015686
0.741176 0.066667 0.011765
0.768627 0.062745 0.007843
0.780392 0.066667 0.011765
0.803922 0.066667 0.023529
0.007843 0.235294 0.007843
0.019608 0.235294 0.019608
0.007843 0.239216 0.019608
0.011765 0.235294 0.019608
0.015686 0.243137 0.015686
0.007843 0.239216 0.011765
0.019608 0.258824 0.035294
0.094118 0.290196 0.019608
0.211765 0.321569 0.019608
0.341176 0.356863 0.015686
0.458824 0.364706 0.011765
0.498039 0.376471 0.011765
0.572549 0.376471 0.027451
0.611765 0.372549 0.015686
0.662745 0.364706 0.019608
0.678431 0.349020 0.011765
0.725490 0.333333 0.027451
0.741176 0.321569 0.007843
0.768627 0.294118 0.015686
0.780392 0.235294 0.011765
0.772549 0.180392 0.011765
0.772549 0.129412 0.019608
0.772549 0.098039 0.019608
0.800000 0.082353 0.019608
0.815686 0.082353 0.023529
0.007843 0.278431 0.023529
0.015686 0.278431 0.015686
0.019608 0.282353 0.019608
0.019608 0.282353 0.019608
0.007843 0.286275 0.011765
0.011765 0.282353 0.019608
0.015686 0.301961 0.023529
0.039216 0.325490 0.015686
0.180392 0.360784 0.015686
0.325490 0.392157 0.015686
0.450980 0.423529 0.015686
0.513725 0.431373 0.019608
0.572549 0.435294 0.027451
0.627451 0.435294 0.031373
0.670588 0.427451 0.031373
0.694118 0.423529 0.027451
0.749020 0.411765 0.023529
0.764706 0.396078 0.019608
0.792157 0.380392 0.019608
0.827451 0.364706 0.019608
0.850980 0.345098 0.015686
0.870588 0.313725 0.015686
0.870588 0.266667 0.015686
0.862745 0.211765 0.015686
0.827451 0.121569 0.023529
0.019608 0.317647 0.027451
0.015686 0.313725 0.019608
0.019608 0.329412 0.019608
0.007843 0.329412 0.007843
0.011765 0.329412 0.027451
0.011765 0.329412 0.019608
0.015686 0.337255 0.015686
0.015686 0.341176 0.019608
0.141176 0.392157 0.023529
0.301961 0.431373 0.019608
0.423529 0.454902 0.019608
0.513725 0.474510 0.023529
0.576471 0.478431 0.015686
0.631373 0.474510 0.027451
0.686275 0.478431 0.031373
0.721569 0.474510 0.031373
0.764706 0.466667 0.035294
0.792157 0.454902 0.027451
0.823529 0.450980 0.027451
0.858824 0.439216 0.023529
0.882353 0.423529 0.019608
0.898039 0.400000 0.019608
0.909804 0.380392 0.019608
0.909804 0.356863 0.011765
0.905882 0.309804 0.011765
0.011765 0.356863 0.019608
0.000000 0.364706 0.015686
0.003922 0.376471 0.007843
0.015686 0.368627 0.015686
0.011765 0.376471 0.027451
0.003922 0.376471 0.015686
0.007843 0.380392 0.011765
0.019608 0.376471 0.003922
0.015686 0.396078 0.015686
0.247059 0.458824 0.011765
0.392157 0.482353 0.023529
0.501961 0.505882 0.035294
0.568627 0.513725 0.023529
0.631373 0.521569 0.027451
0.682353 0.521569 0.035294
0.725490 0.513725 0.027451
0.776471 0.509804 0.027451
0.803922 0.509804 0.019608
0.835294 0.498039 0.031373
0.882353 0.486275 0.023529
0.901961 0.482353 0.035294
0.913725 0.466667 0.019608
0.929412 0.450980 0.023529
0.941176 0.439216 0.019608
0.937255 0.423529 0.015686
0.007843 0.407843 0.019608
0.007843 0.407843 0.019608
0.023529 0.403922 0.023529
0.011765 0.411765 0.011765
0.011765 0.407843 0.031373
0.015686 0.411765 0.011765
0.011765 0.419608 0.031373
0.007843 0.427451 0.011765
0.007843 0.419608 0.015686
0.117647 0.454902 0.027451
0.372549 0.505882 0.031373
0.474510 0.525490 0.011765
0.556863 0.537255 0.035294
0.639216 0.552941 0.015686
0.678431 0.552941 0.023529
0.741176 0.545098 0.023529
0.780392 0.552941 0.031373
0.811765 0.549020 0.035294
0.854902 0.529412 0.019608
0.890196 0.525490 0.019608
0.909804 0.525490 0.027451
0.917647 0.517647 0.031373
0.941176 0.509804 0.027451
0.945098 0.498039 0.019608
0.960784 0.490196 0.011765
0.003922 0.443137 0.019608
0.015686 0.443137 0.015686
0.007843 0.447059 0.015686
0.015686 0.443137 0.015686
0.015686 0.443137 0.023529
0.007843 0.454902 0.019608
0.015686 0.454902 0.015686
0.015686 0.454902 0.023529
0.023529 0.462745 0.023529
0.050980 0.470588 0.023529
0.290196 0.521569 0.027451
0.454902 0.545098 0.019608
0.549020 0.556863 0.023529
0.615686 0.580392 0.027451
0.690196 0.580392 0.019608
0.733333 0.588235 0.035294
0.784314 0.584314 0.023529
0.831373 0.572549 0.023529
0.866667 0.572549 0.019608
0.890196 0.564706 0.023529
0.913725 0.560784 0.019608
0.933333 0.556863 0.023529
0.941176 0.545098 0.019608
0.949020 0.541176 0.011765
0.956863 0.533333 0.007843
0.007843 0.474510 0.019608
0.003922 0.478431 0.023529
0.003922 0.478431 0.027451
0.015686 0.474510 0.023529
0.015686 0.482353 0.019608
0.019608 0.478431 0.019608
0.003922 0.486275 0.027451
0.011765 0.490196 0.023529
0.007843 0.494118 0.023529
0.027451 0.486275 0.035294
0.188235 0.517647 0.031373
0.419608 0.560784 0.035294
0.525490 0.584314 0.031373
0.596078 0.592157 0.027451
0.674510 0.611765 0.031373
0.733333 0.607843 0.031373
0.788235 0.607843 0.031373
0.827451 0.607843 0.031373
0.862745 0.603922 0.031373
0.898039 0.600000 0.031373
0.917647 0.596078 0.023529
0.929412 0.592157 0.015686
0.941176 0.588235 0.015686
0.952941 0.572549 0.019608
0.964706 0.576471 0.015686
0.007843 0.501961 0.011765
0.011765 0.498039 0.027451
0.011765 0.505882 0.015686
0.015686 0.509804 0.019608
0.003922 0.509804 0.011765
0.003922 0.513725 0.019608
0.015686 0.509804 0.027451
0.019608 0.513725 0.023529
0.000000 0.521569 0.023529
0.027451 0.517647 0.023529
0.047059 0.521569 0.023529
0.321569 0.564706 0.027451
0.494118 0.603922 0.027451
0.584314 0.615686 0.035294
0.650980 0.631373 0.035294
0.713725 0.643137 0.023529
0.772549 0.643137 0.035294
0.819608 0.639216 0.031373
0.866667 0.635294 0.031373
0.901961 0.631373 0.023529
0.917647 0.623529 0.019608
0.929412 0.627451 0.023529
0.933333 0.623529 0.023529
0.952941 0.607843 0.019608
0.976471 0.600000 0.015686
0.000000 0.521569 0.023529
0.015686 0.529412 0.027451
0.007843 0.533333 0.019608
0.007843 0.537255 0.031373
0.011765 0.533333 0.031373
0.011765 0.533333 0.031373
0.011765 0.541176 0.035294
0.011765 0.545098 0.019608
0.019608 0.529412 0.035294
0.050980 0.541176 0.031373
0.054902 0.549020 0.027451
0.223529 0.568627 0.027451
0.454902 0.607843 0.039216
0.560784 0.635294 0.039216
0.627451 0.654902 0.043137
0.705882 0.658824 0.015686
0.764706 0.670588 0.035294
0.815686 0.678431 0.035294
0.862745 0.670588 0.031373
0.894118 0.662745 0.011765
0.913725 0.658824 0.015686
0.929412 0.654902 0.027451
0.945098 0.658824 0.015686
0.956863 0.643137 0.011765
0.984314 0.647059 0.015686
0.011765 0.549020 0.031373
0.011765 0.564706 0.015686
0.000000 0.556863 0.031373
0.011765 0.560784 0.039216
0.015686 0.564706 0.035294
0.011765 0.564706 0.023529
0.007843 0.564706 0.023529
0.023529 0.564706 0.035294
0.019608 0.568627 0.039216
0.050980 0.568627 0.027451
0.070588 0.572549 0.035294
0.149020 0.584314 0.039216
0.400000 0.619608 0.035294
0.529412 0.654902 0.031373
0.623529 0.666667 0.054902
0.678431 0.682353 0.031373
0.737255 0.690196 0.007843
0.815686 0.694118 0.035294
0.854902 0.694118 0.035294
0.898039 0.701961 0.023529
0.917647 0.694118 0.007843
0.937255 0.686275 0.019608
0.949020 0.682353 0.011765
0.960784 0.686275 0.007843
0.976471 0.678431 0.007843
0.007843 0.576471 0.031373
0.015686 0.572549 0.031373
0.007843 0.584314 0.027451
0.011765 0.588235 0.039216
0.007843 0.584314 0.027451
0.011765 0.588235 0.031373
0.011765 0.588235 0.039216
0.015686 0.588235 0.027451
0.035294 0.588235 0.035294
0.062745 0.592157 0.047059
0.117647 0.600000 0.043137
0.141176 0.600000 0.039216
0.227451 0.611765 0.035294
0.490196 0.670588 0.050980
0.572549 0.686275 0.027451
0.658824 0.694118 0.023529
0.721569 0.717647 0.027451
0.792157 0.717647 0.019608
0.847059 0.725490 0.035294
0.890196 0.733333 0.015686
0.917647 0.725490 0.015686
0.929412 0.725490 0.011765
0.949020 0.717647 0.011765
0.960784 0.717647 0.007843
0.976471 0.705882 0.003922
0.011765 0.596078 0.035294
0.007843 0.600000 0.047059
0.011765 0.607843 0.043137
0.015686 0.600000 0.039216
0.003922 0.603922 0.039216
0.015686 0.611765 0.043137
0.019608 0.615686 0.039216
0.039216 0.600000 0.047059
0.066667 0.615686 0.035294
0.090196 0.611765 0.043137
0.141176 0.627451 0.047059
0.176471 0.631373 0.047059
0.200000 0.631373 0.039216
0.360784 0.658824 0.039216
0.549020 0.701961 0.039216
0.647059 0.709804 0.039216
0.717647 0.737255 0.031373
0.764706 0.741176 0.019608
0.823529 0.749020 0.011765
0.874510 0.752941 0.011765
0.917647 0.756863 0.019608
0.929412 0.752941 0.011765
0.941176 0.756863 0.007843
0.960784 0.749020 0.011765
0.976471 0.749020 0.015686
0.023529 0.611765 0.027451
0.015686 0.631373 0.047059
0.015686 0.619608 0.047059
0.011765 0.623529 0.050980
0.015686 0.627451 0.054902
0.023529 0.627451 0.047059
0.031373 0.627451 0.050980
0.047059 0.639216 0.039216
0.074510 0.639216 0.050980
0.101961 0.639216 0.050980
0.164706 0.654902 0.058824
0.188235 0.654902 0.050980
0.219608 0.654902 0.050980
0.254902 0.662745 0.047059
0.478431 0.709804 0.043137
0.627451 0.737255 0.031373
0.694118 0.749020 0.031373
0.760784 0.764706 0.023529
0.819608 0.768627 0.015686
0.870588 0.776471 0.007843
0.905882 0.780392 0.007843
0.929412 0.788235 0.011765
0.945098 0.788235 0.019608
0.956863 0.788235 0.003922
0.968627 0.780392 0.011765
0.023529 0.643137 0.035294
0.019608 0.639216 0.054902
0.015686 0.643137 0.047059
0.015686 0.643137 0.054902
0.007843 0.647059 0.047059
0.027451 0.650980 0.047059
0.031373 0.662745 0.050980
0.054902 0.658824 0.047059
0.098039 0.666667 0.058824
0.133333 0.674510 0.054902
0.180392 0.674510 0.050980
0.215686 0.674510 0.054902
0.250980 0.690196 0.054902
0.274510 0.686275 0.047059
0.423529 0.721569 0.050980
0.576471 0.756863 0.027451
0.678431 0.776471 0.031373
0.737255 0.784314 0.007843
0.807843 0.792157 0.023529
0.866667 0.803922 0.015686
0.909804 0.811765 0.003922
0.921569 0.823529 0.011765
0.949020 0.823529 0.019608
0.964706 0.815686 0.011765
0.968627 0.807843 0.015686
0.019608 0.666667 0.054902
0.003922 0.670588 0.047059
0.011765 0.670588 0.050980
0.015686 0.678431 0.047059
0.011765 0.670588 0.054902
0.027451 0.678431 0.050980
0.047059 0.682353 0.050980
0.086275 0.682353 0.050980
0.121569 0.690196 0.050980
0.172549 0.690196 0.050980
0.192157 0.705882 0.054902
0.235294 0.709804 0.062745
0.270588 0.713725 0.047059
0.313725 0.717647 0.062745
0.360784 0.721569 0.043137
0.556863 0.768627 0.054902
0.662745 0.803922 0.027451
0.709804 0.815686 0.019608
0.800000 0.827451 0.027451
0.839216 0.835294 0.003922
0.901961 0.847059 0.023529
0.917647 0.850980 0.011765
0.945098 0.850980 0.011765
0.956863 0.854902 0.003922
0.972549 0.858824 0.019608
0.019608 0.690196 0.047059
0.019608 0.694118 0.058824
0.011765 0.698039 0.050980
0.019608 0.694118 0.050980
0.023529 0.698039 0.054902
0.031373 0.701961 0.047059
0.070588 0.701961 0.058824
0.101961 0.713725 0.050980
0.149020 0.721569 0.058824
0.180392 0.729412 0.058824
0.215686 0.725490 0.054902
0.274510 0.737255 0.070588
0.298039 0.749020 0.047059
0.341176 0.745098 0.050980
0.380392 0.760784 0.066667
0.419608 0.752941 0.043137
0.619608 0.819608 0.039216
0.701961 0.843137 0.011765
0.776471 0.850980 0.003922
0.839216 0.866667 0.011765
0.894118 0.878431 0.007843
0.917647 0.878431 0.007843
0.945098 0.890196 0.015686
0.964706 0.894118 0.015686
0.984314 0.890196 0.019608
0.011765 0.011765 0.003922
0.011765 0.011765 0.003922
0.011765 0.011765 0.003922
0.015686 0.007843 0.011765
0.058824 0.011765 0.019608
0.188235 0.015686 0.019608
0.317647 0.023529 0.003922
0.427451 0.019608 0.015686
0.482353 0.031373 0.019608
0.517647 0.035294 0.015686
0.533333 0.027451 0.003922
0.552941 0.031373 0.003922
0.588235 0.031373 0.015686
0.600000 0.031373 0.011765
0.619608 0.035294 0.011765
0.639216 0.031373 0.011765
0.650980 0.035294 0.000000
0.682353 0.035294 0.011765
0.698039 0.035294 0.007843
0.705882 0.031373 0.015686
0.721569 0.035294 0.015686
0.729412 0.035294 0.011765
0.745098 0.035294 0.007843
0.764706 0.027451 0.019608
0.784314 0.023529 0.023529
0.015686 0.015686 0.007843
0.003922 0.011765 0.000000
0.011765 0.007843 0.027451
0.019608 0.015686 0.007843
0.050980 0.011765 0.015686
0.164706 0.015686 0.003922
0.309804 0.019608 0.007843
0.423529 0.015686 0.011765
0.486275 0.023529 0.015686
0.529412 0.027451 0.015686
0.549020 0.027451 0.007843
0.564706 0.035294 0.011765
0.603922 0.023529 0.007843
0.611765 0.027451 0.003922
0.631373 0.039216 0.011765
0.650980 0.035294 0.015686
0.674510 0.035294 0.007843
0.690196 0.035294 0.003922
0.694118 0.039216 0.007843
0.709804 0.039216 0.011765
0.721569 0.035294 0.015686
0.745098 0.035294 0.007843
0.756863 0.035294 0.003922
0.780392 0.027451 0.015686
0.784314 0.031373 0.011765
0.011765 0.011765 0.011765
0.023529 0.003922 0.019608
0.011765 0.011765 0.003922
0.007843 0.015686 0.011765
0.035294 0.019608 0.023529
0.137255 0.015686 0.003922
0.250980 0.015686 0.011765
0.372549 0.019608 0.019608
0.450980 0.027451 0.015686
0.498039 0.031373 0.015686
0.533333 0.031373 0.019608
0.556863 0.035294 0.015686
0.572549 0.035294 0.003922
0.607843 0.043137 0.011765
0.627451 0.035294 0.007843
0.643137 0.043137 0.019608
0.666667 0.031373 0.019608
0.682353 0.035294 0.011765
0.694118 0.039216 0.015686
0.709804 0.039216 0.007843
0.717647 0.035294 0.007843
0.737255 0.035294 0.015686
0.752941 0.035294 0.011765
0.760784 0.035294 0.015686
0.788235 0.039216 0.007843
0.015686 0.007843 0.019608
0.011765 0.011765 0.011765
0.011765 0.011765 0.019608
0.000000 0.007843 0.000000
0.031373 0.011765 0.027451
0.062745 0.019608 0.011765
0.192157 0.031373 0.023529
0.321569 0.023529 0.023529
0.400000 0.027451 0.011765
0.474510 0.035294 0.019608
0.513725 0.035294 0.015686
0.537255 0.039216 0.011765
0.564706 0.043137 0.007843
0.592157 0.039216 0.011765
0.615686 0.039216 0.011765
0.635294 0.043137 0.015686
0.650980 0.035294 0.007843
0.678431 0.039216 0.019608
0.694118 0.039216 0.007843
0.713725 0.043137 0.003922
0.729412 0.035294 0.003922
0.749020 0.035294 0.019608
0.756863 0.047059 0.011765
0.776471 0.043137 0.007843
0.792157 0.031373 0.023529
0.015686 0.023529 0.003922
0.019608 0.019608 0.019608
0.015686 0.023529 0.011765
0.011765 0.031373 0.003922
0.023529 0.031373 0.011765
0.058824 0.047059 0.011765
0.125490 0.047059 0.011765
0.200000 0.050980 0.015686
0.337255 0.047059 0.011765
0.411765 0.039216 0.015686
0.482353 0.047059 0.003922
0.517647 0.043137 0.011765
0.541176 0.047059 0.000000
0.580392 0.043137 0.011765
0.596078 0.043137 0.015686
0.635294 0.043137 0.007843
0.654902 0.039216 0.003922
0.678431 0.039216 0.003922
0.698039 0.043137 0.019608
0.698039 0.043137 0.007843
0.721569 0.035294 0.015686
0.745098 0.031373 0.015686
0.764706 0.043137 0.011765
0.776471 0.039216 0.003922
0.796078 0.039216 0.011765
0.015686 0.054902 0.019608
0.007843 0.062745 0.011765
0.007843 0.062745 0.003922
0.015686 0.062745 0.007843
0.015686 0.070588 0.003922
0.054902 0.082353 0.011765
0.121569 0.105882 0.007843
0.196078 0.117647 0.019608
0.278431 0.121569 0.019608
0.372549 0.113725 0.011765
0.439216 0.082353 0.011765
0.498039 0.050980 0.011765
0.529412 0.050980 0.007843
0.580392 0.043137 0.003922
0.600000 0.047059 0.011765
0.619608 0.043137 0.011765
0.647059 0.039216 0.019608
0.670588 0.039216 0.007843
0.682353 0.043137 0.007843
0.690196 0.047059 0.011765
0.717647 0.047059 0.019608
0.729412 0.047059 0.011765
0.760784 0.043137 0.011765
0.788235 0.039216 0.007843
0.800000 0.043137 0.015686
0.003922 0.098039 0.011765
0.011765 0.113725 0.007843
0.015686 0.109804 0.007843
0.015686 0.113725 0.000000
0.015686 0.117647 0.019608
0.035294 0.133333 0.019608
0.094118 0.160784 0.019608
0.188235 0.184314 0.011765
0.278431 0.184314 0.011765
0.364706 0.192157 0.000000
0.447059 0.184314 0.019608
0.505882 0.160784 0.011765
0.537255 0.125490 0.007843
0.568627 0.098039 0.003922
0.580392 0.062745 0.015686
0.607843 0.054902 0.019608
0.639216 0.047059 0.011765
0.658824 0.043137 0.007843
0.678431 0.047059 0.007843
0.698039 0.043137 0.007843
0.717647 0.047059 0.007843
0.741176 0.047059 0.007843
0.756863 0.047059 0.011765
0.780392 0.047059 0.011765
0.800000 0.043137 0.007843
0.007843 0.145098 0.015686
0.007843 0.152941 0.023529
0.015686 0.156863 0.015686
0.011765 0.160784 0.007843
0.015686 0.152941 0.023529
0.007843 0.172549 0.023529
0.086275 0.200000 0.011765
0.172549 0.231373 0.015686
0.274510 0.239216 0.015686
0.364706 0.254902 0.007843
0.454902 0.258824 0.019608
0.517647 0.247059 0.015686
0.572549 0.235294 0.011765
0.607843 0.219608 0.003922
0.627451 0.184314 0.011765
0.650980 0.156863 0.007843
0.639216 0.058824 0.019608
0.670588 0.054902 0.019608
0.674510 0.058824 0.000000
0.694118 0.058824 0.015686
0.713725 0.054902 0.011765
0.745098 0.050980 0.019608
0.764706 0.050980 0.007843
0.784314 0.047059 0.011765
0.803922 0.047059 0.011765
0.019608 0.188235 0.011765
0.007843 0.192157 0.019608
0.003922 0.207843 0.015686
0.019608 0.203922 0.023529
0.007843 0.215686 0.003922
0.007843 0.215686 0.011765
0.023529 0.231373 0.019608
0.149020 0.266667 0.015686
0.258824 0.305882 0.007843
0.372549 0.309804 0.007843
0.470588 0.325490 0.011765
0.521569 0.321569 0.003922
0.580392 0.305882 0.023529
0.623529 0.301961 0.015686
0.650980 0.282353 0.007843
0.678431 0.270588 0.023529
0.709804 0.243137 0.015686
0.737255 0.211765 0.011765
0.721569 0.137255 0.011765
0.709804 0.058824 0.011765
0.733333 0.050980 0.015686
0.749020 0.058824 0.000000
0.768627 0.054902 0.003922
0.796078 0.058824 0.015686
0.807843 0.062745 0.015686
0.007843 0.239216 0.019608
0.007843 0.247059 0.015686
0.011765 0.250980 0.019608
0.011765 0.250980 0.019608
0.011765 0.250980 0.019608
0.003922 0.254902 0.015686
0.019608 0.270588 0.031373
0.101961 0.305882 0.011765
0.227451 0.341176 0.019608
0.360784 0.380392 0.019608
0.466667 0.388235 0.015686
0.521569 0.384314 0.015686
0.588235 0.380392 0.019608
0.623529 0.372549 0.019608
0.674510 0.360784 0.019608
0.698039 0.349020 0.019608
0.725490 0.337255 0.011765
0.764706 0.309804 0.007843
0.772549 0.282353 0.019608
0.788235 0.215686 0.023529
0.784314 0.164706 0.011765
0.776471 0.117647 0.011765
0.784314 0.078431 0.011765
0.800000 0.070588 0.011765
0.819608 0.066667 0.015686
0.011765 0.286275 0.011765
0.011765 0.290196 0.015686
0.011765 0.290196 0.023529
0.015686 0.294118 0.027451
0.015686 0.301961 0.031373
0.015686 0.294118 0.027451
0.007843 0.313725 0.019608
0.035294 0.337255 0.015686
0.203922 0.372549 0.011765
