luts/Sony S-Log3 to Rec.709.cube
TITLE "Generated by Resolve"
LUT_3D_SIZE 9
0.0117494 0.015671 0.0175631
0.0419776 0.0111849 0.0161135
0.156725 0 0
0.333333 0 0
0.615763 0 0
0.959884 0 0
1 0 0
1 0 0
1 0 0
0 0.0337835 0.00860609
0.0267185 0.0332189 0.0121614
0.157244 0.012726 0.00518807
0.368429 0 0
0.708415 0 0
1 0 0
1 0 0
1 0 0
1 0 0
0 0.118044 0
0 0.130251 0
0.0975814 0.121416 0
0.349203 0.0651865 0
0.719219 0 0
1 0 0
1 0 0
1 0 0
1 0 0
0 0.26978 0
0 0.295186 0
0 0.300542 0
0.245319 0.282261 0
0.675624 0.188922 0
1 0 0
1 0 0
1 0 0
1 0 0
0 0.515755 0
0 0.560693 0
0 0.580514 0
0 0.580514 0
0.510231 0.545022 0
0.955001 0.470893 0
1 0.392309 0
1 0.307424 0
1 0.210086 0
0 0.815869 0
0 0.857557 0
0 0.873808 0
0 0.876432 0
0 0.856138 0
0.779171 0.814008 0
1 0.768307 0
1 0.725567 0
1 0.677073 0
0 1 0
0 1 0
0 1 0
0 1 0
0 1 0
0.581369 0.994125 0
0.937255 0.959808 0
1 0.931884 0
1 0.905867 0
0 1 0
0 1 0
0 1 0
0 1 0
0 1 0
0.351919 1 0
0.819013 1 0
1 1 0
1 1 0
0 1 0
0 1 0
0 1 0
0 1 0
0 1 0
0 1 0
0.717479 1 0
0.950469 1 0
1 1 0
0.0108797 0.011841 0.0392309
0.0386816 0.00715648 0.0372625
0.153002 0 0.0227207
0.328084 0 0
0.617029 0 0
0.967941 0 0
1 0 0
1 0 0
1 0 0
0 0.0298466 0.0309453
0.0270848 0.0310063 0.0360571
0.160571 0.0108186 0.0316777
0.375647 0 0.0140536
0.718532 0 0
1 0 0
1 0 0
1 0 0
1 0 0
0 0.118639 0.00708019
0 0.132372 0.0186465
0.102647 0.123919 0.0205234
0.35964 0.0651865 0.00822461
0.733959 0 0
1 0 0
1 0 0
1 0 0
1 0 0
0 0.274556 0
0 0.302678 0
0 0.308843 0
0.256931 0.290837 0
0.693874 0.194903 0
1 0 0
1 0 0
1 0 0
1 0 0
0 0.525002 0
0 0.574411 0
0 0.595728 0
0 0.596109 0
0.52932 0.560037 0
0.965774 0.486427 0
1 0.408759 0
1 0.334768 0
1 0.246067 0
0 0.825864 0
0 0.866056 0
0 0.883787 0
0 0.886427 0
0.0776379 0.865278 0
0.79324 0.823117 0
1 0.776745 0
1 0.735927 0
1 0.69189 0
0 1 0
0 1 0
0 1 0
0 1 0
0 1 0
0.60296 0.998383 0
0.944472 0.964767 0
1 0.936553 0
1 0.914061 0
0 1 0
0 1 0
0 1 0
0 1 0
0 1 0
0.392554 1 0
0.83209 1 0
1 1 0
1 1 0
0 1 0
0 1 0
0 1 0
0 1 0
0 1 0
0.0392157 1 0
0.736156 1 0
0.956847 1 0
1 1 0
0.00277714 0 0.129061
0.0306249 0 0.126619
0.137682 0 0.110735
0.315602 0 0.0836042
0.60763 0 0.0423285
0.958495 0 0
1 0 0
1 0 0
1 0 0
0 0.0108492 0.121614
0.0207675 0.0124514 0.130602
0.148562 0 0.129595
0.367285 0 0.11725
0.713344 0 0.0779583
1 0 0.0174563
1 0 0
1 0 0
1 0 0
0 0.104158 0.0991073
0 0.118791 0.116732
0.0998856 0.109804 0.121477
0.361578 0.047425 0.113725
0.739345 0 0.0767376
1 0 0.0178836
1 0 0
1 0 0
1 0 0
0 0.267765 0.0467689
0 0.297444 0.0656901
0 0.30425 0.0754559
0.262028 0.285832 0.075639
0.703456 0.185519 0.0451667
1 0 0
1 0 0
1 0 0
1 0 0
0 0.522805 0
0 0.574563 0
0 0.596765 0
0 0.597467 0
0.541299 0.560983 0
0.972961 0.486549 0
1 0.406271 0
1 0.322118 0
1 0.228214 0
0 0.824704 0
0 0.866712 0
0 0.885115 0
0 0.887572 0
0.13164 0.86569 0
0.80264 0.823178 0
1 0.775662 0
1 0.729305 0
1 0.680491 0
0 1 0
0 1 0
0 1 0
0 1 0
0 1 0
0.616403 0.997467 0
0.949279 0.964248 0
1 0.935485 0
1 0.909133 0
0 1 0
0 1 0
0 1 0
0 1 0
0 1 0
0.415473 1 0
0.840345 1 0
1 1 0
1 1 0
0 1 0
0 1 0
0 1 0
0 1 0
0 1 0
0.126421 1 0
0.747982 1 0
0.960708 1 0
1 1 0
0 0 0.273732
0.010132 0 0.271153
0.120699 0 0.253071
0.29308 0 0.229084
0.590234 0 0.198474
0.951415 0 0.150439
1 0 0.0915999
1 0 0.0271153
1 0 0
0 0 0.270253
0.00111391 0 0.283696
0.134539 0 0.284566
0.347341 0 0.275898
0.699718 0 0.252796
1 0 0.214313
1 0 0.172335
1 0 0.127749
1 0 0.0828717
0 0.0617685 0.2533
0 0.074876 0.276173
0.0836957 0.0628061 0.28397
0.34258 0.00901808 0.282567
0.726955 0 0.265064
1 0 0.23389
1 0 0.200855
1 0 0.167391
1 0 0.134066
0 0.249073 0.216648
0 0.27921 0.244526
0 0.285817 0.258701
0.259709 0.266484 0.263645
0.706706 0.155352 0.251316
1 0 0.225696
1 0 0.198428
1 0 0.168856
1 0 0.13547
0 0.514885 0.128161
0 0.567437 0.158358
0 0.590005 0.177768
0 0.590585 0.188327
0.54847 0.553323 0.183886
0.977813 0.477562 0.158633
1 0.395972 0.129488
1 0.309453 0.0970626
1 0.2094 0.0587625
0 0.821317 0
0 0.863081 0
0 0.881285 0
0 0.883116 0.00415045
0.159289 0.860288 0
0.808255 0.817319 0
1 0.769375 0
1 0.722042 0
1 0.672816 0
0 1 0
0 1 0
0 1 0
0 1 0
0 1 0
0.62504 0.992386 0
0.951614 0.959747 0
1 0.931121 0
1 0.904723 0
0 1 0
0 1 0
0 1 0
0 1 0
0 1 0
0.430152 1 0
0.84506 1 0
1 1 0
1 1 0
0 1 0
0 1 0
0 1 0
0 1 0
0 1 0
0.173114 1 0
0.755856 1 0
0.962631 1 0
1 1 0
0 0 0.508431
0 0 0.505318
0.0695659 0 0.480781
0.270085 0 0.452827
0.559625 0 0.421668
0.930297 0 0.384009
1 0 0.340963
1 0 0.295689
1 0 0.252262
0 0 0.511177
0 0 0.532158
0.0828412 0 0.534798
0.326574 0 0.525628
0.67129 0 0.505531
1 0 0.476905
1 0 0.444373
1 0 0.407248
1 0 0.370138
0 0 0.496941
0 0 0.529442
0.0243839 0 0.540963
0.323857 0 0.541329
0.700938 0 0.53051
1 0 0.511589
1 0 0.488762
1 0 0.46128
1 0 0.432685
0 0.189593 0.46273
0 0.218235 0.503807
0 0.223056 0.52462
0.238193 0.197436 0.533547
0.680354 0.0600137 0.530816
1 0 0.520073
1 0 0.506081
1 0 0.486793
1 0 0.461082
0 0.489281 0.40322
0 0.541283 0.450156
0 0.563317 0.477592
0 0.562844 0.49305
0.54638 0.52343 0.495888
0.977279 0.442359 0.488411
1 0.354528 0.47628
1 0.259281 0.4551
1 0.139147 0.425483
0 0.807401 0.318227
0 0.847715 0.376333
0 0.86479 0.411185
0 0.865522 0.430228
0.158572 0.841245 0.432303
0.807309 0.79704 0.424689
1 0.748425 0.405737
1 0.701076 0.376364
1 0.652705 0.341299
0 1 0.216632
0 1 0.29221
0 1 0.332647
0 1 0.351003
0 1 0.350408
0.627161 0.977554 0.337469
0.949218 0.945098 0.322393
1 0.917098 0.292348
1 0.891768 0.251057
0 1 0.0298466
0 1 0.156329
0 1 0.21323
0 1 0.241779
0 1 0.24625
0.436377 1 0.234836
0.845411 1 0.219806
1 1 0.1953
1 1 0.147967
0 1 0
0 1 0
0 1 0.0520638
0 1 0.112139
0 1 0.127459
0.193225 1 0.114275
0.758587 1 0.0958114
0.961181 1 0.0633097
1 1 0.0258183
0 0 0.752529
0 0 0.751141
0 0 0.735424
0.223346 0 0.717601
0.536171 0 0.695232
0.902251 0 0.669169
1 0 0.639094
1 0 0.60325
1 0 0.563348
0 0 0.759365
0 0 0.775982
0 0 0.779736
0.289296 0 0.775692
0.654002 0 0.764462
1 0 0.748287
1 0 0.730388
1 0 0.708324
1 0 0.683162
0 0 0.752178
0 0 0.775692
0 0 0.785779
0.289937 0 0.787869
0.688594 0 0.782467
1 0 0.773602
1 0 0.763836
1 0 0.750469
1 0 0.73402
0 0.0145113 0.730007
0 0.0653086 0.760021
0 0.0731823 0.776013
0.197086 0.0230411 0.784161
0.671763 0 0.7841
1 0 0.780026
1 0 0.775051
1 0 0.766522
1 0 0.75172
0 0.435401 0.690135
0 0.492073 0.725963
0 0.516381 0.74609
0 0.515801 0.758022
0.533669 0.472862 0.761456
0.953063 0.396384 0.760143
1 0.295796 0.75584
1 0.174609 0.745876
1 0 0.730449
0 0.778576 0.640421
0 0.819455 0.682322
0 0.836667 0.705394
0 0.836835 0.718273
0.126864 0.810697 0.72047
0.799771 0.764752 0.715908
1 0.71339 0.706172
1 0.663798 0.691936
1 0.613169 0.671855
0 0.982116 0.585138
0 1 0.632685
0 1 0.656931
0 1 0.668727
0 0.98584 0.669947
0.620523 0.951766 0.663844
0.940749 0.91902 0.656321
1 0.890517 0.640848
1 0.864805 0.619379
0 1 0.50428
0 1 0.557595
0 1 0.588296
0 1 0.605051
0 1 0.60911
0.429374 1 0.604623
0.838621 1 0.597025
1 0.999344 0.585687
1 0.986526 0.56495
0 1 0.410224
0 1 0.474708
0 1 0.513512
0 1 0.536675
0 1 0.544579
0.184314 1 0.542565
0.753796 1 0.536889
0.95404 1 0.527993
1 1 0.516716
0 0 0.917571
0 0 0.91696
0 0 0.908827
0.167849 0 0.899809
0.510704 0 0.887404
0.887953 0 0.87155
1 0 0.854093
1 0 0.835081
1 0 0.814176
0 0 0.925795
0 0 0.93695
0 0 0.939544
0.252461 0 0.937438
0.637583 0 0.930144
0.996933 0 0.91986
1 0 0.909529
1 0 0.899062
1 0 0.887846
0 0 0.922423
0 0 0.937606
0 0 0.944121
0.258274 0 0.945586
0.678233 0 0.941909
1 0 0.935561
1 0 0.929976
1 0 0.924025
1 0 0.91693
0 0 0.90869
0 0 0.928054
0 0 0.937942
0.156664 0 0.942672
0.665064 0 0.942092
1 0 0.938781
1 0 0.935943
1 0 0.932433
1 0 0.925704
0 0.377172 0.882429
0 0.444053 0.904555
0 0.47277 0.916884
0 0.473259 0.923751
0.527626 0.425971 0.925048
0.95053 0.339178 0.922942
1 0.244709 0.919829
1 0.0914626 0.915022
1 0 0.9075
0 0.748837 0.847364
0 0.792752 0.872068
0 0.811109 0.885756
0 0.81146 0.892576
0.0956588 0.783764 0.892729
0.792096 0.736461 0.888457
1 0.690852 0.882475
1 0.63975 0.87538
1 0.587961 0.865751
0 0.958282 0.806439
0 0.980392 0.833906
0 0.987671 0.848524
0 0.984207 0.855253
0 0.963592 0.854551
0.614252 0.928588 0.84979
0.933333 0.895659 0.843656
1 0.86627 0.834928
1 0.839429 0.823758
0 1 0.749508
0 1 0.782254
0 1 0.8009
0 1 0.81088
0 1 0.812543
0.421134 1 0.808667
0.831754 0.996979 0.80296
0.993393 0.977905 0.795453
1 0.964706 0.783444
0 1 0.685908
0 1 0.725673
0 1 0.749966
0 1 0.764157
0 1 0.769085
0.166125 1 0.766598
0.747311 1 0.7626
0.945815 1 0.756527
1 1 0.750072
0 0 1
0 0 1
0 0 1
0.114443 0 1
0.488823 0 1
0.875166 0 0.99649
1 0 0.986648
1 0 0.976822
1 0 0.96762
0 0 1
0 0 1
0 0 1
0.224552 0 1
0.625315 0 1
0.991867 0 1
1 0 1
1 0 1
1 0 1
0 0 1
0 0 1
0 0 1
0.23711 0 1
0.672496 0 1
1 0 1
1 0 1
1 0 1
1 0 1
0 0 1
0 0 1
0 0 1
0.13164 0 1
0.663706 0 1
1 0 1
1 0 1
1 0 1
1 0 1
0 0.326101 0.998856
0 0.406317 1
0 0.440604 1
0 0.442863 1
0.52813 0.392248 1
0.951156 0.295399 1
1 0.182086 1
1 0.0305028 1
1 0 1
0 0.723903 0.971801
0 0.772122 0.981338
0 0.792233 0.986343
0 0.792828 0.98854
0.0806439 0.763973 0.987182
0.791012 0.714763 0.983169
1 0.66772 0.979248
1 0.627268 0.975723
1 0.576959 0.972839
0 0.938155 0.941543
0 0.962463 0.953445
0 0.97084 0.959457
0 0.967758 0.961898
0 0.946853 0.960311
0.611139 0.910933 0.955962
0.927199 0.87837 0.951553
1 0.852598 0.947356
1 0.825086 0.943084
0 1 0.904585
0 1 0.920974
0 1 0.929931
0 1 0.934386
0 1 0.934035
0.416358 1 0.929778
0.826703 0.980377 0.924971
0.986709 0.961242 0.919829
1 0.947295 0.913909
0 1 0.863386
0 1 0.885542
0 1 0.898482
0 1 0.905608
0 1 0.907149
0.153552 1 0.903975
0.742351 1 0.899641
0.93933 1 0.894865
1 1 0.890654
0 0 1
0 0 1
0 0 1
0.0777295 0 1
0.474708 0 1
0.867308 0 1
1 0 1
1 0 1
1 0 1
0 0 1
0 0 1
0 0 1
0.210483 0 1
0.619058 0 1
0.990631 0 1
1 0 1
1 0 1
1 0 1
0 0 1
0 0 1
0 0 1
0.229297 0 1
0.67216 0 1
1 0 1
1 0 1
1 0 1
1 0 1
0 0 1
0 0 1
0 0 1
0.127855 0 1
0.66775 0 1
1 0 1
1 0 1
1 0 1
1 0 1
0 0.295277 1
0 0.385351 1
0 0.42359 1
0 0.427192 1
0.534096 0.373877 1
0.954543 0.269459 1
1 0.138888 1
1 0 1
1 0 1
0 0.710109 1
0 0.761425 1
0 0.782284 1
0 0.782834 1
0.0933089 0.753048 1
0.792645 0.702327 1
1 0.654414 1
1 0.612833 1
1 0.576654 1
0 0.925963 1
0 0.95198 1
0 0.961105 1
0 0.958465 1
0 0.937331 1
0.613245 0.900969 1
0.926162 0.868147 0.999954
1 0.842039 0.997787
1 0.820798 0.996384
0 1 0.98146
0 1 0.987579
0 1 0.99089
0 1 0.992157
0 1 0.990784
0.418845 0.997299 0.986725
0.825422 0.970764 0.982834
0.982849 0.951812 0.979751
1 0.939315 0.977371
0 1 0.958663
0 1 0.96849
0 1 0.973983
0 1 0.976699
0 1 0.976303
0.155612 1 0.972717
0.741176 1 0.968856
0.936522 0.999557 0.965591
1 0.991043 0.963027
