luts/Sony slog3 to correction.cube
TITLE "Generated by Resolve"
LUT_3D_SIZE 5
0.000946059 0.0117037 0.0123751
0.185016 0.0153811 0.0186007
0.843229 0.185779 0.194003
1 0.319814 0.33315
1 0.997497 0.996567
0.0314031 0.168368 0.0560616
0.0994888 0.116167 0.0190433
0.622477 0.117983 0.164706
0.852796 0.194308 0.314092
1 0.963149 0.892973
0.25391 0.636957 0.264942
0.230884 0.589899 0.238331
0.570397 0.535241 0.229801
1 0.333852 0.214801
1 0.815167 0.835981
0.616297 1 0.500862
0.559182 1 0.475822
0.608911 1 0.459861
1 1 0.527443
1 1 0.636225
1 1 1
1 1 1
1 1 0.956024
1 1 0.731487
1 1 0.861708
0 0.0132143 0.219516
0.187427 0.0194858 0.197467
0.867689 0.193179 0.252888
1 0.325093 0.344701
1 1 1
0.0176852 0.137118 0.149844
0.0554971 0.0932021 0.0907759
0.68217 0.13489 0.158648
0.978225 0.25388 0.276097
1 0.999954 0.952789
0.243687 0.61735 0.259449
0.222202 0.573434 0.234058
0.523445 0.518135 0.218921
0.992218 0.308446 0.225467
1 0.377081 0.273396
0.581735 1 0.490593
0.532662 1 0.469139
0.561944 1 0.449958
1 1 0.51838
1 1 0.611109
1 1 1
1 1 1
1 1 0.953307
1 1 0.725368
1 1 0.844129
0.0603647 0.0822919 0.819181
0.0960555 0.0607614 0.75906
0.848249 0.215641 0.747936
1 0.345068 0.88011
1 1 1
0.0364538 0.0780499 0.764492
0.0493019 0.0516213 0.664958
0.676997 0.157931 0.604746
1 0.283085 0.618784
1 0.955261 1
0.227481 0.573236 0.627405
0.209308 0.53698 0.559609
0.452964 0.485374 0.47126
0.998718 0.335851 0.347295
0.950637 0.252338 0.288792
0.495659 1 0.618158
0.471214 1 0.545144
0.459312 0.993957 0.441871
0.991806 0.989044 0.481361
1 0.955535 0.47425
1 1 1
1 1 1
1 1 0.873671
1 1 0.633783
1 1 0.731426
0.127092 0.141405 1
0.145159 0.129625 1
0.786755 0.234012 1
1 0.376608 1
1 1 1
0.112322 0.136416 1
0.114046 0.123705 1
0.605051 0.179294 1
1 0.32282 1
1 0.969177 1
0.0306249 0.1841 1
0.0222782 0.157015 0.994339
0.428229 0.165423 0.966064
1 0.280705 0.962509
1 0.343771 0.982589
0.485893 1 1
0.465034 0.996414 1
0.425498 0.948775 0.963943
0.935637 0.949599 0.932708
1 0.841093 0.786694
1 1 1
1 1 1
0.847547 1 1
0.876158 1 0.6103
1 1 0.513237
0.260273 0.262501 1
0.2542 0.202136 1
0.762982 0.256367 1
1 0.433341 1
1 1 1
0.275349 0.281712 1
0.152209 0.144732 1
0.256748 0.132937 1
1 0.365087 1
1 0.996384 1
0.0556039 0.200488 1
0.0519875 0.145113 1
0.124483 0.1178 1
1 0.288792 1
1 0.399145 1
0.486931 1 1
0.419333 0.93138 1
0.237995 0.591165 0.997971
0.974273 0.695781 1
0.999542 0.44477 1
0.998367 1 1
0.996445 1 1
0.826551 1 1
0.806928 1 1
0.999969 1 1
