luts/Sony S-Log3 to Rec.709.cube
TITLE "Generated by Resolve"
LUT_3D_SIZE 5
0.0117494 0.015671 0.0175631
0.156725 0 0
0.615763 0 0
1 0 0
1 0 0
0 0.118044 0
0.0975814 0.121416 0
0.719219 0 0
1 0 0
1 0 0
0 0.515755 0
0 0.580514 0
0.510231 0.545022 0
1 0.392309 0
1 0.210086 0
0 1 0
0 1 0
0 1 0
0.937255 0.959808 0
1 0.905867 0
0 1 0
0 1 0
0 1 0
0.717479 1 0
1 1 0
0.00277714 0 0.129061
0.137682 0 0.110735
0.60763 0 0.0423285
1 0 0
1 0 0
0 0.104158 0.0991073
0.0998856 0.109804 0.121477
0.739345 0 0.0767376
1 0 0
1 0 0
0 0.522805 0
0 0.596765 0
0.541299 0.560983 0
1 0.406271 0
1 0.228214 0
0 1 0
0 1 0
0 1 0
0.949279 0.964248 0
1 0.909133 0
0 1 0
0 1 0
0 1 0
0.747982 1 0
1 1 0
0 0 0.508431
0.0695659 0 0.480781
0.559625 0 0.421668
1 0 0.340963
1 0 0.252262
0 0 0.496941
0.0243839 0 0.540963
0.700938 0 0.53051
1 0 0.488762
1 0 0.432685
0 0.489281 0.40322
0 0.563317 0.477592
0.54638 0.52343 0.495888
1 0.354528 0.47628
1 0.139147 0.425483
0 1 0.216632
0 1 0.332647
0 1 0.350408
0.949218 0.945098 0.322393
1 0.891768 0.251057
0 1 0
0 1 0.0520638
0 1 0.127459
0.758587 1 0.0958114
1 1 0.0258183
0 0 0.917571
0 0 0.908827
0.510704 0 0.887404
1 0 0.854093
1 0 0.814176
0 0 0.922423
0 0 0.944121
0.678233 0 0.941909
1 0 0.929976
1 0 0.91693
0 0.377172 0.882429
0 0.47277 0.916884
0.527626 0.425971 0.925048
1 0.244709 0.919829
1 0 0.9075
0 0.958282 0.806439
0 0.987671 0.848524
0 0.963592 0.854551
0.933333 0.895659 0.843656
1 0.839429 0.823758
0 1 0.685908
0 1 0.749966
0 1 0.769085
0.747311 1 0.7626
1 1 0.750072
0 0 1
0 0 1
0.474708 0 1
1 0 1
1 0 1
0 0 1
0 0 1
0.67216 0 1
1 0 1
1 0 1
0 0.295277 1
0 0.42359 1
0.534096 0.373877 1
1 0.138888 1
1 0 1
0 0.925963 1
0 0.961105 1
0 0.937331 1
0.926162 0.868147 0.999954
1 0.820798 0.996384
0 1 0.958663
0 1 0.973983
0 1 0.976303
0.741176 1 0.968856
1 0.991043 0.963027
