luts/Sony Cinematic light AZ.cube
#Generated with IWLTBAP LUT Generator
#Website: http://luts.iwltbap.com
TITLE "Sony-125"
#LUT size
LUT_3D_SIZE 5
#LUT data points
0.011765 0.011765 0.011765
0.317647 0.023529 0.003922
0.588235 0.031373 0.015686
0.694118 0.031373 0.003922
0.772549 0.031373 0.007843
0.015686 0.101961 0.019608
0.094118 0.156863 0.011765
0.533333 0.141176 0.007843
0.666667 0.050980 0.015686
0.800000 0.050980 0.011765
0.011765 0.356863 0.019608
0.007843 0.380392 0.011765
0.568627 0.513725 0.023529
0.835294 0.498039 0.031373
0.937255 0.423529 0.015686
0.011765 0.549020 0.031373
0.007843 0.564706 0.023529
0.400000 0.619608 0.035294
0.854902 0.694118 0.035294
0.976471 0.678431 0.007843
0.019608 0.690196 0.047059
0.070588 0.701961 0.058824
0.298039 0.749020 0.047059
0.776471 0.850980 0.003922
0.984314 0.890196 0.019608
0.003922 0.011765 0.164706
0.200000 0.027451 0.219608
0.568627 0.019608 0.133333
0.709804 0.031373 0.015686
0.788235 0.027451 0.027451
0.007843 0.105882 0.125490
0.047059 0.145098 0.164706
0.627451 0.043137 0.019608
0.760784 0.035294 0.015686
0.847059 0.035294 0.011765
0.011765 0.380392 0.050980
0.011765 0.435294 0.039216
0.650980 0.556863 0.031373
0.913725 0.498039 0.027451
0.941176 0.352941 0.011765
0.011765 0.580392 0.066667
0.015686 0.607843 0.070588
0.184314 0.631373 0.054902
0.929412 0.780392 0.015686
0.992157 0.694118 0.019608
0.007843 0.717647 0.101961
0.027451 0.764706 0.050980
0.258824 0.803922 0.070588
0.819608 0.929412 0.015686
0.996078 0.933333 0.011765
0.011765 0.011765 0.388235
0.062745 0.015686 0.454902
0.552941 0.054902 0.498039
0.674510 0.086275 0.478431
0.811765 0.007843 0.411765
0.007843 0.086275 0.435294
0.007843 0.035294 0.490196
0.627451 0.086275 0.552941
0.788235 0.058824 0.478431
0.882353 0.011765 0.407843
0.019608 0.423529 0.490196
0.027451 0.482353 0.533333
0.533333 0.552941 0.529412
0.925490 0.443137 0.423529
0.901961 0.101961 0.105882
0.011765 0.627451 0.364706
0.015686 0.635294 0.254902
0.031373 0.635294 0.164706
0.913725 0.784314 0.090196
0.988235 0.698039 0.066667
0.007843 0.729412 0.219608
0.015686 0.776471 0.196078
0.188235 0.815686 0.196078
0.729412 0.933333 0.125490
0.996078 0.941176 0.117647
0.011765 0.019608 0.501961
0.019608 0.019608 0.545098
0.501961 0.047059 0.584314
0.701961 0.094118 0.603922
0.831373 0.105882 0.576471
0.015686 0.054902 0.537255
0.023529 0.007843 0.584314
0.576471 0.023529 0.666667
0.827451 0.109804 0.666667
0.901961 0.137255 0.615686
0.011765 0.364706 0.607843
0.011765 0.388235 0.686275
0.368627 0.450980 0.776471
0.925490 0.462745 0.768627
0.925490 0.188235 0.631373
0.007843 0.639216 0.678431
0.011765 0.686275 0.701961
0.027451 0.682353 0.713725
0.835294 0.788235 0.701961
0.988235 0.745098 0.662745
0.011765 0.827451 0.592157
0.011765 0.870588 0.603922
0.019608 0.874510 0.545098
0.501961 0.933333 0.443137
0.988235 0.960784 0.309804
0.007843 0.011765 0.568627
0.019608 0.007843 0.600000
0.486275 0.011765 0.666667
0.705882 0.137255 0.690196
0.870588 0.137255 0.698039
0.011765 0.039216 0.596078
0.015686 0.011765 0.662745
0.537255 0.011765 0.776471
0.815686 0.184314 0.796078
0.933333 0.188235 0.776471
0.011765 0.325490 0.705882
0.011765 0.329412 0.780392
0.286275 0.400000 0.862745
0.901961 0.454902 0.898039
0.976471 0.337255 0.835294
0.019608 0.568627 0.768627
0.007843 0.611765 0.862745
0.011765 0.627451 0.890196
0.709804 0.709804 0.945098
0.976471 0.752941 0.913725
0.011765 0.827451 0.827451
0.019608 0.874510 0.882353
0.007843 0.886275 0.886275
0.023529 0.886275 0.886275
0.956863 0.972549 0.874510
