luts/Sony Cinematic light AZ.cube
#Generated with IWLTBAP LUT Generator
#Website: http://luts.iwltbap.com
TITLE "Sony-125"
#LUT size
LUT_3D_SIZE 9
#LUT data points
0.011765 0.011765 0.011765
0.011765 0.011765 0.011765
0.317647 0.023529 0.003922
0.509804 0.031373 0.011765
0.588235 0.031373 0.015686
0.647059 0.031373 0.011765
0.694118 0.031373 0.003922
0.729412 0.035294 0.011765
0.772549 0.031373 0.007843
0.015686 0.007843 0.011765
0.003922 0.011765 0.007843
0.145098 0.031373 0.015686
0.439216 0.031373 0.019608
0.552941 0.039216 0.000000
0.615686 0.039216 0.007843
0.666667 0.047059 0.011765
0.717647 0.043137 0.003922
0.776471 0.039216 0.003922
0.015686 0.101961 0.019608
0.011765 0.109804 0.000000
0.094118 0.156863 0.011765
0.341176 0.192157 0.007843
0.533333 0.141176 0.007843
0.600000 0.058824 0.007843
0.666667 0.050980 0.015686
0.725490 0.050980 0.003922
0.800000 0.050980 0.011765
0.007843 0.235294 0.007843
0.011765 0.235294 0.019608
0.019608 0.258824 0.035294
0.341176 0.356863 0.015686
0.572549 0.376471 0.027451
0.678431 0.349020 0.011765
0.768627 0.294118 0.015686
0.772549 0.129412 0.019608
0.815686 0.082353 0.023529
0.011765 0.356863 0.019608
0.015686 0.368627 0.015686
0.007843 0.380392 0.011765
0.247059 0.458824 0.011765
0.568627 0.513725 0.023529
0.725490 0.513725 0.027451
0.835294 0.498039 0.031373
0.913725 0.466667 0.019608
0.937255 0.423529 0.015686
0.007843 0.474510 0.019608
0.015686 0.474510 0.023529
0.003922 0.486275 0.027451
0.027451 0.486275 0.035294
0.525490 0.584314 0.031373
0.733333 0.607843 0.031373
0.862745 0.603922 0.031373
0.929412 0.592157 0.015686
0.964706 0.576471 0.015686
0.011765 0.549020 0.031373
0.011765 0.560784 0.039216
0.007843 0.564706 0.023529
0.050980 0.568627 0.027451
0.400000 0.619608 0.035294
0.678431 0.682353 0.031373
0.854902 0.694118 0.035294
0.937255 0.686275 0.019608
0.976471 0.678431 0.007843
0.023529 0.611765 0.027451
0.011765 0.623529 0.050980
0.031373 0.627451 0.050980
0.101961 0.639216 0.050980
0.219608 0.654902 0.050980
0.627451 0.737255 0.031373
0.819608 0.768627 0.015686
0.929412 0.788235 0.011765
0.968627 0.780392 0.011765
0.019608 0.690196 0.047059
0.019608 0.694118 0.050980
0.070588 0.701961 0.058824
0.180392 0.729412 0.058824
0.298039 0.749020 0.047059
0.419608 0.752941 0.043137
0.776471 0.850980 0.003922
0.917647 0.878431 0.007843
0.984314 0.890196 0.019608
0.011765 0.011765 0.011765
0.015686 0.007843 0.011765
0.317647 0.019608 0.019608
0.509804 0.023529 0.015686
0.572549 0.035294 0.011765
0.635294 0.035294 0.003922
0.698039 0.035294 0.015686
0.741176 0.027451 0.011765
0.784314 0.031373 0.019608
0.000000 0.015686 0.011765
0.011765 0.011765 0.011765
0.262745 0.023529 0.011765
0.529412 0.031373 0.007843
0.615686 0.031373 0.007843
0.666667 0.031373 0.011765
0.725490 0.027451 0.011765
0.764706 0.027451 0.019608
0.819608 0.031373 0.003922
0.003922 0.098039 0.011765
0.003922 0.121569 0.011765
0.101961 0.168627 0.027451
0.403922 0.176471 0.000000
0.556863 0.074510 0.011765
0.643137 0.043137 0.019608
0.701961 0.047059 0.015686
0.756863 0.039216 0.007843
0.819608 0.039216 0.011765
0.015686 0.239216 0.023529
0.011765 0.270588 0.027451
0.000000 0.278431 0.019608
0.419608 0.403922 0.011765
0.615686 0.384314 0.015686
0.729412 0.333333 0.019608
0.803922 0.254902 0.011765
0.784314 0.074510 0.007843
0.831373 0.054902 0.011765
0.007843 0.384314 0.031373
0.000000 0.411765 0.015686
0.007843 0.419608 0.023529
0.258824 0.494118 0.015686
0.623529 0.549020 0.035294
0.792157 0.525490 0.027451
0.886275 0.498039 0.031373
0.929412 0.450980 0.015686
0.949020 0.400000 0.019608
0.007843 0.498039 0.035294
0.003922 0.505882 0.023529
0.007843 0.517647 0.023529
0.007843 0.517647 0.031373
0.552941 0.615686 0.027451
0.776471 0.643137 0.015686
0.901961 0.623529 0.027451
0.945098 0.600000 0.015686
0.964706 0.576471 0.015686
0.015686 0.572549 0.031373
0.011765 0.592157 0.050980
0.015686 0.592157 0.043137
0.019608 0.596078 0.035294
0.380392 0.650980 0.043137
0.709804 0.721569 0.019608
0.901961 0.745098 0.023529
0.949020 0.717647 0.003922
0.980392 0.690196 0.011765
0.019608 0.639216 0.054902
0.003922 0.662745 0.047059
0.015686 0.662745 0.050980
0.082353 0.670588 0.047059
0.211765 0.686275 0.047059
0.639216 0.784314 0.035294
0.862745 0.819608 0.011765
0.952941 0.835294 0.011765
0.984314 0.803922 0.019608
0.007843 0.713725 0.058824
0.011765 0.733333 0.050980
0.039216 0.737255 0.054902
0.149020 0.752941 0.062745
0.286275 0.780392 0.054902
0.403922 0.800000 0.054902
0.815686 0.905882 0.003922
0.952941 0.929412 0.003922
0.992157 0.921569 0.011765
0.003922 0.011765 0.164706
0.019608 0.007843 0.192157
0.200000 0.027451 0.219608
0.458824 0.019608 0.207843
0.568627 0.019608 0.133333
0.639216 0.023529 0.058824
0.709804 0.031373 0.015686
0.745098 0.031373 0.027451
0.788235 0.027451 0.027451
0.015686 0.019608 0.137255
0.011765 0.007843 0.180392
0.172549 0.043137 0.219608
0.517647 0.011765 0.164706
0.607843 0.031373 0.070588
0.666667 0.031373 0.011765
0.729412 0.031373 0.015686
0.764706 0.031373 0.011765
0.807843 0.031373 0.019608
0.007843 0.105882 0.125490
0.019608 0.129412 0.176471
0.047059 0.145098 0.164706
0.470588 0.062745 0.019608
0.627451 0.043137 0.019608
0.709804 0.039216 0.007843
0.760784 0.035294 0.015686
0.811765 0.031373 0.003922
0.847059 0.035294 0.011765
0.019608 0.239216 0.086275
0.015686 0.266667 0.062745
0.011765 0.286275 0.050980
0.400000 0.407843 0.027451
0.650980 0.368627 0.035294
0.764706 0.282353 0.007843
0.776471 0.070588 0.015686
0.819608 0.043137 0.007843
0.866667 0.039216 0.011765
0.011765 0.380392 0.050980
0.015686 0.407843 0.054902
0.011765 0.435294 0.039216
0.086275 0.462745 0.043137
0.650980 0.556863 0.031373
0.823529 0.537255 0.031373
0.913725 0.498039 0.027451
0.949020 0.427451 0.015686
0.941176 0.352941 0.011765
0.011765 0.498039 0.058824
0.011765 0.517647 0.050980
0.007843 0.541176 0.047059
0.015686 0.537255 0.047059
0.533333 0.627451 0.047059
0.815686 0.662745 0.023529
0.929412 0.639216 0.007843
0.980392 0.596078 0.011765
0.976471 0.572549 0.035294
0.011765 0.580392 0.066667
0.011765 0.588235 0.066667
0.015686 0.607843 0.070588
0.027451 0.611765 0.050980
0.184314 0.631373 0.054902
0.741176 0.745098 0.039216
0.929412 0.780392 0.015686
0.988235 0.737255 0.011765
0.992157 0.694118 0.019608
0.019608 0.643137 0.078431
0.015686 0.658824 0.078431
0.011765 0.682353 0.070588
0.047059 0.686275 0.078431
0.184314 0.705882 0.050980
0.619608 0.815686 0.047059
0.886275 0.862745 0.015686
0.972549 0.870588 0.003922
0.992157 0.811765 0.000000
0.007843 0.717647 0.101961
0.019608 0.737255 0.078431
0.027451 0.764706 0.050980
0.117647 0.772549 0.074510
0.258824 0.803922 0.070588
0.396078 0.815686 0.062745
0.819608 0.929412 0.015686
0.952941 0.949020 0.007843
0.996078 0.933333 0.011765
0.019608 0.003922 0.301961
0.007843 0.011765 0.325490
0.129412 0.015686 0.376471
0.411765 0.039216 0.392157
0.541176 0.062745 0.403922
0.639216 0.023529 0.380392
0.701961 0.015686 0.325490
0.756863 0.015686 0.227451
0.792157 0.015686 0.105882
0.015686 0.015686 0.290196
0.007843 0.011765 0.333333
0.090196 0.019608 0.407843
0.443137 0.054902 0.419608
0.572549 0.062745 0.400000
0.662745 0.019608 0.356863
0.745098 0.015686 0.294118
0.796078 0.007843 0.180392
0.811765 0.023529 0.054902
0.007843 0.098039 0.309804
0.015686 0.090196 0.349020
0.011765 0.070588 0.435294
0.482353 0.062745 0.470588
0.623529 0.054902 0.419608
0.737255 0.007843 0.333333
0.784314 0.015686 0.172549
0.823529 0.031373 0.023529
0.839216 0.023529 0.007843
0.011765 0.258824 0.329412
0.003922 0.305882 0.384314
0.003922 0.317647 0.407843
0.254902 0.376471 0.388235
0.650980 0.321569 0.282353
0.725490 0.082353 0.047059
0.788235 0.035294 0.015686
0.839216 0.035294 0.015686
0.866667 0.031373 0.015686
0.003922 0.415686 0.286275
0.019608 0.458824 0.301961
0.015686 0.462745 0.219608
0.003922 0.458824 0.078431
0.647059 0.556863 0.039216
0.854902 0.525490 0.035294
0.933333 0.474510 0.027451
0.952941 0.372549 0.019608
0.890196 0.129412 0.019608
0.011765 0.501961 0.109804
0.011765 0.525490 0.086275
0.011765 0.541176 0.078431
0.015686 0.545098 0.082353
0.458824 0.619608 0.066667
0.811765 0.670588 0.050980
0.941176 0.635294 0.039216
0.984314 0.596078 0.023529
0.980392 0.560784 0.050980
0.015686 0.584314 0.125490
0.015686 0.596078 0.109804
0.019608 0.611765 0.105882
0.007843 0.627451 0.094118
0.070588 0.627451 0.101961
0.698039 0.749020 0.062745
0.929412 0.768627 0.039216
0.980392 0.745098 0.015686
0.984314 0.698039 0.043137
0.023529 0.650980 0.133333
0.011765 0.666667 0.109804
0.019608 0.682353 0.121569
0.031373 0.698039 0.117647
0.149020 0.709804 0.113725
0.560784 0.800000 0.082353
0.878431 0.870588 0.050980
0.976471 0.882353 0.003922
0.988235 0.819608 0.031373
0.011765 0.721569 0.168627
0.019608 0.745098 0.137255
0.011765 0.764706 0.117647
0.074510 0.780392 0.113725
0.223529 0.807843 0.113725
0.364706 0.827451 0.121569
0.796078 0.921569 0.047059
0.952941 0.952941 0.019608
0.992157 0.937255 0.031373
0.011765 0.011765 0.388235
0.011765 0.011765 0.396078
0.062745 0.015686 0.454902
0.392157 0.050980 0.501961
0.552941 0.054902 0.498039
0.627451 0.074510 0.482353
0.674510 0.086275 0.478431
0.745098 0.027451 0.443137
0.811765 0.007843 0.411765
0.003922 0.015686 0.380392
0.011765 0.007843 0.407843
0.015686 0.011765 0.470588
0.384314 0.050980 0.517647
0.580392 0.066667 0.513725
0.658824 0.086275 0.505882
0.729412 0.062745 0.482353
0.800000 0.015686 0.435294
0.854902 0.011765 0.415686
0.007843 0.086275 0.435294
0.015686 0.066667 0.466667
0.007843 0.035294 0.490196
0.447059 0.031373 0.556863
0.627451 0.086275 0.552941
0.721569 0.086275 0.521569
0.788235 0.058824 0.478431
0.847059 0.015686 0.447059
0.882353 0.011765 0.407843
0.003922 0.243137 0.466667
0.015686 0.250980 0.498039
0.015686 0.250980 0.537255
0.050980 0.270588 0.572549
0.635294 0.345098 0.576471
0.741176 0.109804 0.513725
0.835294 0.023529 0.478431
0.870588 0.011765 0.419608
0.886275 0.019608 0.329412
0.019608 0.423529 0.490196
0.015686 0.474510 0.513725
0.027451 0.482353 0.533333
0.015686 0.494118 0.545098
0.533333 0.552941 0.529412
0.803922 0.529412 0.490196
0.925490 0.443137 0.423529
0.945098 0.294118 0.247059
0.901961 0.101961 0.105882
0.011765 0.549020 0.447059
0.015686 0.584314 0.470588
0.019608 0.588235 0.458824
0.011765 0.588235 0.415686
0.050980 0.584314 0.286275
0.807843 0.666667 0.078431
0.949020 0.635294 0.050980
0.976471 0.600000 0.054902
0.972549 0.560784 0.098039
0.011765 0.627451 0.364706
0.007843 0.635294 0.352941
0.015686 0.635294 0.254902
0.019608 0.627451 0.168627
0.031373 0.635294 0.164706
0.666667 0.752941 0.125490
0.913725 0.784314 0.090196
0.988235 0.741176 0.050980
0.988235 0.698039 0.066667
0.015686 0.658824 0.215686
0.011765 0.674510 0.184314
0.003922 0.690196 0.176471
0.011765 0.701961 0.176471
0.098039 0.713725 0.192157
0.250980 0.745098 0.172549
0.862745 0.874510 0.109804
0.980392 0.878431 0.050980
0.988235 0.831373 0.113725
0.007843 0.729412 0.219608
0.015686 0.749020 0.203922
0.015686 0.776471 0.196078
0.031373 0.776471 0.180392
0.188235 0.815686 0.196078
0.333333 0.843137 0.184314
0.729412 0.933333 0.125490
0.937255 0.960784 0.050980
0.996078 0.941176 0.117647
0.011765 0.015686 0.443137
0.007843 0.015686 0.458824
0.047059 0.011765 0.501961
0.333333 0.019608 0.533333
0.509804 0.078431 0.552941
0.619608 0.078431 0.552941
0.690196 0.090196 0.549020
0.752941 0.094118 0.529412
0.823529 0.094118 0.529412
0.011765 0.011765 0.458824
0.011765 0.011765 0.482353
0.011765 0.011765 0.521569
0.333333 0.007843 0.556863
0.545098 0.094118 0.560784
0.654902 0.090196 0.572549
0.729412 0.082353 0.556863
0.796078 0.105882 0.541176
0.847059 0.086275 0.533333
0.011765 0.078431 0.486275
0.015686 0.058824 0.509804
0.019608 0.007843 0.529412
0.372549 0.007843 0.600000
0.600000 0.101961 0.623529
0.725490 0.098039 0.615686
0.811765 0.094118 0.592157
0.862745 0.113725 0.556863
0.866667 0.090196 0.533333
0.011765 0.211765 0.529412
0.011765 0.207843 0.556863
0.011765 0.207843 0.596078
0.031373 0.235294 0.631373
0.611765 0.270588 0.678431
0.756863 0.105882 0.631373
0.839216 0.117647 0.596078
0.882353 0.129412 0.572549
0.898039 0.109804 0.549020
0.011765 0.392157 0.556863
0.011765 0.415686 0.584314
0.015686 0.431373 0.619608
0.019608 0.435294 0.639216
0.423529 0.490196 0.662745
0.792157 0.533333 0.674510
0.913725 0.482353 0.635294
0.937255 0.262745 0.600000
0.909804 0.109804 0.545098
0.015686 0.529412 0.568627
0.011765 0.572549 0.603922
0.019608 0.584314 0.619608
0.011765 0.603922 0.639216
0.003922 0.600000 0.611765
0.709804 0.686275 0.631373
0.913725 0.650980 0.588235
0.980392 0.603922 0.556863
0.980392 0.580392 0.533333
0.011765 0.654902 0.560784
0.011765 0.678431 0.576471
0.011765 0.698039 0.576471
0.011765 0.701961 0.552941
0.011765 0.698039 0.537255
0.533333 0.768627 0.525490
0.890196 0.807843 0.458824
0.976471 0.768627 0.360784
0.984314 0.713725 0.176471
0.011765 0.725490 0.501961
0.007843 0.745098 0.505882
0.011765 0.760784 0.498039
0.011765 0.768627 0.458824
0.023529 0.721569 0.290196
0.203922 0.737255 0.250980
0.827451 0.886275 0.192157
0.972549 0.898039 0.160784
0.980392 0.847059 0.188235
0.015686 0.752941 0.313725
0.011765 0.768627 0.317647
0.007843 0.788235 0.290196
0.007843 0.796078 0.254902
0.117647 0.815686 0.266667
0.290196 0.850980 0.262745
0.647059 0.937255 0.227451
0.929412 0.964706 0.160784
0.992157 0.956863 0.215686
0.011765 0.019608 0.501961
0.015686 0.011765 0.513725
0.019608 0.019608 0.545098
0.298039 0.007843 0.576471
0.501961 0.047059 0.584314
0.619608 0.098039 0.600000
0.701961 0.094118 0.603922
0.772549 0.086275 0.584314
0.831373 0.105882 0.576471
0.011765 0.011765 0.498039
0.015686 0.015686 0.533333
0.007843 0.015686 0.552941
0.286275 0.011765 0.592157
0.521569 0.031373 0.627451
0.639216 0.101961 0.619608
0.749020 0.101961 0.615686
0.811765 0.101961 0.615686
0.870588 0.113725 0.603922
0.015686 0.054902 0.537255
0.015686 0.027451 0.541176
0.023529 0.007843 0.584314
0.313725 0.011765 0.662745
0.576471 0.023529 0.666667
0.721569 0.125490 0.654902
0.827451 0.109804 0.666667
0.870588 0.117647 0.654902
0.901961 0.137255 0.615686
0.019608 0.192157 0.572549
0.000000 0.192157 0.596078
0.007843 0.184314 0.643137
0.023529 0.203922 0.674510
0.584314 0.160784 0.733333
0.749020 0.149020 0.698039
0.858824 0.141176 0.705882
0.901961 0.133333 0.658824
0.917647 0.137255 0.635294
0.011765 0.364706 0.607843
0.007843 0.372549 0.635294
0.011765 0.388235 0.686275
0.011765 0.392157 0.701961
0.368627 0.450980 0.776471
0.764706 0.498039 0.784314
0.925490 0.462745 0.768627
0.929412 0.207843 0.686275
0.925490 0.188235 0.631373
0.015686 0.501961 0.635294
0.015686 0.525490 0.658824
0.011765 0.545098 0.694118
0.019608 0.556863 0.729412
0.015686 0.552941 0.717647
0.623529 0.627451 0.749020
0.909804 0.658824 0.752941
0.972549 0.623529 0.733333
0.984314 0.596078 0.705882
0.007843 0.639216 0.678431
0.000000 0.674510 0.682353
0.011765 0.686275 0.701961
0.007843 0.686275 0.709804
0.027451 0.682353 0.713725
0.215686 0.741176 0.713725
0.835294 0.788235 0.701961
0.956863 0.760784 0.670588
0.988235 0.745098 0.662745
0.007843 0.752941 0.650980
0.003922 0.780392 0.643137
0.023529 0.803922 0.674510
0.007843 0.811765 0.658824
0.015686 0.819608 0.650980
0.015686 0.803922 0.631373
0.705882 0.905882 0.603922
0.937255 0.917647 0.588235
0.988235 0.882353 0.572549
0.011765 0.827451 0.592157
0.015686 0.847059 0.607843
0.011765 0.870588 0.603922
0.011765 0.874510 0.584314
0.019608 0.874510 0.545098
0.011765 0.866667 0.498039
0.501961 0.933333 0.443137
0.921569 0.972549 0.286275
0.988235 0.960784 0.309804
0.015686 0.015686 0.541176
0.015686 0.011765 0.545098
0.019608 0.015686 0.564706
0.282353 0.003922 0.607843
0.498039 0.011765 0.631373
0.607843 0.094118 0.643137
0.701961 0.113725 0.639216
0.792157 0.105882 0.650980
0.843137 0.105882 0.639216
0.015686 0.007843 0.541176
0.015686 0.011765 0.560784
0.007843 0.007843 0.580392
0.250980 0.011765 0.623529
0.505882 0.011765 0.647059
0.643137 0.098039 0.666667
0.737255 0.117647 0.654902
0.843137 0.113725 0.674510
0.890196 0.121569 0.654902
0.011765 0.047059 0.552941
0.011765 0.015686 0.580392
0.015686 0.011765 0.615686
0.254902 0.007843 0.694118
0.560784 0.011765 0.729412
0.701961 0.090196 0.725490
0.823529 0.145098 0.737255
0.901961 0.149020 0.725490
0.909804 0.137255 0.694118
0.003922 0.192157 0.615686
0.007843 0.188235 0.627451
0.007843 0.164706 0.678431
0.023529 0.172549 0.741176
0.545098 0.098039 0.780392
0.749020 0.105882 0.780392
0.874510 0.211765 0.764706
0.933333 0.192157 0.764706
0.929412 0.176471 0.713725
0.007843 0.341176 0.654902
0.007843 0.345098 0.678431
0.019608 0.349020 0.733333
0.011765 0.356863 0.772549
0.317647 0.427451 0.847059
0.733333 0.450980 0.882353
0.921569 0.474510 0.850980
0.952941 0.270588 0.784314
0.949020 0.250980 0.729412
0.003922 0.482353 0.682353
0.019608 0.494118 0.717647
0.015686 0.505882 0.764706
0.007843 0.521569 0.788235
0.011765 0.521569 0.819608
0.588235 0.584314 0.858824
0.890196 0.619608 0.866667
0.976471 0.615686 0.862745
0.988235 0.584314 0.803922
0.007843 0.600000 0.705882
0.011765 0.615686 0.749020
0.015686 0.643137 0.784314
0.007843 0.650980 0.796078
0.019608 0.650980 0.823529
0.047059 0.654902 0.843137
0.768627 0.733333 0.847059
0.968627 0.760784 0.839216
0.996078 0.752941 0.811765
0.007843 0.733333 0.741176
0.007843 0.760784 0.772549
0.023529 0.784314 0.784314
0.000000 0.800000 0.788235
0.011765 0.803922 0.803922
0.015686 0.800000 0.800000
0.580392 0.913725 0.831373
0.933333 0.898039 0.776471
0.996078 0.874510 0.752941
0.011765 0.854902 0.733333
0.011765 0.874510 0.733333
0.007843 0.890196 0.764706
0.015686 0.890196 0.768627
0.007843 0.905882 0.752941
0.007843 0.894118 0.745098
0.015686 0.890196 0.717647
0.854902 0.976471 0.701961
0.976471 0.980392 0.682353
0.007843 0.011765 0.568627
0.015686 0.007843 0.576471
0.019608 0.007843 0.600000
0.262745 0.007843 0.650980
0.486275 0.011765 0.666667
0.607843 0.031373 0.690196
0.705882 0.137255 0.690196
0.788235 0.125490 0.686275
0.870588 0.137255 0.698039
0.011765 0.011765 0.592157
0.007843 0.011765 0.600000
0.011765 0.015686 0.611765
0.227451 0.007843 0.670588
0.490196 0.007843 0.698039
0.619608 0.015686 0.705882
0.741176 0.137255 0.725490
0.835294 0.152941 0.737255
0.905882 0.152941 0.733333
0.011765 0.039216 0.596078
0.015686 0.011765 0.611765
0.015686 0.011765 0.662745
0.192157 0.015686 0.717647
0.537255 0.011765 0.776471
0.686275 0.011765 0.788235
0.815686 0.184314 0.796078
0.898039 0.196078 0.800000
0.933333 0.188235 0.776471
0.007843 0.184314 0.650980
0.015686 0.172549 0.658824
0.003922 0.145098 0.725490
0.015686 0.133333 0.760784
0.529412 0.074510 0.807843
0.717647 0.050980 0.815686
0.874510 0.270588 0.843137
0.937255 0.274510 0.843137
0.949020 0.258824 0.819608
0.011765 0.325490 0.705882
0.011765 0.321569 0.717647
0.011765 0.329412 0.780392
0.011765 0.333333 0.823529
0.286275 0.400000 0.862745
0.694118 0.427451 0.894118
0.901961 0.454902 0.898039
0.949020 0.349020 0.843137
0.976471 0.337255 0.835294
0.019608 0.454902 0.725490
0.015686 0.470588 0.764706
0.007843 0.486275 0.823529
0.015686 0.498039 0.866667
0.011765 0.498039 0.874510
0.545098 0.560784 0.917647
0.866667 0.592157 0.937255
0.968627 0.623529 0.929412
0.972549 0.592157 0.909804
0.019608 0.568627 0.768627
0.007843 0.592157 0.819608
0.007843 0.611765 0.862745
0.015686 0.623529 0.886275
0.011765 0.627451 0.890196
0.015686 0.627451 0.921569
0.709804 0.709804 0.945098
0.937255 0.741176 0.941176
0.976471 0.752941 0.913725
0.015686 0.701961 0.823529
0.015686 0.717647 0.847059
0.003922 0.737255 0.874510
0.011765 0.745098 0.905882
0.011765 0.752941 0.901961
0.007843 0.756863 0.921569
0.490196 0.839216 0.956863
0.890196 0.854902 0.937255
0.980392 0.878431 0.913725
0.011765 0.827451 0.827451
0.011765 0.850980 0.843137
0.019608 0.874510 0.882353
0.007843 0.886275 0.886275
0.007843 0.886275 0.886275
0.011765 0.890196 0.890196
0.023529 0.886275 0.886275
0.764706 0.980392 0.898039
0.956863 0.972549 0.874510
