luts/Sony slog3 to correction.cube
TITLE "Generated by Resolve"
LUT_3D_SIZE 33
0.000946059 0.0117037 0.0123751
0.000564584 0.00936904 0.0102998
0.000518807 0.00645457 0.00807202
0.0077821 0.00337224 0.00672923
0.0214694 0.00215152 0.00608835
0.0462196 0.00299077 0.00735485
0.0821088 0.00527962 0.0099031
0.127977 0.0091249 0.0132296
0.185016 0.0153811 0.0186007
0.252216 0.0248722 0.0269932
0.327016 0.0383001 0.0397955
0.409445 0.0564889 0.0610056
0.499596 0.0810712 0.0870832
0.592401 0.109514 0.115938
0.679057 0.135866 0.14284
0.763256 0.161471 0.169055
0.843229 0.185779 0.194003
0.921431 0.209552 0.218448
0.979263 0.233906 0.243519
1 0.257694 0.268101
1 0.27422 0.285679
1 0.28275 0.295399
1 0.29102 0.304555
1 0.301564 0.315435
1 0.319814 0.33315
1 0.344442 0.357504
1 0.377096 0.390845
1 0.42388 0.436576
1 0.490837 0.498878
1 0.586496 0.583963
1 0.72047 0.698543
1 0.886458 0.844434
1 0.997497 0.996567
0.00129702 0.0128481 0.0108797
0.000961318 0.0101778 0.00840772
0.000595102 0.00689708 0.00549325
0.000534066 0.00634775 0.00822461
0.00422675 0.00427253 0.00981155
0.0286412 0.00299077 0.00683604
0.0688945 0.00445563 0.00640879
0.116442 0.00813306 0.00996414
0.172091 0.0138247 0.0150759
0.23711 0.0225528 0.0229496
0.310399 0.0350652 0.0354467
0.392248 0.0522621 0.0553902
0.482521 0.0759594 0.0806897
0.576242 0.104494 0.110262
0.663386 0.131044 0.137331
0.74847 0.156924 0.163928
0.829236 0.181476 0.189197
0.908705 0.205646 0.214099
0.975097 0.230381 0.239597
1 0.254627 0.264683
1 0.271672 0.282811
1 0.280934 0.293263
1 0.289265 0.30251
1 0.300023 0.313619
1 0.31751 0.330648
1 0.342168 0.354696
1 0.375036 0.388174
1 0.422354 0.434348
1 0.490059 0.4972
1 0.587579 0.583749
1 0.72462 0.700633
1 0.888533 0.848219
1 1 1
0.00146487 0.0171206 0.0116121
0.00123598 0.0143282 0.00918593
0.000991836 0.0108186 0.00590524
0.00108339 0.007187 0.0024567
0.00679026 0.00358587 0.00300603
0.0224918 0.00216678 0.00848402
0.0393378 0.00276188 0.0138247
0.067277 0.00434882 0.0179141
0.116136 0.00787366 0.0200809
0.18822 0.0155032 0.0226902
0.273274 0.0282292 0.0305333
0.361807 0.0457008 0.0454414
0.45623 0.0684062 0.0722057
0.552285 0.0971237 0.101762
0.641276 0.124224 0.129686
0.726574 0.150179 0.156527
0.808118 0.17499 0.182071
0.888579 0.199466 0.207324
0.966262 0.224628 0.23331
0.999603 0.249531 0.259098
1 0.267994 0.278645
1 0.27834 0.290211
1 0.286488 0.299306
1 0.296864 0.310109
1 0.31281 0.325704
1 0.337621 0.349599
1 0.369711 0.382101
1 0.416052 0.427329
1 0.482719 0.489296
1 0.578576 0.574472
1 0.713527 0.689738
1 0.879789 0.837537
1 1 1
0.00259403 0.0274815 0.0148318
0.00228885 0.0243687 0.0126192
0.00204471 0.0205539 0.00910964
0.00205997 0.0159609 0.00354009
0.00769055 0.0100252 0.000854505
0.0227665 0.00747692 0.00250248
0.0462654 0.00373846 0.00831617
0.0757458 0.00488289 0.0186007
0.110811 0.00735485 0.0269322
0.14931 0.0108797 0.0344549
0.201144 0.0169375 0.0411994
0.275196 0.027924 0.0485542
0.371176 0.0467689 0.0612497
0.478737 0.0742046 0.0870985
0.581338 0.105562 0.116106
0.677623 0.135042 0.143603
0.769131 0.162982 0.170672
0.858045 0.190097 0.197681
0.945663 0.216785 0.224857
0.992615 0.242741 0.251621
1 0.263127 0.273106
1 0.275013 0.286229
1 0.282948 0.295216
1 0.292988 0.30576
1 0.307042 0.31957
1 0.331777 0.343114
1 0.363455 0.374868
1 0.408728 0.419043
1 0.473899 0.479713
1 0.567437 0.562921
1 0.70071 0.676875
1 0.869047 0.824613
1 0.997147 0.99617
0.00515755 0.0455329 0.0197757
0.00462348 0.0419471 0.0179141
0.00421149 0.0378729 0.0149691
0.0041352 0.0328374 0.00914015
0.0090486 0.0256657 0.00292973
0.0229191 0.020676 0.002533
0.0454414 0.0159762 0.00205997
0.0766461 0.00924697 0.00770581
0.11548 0.00813306 0.0229648
0.161608 0.0117952 0.0368811
0.21416 0.0182956 0.0479744
0.268299 0.0267185 0.0601205
0.329534 0.0381476 0.0728771
0.401648 0.0540322 0.0884108
0.481788 0.0751659 0.10573
0.57052 0.101534 0.129168
0.664393 0.130144 0.153353
0.761639 0.160021 0.178653
0.86244 0.190982 0.20589
0.953262 0.223072 0.235416
1 0.250416 0.261555
1 0.267353 0.278599
1 0.277089 0.28893
1 0.287663 0.299855
1 0.300175 0.312154
1 0.324071 0.334798
1 0.355291 0.36556
1 0.399283 0.408347
1 0.462608 0.467369
1 0.554421 0.549126
1 0.685298 0.661143
1 0.855375 0.808438
1 0.99266 0.99028
0.00848402 0.0674601 0.0257725
0.00790417 0.0640879 0.0242466
0.00724804 0.0598001 0.0221408
0.0069276 0.0548104 0.0176699
0.00898756 0.0483864 0.00819409
0.0217288 0.0394598 0.00402838
0.0432593 0.0352941 0.0041352
0.075761 0.0287327 0.0010071
0.117403 0.0206302 0.00784314
0.163821 0.0140383 0.0250706
0.216403 0.0182956 0.0472572
0.280537 0.0281834 0.0648356
0.349996 0.0419471 0.0809949
0.413825 0.057023 0.0978561
0.470695 0.0721752 0.114549
0.530434 0.0899825 0.131456
0.595544 0.109926 0.149737
0.6663 0.131411 0.170474
0.743511 0.154955 0.192309
0.826017 0.180758 0.215518
0.905806 0.20708 0.238163
0.969314 0.230549 0.256718
1 0.248753 0.26981
1 0.266789 0.283848
1 0.284947 0.299123
1 0.310765 0.32221
1 0.343572 0.353033
1 0.387289 0.394919
1 0.448875 0.452277
1 0.538186 0.531853
1 0.666056 0.641352
1 0.837873 0.788037
1 0.987961 0.984268
0.0133211 0.0954604 0.0332952
0.0125582 0.0919814 0.0320134
0.0116732 0.0875563 0.0301976
0.0108644 0.0823224 0.0273136
0.0109255 0.0762798 0.0195773
0.0197757 0.0666667 0.00933852
0.0399634 0.059266 0.00756847
0.0711223 0.0551766 0.0059968
0.114839 0.0478523 0.00122072
0.166201 0.0361944 0.0075227
0.221622 0.0256962 0.0277714
0.284886 0.0293736 0.0580148
0.352483 0.0419013 0.082826
0.421164 0.0583352 0.10251
0.486427 0.0767681 0.121111
0.546563 0.0949722 0.139742
0.60087 0.111696 0.157961
0.653696 0.127901 0.176013
0.711299 0.145541 0.194629
0.772671 0.16434 0.215106
0.8336 0.183124 0.235584
0.876295 0.19704 0.251911
0.886625 0.202792 0.260975
0.904646 0.213306 0.268894
0.95903 0.237842 0.281697
0.991989 0.272389 0.302281
1 0.313771 0.332937
1 0.363806 0.375418
1 0.428748 0.432883
1 0.517983 0.510903
1 0.643626 0.617945
1 0.815503 0.761883
1 0.981582 0.961212
0.0206149 0.129183 0.0430457
0.0196689 0.125795 0.0419165
0.0184939 0.121065 0.0399023
0.0173037 0.115923 0.0376287
0.0163424 0.109819 0.0332799
0.0190585 0.101946 0.0226444
0.0353094 0.0915541 0.0129702
0.0653086 0.0848707 0.012314
0.10753 0.0809491 0.00856031
0.161578 0.0736706 0.00419623
0.223758 0.0582437 0.00933852
0.289494 0.0464332 0.0333104
0.359457 0.0461128 0.0680705
0.427863 0.0596475 0.0986801
0.491249 0.07776 0.122377
0.552987 0.096788 0.143542
0.613733 0.115618 0.163897
0.673045 0.133883 0.18436
0.729458 0.151171 0.204944
0.783703 0.167758 0.225971
0.829984 0.182116 0.245106
0.85095 0.188952 0.258869
0.855711 0.191089 0.269596
0.859678 0.193439 0.280919
0.870069 0.199771 0.296513
0.884001 0.224781 0.324742
0.923049 0.26215 0.352407
0.971572 0.315465 0.380392
1 0.388403 0.421073
1 0.484352 0.488548
1 0.612848 0.590402
1 0.786892 0.731136
1 0.974227 0.929061
0.0314031 0.168368 0.0560616
0.0302892 0.165194 0.0549935
0.0287785 0.160327 0.0526894
0.0272526 0.155184 0.0502174
0.0256046 0.149187 0.0471199
0.024506 0.142245 0.0405127
0.031342 0.132815 0.0268254
0.0580301 0.121706 0.0182803
0.0994888 0.116167 0.0190433
0.150607 0.112566 0.0144808
0.217075 0.10576 0.0102235
0.289128 0.0887312 0.0155032
0.363439 0.0727398 0.0406043
0.435554 0.0675059 0.0785534
0.500755 0.0803998 0.113939
0.561471 0.0989548 0.140902
0.622477 0.117983 0.164706
0.685222 0.137423 0.187915
0.748837 0.15697 0.211658
0.807935 0.175051 0.235248
0.853407 0.189059 0.256275
0.865568 0.193164 0.269566
0.866102 0.194003 0.282338
0.861128 0.193606 0.296025
0.852796 0.194308 0.314092
0.841566 0.202045 0.345907
0.854963 0.228046 0.390173
0.879332 0.273747 0.441123
0.928191 0.343557 0.49099
0.986206 0.441215 0.537514
1 0.570947 0.593301
1 0.747295 0.706279
1 0.963149 0.892973
0.0469825 0.213779 0.0736706
0.0456397 0.210575 0.0723278
0.0437781 0.205783 0.0700236
0.0417639 0.200351 0.0670481
0.0397803 0.194675 0.0638285
0.0375525 0.187762 0.0595407
0.0363317 0.180011 0.049485
0.0507973 0.16817 0.033051
0.0914321 0.158251 0.0280613
0.139757 0.152392 0.0291142
0.2009 0.148089 0.0235142
0.278004 0.140948 0.0187991
0.359869 0.126757 0.0259403
0.438666 0.100603 0.0520638
0.508003 0.0921035 0.0886397
0.572259 0.103258 0.126482
0.635172 0.121462 0.157748
0.698772 0.141192 0.185122
0.764263 0.16141 0.21149
0.828077 0.180941 0.237934
0.872984 0.19469 0.260319
0.889006 0.199863 0.275853
0.892027 0.201251 0.288457
0.89163 0.201953 0.303502
0.877455 0.199771 0.326955
0.859342 0.204364 0.364065
0.839124 0.218189 0.416449
0.825574 0.254002 0.500053
0.865263 0.317968 0.581857
0.911833 0.416007 0.663996
0.94995 0.551247 0.740917
1 0.724666 0.796506
1 0.952712 0.903059
0.0688487 0.265553 0.0959029
0.0672465 0.262165 0.0941329
0.0650034 0.257572 0.0921492
0.0623178 0.25182 0.0888228
0.0596933 0.245823 0.0852827
0.0568704 0.238956 0.0809186
0.0539101 0.231174 0.0754406
0.0536202 0.222202 0.0610513
0.0814221 0.209445 0.045304
0.129809 0.199741 0.0424659
0.185763 0.193378 0.0432746
0.257343 0.187518 0.0363928
0.343267 0.17911 0.033051
0.430549 0.164889 0.0419776
0.507912 0.134661 0.0586404
0.578164 0.119615 0.0969558
0.645914 0.127382 0.139513
0.713649 0.145434 0.173068
0.782971 0.16672 0.204242
0.850248 0.187457 0.232731
0.900313 0.202792 0.256107
0.922148 0.20943 0.272343
0.928176 0.211368 0.28481
0.933257 0.213382 0.297353
0.935576 0.214954 0.312459
0.911177 0.211734 0.35378
0.869383 0.222904 0.439612
0.830884 0.254948 0.551339
0.808301 0.314031 0.68455
0.838514 0.425132 0.835203
0.888258 0.571511 0.91252
0.943069 0.75967 0.930648
1 0.981949 0.95111
0.0965896 0.322469 0.12108
0.0944991 0.318486 0.119066
0.0922103 0.314244 0.11725
0.0889906 0.308324 0.114183
0.0858015 0.302007 0.110674
0.0825818 0.295338 0.106523
0.0790723 0.287663 0.101289
0.0751507 0.278614 0.0941939
0.0792706 0.26833 0.0775921
0.117174 0.255299 0.0625925
0.172 0.245136 0.0615091
0.237385 0.238254 0.0622416
0.318364 0.230533 0.0555428
0.409369 0.22005 0.0536202
0.49836 0.204501 0.0628519
0.578363 0.183291 0.081178
0.652094 0.157275 0.110887
0.723079 0.151568 0.150225
0.794568 0.170459 0.187396
0.866758 0.192172 0.21973
0.925185 0.210163 0.246403
0.952483 0.21854 0.263416
0.959991 0.220798 0.274022
0.969711 0.223728 0.283864
0.980011 0.227115 0.29485
0.976135 0.228992 0.31252
0.951003 0.231724 0.375418
0.897108 0.260105 0.530724
0.845151 0.332235 0.73611
0.79971 0.455787 0.93489
0.764767 0.65658 0.987243
0.896498 0.874998 1
0.983612 0.997528 1
0.127245 0.383154 0.147936
0.125277 0.379324 0.146029
0.123095 0.375113 0.143984
0.119966 0.369131 0.141299
0.116548 0.362402 0.137819
0.113191 0.355657 0.133959
0.10956 0.348089 0.129122
0.105318 0.33901 0.122744
0.10074 0.328817 0.114519
0.11104 0.316777 0.0971389
0.154894 0.303212 0.0836805
0.218708 0.293462 0.0859388
0.294041 0.286503 0.0883803
0.381643 0.278294 0.0833295
0.47483 0.266697 0.0830091
0.564248 0.251255 0.0924086
0.647745 0.228595 0.108309
0.725704 0.205447 0.129747
0.802045 0.193423 0.160357
0.879088 0.198779 0.198062
0.946273 0.217182 0.228733
0.982208 0.227726 0.248692
0.988846 0.230228 0.258198
0.993133 0.233951 0.265461
0.99762 0.238605 0.270756
0.999741 0.243717 0.276341
0.992355 0.245716 0.301137
0.959747 0.259205 0.398779
0.921126 0.319554 0.651804
0.85182 0.468818 0.879789
0.802792 0.698146 1
0.810925 0.968826 1
0.928298 0.99292 1
0.158816 0.445853 0.175418
0.156985 0.442267 0.173678
0.154757 0.437919 0.171618
0.15172 0.43209 0.169162
0.148241 0.425193 0.165805
0.14461 0.417914 0.16202
0.141161 0.410834 0.157778
0.136934 0.401907 0.152056
0.132326 0.391836 0.144686
0.128145 0.381689 0.135012
0.146761 0.367834 0.11783
0.199237 0.356008 0.110033
0.272847 0.347951 0.115846
0.357687 0.341344 0.11957
0.448585 0.333059 0.11754
0.541115 0.321782 0.118944
0.6318 0.305715 0.126833
0.718624 0.28481 0.139498
0.801328 0.261128 0.156939
0.880995 0.241199 0.179049
0.95314 0.235264 0.204669
0.996796 0.239109 0.230594
0.999374 0.240955 0.239124
1 0.244205 0.246021
1 0.249042 0.249729
1 0.254826 0.251728
1 0.261585 0.255268
1 0.267811 0.270497
0.988235 0.293095 0.43711
0.927779 0.408484 0.750195
0.843702 0.671244 0.942367
0.836545 0.899092 1
0.907713 1 1
0.189395 0.507012 0.20325
0.187701 0.503639 0.20148
0.185687 0.499626 0.199405
0.183108 0.494545 0.196826
0.179644 0.487739 0.193561
0.176196 0.480842 0.189899
0.172946 0.474128 0.185885
0.169207 0.4663 0.181079
0.165042 0.457328 0.175113
0.160784 0.4477 0.167285
0.162295 0.437186 0.156695
0.189563 0.424857 0.14374
0.252277 0.415396 0.141588
0.336599 0.410056 0.150423
0.426307 0.403906 0.155459
0.517174 0.396155 0.155489
0.609842 0.384741 0.157488
0.701656 0.369924 0.164721
0.790814 0.349935 0.175051
0.875654 0.32575 0.187549
0.951522 0.301122 0.202136
1 0.278599 0.217441
1 0.257679 0.217807
1 0.254139 0.226093
1 0.258183 0.2309
1 0.263478 0.232486
1 0.270436 0.231693
1 0.278981 0.232425
1 0.289586 0.248081
1 0.336156 0.483818
0.944335 0.534768 0.795056
0.889555 0.829038 0.960113
0.928389 0.988159 1
0.220829 0.570214 0.233188
0.219516 0.567605 0.231754
0.217472 0.563531 0.229618
0.215061 0.558663 0.22707
0.211994 0.552636 0.224155
0.208347 0.545312 0.220295
0.204791 0.538064 0.216175
0.20145 0.531044 0.211673
0.197589 0.522698 0.205829
0.193515 0.513634 0.198627
0.190616 0.504005 0.190494
0.200275 0.49369 0.18085
0.240497 0.483833 0.173449
0.315831 0.477531 0.176669
0.406363 0.473335 0.186419
0.496376 0.468101 0.191959
0.588067 0.461051 0.193362
0.68191 0.451026 0.196628
0.774289 0.437842 0.203632
0.863706 0.42034 0.212802
0.944335 0.39733 0.22211
1 0.366155 0.228138
1 0.324285 0.219348
1 0.291493 0.215518
1 0.269825 0.211673
1 0.269398 0.214282
1 0.2748 0.214084
1 0.282902 0.211994
1 0.294438 0.21236
1 0.31516 0.23418
1 0.401022 0.502937
0.992142 0.70753 0.817426
0.99205 0.940841 0.971832
0.25391 0.636957 0.264942
0.252522 0.63415 0.263432
0.250767 0.630625 0.26154
0.248447 0.62594 0.259052
0.24535 0.61973 0.255848
0.241688 0.612421 0.25214
0.237873 0.604669 0.247959
0.234531 0.597711 0.243702
0.230884 0.589899 0.238331
0.226886 0.581109 0.231601
0.223301 0.571908 0.224216
0.223987 0.562844 0.217182
0.243015 0.553613 0.208988
0.300816 0.546334 0.205707
0.389441 0.542779 0.213809
0.479561 0.539605 0.223804
0.570397 0.535241 0.229801
0.663188 0.529076 0.232334
0.756405 0.519677 0.236271
0.847578 0.50837 0.243336
0.932891 0.494255 0.251606
0.99939 0.473747 0.257908
1 0.438254 0.25008
1 0.386572 0.232517
1 0.333852 0.214801
1 0.298589 0.204669
1 0.281621 0.199878
1 0.286946 0.199649
1 0.29929 0.197986
1 0.319463 0.201709
1 0.352132 0.231891
1 0.495628 0.500175
1 0.815167 0.835981
0.288899 0.707652 0.29865
0.287572 0.704952 0.297185
0.285725 0.701228 0.295201
0.28333 0.696376 0.292622
0.280446 0.690547 0.289525
0.276768 0.683131 0.285679
0.272541 0.674617 0.28127
0.268742 0.666819 0.27686
0.265064 0.659037 0.271839
0.261326 0.650858 0.265782
0.257527 0.641596 0.25864
0.255604 0.633082 0.252522
0.26276 0.62501 0.245914
0.299184 0.617426 0.239536
0.374578 0.613443 0.242313
0.464897 0.611566 0.252338
0.555261 0.609049 0.262669
0.647074 0.604532 0.26862
0.739391 0.59791 0.271244
0.831205 0.589456 0.275792
0.918364 0.579614 0.282536
0.99472 0.566491 0.289128
1 0.547341 0.288334
1 0.51754 0.276646
1 0.476616 0.259953
1 0.401312 0.229892
1 0.332189 0.203937
1 0.305089 0.195117
1 0.307805 0.190906
1 0.32546 0.188174
1 0.357366 0.195193
1 0.40502 0.23447
1 0.642863 0.51017
0.324895 0.780484 0.333394
0.323674 0.778012 0.332036
0.322011 0.774624 0.33022
0.319829 0.770199 0.32784
0.317052 0.764553 0.324804
0.313298 0.756939 0.32076
0.308812 0.74786 0.31603
0.304219 0.738537 0.31107
0.300191 0.730144 0.30605
0.296437 0.722026 0.300374
0.292668 0.712993 0.293675
0.290486 0.704463 0.287724
0.292775 0.696712 0.282445
0.311437 0.690181 0.276173
0.365896 0.685512 0.273487
0.452155 0.684367 0.281575
0.541939 0.682582 0.291737
0.633478 0.679347 0.302068
0.724712 0.675181 0.307897
0.815671 0.668727 0.310658
0.903365 0.661204 0.315358
0.982879 0.652415 0.321492
1 0.640482 0.324712
1 0.622278 0.317372
1 0.599939 0.307408
1 0.568261 0.292592
1 0.497917 0.259953
1 0.392035 0.21384
1 0.333898 0.188159
1 0.331762 0.178882
1 0.361395 0.178744
1 0.412467 0.193988
1 0.504463 0.265232
0.361654 0.854963 0.368887
0.360327 0.852262 0.367437
0.358846 0.84921 0.365774
0.356741 0.844938 0.363455
0.35404 0.83946 0.360494
0.350576 0.83238 0.35668
0.345876 0.822812 0.351583
0.340688 0.812284 0.346075
0.3355 0.801694 0.340261
0.331472 0.793133 0.334691
0.32781 0.784314 0.328481
0.325368 0.775387 0.322576
0.325368 0.768048 0.318044
0.332784 0.762234 0.312779
0.367895 0.757839 0.307622
0.443442 0.756756 0.312276
0.531014 0.7561 0.321172
0.621317 0.754147 0.331456
0.712367 0.751293 0.342184
0.802213 0.74696 0.347524
0.890242 0.741253 0.350454
0.97174 0.735134 0.355276
1 0.728618 0.360632
1 0.716884 0.356847
1 0.703731 0.350713
1 0.689509 0.343328
1 0.666636 0.330846
1 0.615991 0.304051
1 0.510384 0.249454
1 0.388952 0.188235
1 0.363821 0.163622
1 0.410803 0.169146
1 0.484245 0.196216
0.39823 0.929076 0.40415
0.39704 0.926635 0.402808
0.395407 0.923323 0.401022
0.393515 0.919448 0.398901
0.39089 0.914092 0.395987
0.387503 0.907179 0.392218
0.383017 0.898009 0.387259
0.377523 0.886854 0.381353
0.371496 0.874586 0.374792
0.366247 0.863676 0.368399
0.362432 0.854414 0.362432
0.360113 0.845548 0.356924
0.359457 0.837964 0.352407
0.362066 0.832792 0.348608
0.381521 0.829862 0.344884
0.441886 0.827787 0.34374
0.524025 0.828565 0.351675
0.612284 0.828168 0.361044
0.702846 0.826627 0.371679
0.792538 0.823713 0.382574
0.879667 0.820203 0.387671
0.962264 0.816236 0.390936
0.9991 0.812268 0.395621
1 0.806653 0.396292
1 0.798886 0.392798
1 0.792508 0.389075
1 0.784085 0.38352
1 0.767452 0.372854
1 0.731365 0.350958
1 0.59501 0.27454
1 0.57145 0.252491
1 0.701762 0.311971
1 0.835554 0.381567
0.433433 0.990066 0.437919
0.432425 0.988159 0.436759
0.4309 0.985687 0.43505
0.429114 0.98262 0.433036
0.426596 0.978378 0.430228
0.423438 0.97293 0.426657
0.419409 0.965942 0.42211
0.414054 0.956771 0.416114
0.407568 0.945434 0.409003
0.400977 0.933333 0.401602
0.396628 0.923262 0.395544
0.394217 0.913909 0.39028
0.393133 0.905745 0.385504
0.39408 0.900816 0.382223
0.404578 0.898573 0.379339
0.450401 0.896941 0.375463
0.524346 0.898909 0.382559
0.608652 0.899886 0.391196
0.697459 0.899474 0.400946
0.786206 0.89807 0.411627
0.87306 0.895903 0.422431
0.954757 0.893828 0.427512
0.997925 0.891783 0.431067
1 0.88986 0.434089
1 0.886275 0.432807
1 0.884245 0.431174
1 0.882689 0.429191
1 0.881559 0.426612
1 0.875669 0.420508
1 0.83331 0.393454
1 0.852781 0.397543
1 0.92546 0.449165
1 0.980011 0.519844
0.466392 1 0.465965
0.465354 1 0.464851
0.464088 1 0.463508
0.462196 1 0.461692
0.46006 1 0.459434
0.457237 1 0.45658
0.45359 1 0.452811
0.448646 1 0.447608
0.44242 1 0.441169
0.435416 0.995758 0.433707
0.429358 0.98613 0.426612
0.426429 0.977142 0.421271
0.425437 0.969726 0.416678
0.426154 0.96495 0.413413
0.433982 0.962982 0.410758
0.471443 0.962158 0.406363
0.536858 0.965026 0.412848
0.614969 0.967605 0.421088
0.70016 0.968872 0.430442
0.786175 0.968231 0.440192
0.871107 0.967544 0.450919
0.951598 0.966278 0.460777
0.996796 0.965713 0.465782
1 0.966049 0.469169
1 0.96585 0.470115
1 0.965743 0.469703
1 0.968566 0.470161
1 0.971176 0.471305
1 0.971252 0.473152
1 0.966308 0.472511
1 0.977996 0.489143
1 0.994476 0.530327
1 1 0.589624
0.520409 1 0.476265
0.51809 1 0.475151
0.515541 1 0.473854
0.512062 1 0.47216
0.507469 1 0.470192
0.50248 1 0.468482
0.496162 1 0.466621
0.487984 1 0.464469
0.477852 1 0.462379
0.467048 0.999741 0.459007
0.458412 0.999008 0.452918
0.453513 0.998184 0.445975
0.453788 0.997269 0.440574
0.460182 0.996506 0.435782
0.472694 0.99585 0.432807
0.506905 0.995377 0.433005
0.565911 0.995346 0.439918
0.637522 0.995468 0.448203
0.716197 0.995514 0.457191
0.797162 0.9953 0.466636
0.878416 0.995117 0.476768
0.955352 0.994812 0.486976
0.996246 0.994766 0.49543
1 0.995209 0.499748
1 0.995331 0.50135
1 0.995972 0.502434
1 0.99765 0.504311
1 0.999451 0.507774
1 1 0.513848
1 1 0.520485
1 1 0.539528
1 1 0.574533
1 1 0.622782
0.616297 1 0.500862
0.613642 1 0.499672
0.61059 1 0.498268
0.606485 1 0.496376
0.60061 1 0.493812
0.593622 1 0.490715
0.584451 1 0.486686
0.57319 1 0.481712
0.559182 1 0.475822
0.541482 1 0.468818
0.522316 1 0.461036
0.505257 1 0.453635
0.495903 1 0.448371
0.503273 1 0.446235
0.5205 1 0.447288
0.550225 1 0.451362
0.608911 1 0.459861
0.674754 1 0.469123
0.746654 1 0.478508
0.821469 1 0.488197
0.897368 1 0.498299
0.968322 1 0.508232
0.996963 1 0.517388
1 1 0.523659
1 1 0.527443
1 1 0.529702
1 1 0.532555
1 1 0.537209
1 1 0.543389
1 1 0.552453
1 1 0.569406
1 1 0.597238
1 1 0.636225
0.744518 1 0.536248
0.741863 1 0.535042
0.738796 1 0.533593
0.734539 1 0.531655
0.728359 1 0.528893
0.720394 1 0.525292
0.710918 1 0.520806
0.698039 1 0.514763
0.681468 1 0.506996
0.658839 1 0.496971
0.630716 1 0.484977
0.599496 1 0.47245
0.571389 1 0.462119
0.562799 1 0.457221
0.579248 1 0.459022
0.606149 1 0.463996
0.666728 1 0.473594
0.727291 1 0.483238
0.791989 1 0.492973
0.859922 1 0.503059
0.927413 1 0.513176
0.985443 1 0.522927
0.99881 1 0.531258
1 1 0.538399
1 1 0.544228
1 1 0.547585
1 1 0.550774
1 1 0.555428
1 1 0.561196
1 1 0.569924
1 1 0.583871
1 1 0.606989
1 1 0.643336
0.875395 1 0.580575
0.872709 1 0.579217
0.870207 1 0.577844
0.866255 1 0.575784
0.862287 1 0.57348
0.856168 1 0.570169
0.847242 1 0.565545
0.835431 1 0.559457
0.82002 1 0.551476
0.79968 1 0.541009
0.772244 1 0.527382
0.73611 1 0.510277
0.693523 1 0.491142
0.65565 1 0.475029
0.649058 1 0.470573
0.675456 1 0.476387
0.740108 1 0.487724
0.797543 1 0.497749
0.855634 1 0.507393
0.914275 1 0.516869
0.969375 1 0.526223
0.996597 1 0.534447
1 1 0.541222
1 1 0.547509
1 1 0.553811
1 1 0.557336
1 1 0.560235
1 1 0.564233
1 1 0.569955
1 1 0.578012
1 1 0.591516
1 1 0.615274
1 1 0.652491
0.967605 1 0.634043
0.966506 1 0.632731
0.96556 1 0.631449
0.963989 1 0.629465
0.962264 1 0.627146
0.959899 1 0.624033
0.956207 1 0.619669
0.951217 1 0.613962
0.94519 1 0.60676
