luts/SpringMorning.cube
TITLE "Generated by Resolve"
LUT_3D_SIZE 33
0 0 0
0 0 0
0 0 0
0 0 0
0.0165255 0 0
0.0508736 0 0
0.0852064 0 0
0.11957 0 0
0.153826 0 0
0.188296 0 0
0.221897 0 0
0.256764 0 0
0.291859 0 0
0.326452 0 0
0.36141 0 0
0.396231 0 0
0.429435 0 0
0.461295 0 0
0.491081 0 0
0.518822 0 0
0.54583 0 0
0.572747 0 0
0.600549 0 0
0.628931 0 0
0.657053 0 0
0.685222 0 0
0.713466 0 0
0.741314 0 0
0.769192 0 0
0.79704 0 0
0.824933 0 0
0.853025 0 0
0.880568 0 0
0 0 0
0 0 0
0 0 0
0 0 0
0.0164034 0 0
0.0507362 0 0
0.0847181 0 0
0.119234 0 0
0.15346 0 0
0.187961 0 0
0.221607 0 0
0.256336 0 0
0.291707 0 0
0.327184 0 0
0.362036 0 0
0.396338 0 0
0.429557 0 0
0.461677 0 0
0.491554 0 0
0.519203 0 0
0.545998 0 0
0.573114 0 0
0.600778 0 0
0.629023 0 0
0.657481 0 0
0.685664 0 0
0.713527 0 0
0.741344 0 0
0.769467 0 0
0.797299 0 0
0.825177 0 0
0.853162 0 0
0.880766 0 0
0 0.0102541 0
0 0.00947585 0
0 0.00856031 0
0 0.00738537 0
0.0158389 0.0062562 0
0.0500649 0.00521859 0
0.0844892 0.0043183 0
0.118563 0.0031281 0
0.15288 0.002121 0
0.187167 0.00157168 0
0.221393 0.000549325 0
0.256504 0 0
0.291844 0 0
0.326894 0 0
0.361807 0 0
0.396262 0 0
0.429465 0 0
0.461585 0 0
0.491508 0 0
0.519234 0 0
0.545983 0 0
0.572869 0 0
0.60061 0 0
0.629358 0 0
0.65742 0 0
0.685359 0 0
0.713451 0 0
0.741283 0 0
0.769192 0 0
0.797208 0 0
0.82536 0 0
0.853086 0 0
0.880476 0 0
0 0.0378882 0
0 0.0373083 0
0 0.0363622 0
0 0.0350958 0
0.0152743 0.0339818 0
0.0502022 0.0334478 0
0.0843977 0.0324407 0
0.11873 0.0313878 0
0.153033 0.0303349 0
0.18761 0.0295415 0
0.222156 0.0286412 0
0.256962 0.0275731 0
0.292027 0.0264744 0
0.327352 0.0256352 0
0.362173 0.0245212 0
0.396094 0.0234073 0
0.429694 0.0224002 0
0.461814 0.0214542 0
0.491585 0.0207523 0
0.519097 0.0204318 0
0.545892 0.0202029 0
0.573022 0.0202487 0
0.600992 0.020325 0
0.629297 0.0202029 0
0.657496 0.020264 0
0.685573 0.020325 0
0.713344 0.020325 0
0.741146 0.0203708 0
0.769451 0.0207828 0
0.797482 0.0207065 0
0.825238 0.0207065 0
0.852995 0.0207065 0
0.880659 0.0210422 0
0 0.0661631 0
0 0.0654002 0
0 0.0645151 0
0 0.0641031 0
0.0148623 0.0631266 0
0.0492866 0.0620432 0
0.0835889 0.0609903 0
0.118151 0.0601663 0
0.152422 0.0590982 0
0.18703 0.0581521 0
0.221408 0.0571145 0
0.256199 0.0563058 0
0.291112 0.0552377 0
0.326162 0.0541085 0
0.361013 0.0530404 0
0.395865 0.0521706 0
0.429267 0.0508278 0
0.46128 0.0496681 0
0.491295 0.0491035 0
0.518929 0.0488441 0
0.545724 0.0485847 0
0.572839 0.0486152 0
0.600488 0.0485542 0
0.628931 0.0486305 0
0.656992 0.0485542 0
0.684947 0.0484932 0
0.713252 0.0488746 0
0.741146 0.0489204 0
0.769207 0.0488289 0
0.79707 0.0487831 0
0.825086 0.0490272 0
0.852781 0.049073 0
0.880308 0.049424 0
0 0.0947433 0
0 0.0942092 0
0 0.0934157 0
0 0.0927291 0
0.0140383 0.0916304 0
0.0487068 0.0907759 0
0.0829175 0.0897231 0
0.117067 0.0886854 0
0.151736 0.0878004 0
0.186358 0.0869306 0
0.220523 0.085832 0
0.255085 0.0847334 0
0.290105 0.0836042 0
0.325567 0.0828717 0
0.360586 0.0817884 0
0.39501 0.0805066 0
0.428336 0.0792554 0
0.460456 0.078294 0
0.49041 0.0775311 0
0.518212 0.0773785 0
0.545357 0.0773327 0
0.57232 0.0771344 0
0.599893 0.0769818 0
0.628138 0.0768749 0
0.656367 0.076936 0
0.684642 0.0772106 0
0.712535 0.0771649 0
0.740398 0.0771496 0
0.768505 0.0773785 0
0.796384 0.077348 0
0.82414 0.077348 0
0.85211 0.0775921 0
0.879805 0.0779278 0
0 0.123522 0
0 0.122896 0
0 0.122026 0
0 0.121477 0
0.0133211 0.120363 0
0.0476997 0.119249 0
0.0820478 0.118227 0
0.116869 0.117494 0
0.151217 0.116365 0
0.185443 0.115251 0
0.219608 0.114153 0
0.254429 0.113283 0
0.289448 0.112322 0
0.324651 0.111269 0
0.359518 0.110109 0
0.394141 0.109117 0
0.427436 0.107744 0
0.459617 0.106554 0
0.489982 0.106065 0
0.517968 0.105837 0
0.544793 0.105562 0
0.571649 0.105333 0
0.599313 0.105486 0
0.627512 0.105379 0
0.655787 0.105547 0
0.683772 0.105486 0
0.712032 0.105592 0
0.73994 0.105623 0
0.767834 0.105592 0
0.795895 0.105791 0
0.823941 0.106081 0
0.851713 0.106081 0
0.879316 0.106157 0
0 0.152178 0
0 0.151568 0
0 0.150652 0
0 0.149859 0
0.0124361 0.148714 0
0.0471504 0.147906 0
0.0817273 0.146929 0
0.115969 0.145815 0
0.150118 0.144778 0
0.184588 0.143877 0
0.218738 0.142763 0
0.253513 0.141863 0
0.28867 0.140673 0
0.32401 0.139773 0
0.358785 0.138628 0
0.393164 0.137377 0
0.426688 0.136187 0
0.459205 0.135302 0
0.489403 0.134478 0
0.517143 0.134096 0
0.544182 0.134051 0
0.571054 0.133852 0
0.598688 0.133867 0
0.627024 0.133837 0
0.655344 0.134005 0
0.683497 0.133898 0
0.711421 0.133867 0
0.739269 0.133867 0
0.767559 0.134234 0
0.795422 0.134356 0
0.823133 0.134417 0
0.851102 0.134401 0
0.878798 0.134783 0
0 0.180789 0
0 0.17995 0
0 0.179004 0
0 0.178515 0
0.0118257 0.1776 0
0.0463417 0.17641 0
0.0806287 0.17528 0
0.115129 0.174395 0
0.149355 0.173281 0
0.183627 0.172198 0
0.218067 0.171328 0
0.252979 0.170321 0
0.287938 0.169177 0
0.322789 0.168093 0
0.357565 0.166964 0
0.392355 0.166049 0
0.425864 0.164828 0
0.458381 0.163546 0
0.488762 0.162844 0
0.516701 0.162585 0
0.543542 0.16231 0
0.570489 0.162219 0
0.598291 0.162432 0
0.626581 0.162325 0
0.654765 0.162249 0
0.682658 0.162249 0
0.710842 0.162463 0
0.738918 0.162707 0
0.766842 0.162707 0
0.794751 0.162707 0
0.822904 0.162905 0
0.850767 0.162997 0
0.878401 0.163333 0
0 0.209201 0
0 0.208591 0
0 0.207614 0
0 0.206989 0
0.0110018 0.205844 0
0.0456245 0.204944 0
0.0798505 0.203815 0
0.114076 0.202686 0
0.148241 0.201663 0
0.182879 0.200977 0
0.217258 0.199802 0
0.251713 0.198672 0
0.28687 0.197696 0
0.321965 0.196612 0
0.357015 0.195712 0
0.391501 0.194491 0
0.425132 0.193103 0
0.45774 0.192081 0
0.488075 0.191226 0
0.515999 0.190921 0
0.543069 0.191012 0
0.569986 0.190936 0
0.597421 0.190799 0
0.625879 0.190646 0
0.654231 0.190829 0
0.682353 0.190921 0
0.710414 0.191043 0
0.738308 0.191073 0
0.766506 0.191333 0
0.794568 0.191333 0
0.822385 0.191424 0
0.850263 0.191699 0
0.877882 0.192065 0
0 0.237766 0
0 0.237095 0
0 0.236164 0
0 0.235492 0
0.0099794 0.234485 0
0.0443275 0.233326 0
0.0785534 0.232197 0
0.113313 0.231556 0
0.147539 0.230426 0
0.181994 0.229236 0
0.216236 0.228183 0
0.250858 0.227237 0
0.285832 0.226093 0
0.321126 0.225177 0
0.35613 0.224231 0
0.390799 0.223072 0
0.424155 0.221729 0
0.456641 0.220478 0
0.487221 0.219745 0
0.515557 0.21973 0
0.542473 0.219471 0
0.569299 0.219272 0
0.597055 0.219272 0
0.625437 0.219272 0
0.653635 0.219318 0
0.681819 0.219486 0
0.709865 0.21976 0
0.737804 0.219883 0
0.765896 0.219898 0
0.793912 0.219944 0
0.822187 0.220493 0
0.850111 0.220676 0
0.877653 0.220905 0
0 0.266239 0
0 0.265675 0
0 0.264698 0
0 0.263767 0
0.00880446 0.26273 0
0.0434119 0.26183 0
0.0778821 0.260914 0
0.112123 0.2598 0
0.146593 0.258625 0
0.181094 0.257755 0
0.215137 0.256687 0
0.2495 0.255589 0
0.28484 0.25478 0
0.320058 0.253803 0
0.355093 0.252628 0
0.3897 0.251438 0
0.423362 0.250324 0
0.456184 0.249332 0
0.486732 0.248478 0
0.514839 0.248096 0
0.541817 0.247898 0
0.568902 0.247944 0
0.596292 0.247883 0
0.624811 0.248051 0
0.65304 0.248112 0
0.6813 0.248325 0
0.7093 0.248371 0
0.737362 0.248447 0
0.765606 0.248676 0
0.793942 0.249119 0
0.821836 0.249271 0
0.849729 0.249424 0
0.877348 0.249729 0
0 0.294774 0
0 0.293904 0
0 0.292958 0
0 0.292256 0
0.00781262 0.291371 0
0.0422217 0.290333 0
0.0763104 0.289265 0
0.11104 0.288334 0
0.145281 0.287221 0
0.179538 0.286107 0
0.213947 0.285206 0
0.248676 0.284382 0
0.28365 0.283253 0
0.318944 0.282078 0
0.353918 0.281102 0
0.388739 0.280064 0
0.422385 0.278996 0
0.454917 0.277806 0
0.485756 0.277134 0
0.514061 0.276844 0
0.541238 0.276585 0
0.568093 0.276448 0
0.595712 0.276616 0
0.624292 0.27686 0
0.652506 0.27689 0
0.680644 0.276951 0
0.708721 0.277043 0
0.737148 0.277424 0
0.765332 0.27776 0
0.793271 0.277974 0
0.82121 0.278172 0
0.849409 0.27863 0
0.877028 0.27895 0
0 0.323049 0
0 0.322469 0
0 0.321508 0
0 0.320729 0
0.00621042 0.31986 0
0.0408026 0.318914 0
0.0752575 0.317739 0
0.109529 0.31664 0
0.143786 0.315541 0
0.178515 0.314855 0
0.212787 0.313817 0
0.24715 0.312749 0
0.282246 0.31165 0
0.317601 0.31078 0
0.352468 0.309712 0
0.387503 0.308797 0
0.421103 0.307561 0
0.454047 0.306569 0
0.484825 0.30573 0
0.513344 0.305318 0
0.540658 0.305409 0
0.567758 0.305531 0
0.595178 0.305501 0
0.623453 0.305547 0
0.651606 0.305653 0
0.680034 0.30602 0
0.708507 0.306371 0
0.736568 0.306538 0
0.764675 0.306706 0
0.792859 0.307012 0
0.821012 0.307408 0
0.849058 0.307698 0
0.876921 0.308309 0
0 0.351598 0
0 0.350744 0
0 0.350011 0
0 0.349371 0
0.00492866 0.348348 0
0.0394903 0.347173 0
0.0737926 0.346181 0
0.108232 0.345403 0
0.142657 0.344442 0
0.176944 0.343359 0
0.21117 0.342275 0
0.246098 0.341405 0
0.281102 0.340322 0
0.316426 0.339406 0
0.351431 0.338445 0
0.386526 0.337575 0
0.420157 0.336309 0
0.452979 0.335149 0
0.483925 0.33434 0
0.512795 0.334493 0
0.53994 0.334386 0
0.566873 0.334325 0
0.594278 0.33434 0
0.622904 0.334661 0
0.651225 0.334783 0
0.679713 0.335149 0
0.707973 0.335317 0
0.736233 0.335714 0
0.764492 0.336034 0
0.79263 0.336294 0
0.820676 0.336583 0
0.848966 0.337163 0
0.876951 0.337865 0
0 0.379995 0
0 0.379599 0
0 0.378683 0
0 0.377829 0
0.0033875 0.376776 0
0.038056 0.375906 0
0.0724498 0.374914 0
0.106905 0.373968 0
0.141238 0.37293 0
0.175814 0.372107 0
0.210315 0.370993 0
0.244755 0.369955 0
0.279927 0.369024 0
0.315404 0.368368 0
0.350271 0.367407 0
0.385153 0.366339 0
0.418921 0.365118 0
0.452125 0.364202 0
0.483513 0.363638 0
0.512078 0.363363 0
0.539269 0.363272 0
0.566339 0.363378 0
0.593881 0.363561 0
0.622446 0.363851 0
0.650889 0.364096 0
0.679301 0.364279 0
0.707774 0.364752 0
0.735897 0.365042 0
0.764035 0.365377 0
0.792416 0.365957 0
0.8206 0.366461 0
0.848875 0.366979 0
0.876646 0.367483 0
0 0.408988 0
0 0.408148 0
0 0.407202 0
0 0.406561 0
0.00222782 0.405585 0
0.0369116 0.404715 0
0.0712444 0.403662 0
0.105837 0.402869 0
0.140093 0.401846 0
0.174517 0.400809 0
0.208972 0.399847 0
0.2439 0.399268 0
0.27895 0.398245 0
0.314168 0.397238 0
0.349172 0.396262 0
0.384405 0.395499 0
0.418387 0.39443 0
0.451682 0.393408 0
0.482795 0.39266 0
0.511467 0.392416 0
0.538964 0.392615 0
0.565972 0.39266 0
0.5935 0.392966 0
0.621912 0.393256 0
0.650462 0.393652 0
0.679072 0.393988 0
0.707332 0.394308 0
0.735531 0.394659 0
0.763989 0.395224 0
0.792508 0.395865 0
0.820691 0.396323 0
0.848859 0.39678 0
0.876692 0.39733 0
0 0.437583 0
0 0.437018 0
0 0.436103 0
0 0.435309 0
0.00109865 0.434607 0
0.0357824 0.433753 0
0.070161 0.432761 0
0.10454 0.431739 0
0.13904 0.430716 0
0.173846 0.429969 0
0.208438 0.429191 0
0.242939 0.428229 0
0.278035 0.427253 0
0.313481 0.426444 0
0.348653 0.42562 0
0.383749 0.42472 0
0.417914 0.423743 0
0.451057 0.42269 0
0.482414 0.422278 0
0.511177 0.42208 0
0.538491 0.42208 0
0.565759 0.422431 0
0.593408 0.422797 0
0.621958 0.423133 0
0.650477 0.423407 0
0.678996 0.423697 0
0.707424 0.424216 0
0.736019 0.424979 0
0.76437 0.425422 0
0.79266 0.425849 0
0.820859 0.426322 0
0.849073 0.42681 0
0.877317 0.427832 0
0 0.466606 0
0 0.465812 0
0 0.464927 0
0 0.464607 0
0.000457771 0.463706 0
0.0349432 0.462684 0
0.069337 0.461677 0
0.103868 0.460792 0
0.138933 0.460182 0
0.173388 0.459236 0
0.207813 0.458305 0
0.242252 0.457389 0
0.277562 0.456748 0
0.312901 0.455879 0
0.348287 0.455238 0
0.383368 0.454307 0
0.417762 0.453407 0
0.451011 0.452415 0
0.482277 0.451789 0
0.511208 0.451743 0
0.53875 0.451987 0
0.566064 0.452399 0
0.593576 0.452628 0
0.62211 0.452934 0
0.650675 0.4533 0
0.679347 0.453773 0
0.70808 0.454582 0
0.73637 0.455039 0
0.764752 0.455512 0
0.793088 0.456001 0
0.821332 0.456535 0
0.849989 0.457481 0
0.877958 0.458228 0
0 0.495476 0
0 0.49514 0
0 0.494377 0
0 0.493599 0
0 0.492729 0
0.0346227 0.49192 0
0.0690471 0.491096 0
0.103853 0.490394 0
0.138399 0.489448 0
0.172885 0.488533 0
0.207645 0.487907 0
0.242237 0.487037 0
0.277424 0.486168 0
0.313085 0.485527 0
0.348272 0.484703 0
0.383703 0.484108 0
0.418021 0.483055 0
0.45124 0.482094 0
0.482628 0.481559 0
0.511788 0.481758 0
0.539376 0.482078 0
0.566522 0.482307 0
0.594079 0.482597 0
0.622644 0.482948 0
0.651514 0.483665 0
0.680262 0.484291 0
0.708751 0.484749 0
0.737087 0.485252 0
0.765484 0.485771 0
0.793942 0.486397 0
0.822629 0.487404 0
0.850904 0.487999 0
0.878828 0.488701 0
0 0.525063 0
0 0.524437 0
0 0.523644 0
0 0.522942 0
0 0.522362 0
0.0342565 0.521416 0
0.0690623 0.520745 0
0.103792 0.519814 0
0.138613 0.519219 0
0.173144 0.518349 0
0.207675 0.51751 0
0.242588 0.51693 0
0.277897 0.516152 0
0.313619 0.515587 0
0.348882 0.514824 0
0.38407 0.514 0
0.418463 0.512993 0
0.452094 0.512428 0
0.483635 0.512078 0
0.512551 0.512062 0
0.540017 0.512245 0
0.567193 0.512505 0
0.594888 0.512993 0
0.623896 0.513802 0
0.652461 0.514275 0
0.680934 0.514778 0
0.709468 0.515282 0
0.73785 0.515846 0
0.766613 0.516732 0
0.795193 0.517494 0
0.823499 0.51812 0
0.85182 0.518746 0
0.87982 0.519493 0
0 0.554452 0
0 0.55378 0
0 0.553277 0
0 0.552621 0
0 0.552026 0
0.0345464 0.551217 0
0.0692912 0.550378 0
0.104173 0.549722 0
0.138781 0.548928 0
0.173419 0.54815 0
0.20827 0.547585 0
0.243198 0.547021 0
0.278614 0.546349 0
0.314137 0.545602 0
0.349477 0.544915 0
0.384695 0.544167 0
0.419486 0.543633 0
0.452903 0.54287 0
0.48426 0.542428 0
0.513207 0.542473 0
0.540688 0.542702 0
0.568048 0.54316 0
0.596063 0.543923 0
0.624735 0.544381 0
0.653391 0.544884 0
0.681926 0.545419 0
0.710445 0.545953 0
0.739437 0.547036 0
0.767941 0.547662 0
0.796384 0.548272 0
0.824735 0.548928 0
0.853086 0.549599 0
0.881193 0.550454 0
0 0.58407 0
0 0.583459 0
0 0.582757 0
0 0.582315 0
0.000167849 0.581704 0
0.0351568 0.58114 0
0.0699779 0.580316 0
0.104677 0.579538 0
0.139315 0.57879 0
0.174273 0.578317 0
0.209155 0.57789 0
0.243885 0.577218 0
0.279255 0.576501 0
0.314824 0.575814 0
0.350439 0.575341 0
0.386099 0.57496 0
0.420386 0.574075 0
0.45388 0.573236 0
0.485283 0.572808 0
0.514244 0.5729 0
0.542229 0.573678 0
0.569497 0.57406 0
0.597238 0.574487 0
0.625971 0.574975 0
0.654658 0.575525 0
0.683467 0.576333 0
0.712215 0.577234 0
0.740673 0.577859 0
0.769268 0.578454 0
0.797803 0.579095 0
0.8262 0.579797 0
0.854856 0.580774 0
0.883116 0.581827 0
0 0.613428 0
0 0.61297 0
0 0.612528 0
0 0.612268 0
0.000839246 0.611658 0
0.035584 0.61091 0
0.0704662 0.610147 0
0.105379 0.609567 0
0.140536 0.609262 0
0.17528 0.608576 0
0.209995 0.607919 0
0.244846 0.607279 0
0.280308 0.606622 0
0.316396 0.606394 0
0.351934 0.60589 0
0.387289 0.605219 0
0.421546 0.60441 0
0.455024 0.603632 0
0.486656 0.603372 0
0.515892 0.603845 0
0.54345 0.604196 0
0.570779 0.604608 0
0.598581 0.605081 0
0.627359 0.6056 0
0.656291 0.606394 0
0.685161 0.607294 0
0.713695 0.607935 0
0.742168 0.608606 0
0.770703 0.609262 0
0.799237 0.609918 0
0.828107 0.611048 0
0.856687 0.611856 0
0.884764 0.612696 0
0 0.642985 0
0 0.642695 0
0 0.642359 0
0 0.641901 0
0.00161746 0.641321 0
0.0364538 0.64062 0
0.0714885 0.64007 0
0.106752 0.639735 0
0.141558 0.639094 0
0.176364 0.638483 0
0.211139 0.637858 0
0.246036 0.637263 0
0.282124 0.637156 0
0.3178 0.636561 0
0.353292 0.636011 0
0.388678 0.63537 0
0.422919 0.634592 0
0.456565 0.63415 0
0.488289 0.634058 0
0.517296 0.634211 0
0.544823 0.634577 0
0.572168 0.635004 0
0.600046 0.635523 0
0.629328 0.636545 0
0.658106 0.637201 0
0.686732 0.637842 0
0.715282 0.638498 0
0.743786 0.6392 0
0.772457 0.640009 0
0.801343 0.641108 0
0.829786 0.641855 0
0.858259 0.642603 0
0.886488 0.643412 0
0 0.67306 0
0 0.672633 0
0 0.672114 0
0 0.671687 0
0.00265507 0.671183 0
0.0380865 0.671 0
0.0728923 0.670375 0
0.107912 0.669734 0
0.142779 0.669123 0
0.177646 0.668528 0
0.212818 0.668299 0
0.248005 0.667918 0
0.283558 0.667338 0
0.319295 0.666789 0
0.354818 0.66627 0
0.390326 0.665751 0
0.424887 0.665309 0
0.458381 0.664775 0
0.489754 0.6645 0
0.518639 0.664714 0
0.546288 0.665095 0
0.5738 0.665644 0
0.60206 0.666514 0
0.631022 0.667185 0
0.65977 0.667826 0
0.688426 0.668513 0
0.716991 0.6692 0
0.745556 0.669963 0
0.774578 0.671153 0
0.803128 0.671885 0
0.831586 0.672648 0
0.860044 0.673426 0
0.888151 0.674281 0
0 0.702861 0
0 0.70248 0
0 0.702022 0
0 0.701778 0
0.0043946 0.70164 0
0.039353 0.70103 0
0.0742199 0.70045 0
0.109163 0.69987 0
0.144213 0.699275 0
0.179431 0.699031 0
0.214527 0.698695 0
0.249561 0.698192 0
0.285191 0.697658 0
0.320928 0.697154 0
0.356512 0.696727 0
0.392493 0.696605 0
0.426688 0.695903 0
0.460014 0.695293 0
0.491325 0.695064 0
0.520104 0.695338 0
0.547768 0.695888 0
0.57557 0.696773 0
0.603708 0.697322 0
0.63267 0.697932 0
0.661418 0.698589 0
0.690089 0.69929 0
0.719036 0.700343 0
0.747753 0.701259 0
0.776333 0.701991 0
0.804883 0.702739 0
0.833341 0.703532 0
0.86183 0.704326 0
0.890227 0.70544 0
0 0.73283 0
0 0.732494 0
0 0.732418 0
0 0.73225 0
0.00575265 0.731807 0
0.0406958 0.731228 0
0.0755627 0.730709 0
0.11046 0.73019 0
0.145998 0.730175 0
