luts/SpringMorning.cube
TITLE "Generated by Resolve"
LUT_3D_SIZE 9
0 0 0
0.0165255 0 0
0.153826 0 0
0.291859 0 0
0.429435 0 0
0.54583 0 0
0.657053 0 0
0.769192 0 0
0.880568 0 0
0 0.0661631 0
0.0148623 0.0631266 0
0.152422 0.0590982 0
0.291112 0.0552377 0
0.429267 0.0508278 0
0.545724 0.0485847 0
0.656992 0.0485542 0
0.769207 0.0488289 0
0.880308 0.049424 0
0 0.180789 0
0.0118257 0.1776 0
0.149355 0.173281 0
0.287938 0.169177 0
0.425864 0.164828 0
0.543542 0.16231 0
0.654765 0.162249 0
0.766842 0.162707 0
0.878401 0.163333 0
0 0.294774 0
0.00781262 0.291371 0
0.145281 0.287221 0
0.28365 0.283253 0
0.422385 0.278996 0
0.541238 0.276585 0
0.652506 0.27689 0
0.765332 0.27776 0
0.877028 0.27895 0
0 0.408988 0
0.00222782 0.405585 0
0.140093 0.401846 0
0.27895 0.398245 0
0.418387 0.39443 0
0.538964 0.392615 0
0.650462 0.393652 0
0.763989 0.395224 0
0.876692 0.39733 0
0 0.525063 0
0 0.522362 0
0.138613 0.519219 0
0.277897 0.516152 0
0.418463 0.512993 0
0.540017 0.512245 0
0.652461 0.514275 0
0.766613 0.516732 0
0.87982 0.519493 0
0 0.642985 0
0.00161746 0.641321 0
0.141558 0.639094 0
0.282124 0.637156 0
0.422919 0.634592 0
0.544823 0.634577 0
0.658106 0.637201 0
0.772457 0.640009 0
0.886488 0.643412 0
0 0.763149 0
0.00709544 0.762127 0
0.147585 0.760616 0
0.288853 0.758938 0
0.430259 0.757137 0
0.551476 0.757794 0
0.665385 0.76083 0
0.780056 0.763821 0
0.89427 0.767636 0
0 0.885039 0
0.0154726 0.884627 0
0.156603 0.883528 0
0.297948 0.882017 0
0.439475 0.88072 0
0.559747 0.881758 0
0.673991 0.884657 0
0.788785 0.888075 0
0.902739 0.89163 0
0 0 0.0776837
0.0171664 0 0.0743267
0.153994 0 0.0695201
0.292165 0 0.0654307
0.430228 0 0.0613718
0.546365 0 0.0595102
0.65774 0 0.0597543
0.769879 0 0.0601053
0.881148 0 0.0607004
0 0.0669261 0.0762646
0.0155489 0.0637675 0.0731365
0.153201 0.0598154 0.0695659
0.291875 0.0559243 0.0655985
0.429953 0.0514992 0.0615091
0.546365 0.0492714 0.0594644
0.657649 0.0492256 0.0592508
0.769848 0.0495155 0.0598306
0.880766 0.049897 0.0600443
0 0.181476 0.0745708
0.0122835 0.178027 0.071046
0.150072 0.173938 0.0672007
0.28867 0.169833 0.0634165
0.426551 0.165499 0.0590066
0.544182 0.162982 0.0568551
0.655497 0.162936 0.0568246
0.767575 0.163455 0.0572061
0.879011 0.163958 0.0579843
0 0.29543 0.0713054
0.00836194 0.29189 0.0681315
0.146014 0.287907 0.0640726
0.284413 0.283955 0.0605173
0.422889 0.2795 0.0561379
0.541939 0.277409 0.0540475
0.653361 0.277775 0.0545052
0.766308 0.278706 0.0557259
0.878019 0.280003 0.0568093
0 0.409705 0.066804
0.0030518 0.406348 0.0636606
0.141024 0.40264 0.0603342
0.279927 0.39913 0.0568093
0.419287 0.395285 0.0531472
0.539956 0.393698 0.0517891
0.651698 0.394842 0.0529946
0.765118 0.396429 0.0545205
0.877958 0.398688 0.0567788
0 0.525902 0.0648508
0.000747692 0.523354 0.0622263
0.13959 0.520104 0.0591287
0.279194 0.517311 0.0564736
0.419684 0.514336 0.0536507
0.541283 0.513649 0.0530709
0.65391 0.515709 0.0552682
0.767819 0.517891 0.0573281
0.881361 0.52108 0.0603647
0 0.644129 0.0659495
0.00303655 0.642618 0.0644999
0.143099 0.640482 0.0624399
0.283589 0.638437 0.0604715
0.424567 0.636088 0.0582132
0.546212 0.636194 0.05832
0.659602 0.638788 0.0608682
0.773938 0.641596 0.0636301
0.887953 0.645212 0.067155
0 0.764492 0.0705119
0.00883497 0.763638 0.0697185
0.149355 0.762188 0.0682841
0.290394 0.760327 0.0664836
0.432059 0.758785 0.0649882
0.553033 0.759503 0.0657054
0.666606 0.762127 0.0682689
0.781598 0.765637 0.0717021
0.895994 0.769421 0.0754559
0 0.886687 0.0775006
0.0172885 0.88632 0.0771496
0.158297 0.885008 0.0758831
0.299931 0.883741 0.0746624
0.441367 0.882445 0.0734112
0.561044 0.883314 0.0742657
0.675456 0.886229 0.0771191
0.790448 0.889845 0.0806744
0.904402 0.8934 0.0841382
0 0 0.183185
0.0175479 0 0.17969
0.154513 0 0.17499
0.292775 0 0.170947
0.430808 0 0.166842
0.546807 0 0.164874
0.658228 0 0.165133
0.770367 0 0.165454
0.881559 0 0.165927
0 0.0674907 0.181827
0.0160525 0.0642405 0.178592
0.153735 0.0603189 0.175006
0.292393 0.0564279 0.170993
0.430335 0.0518807 0.16672
0.546807 0.0497292 0.164797
0.658106 0.0496834 0.164569
0.770306 0.0499733 0.165148
0.881224 0.0503548 0.165347
0 0.181949 0.17998
0.0127565 0.1785 0.17641
0.150546 0.174411 0.172473
0.289143 0.170291 0.16875
0.42678 0.165743 0.164126
0.54464 0.16347 0.162188
0.655985 0.163424 0.162173
0.767971 0.163851 0.162448
0.879576 0.164538 0.163409
0 0.29575 0.176486
0.00883497 0.292348 0.173465
0.146532 0.288396 0.169421
0.284962 0.284459 0.165759
0.423468 0.280034 0.161563
0.542473 0.278019 0.159503
0.654002 0.278431 0.160082
0.766796 0.27921 0.161059
0.878828 0.280842 0.162493
0 0.409995 0.171969
0.00366217 0.406912 0.169055
0.141726 0.40325 0.165835
0.280674 0.399817 0.162325
0.420066 0.396033 0.15874
0.540703 0.394537 0.157488
0.652522 0.39559 0.158694
0.765988 0.39736 0.160266
0.879026 0.399847 0.162737
0 0.526497 0.170306
0.00163272 0.524163 0.167865
0.14049 0.520928 0.164782
0.280034 0.518074 0.162066
0.420798 0.515419 0.159548
0.542351 0.514839 0.15903
0.6551 0.516976 0.161288
0.769024 0.519219 0.163546
0.88275 0.522408 0.166644
0 0.645151 0.171832
0.00427253 0.643717 0.170413
0.144274 0.641672 0.16846
0.284627 0.639338 0.166217
0.425986 0.6374 0.164324
0.547356 0.637613 0.164553
0.660685 0.639948 0.166842
0.775326 0.643076 0.169909
0.889372 0.646723 0.17348
0 0.765698 0.176562
0.0104829 0.76492 0.175784
0.151003 0.76347 0.174411
0.291951 0.761776 0.172778
0.433738 0.760204 0.171267
0.554482 0.760952 0.172015
0.668147 0.763592 0.174594
0.7832 0.767163 0.178088
0.897505 0.77084 0.181659
0 0.888136 0.18378
0.0189364 0.887785 0.183459
0.159548 0.886305 0.182025
0.301686 0.885252 0.181018
0.443015 0.88397 0.179782
0.562356 0.884764 0.180575
0.676799 0.887831 0.183581
0.791867 0.891371 0.18703
0.905852 0.894942 0.190539
0 0 0.290028
0.0175174 0 0.286442
0.154788 0 0.282078
0.293126 0 0.278172
0.431128 0 0.274052
0.547127 0 0.272007
0.658534 0 0.272129
0.770657 0 0.272282
0.881788 0 0.272587
0 0.0678111 0.288777
0.0162966 0.0644846 0.285466
0.154025 0.0606088 0.281987
0.292683 0.0566873 0.278004
0.430442 0.0520027 0.273732
0.547066 0.0500038 0.271748
0.658396 0.0499733 0.271412
0.77055 0.0502022 0.271809
0.881559 0.0506752 0.271977
0 0.182132 0.286702
0.0130159 0.178744 0.283223
0.150805 0.174655 0.279423
0.289418 0.170565 0.275608
0.427054 0.166018 0.271015
0.544945 0.16379 0.269078
0.656336 0.163775 0.269001
0.768307 0.164187 0.269139
0.880003 0.164996 0.2701
0 0.295949 0.283253
0.0091249 0.292622 0.280201
0.146838 0.288701 0.276219
0.285191 0.284688 0.272618
0.423926 0.28043 0.268513
0.542885 0.278508 0.266468
0.654536 0.278981 0.266941
0.767376 0.279835 0.267994
0.879499 0.281559 0.269429
0 0.41033 0.278737
0.00408942 0.407324 0.275914
0.142245 0.403738 0.27277
0.281025 0.400137 0.269154
0.420768 0.396689 0.265904
0.541207 0.395102 0.264408
0.653162 0.396277 0.265797
0.766903 0.398306 0.267567
0.879973 0.4009 0.270024
0 0.527077 0.277256
0.00224308 0.524712 0.27483
0.141283 0.521737 0.272038
0.28101 0.518944 0.269413
0.421836 0.516365 0.267002
0.543282 0.515892 0.266575
0.655833 0.517769 0.268345
0.770062 0.52047 0.270954
0.883925 0.52369 0.274037
0 0.646006 0.279179
0.00540169 0.644663 0.277806
0.14522 0.642618 0.275822
0.285878 0.640436 0.273762
0.427268 0.638544 0.272007
0.548501 0.638849 0.272312
0.661753 0.641077 0.274434
0.776562 0.644419 0.277623
0.890639 0.648096 0.281117
0 0.766842 0.28397
0.0118105 0.766079 0.283284
0.152026 0.764324 0.281682
0.293507 0.762997 0.280491
0.435218 0.761486 0.279072
0.555642 0.762173 0.279744
0.669505 0.76495 0.282399
0.784512 0.768551 0.285832
0.898543 0.772137 0.28925
0 0.889403 0.291341
0.0204013 0.889082 0.291096
0.160906 0.887572 0.289723
0.303227 0.886595 0.288853
0.444434 0.885237 0.287633
0.563546 0.886076 0.288457
0.67805 0.88922 0.291447
0.79292 0.892531 0.294606
0.907027 0.896208 0.298085
0 0 0.399939
0.0168002 0 0.395666
0.154131 0 0.391119
0.293019 0 0.387503
0.430777 0 0.38291
0.547005 0 0.380926
0.658381 0 0.380941
0.770275 0 0.380758
0.881621 0 0.381201
0 0.0674907 0.398352
0.016144 0.0643626 0.395117
0.153857 0.0604562 0.391348
0.29247 0.0565347 0.387106
0.430259 0.0518349 0.382544
0.546914 0.0498207 0.380468
0.658228 0.0498054 0.380026
0.77026 0.0498665 0.380148
0.881422 0.0505379 0.380423
0 0.181796 0.396033
0.0128023 0.178561 0.392508
0.150591 0.174487 0.388388
0.289158 0.170352 0.384405
0.426886 0.165866 0.379629
0.544823 0.163653 0.377584
0.656229 0.163684 0.377462
0.768215 0.164111 0.377478
0.880018 0.165026 0.37847
0 0.29575 0.392309
0.00894179 0.29247 0.389212
0.14667 0.288548 0.385016
0.284932 0.284474 0.381048
0.423911 0.280369 0.377066
0.54287 0.278553 0.37499
0.654551 0.279026 0.375372
0.767559 0.280049 0.376501
0.879744 0.281788 0.377935
0 0.410254 0.387671
0.00404364 0.407294 0.38471
0.14226 0.403754 0.38146
0.281147 0.400259 0.377798
0.421027 0.396918 0.374548
0.541527 0.395483 0.373144
0.653468 0.396658 0.374487
0.767452 0.398779 0.376455
0.880491 0.40148 0.378866
0 0.527092 0.385992
0.00244144 0.524773 0.383703
0.141421 0.52195 0.380819
0.281529 0.519387 0.378347
0.422431 0.516884 0.375967
0.543816 0.516503 0.375586
0.656275 0.518288 0.377249
0.770718 0.521218 0.380011
0.884642 0.524498 0.383124
0 0.646448 0.388464
0.00616464 0.645136 0.387213
0.145663 0.642985 0.384863
0.286656 0.641093 0.383017
0.428077 0.639261 0.381277
0.549004 0.639445 0.381445
0.662364 0.641962 0.383871
0.777356 0.645319 0.387106
0.891447 0.649012 0.390707
0 0.767529 0.393668
0.0126345 0.766812 0.392996
0.152834 0.764996 0.391226
0.294469 0.763806 0.390097
0.436011 0.762371 0.388724
0.55613 0.762722 0.389075
0.670344 0.765881 0.392172
0.785351 0.769497 0.395727
0.899336 0.773098 0.399268
0 0.890227 0.401511
0.0211032 0.889647 0.401007
0.161929 0.888441 0.399847
0.304051 0.887526 0.398993
0.445258 0.885939 0.397406
0.564279 0.886915 0.398367
0.678889 0.89015 0.40148
0.793591 0.893507 0.4047
0.907668 0.896925 0.408026
0 0 0.512963
0.0171054 0 0.508736
0.154513 0 0.504097
0.293263 0 0.500221
0.431037 0 0.49546
0.547219 0 0.493568
0.658549 0 0.493767
0.770413 0 0.493828
0.881727 0 0.494545
0 0.0678264 0.511788
0.0164492 0.0646525 0.508324
0.154101 0.0607004 0.504417
0.292424 0.0565194 0.499794
0.430426 0.0520027 0.495323
0.547066 0.0499733 0.493248
0.658351 0.0499275 0.493019
0.770367 0.0499733 0.4934
0.881529 0.0506447 0.49395
0 0.182025 0.509499
0.0130007 0.178759 0.505837
0.150744 0.17464 0.501701
0.289052 0.170321 0.497215
0.427024 0.166003 0.492485
0.544976 0.16379 0.490455
0.656153 0.163592 0.490272
0.768383 0.164294 0.490837
0.880247 0.16527 0.492134
0 0.295918 0.505959
0.0091249 0.292653 0.502632
0.146868 0.288746 0.498283
0.28513 0.284672 0.494285
0.42417 0.280598 0.490028
0.543114 0.278843 0.487968
0.654719 0.27921 0.488426
0.76788 0.280507 0.490089
0.880354 0.282307 0.491981
0 0.410498 0.501152
0.00434882 0.407584 0.498146
0.142565 0.404028 0.494728
0.281575 0.400656 0.490959
0.421378 0.397223 0.487388
0.541985 0.396002 0.486152
0.654078 0.39733 0.487648
0.768048 0.399558 0.490227
0.881361 0.402243 0.49305
0 0.527626 0.499825
0.00314336 0.525292 0.497444
0.141924 0.522484 0.494285
0.282322 0.520088 0.491783
0.423285 0.517647 0.48925
0.544366 0.517281 0.488853
0.657115 0.519219 0.490867
0.771603 0.522194 0.493965
0.885451 0.525521 0.497414
0 0.647211 0.502556
0.00703441 0.645914 0.501244
0.146654 0.643656 0.498802
0.2878 0.642023 0.496925
0.429221 0.640238 0.494942
0.549676 0.640208 0.49485
0.663355 0.643076 0.497871
0.778408 0.646464 0.501411
0.892119 0.64976 0.50486
0 0.768521 0.508156
0.0134432 0.767712 0.507256
0.15407 0.766079 0.505486
0.295781 0.764935 0.504234
0.437125 0.763348 0.50251
0.557198 0.763928 0.503105
0.671489 0.767117 0.506447
0.786252 0.770504 0.510002
0.900236 0.774075 0.513771
0 0.891417 0.516304
0.0221866 0.890608 0.515404
0.163333 0.889662 0.514275
0.305425 0.888701 0.51313
0.446372 0.886946 0.511193
0.565484 0.888182 0.512474
0.680003 0.891203 0.515709
0.794903 0.894713 0.519478
0.908965 0.8981 0.523079
0 0 0.621424
0.0179904 0 0.617777
0.155459 0 0.613687
0.294118 0 0.610132
0.431876 0 0.605859
0.547982 0 0.60412
0.659281 0 0.604364
0.771145 0 0.604593
0.88246 0 0.605386
0 0.0686656 0.620737
0.0173037 0.0654612 0.617685
0.15494 0.0614939 0.614099
0.293233 0.0572671 0.609903
0.431189 0.0527657 0.605859
0.547784 0.0507057 0.604028
0.65893 0.0504921 0.603769
0.771115 0.050721 0.604425
0.882307 0.0514076 0.605097
0 0.182788 0.618814
0.0137942 0.179522 0.615534
0.151431 0.175296 0.611658
0.28986 0.171084 0.607782
0.427817 0.166766 0.603464
0.545708 0.164569 0.601663
0.656962 0.164416 0.601694
0.769223 0.165148 0.602365
0.881132 0.166186 0.603784
0 0.296681 0.615702
0.00994888 0.293416 0.612833
0.147448 0.289311 0.608728
0.286061 0.285527 0.605264
0.425086 0.281498 0.60148
0.543999 0.279805 0.599664
0.655726 0.280247 0.60029
0.768872 0.281636 0.60209
0.881315 0.283314 0.603891
0 0.411368 0.611704
0.00535592 0.408515 0.609049
0.14345 0.404868 0.605859
0.282765 0.40174 0.602609
0.422477 0.398276 0.599222
0.542916 0.397009 0.598047
0.65536 0.398688 0.599908
0.769329 0.401007 0.602579
0.882795 0.403754 0.605417
0 0.528588 0.61059
0.00448615 0.526513 0.608835
0.143359 0.523796 0.606027
0.283864 0.521477 0.603769
0.424811 0.519097 0.601419
0.545388 0.518486 0.600839
0.658656 0.520836 0.603265
0.77319 0.523888 0.606332
0.886732 0.527031 0.609491
0 0.648646 0.613718
0.0083772 0.64712 0.612222
0.148394 0.645197 0.610513
0.289525 0.643641 0.609033
0.431128 0.64181 0.607217
0.551385 0.641886 0.607248
0.665202 0.6448 0.610193
0.780118 0.648249 0.613672
0.893935 0.651438 0.616846
0 0.770153 0.619303
0.0149386 0.76907 0.618235
0.155993 0.767803 0.616983
0.29778 0.76669 0.6159
0.438788 0.764904 0.614115
0.558724 0.76582 0.615015
0.673259 0.768978 0.618143
0.787961 0.772305 0.621424
0.902022 0.775952 0.625025
0 0.893034 0.626596
0.0243229 0.892393 0.626062
0.165545 0.891463 0.625193
0.307561 0.890349 0.624155
0.44828 0.888747 0.622568
0.5673 0.889998 0.623804
0.681788 0.892973 0.626734
0.796475 0.89633 0.63003
0.910582 0.899931 0.6336
0 0 0.723003
0.0185245 0 0.719448
0.156573 0 0.715801
0.295079 0 0.712077
0.432837 0 0.707866
0.548867 0 0.706218
0.66006 0 0.706233
0.772061 0 0.706691
0.88336 0 0.707515
0 0.0696574 0.722881
0.0183261 0.0664378 0.719692
0.155886 0.0623941 0.716136
0.294209 0.0581979 0.71194
0.432105 0.053666 0.707881
0.548638 0.0516213 0.706081
0.6598 0.0513466 0.705837
0.77203 0.0516518 0.7066
0.883268 0.0523537 0.707362
0 0.183719 0.720913
0.0147707 0.180438 0.717617
0.152316 0.17615 0.713802
0.290852 0.172 0.709865
0.428748 0.167712 0.705592
0.546548 0.165454 0.703807
0.657938 0.165438 0.704005
0.770291 0.166217 0.704768
0.882246 0.16733 0.706203
0 0.297597 0.717952
0.0109407 0.294362 0.714977
0.148486 0.290272 0.710887
0.28716 0.286534 0.707576
0.426215 0.282582 0.703838
0.5449 0.280751 0.701976
0.656931 0.281483 0.702907
0.769955 0.282795 0.704555
0.882567 0.284596 0.706569
0 0.412421 0.713939
0.00637827 0.409476 0.711223
0.144717 0.406058 0.708247
0.284138 0.402914 0.705119
0.423926 0.399649 0.701946
0.544182 0.398505 0.700969
0.656855 0.400244 0.702831
0.770871 0.402655 0.705333
0.884123 0.405158 0.70808
0 0.5299 0.713069
0.00573739 0.527687 0.711223
0.145113 0.525277 0.708843
0.285634 0.523064 0.7066
0.426474 0.520668 0.704295
0.546929 0.520195 0.703899
0.660365 0.522652 0.706371
0.774945 0.525765 0.709453
0.888334 0.52874 0.712428
0 0.650263 0.716503
0.010071 0.648661 0.714931
0.150332 0.646937 0.713344
0.291554 0.645426 0.711925
0.432715 0.643305 0.709895
0.553155 0.643778 0.710384
0.667109 0.646754 0.713359
0.781903 0.650126 0.716701
0.895857 0.653437 0.719997
0 0.771984 0.722301
0.0170138 0.770932 0.721233
0.157961 0.769741 0.720043
0.299977 0.768627 0.718929
0.440757 0.766751 0.717037
0.560555 0.767834 0.71812
0.67509 0.771023 0.721279
0.789822 0.774273 0.724514
0.903944 0.777966 0.728206
0 0.894713 0.729671
0.026566 0.894347 0.729259
0.167803 0.893431 0.728313
0.309728 0.892241 0.727123
0.450416 0.890745 0.725612
0.569085 0.892042 0.726894
0.683711 0.895003 0.729824
0.798321 0.898268 0.733104
0.912169 0.901686 0.736492
0 0 0.823682
0.0197757 0 0.820233
0.157534 0 0.816403
0.296269 0 0.812848
0.433921 0 0.808606
0.549859 0 0.806973
0.661097 0 0.806989
0.773083 0 0.807446
0.884382 0 0.808286
0 0.0707561 0.823606
0.01944 0.0674754 0.820615
0.156771 0.0632486 0.816648
0.295323 0.0592203 0.812665
0.433143 0.0547036 0.808606
0.549615 0.0526436 0.806821
0.660822 0.0523842 0.806592
0.773068 0.0527047 0.807416
0.884352 0.0534218 0.808225
0 0.184741 0.821607
0.0158541 0.181476 0.818326
0.153338 0.177111 0.814466
0.291997 0.173037 0.810636
0.429831 0.16875 0.806363
0.547448 0.166384 0.804486
0.659052 0.166583 0.804929
0.771466 0.167437 0.805753
0.883467 0.168566 0.807294
0 0.29865 0.818692
0.0120241 0.295369 0.815686
0.149676 0.291386 0.811719
0.288426 0.287694 0.808423
0.427466 0.283787 0.804791
0.54609 0.282032 0.803006
0.658305 0.282902 0.804074
0.771435 0.284337 0.80592
0.884062 0.286137 0.807874
0 0.413626 0.814832
0.00767529 0.410681 0.812131
0.146075 0.407309 0.809201
0.285603 0.404135 0.806165
0.425391 0.401068 0.803082
0.545586 0.400183 0.80235
0.658488 0.401968 0.804257
0.77258 0.404456 0.806867
0.885679 0.406806 0.809476
0 0.53138 0.814237
0.0074464 0.529259 0.81239
0.147005 0.526909 0.810239
0.287617 0.524788 0.808072
0.428122 0.522255 0.80557
0.548653 0.522103 0.805478
0.66212 0.524651 0.808026
0.776684 0.527596 0.810987
0.890257 0.53077 0.81413
0 0.651789 0.8177
0.0120241 0.650462 0.816403
0.152407 0.648829 0.814801
0.293751 0.647379 0.813382
0.434592 0.645167 0.811231
0.555032 0.645838 0.811902
0.669123 0.648859 0.814893
0.783536 0.65185 0.817899
0.897795 0.655619 0.821637
0 0.773617 0.823575
0.0192416 0.772946 0.822873
0.160143 0.771786 0.821714
0.302052 0.770443 0.820356
0.442985 0.768826 0.818753
0.562509 0.76997 0.819867
0.676829 0.772961 0.822828
0.79176 0.776287 0.826154
0.905989 0.780118 0.829969
0 0.896696 0.83125
0.0287327 0.896498 0.830991
0.169924 0.895323 0.829801
0.311879 0.894148 0.828626
0.452659 0.892851 0.827298
0.570703 0.893965 0.828397
0.685725 0.897093 0.83151
0.800336 0.900374 0.834791
0.913649 0.903212 0.837659
