luts/SpringMorning.cube
TITLE "Generated by Resolve"
LUT_3D_SIZE 5
0 0 0
0.153826 0 0
0.429435 0 0
0.657053 0 0
0.880568 0 0
0 0.180789 0
0.149355 0.173281 0
0.425864 0.164828 0
0.654765 0.162249 0
0.878401 0.163333 0
0 0.408988 0
0.140093 0.401846 0
0.418387 0.39443 0
0.650462 0.393652 0
0.876692 0.39733 0
0 0.642985 0
0.141558 0.639094 0
0.422919 0.634592 0
0.658106 0.637201 0
0.886488 0.643412 0
0 0.885039 0
0.156603 0.883528 0
0.439475 0.88072 0
0.673991 0.884657 0
0.902739 0.89163 0
0 0 0.183185
0.154513 0 0.17499
0.430808 0 0.166842
0.658228 0 0.165133
0.881559 0 0.165927
0 0.181949 0.17998
0.150546 0.174411 0.172473
0.42678 0.165743 0.164126
0.655985 0.163424 0.162173
0.879576 0.164538 0.163409
0 0.409995 0.171969
0.141726 0.40325 0.165835
0.420066 0.396033 0.15874
0.652522 0.39559 0.158694
0.879026 0.399847 0.162737
0 0.645151 0.171832
0.144274 0.641672 0.16846
0.425986 0.6374 0.164324
0.660685 0.639948 0.166842
0.889372 0.646723 0.17348
0 0.888136 0.18378
0.159548 0.886305 0.182025
0.443015 0.88397 0.179782
0.676799 0.887831 0.183581
0.905852 0.894942 0.190539
0 0 0.399939
0.154131 0 0.391119
0.430777 0 0.38291
0.658381 0 0.380941
0.881621 0 0.381201
0 0.181796 0.396033
0.150591 0.174487 0.388388
0.426886 0.165866 0.379629
0.656229 0.163684 0.377462
0.880018 0.165026 0.37847
0 0.410254 0.387671
0.14226 0.403754 0.38146
0.421027 0.396918 0.374548
0.653468 0.396658 0.374487
0.880491 0.40148 0.378866
0 0.646448 0.388464
0.145663 0.642985 0.384863
0.428077 0.639261 0.381277
0.662364 0.641962 0.383871
0.891447 0.649012 0.390707
0 0.890227 0.401511
0.161929 0.888441 0.399847
0.445258 0.885939 0.397406
0.678889 0.89015 0.40148
0.907668 0.896925 0.408026
0 0 0.621424
0.155459 0 0.613687
0.431876 0 0.605859
0.659281 0 0.604364
0.88246 0 0.605386
0 0.182788 0.618814
0.151431 0.175296 0.611658
0.427817 0.166766 0.603464
0.656962 0.164416 0.601694
0.881132 0.166186 0.603784
0 0.411368 0.611704
0.14345 0.404868 0.605859
0.422477 0.398276 0.599222
0.65536 0.398688 0.599908
0.882795 0.403754 0.605417
0 0.648646 0.613718
0.148394 0.645197 0.610513
0.431128 0.64181 0.607217
0.665202 0.6448 0.610193
0.893935 0.651438 0.616846
0 0.893034 0.626596
0.165545 0.891463 0.625193
0.44828 0.888747 0.622568
0.681788 0.892973 0.626734
0.910582 0.899931 0.6336
0 0 0.823682
0.157534 0 0.816403
0.433921 0 0.808606
0.661097 0 0.806989
0.884382 0 0.808286
0 0.184741 0.821607
0.153338 0.177111 0.814466
0.429831 0.16875 0.806363
0.659052 0.166583 0.804929
0.883467 0.168566 0.807294
0 0.413626 0.814832
0.146075 0.407309 0.809201
0.425391 0.401068 0.803082
0.658488 0.401968 0.804257
0.885679 0.406806 0.809476
0 0.651789 0.8177
0.152407 0.648829 0.814801
0.434592 0.645167 0.811231
0.669123 0.648859 0.814893
0.897795 0.655619 0.821637
0 0.896696 0.83125
0.169924 0.895323 0.829801
0.452659 0.892851 0.827298
0.685725 0.897093 0.83151
0.913649 0.903212 0.837659
