luts/Subtle green.cube
TITLE "Generated by Resolve"
LUT_3D_SIZE 5
0.0207523 0.0207523 0.0207523
0.0387579 0.0313573 0.0313573
0.0877699 0.0475319 0.0475319
0.195941 0.0611734 0.0611734
0.395605 0.0643778 0.0643778
0.0462806 0.079408 0.0462806
0.0968948 0.0972152 0.0507668
0.197101 0.109972 0.0698558
0.342428 0.119036 0.0798657
0.558923 0.117388 0.0791943
0.012253 0.2542 0.012253
0.0838483 0.287022 0.010544
0.29601 0.296025 0.0131991
0.570169 0.293584 0.0462043
0.795605 0.312413 0.109667
0 0.536767 0
0.0412757 0.585855 0
0.270191 0.618585 0
0.625666 0.625666 0.00129702
1 0.616037 0.0255589
0 0.933028 0
0 0.989471 0
0.247761 1 0.00619516
0.735775 1 0.403067
1 1 1
0.0238804 0.0238804 0.0375372
0.0498207 0.0322576 0.0497902
0.102449 0.0482338 0.0625772
0.210086 0.0618143 0.0775464
0.408865 0.0644541 0.0798657
0.0480659 0.0852827 0.0848859
0.103349 0.1037 0.103471
0.197177 0.120836 0.120638
0.354269 0.128328 0.128206
0.57641 0.126207 0.126101
0.0109407 0.264958 0.0731518
0.0914931 0.299123 0.0914931
0.309163 0.309239 0.0999466
0.549554 0.316304 0.161013
0.775021 0.338766 0.206882
0 0.552163 0.0209354
0.0537423 0.605035 0.0537423
0.287922 0.639857 0.0806744
0.648661 0.648692 0.0879988
1 0.643534 0.137407
0 0.95436 0
0.00111391 0.998169 0.0009308
0.322789 1 0.148562
0.826795 1 0.627298
1 1 1
0.0276493 0.0276493 0.0862135
0.0542763 0.0349432 0.112337
0.149035 0.0384833 0.148989
0.310689 0.0394903 0.155474
0.49839 0.048249 0.156924
0.0471656 0.0871443 0.196719
0.103883 0.104097 0.246509
0.272557 0.100816 0.272526
0.457862 0.106477 0.243412
0.648997 0.117113 0.23537
0.00770581 0.268101 0.267918
0.0934005 0.301915 0.301915
0.312047 0.314443 0.314443
0.509743 0.340856 0.340841
0.758053 0.362173 0.362173
0 0.561578 0.222171
0.0624552 0.616266 0.26685
0.299535 0.652888 0.299535
0.663661 0.663722 0.309728
0.99881 0.675715 0.413458
0 0.972839 0.152316
0.0130922 0.999985 0.207828
0.430625 1 0.430686
0.936416 0.999817 0.891402
1 1 1
0.0295262 0.0295262 0.191485
0.0556191 0.0346532 0.241917
0.157046 0.0339361 0.327871
0.396674 0.00846876 0.396551
0.74519 0 0.381949
0.0407416 0.0821698 0.408469
0.0958724 0.0961471 0.50602
0.269352 0.0898604 0.575463
0.587396 0.0549325 0.587381
0.921462 0.0336919 0.502892
0.00077821 0.260624 0.602319
0.0870222 0.294697 0.647272
0.308949 0.308965 0.663386
0.652049 0.299138 0.65211
0.927489 0.324971 0.580255
0 0.561013 0.561013
0.0631418 0.617044 0.617044
0.302129 0.655894 0.655894
0.667201 0.669322 0.669322
0.956481 0.71223 0.712322
0 0.981018 0.491295
0.0514534 1 0.569055
0.556085 1 0.748699
0.995148 0.999756 0.995193
1 1 1
0.0264897 0.0264897 0.391348
0.0505074 0.0285039 0.474891
0.156939 0.021561 0.636576
0.405417 0 0.77969
0.839887 0 0.839796
0.0262913 0.0679637 0.750729
0.0775616 0.0777905 0.908309
0.253605 0.0681315 0.998398
0.572381 0.0333562 1
0.993408 0 0.992615
0 0.24184 1
0.0709239 0.276936 1
0.293645 0.293645 1
0.638453 0.286259 1
1 0.253819 1
0 0.54992 1
0.0547799 0.607019 1
0.294865 0.64802 1
0.663462 0.663462 1
1 0.659648 1
0 0.978149 0.978149
0.128817 1 1
0.709987 1 0.998398
1 1 1
1 1 1
