luts/Subtle green.cube
TITLE "Generated by Resolve"
LUT_3D_SIZE 9
0.0207523 0.0207523 0.0207523
0.0268101 0.0247959 0.0247959
0.0387579 0.0313573 0.0313573
0.0579995 0.0392157 0.0392157
0.0877699 0.0475319 0.0475319
0.132204 0.0552224 0.0552224
0.195941 0.0611734 0.0611734
0.282933 0.0643931 0.0643931
0.395605 0.0643778 0.0643778
0.0329747 0.0390631 0.0329747
0.0447395 0.0449836 0.0375677
0.0628061 0.0515908 0.0456092
0.0860761 0.0587472 0.0531472
0.120241 0.0648051 0.0592355
0.168002 0.0689555 0.06392
0.232685 0.070634 0.0663767
0.316152 0.0690166 0.0664378
0.422232 0.0639658 0.0639658
0.0462806 0.079408 0.0462806
0.0611124 0.089128 0.0489967
0.0968948 0.0972152 0.0507668
0.147097 0.102739 0.0576181
0.197101 0.109972 0.0698558
0.260609 0.115923 0.0768444
0.342428 0.119036 0.0798657
0.442466 0.119402 0.0801709
0.558923 0.117388 0.0791943
0.0420844 0.149477 0.0420844
0.0569162 0.163348 0.0408789
0.10341 0.175372 0.0385595
0.180728 0.18088 0.0333562
0.282155 0.180652 0.0356298
0.372656 0.184192 0.0558328
0.458152 0.191653 0.0767071
0.55462 0.198856 0.0920272
0.665873 0.204501 0.102831
0.012253 0.2542 0.012253
0.0261387 0.271839 0.00973526
0.0838483 0.287022 0.010544
0.174411 0.294911 0.0123445
0.29601 0.296025 0.0131991
0.439246 0.292622 0.0204318
0.570169 0.293584 0.0462043
0.681437 0.30193 0.0809644
0.795605 0.312413 0.109667
0 0.38381 0
0.000228885 0.403265 0
0.0646525 0.422538 0
0.160433 0.435737 0.00291447
0.286412 0.442786 0.00727855
0.443549 0.44358 0.00802625
0.624674 0.439139 0.0136568
0.800504 0.437186 0.0365606
0.951782 0.443473 0.075761
0 0.536767 0
0 0.559838 0
0.0412757 0.585855 0
0.1402 0.605325 0
0.270191 0.618585 0
0.432013 0.625406 0.000885023
0.625666 0.625666 0.00129702
0.846281 0.620356 0.00556954
1 0.616037 0.0255589
0 0.719539 0
0 0.74551 0
0.0130312 0.778576 0
0.113542 0.804883 0
0.247196 0.824598 0
0.41326 0.83769 0
0.612039 0.844144 0
0.842969 0.842969 0.00781262
1 0.837446 0.110658
0 0.933028 0
0 0.962188 0
0 0.989471 0
0.0819409 1 0
0.247761 1 0.00619516
0.485771 1 0.156588
0.735775 1 0.403067
0.931487 0.994217 0.73196
1 1 1
0.0220188 0.0220188 0.0260777
0.0296483 0.0255589 0.0297856
0.0419165 0.0321202 0.035111
0.0603952 0.0400702 0.0425269
0.0899367 0.0481575 0.0503243
0.134066 0.0555428 0.0569467
0.197116 0.0612497 0.0612497
0.284688 0.0644236 0.0644236
0.39791 0.064332 0.064332
0.0344244 0.0409552 0.0407874
0.0471656 0.0472725 0.0471656
0.0645457 0.0546731 0.0545815
0.0896162 0.061677 0.0615244
0.125277 0.0674144 0.0672313
0.174624 0.0712444 0.0711376
0.240406 0.0724651 0.0723583
0.324712 0.0706188 0.0704051
0.429236 0.0650339 0.0649729
0.0471809 0.0825055 0.0571145
0.0633402 0.0928664 0.0632944
0.100649 0.10103 0.0672465
0.147143 0.107683 0.0790875
0.196933 0.115541 0.0891432
0.263676 0.12108 0.0933089
0.348119 0.12372 0.0940108
0.45008 0.123537 0.0918593
0.5673 0.121263 0.0878614
0.0417182 0.153841 0.0543832
0.0581674 0.169039 0.0581216
0.106477 0.181125 0.0590372
0.18613 0.186374 0.0558785
0.284596 0.186969 0.0645457
0.367987 0.192676 0.0881361
0.454673 0.20032 0.104814
0.554482 0.207126 0.114916
0.669261 0.212085 0.12076
0.0112612 0.2598 0.0233768
0.0280003 0.27863 0.027985
0.0881056 0.293919 0.0336004
0.18056 0.301946 0.0381476
0.303426 0.303456 0.0396124
0.445228 0.300755 0.050309
0.568948 0.303548 0.0814984
0.677577 0.312856 0.114733
0.794583 0.323217 0.137774
0 0.389914 0.000167849
0.00303655 0.411063 0.00302129
0.0701457 0.43093 0.0166018
0.167239 0.444709 0.026688
0.294804 0.452094 0.0323949
0.453147 0.453178 0.0334936
0.63418 0.44921 0.0415045
0.804974 0.448524 0.0697337
0.951705 0.456321 0.110597
0 0.543832 0
0 0.569192 0
0.047013 0.59588 0.00128176
0.147524 0.615976 0.00924697
0.279057 0.629801 0.0193942
0.442405 0.63711 0.0248875
0.637644 0.637659 0.0255894
0.858488 0.632593 0.0315404
1 0.629068 0.0557717
0 0.72781 0
0 0.756176 0
0.0182345 0.790127 0
0.121279 0.817121 0.000167849
0.256641 0.837644 0.00354009
0.42446 0.851255 0.0102388
0.625086 0.858061 0.0172274
0.855924 0.855451 0.0517739
1 0.85156 0.182254
0 0.94287 0
0 0.971023 0
6.10361e-05 0.994339 0
0.0917372 1 0
0.277897 1 0.0470741
0.529854 1 0.233448
0.776593 1 0.495705
0.961074 0.996262 0.844938
1 1 1
0.0238804 0.0238804 0.0375372
0.031632 0.0271763 0.0424353
0.0498207 0.0322576 0.0497902
0.0742199 0.0391699 0.0552224
0.102449 0.0482338 0.0625772
0.146319 0.0560769 0.0709239
0.210086 0.0618143 0.0775464
0.297063 0.0646982 0.0808423
0.408865 0.0644541 0.0798657
0.0358892 0.0426795 0.0576791
0.0489967 0.0490883 0.0670481
0.0751965 0.0543374 0.0752728
0.104417 0.0610056 0.0788891
0.138766 0.0679179 0.0845808
0.188724 0.0720226 0.0901198
0.256397 0.0731823 0.093492
0.343008 0.071107 0.0937514
0.449577 0.0653086 0.0904707
0.0480659 0.0852827 0.0848859
0.0646525 0.0957198 0.0954299
0.103349 0.1037 0.103471
0.143511 0.1131 0.112963
0.197177 0.120836 0.120638
0.267216 0.125917 0.125734
0.354269 0.128328 0.128206
0.458259 0.128054 0.128038
0.57641 0.126207 0.126101
0.0412146 0.157824 0.094377
0.0584573 0.17319 0.102953
0.108354 0.185092 0.108309
0.1897 0.190158 0.109071
0.274434 0.194278 0.130739
0.350393 0.203372 0.15021
0.440772 0.211368 0.160433
0.545235 0.217792 0.167102
0.66392 0.222553 0.17145
0.0109407 0.264958 0.0731518
0.0295262 0.283818 0.0823987
0.0914931 0.299123 0.0914931
0.185382 0.307225 0.0978714
0.309163 0.309239 0.0999466
0.443809 0.308354 0.120531
0.549554 0.316304 0.161013
0.65449 0.328008 0.189624
0.775021 0.338766 0.206882
0 0.395895 0.0467384
0.00738537 0.4177 0.0599527
0.0755474 0.43798 0.0755474
0.173541 0.452064 0.0868544
0.302129 0.459815 0.09337
0.461402 0.461433 0.0948501
0.639323 0.458412 0.110079
0.794507 0.461906 0.15256
0.927642 0.473793 0.199145
0 0.552163 0.0209354
0 0.578149 0.034226
0.0537423 0.605035 0.0537423
0.155138 0.625727 0.0695201
0.287922 0.639857 0.0806744
0.452293 0.647578 0.0868849
0.648661 0.648692 0.0879988
0.868086 0.644282 0.0995956
1 0.643534 0.137407
0 0.738003 0
0 0.767712 0.00657664
0.025803 0.801877 0.025803
0.130282 0.829145 0.0457923
0.266682 0.850095 0.0616464
0.435676 0.864057 0.0725872
0.63859 0.870527 0.0845808
0.867826 0.867079 0.142351
1 0.866453 0.300832
0 0.95436 0
0 0.980987 0
0.00111391 0.998169 0.0009308
0.113313 1 0.0321965
0.322789 1 0.148562
0.583139 1 0.352422
0.826795 1 0.627298
0.98352 0.998032 0.93695
1 1 1
0.0258335 0.0258335 0.056672
0.0332647 0.0288548 0.0632334
0.0523384 0.0337987 0.0746014
0.0863966 0.0377966 0.0863203
0.133394 0.0419776 0.0927443
0.180667 0.0498817 0.0967117
0.241962 0.0570077 0.103227
0.326955 0.0608988 0.108843
0.437934 0.0612039 0.111437
0.0370184 0.0439155 0.0850385
0.0499733 0.0501106 0.0988937
0.0773938 0.0550698 0.112551
0.123293 0.0567636 0.123262
0.17937 0.0582742 0.124315
0.229816 0.0635233 0.123308
0.293996 0.0666056 0.125399
0.378637 0.0656901 0.126726
0.485267 0.0603494 0.125658
0.0481575 0.0869154 0.130114
0.0646982 0.0971695 0.14728
0.104555 0.104753 0.162112
0.170596 0.107301 0.170703
0.232425 0.114565 0.165881
0.293782 0.123308 0.167468
0.377859 0.127169 0.171618
0.480537 0.127794 0.173861
0.596796 0.126925 0.174029
0.0396582 0.160143 0.159899
0.0571908 0.175326 0.175097
0.108339 0.186847 0.186572
0.190005 0.192096 0.191882
0.261479 0.20209 0.20206
0.343252 0.211292 0.211276
0.438087 0.218921 0.218906
0.545937 0.225147 0.225132
0.667384 0.229801 0.229755
0.00987259 0.267781 0.153994
0.0296941 0.286625 0.167834
0.0934005 0.301762 0.180407
0.18819 0.310231 0.18819
0.31252 0.31281 0.191409
0.426657 0.317266 0.226184
0.521218 0.330465 0.256611
0.631647 0.342504 0.272847
0.75848 0.352697 0.283833
0 0.39971 0.13138
0.0105135 0.421897 0.147951
0.0793011 0.442649 0.16527
0.178073 0.457099 0.178073
0.307256 0.465415 0.185473
0.467414 0.467475 0.187625
0.636545 0.466621 0.215091
0.767376 0.476921 0.269306
0.893339 0.492592 0.308812
0 0.558145 0.104891
0 0.584619 0.122255
0.0590219 0.611978 0.143832
0.161181 0.633051 0.161181
0.294774 0.647578 0.173495
0.459968 0.655741 0.180514
0.657252 0.657282 0.182162
0.87277 0.6542 0.202335
1 0.658442 0.257328
0 0.746242 0.0733043
0 0.776471 0.090013
0.0324407 0.811063 0.115969
0.137743 0.838941 0.137743
0.27509 0.86009 0.154742
0.445167 0.874647 0.166873
0.651011 0.88011 0.187869
0.877195 0.876249 0.265278
1 0.880598 0.436316
0 0.96492 0.0361028
0 0.987411 0.0514382
0.0053254 0.999756 0.0816663
0.142336 1 0.142412
0.373999 1 0.279515
0.638712 1 0.485969
0.879957 0.999985 0.763836
0.995361 0.999405 0.983978
1 1 1
0.0276493 0.0276493 0.0862135
0.0345159 0.0302586 0.0949874
0.0542763 0.0349432 0.112337
0.0899519 0.0383764 0.131426
0.149035 0.0384833 0.148989
0.229877 0.0366827 0.156832
0.310689 0.0394903 0.155474
0.394141 0.0451667 0.155062
0.49839 0.048249 0.156924
0.0374914 0.044358 0.125399
0.049958 0.0501259 0.145174
0.0781109 0.0547646 0.166751
0.125399 0.0558175 0.185367
0.199054 0.0515145 0.199008
0.290715 0.0451057 0.199115
0.373968 0.0444038 0.188815
0.45623 0.0458686 0.181155
0.556405 0.0434577 0.176989
0.0471656 0.0871443 0.196719
0.0631876 0.0969558 0.222309
0.103883 0.104097 0.246509
0.171847 0.105852 0.263966
0.272557 0.100816 0.272526
0.379721 0.0981613 0.259968
0.457862 0.106477 0.243412
0.544747 0.113405 0.237552
0.648997 0.117113 0.23537
0.0366979 0.160296 0.254658
0.0541543 0.175036 0.278019
0.106264 0.186328 0.297093
0.190845 0.190982 0.30753
0.308202 0.188907 0.308431
0.399191 0.199023 0.289281
0.474723 0.214282 0.285939
0.57435 0.223804 0.290852
0.692454 0.230198 0.296117
0.00770581 0.268101 0.267918
0.0283207 0.286793 0.286793
0.0934005 0.301915 0.301915
0.1888 0.310903 0.310903
0.312047 0.314443 0.314443
0.406531 0.327779 0.32781
0.509743 0.340856 0.340841
0.626963 0.35227 0.352255
0.758053 0.362173 0.362173
0 0.40116 0.248692
0.0119631 0.423636 0.268315
0.0810559 0.444739 0.287755
0.180438 0.459754 0.3019
0.310338 0.468513 0.310338
0.471015 0.471214 0.313375
0.614572 0.477012 0.359182
0.729335 0.494285 0.399191
0.861997 0.510536 0.420905
0 0.561578 0.222171
0.000213626 0.588525 0.242939
0.0624552 0.616266 0.26685
0.165164 0.637903 0.285924
0.299535 0.652888 0.299535
0.465431 0.661509 0.307378
0.663661 0.663722 0.309728
0.868055 0.663035 0.344549
0.99881 0.675715 0.413458
0 0.751919 0.190143
0 0.782788 0.210803
0.0374456 0.817533 0.239261
0.14345 0.845869 0.262928
0.281559 0.867597 0.281559
0.45301 0.882368 0.295674
0.663264 0.886366 0.326879
0.884886 0.883787 0.414969
1 0.895125 0.583871
0 0.972839 0.152316
0 0.991562 0.171939
0.0130922 0.999985 0.207828
0.178576 1 0.286213
0.430625 1 0.430686
0.699229 1 0.627787
0.936416 0.999817 0.891402
0.999939 1 0.999725
1 1 1
0.0289921 0.0289921 0.129671
0.0350652 0.0311131 0.140902
0.0555123 0.0353552 0.166629
0.0925002 0.0380102 0.19588
0.153704 0.0370031 0.224903
0.249027 0.0299687 0.248997
0.374395 0.0192874 0.257542
0.49984 0.0140688 0.248524
0.612787 0.0167849 0.236179
0.0371405 0.0437629 0.181659
0.0488289 0.0490272 0.209003
0.0773938 0.0530404 0.240986
0.125917 0.0532845 0.27042
0.201663 0.0479744 0.294697
0.310979 0.0353246 0.310979
0.444068 0.0198367 0.308232
0.570291 0.010071 0.288426
0.68249 0.00672923 0.266804
0.0447852 0.0857252 0.288396
0.0598917 0.0948501 0.324041
0.101076 0.10132 0.360113
0.170123 0.102342 0.388251
0.272602 0.0966049 0.406119
0.41178 0.0832532 0.411734
0.562707 0.0709544 0.392325
0.677378 0.0733806 0.357137
0.766217 0.0846723 0.33135
0.0320439 0.15816 0.382208
0.0489967 0.172244 0.41474
0.10193 0.183185 0.442252
0.187472 0.187579 0.458732
0.306371 0.185565 0.463279
0.456153 0.177676 0.456214
0.593805 0.177966 0.425208
0.681361 0.195483 0.394766
0.774441 0.211734 0.384268
0.00421149 0.265721 0.416724
0.0252079 0.284169 0.44036
0.091371 0.299611 0.457237
0.187198 0.309209 0.467308
0.312734 0.312734 0.471168
0.467872 0.310521 0.468071
0.581964 0.324956 0.443198
0.674479 0.346105 0.439872
0.794537 0.360113 0.447425
0 0.399985 0.399985
0.0113069 0.422721 0.422721
0.080766 0.444389 0.444389
0.180545 0.459861 0.459861
0.31104 0.469245 0.469245
0.472129 0.472557 0.472557
0.587045 0.49044 0.490471
0.714015 0.50724 0.50724
0.855161 0.52256 0.522545
0 0.5626 0.373907
0.000320439 0.589776 0.397848
0.0639048 0.618082 0.424445
0.167117 0.640009 0.445045
0.302037 0.655619 0.459831
0.468681 0.664942 0.468681
0.667231 0.667506 0.472175
0.840665 0.674861 0.528786
0.976135 0.69633 0.579248
0 0.755032 0.341711
0 0.786206 0.366186
0.0406195 0.82153 0.397253
0.14696 0.850309 0.423026
0.285847 0.872511 0.443122
0.460197 0.886931 0.460227
0.675532 0.889693 0.496712
0.891356 0.890166 0.579965
1 0.910704 0.732921
0 0.97818 0.30367
0 0.993881 0.32755
0.0270085 1 0.37171
0.223285 1 0.45774
0.490913 1 0.590417
0.765072 1 0.765454
0.983383 0.999619 0.976669
1 1 1
1 1 1
0.0295262 0.0295262 0.191485
0.034638 0.0310826 0.204929
0.0556191 0.0346532 0.241917
0.0935836 0.0363165 0.284352
0.157046 0.0339361 0.327871
0.25507 0.0253147 0.367391
0.396674 0.00846876 0.396551
0.572778 0 0.402472
0.74519 0 0.381949
0.0357366 0.0419013 0.256764
0.0462348 0.0464485 0.292882
0.0750134 0.0496834 0.338277
0.124498 0.0489204 0.38146
0.201862 0.0423743 0.419333
0.313268 0.0286412 0.448203
0.464118 0.00695811 0.463996
0.642786 0 0.456611
0.815808 0 0.426108
0.0407416 0.0821698 0.408469
0.05449 0.0905013 0.455817
0.0958724 0.0961471 0.50602
0.165774 0.0963302 0.546868
0.269352 0.0898604 0.575463
0.409918 0.0759899 0.589197
0.587396 0.0549325 0.587381
0.774456 0.0361028 0.556313
0.921462 0.0336919 0.502892
0.0254215 0.153445 0.545525
0.0414893 0.166644 0.588022
0.0950942 0.177249 0.624384
0.181491 0.181567 0.646632
0.300999 0.179828 0.653422
0.451194 0.172625 0.646433
0.631006 0.159594 0.631037
0.809949 0.151553 0.593103
0.938003 0.162066 0.543572
0.00077821 0.260624 0.602319
0.0203708 0.278798 0.62855
0.0870222 0.294697 0.647272
0.183017 0.304784 0.658717
0.308949 0.308965 0.663386
0.465232 0.307057 0.661295
0.652049 0.299138 0.65211
0.82118 0.301518 0.616495
0.927489 0.324971 0.580255
0 0.396475 0.586648
0.00859083 0.419287 0.612161
0.078233 0.441398 0.635935
0.178271 0.457496 0.653086
0.309133 0.467399 0.663569
0.471138 0.471138 0.667506
0.663996 0.468818 0.664256
0.802686 0.487724 0.634745
0.913054 0.514855 0.631464
0 0.561013 0.561013
0.000122072 0.588449 0.588449
0.0631418 0.617044 0.617044
0.166781 0.639612 0.639612
0.302129 0.655894 0.655894
0.469291 0.665568 0.665568
0.667201 0.669322 0.669322
0.807782 0.690806 0.690867
0.956481 0.71223 0.712322
0 0.755673 0.529122
0 0.787045 0.557321
0.0416571 0.822782 0.590936
0.148547 0.852064 0.618662
0.287877 0.874723 0.64033
0.467857 0.888304 0.659052
0.689052 0.890867 0.689281
0.897826 0.896757 0.747906
0.999161 0.930144 0.869459
0 0.981018 0.491295
0 0.99501 0.519554
0.0514534 1 0.569055
0.277134 1 0.646342
0.556085 1 0.748699
0.8374 1 0.884764
0.995148 0.999756 0.995193
1 1 1
1 1 1
0.0288396 0.0288396 0.276722
0.0329137 0.0298009 0.291569
0.0541238 0.0325017 0.34284
0.0930343 0.032929 0.401892
0.158328 0.0289006 0.463478
0.258717 0.0185092 0.520836
0.402762 0.000946059 0.567041
0.595499 0 0.595438
0.820447 0 0.591943
0.0330053 0.0384222 0.354284
0.0420386 0.0422065 0.400198
0.0707256 0.0444495 0.462409
0.120989 0.0424353 0.522499
0.199649 0.0344701 0.576791
0.312581 0.0196078 0.620188
0.465431 0.000701915 0.649088
0.661234 0 0.661219
0.889555 0 0.648661
0.0347295 0.0763561 0.561837
0.0467994 0.0836805 0.62089
0.0881514 0.088426 0.687892
0.158572 0.0876936 0.74313
0.263127 0.0804761 0.783398
0.404532 0.0662242 0.805631
0.581994 0.0452888 0.808652
0.790234 0.0199283 0.790234
0.993088 0.00572213 0.74316
0.0166476 0.145754 0.747631
0.0314794 0.158343 0.799527
0.0857099 0.168399 0.845441
0.172763 0.172808 0.872267
0.292744 0.171664 0.879728
0.443 0.165286 0.872023
0.623407 0.152789 0.856916
0.834501 0.134371 0.834516
1 0.119188 0.789868
0 0.252598 0.824659
0.0135195 0.270832 0.852613
0.0802472 0.287144 0.873137
0.17644 0.297887 0.886046
0.302602 0.302602 0.891554
0.459174 0.301396 0.890166
0.646876 0.293904 0.881559
0.865736 0.280232 0.865751
1 0.273106 0.824277
0 0.390234 0.809308
0.00376898 0.413138 0.837751
0.0733654 0.435737 0.863645
0.173693 0.452354 0.882536
0.304845 0.462943 0.894118
0.467231 0.467247 0.898833
0.661418 0.465309 0.896742
0.887221 0.457069 0.887297
1 0.461692 0.847013
0 0.556771 0.784649
0 0.584237 0.815152
0.0601663 0.613458 0.846326
0.16408 0.63653 0.870848
0.299794 0.653346 0.888319
0.467384 0.663752 0.899168
0.66746 0.66746 0.903227
0.899535 0.66511 0.899794
1 0.690501 0.863676
0 0.753491 0.753491
0 0.784939 0.784939
0.0405127 0.821317 0.821317
0.147753 0.851072 0.851072
0.288792 0.873976 0.874037
0.477699 0.88632 0.886961
0.704326 0.890578 0.89192
0.904387 0.904402 0.905989
0.987518 0.952117 0.953277
0 0.981033 0.715877
0 0.995041 0.747677
0.0849012 1 0.791318
0.33904 1 0.838529
0.629252 1 0.893492
0.915572 0.999756 0.968719
0.999771 0.999985 0.999893
1 1 1
1 1 1
0.0264897 0.0264897 0.391348
0.0293431 0.0269169 0.406058
0.0505074 0.0285039 0.474891
0.0902113 0.0273747 0.55404
0.156939 0.021561 0.636576
0.259541 0.00923171 0.714763
0.405417 0 0.77969
0.599466 0 0.823194
0.839887 0 0.839796
0.0285344 0.0333257 0.478523
0.0359045 0.0359808 0.53373
0.0641489 0.0369726 0.616297
0.114885 0.0335088 0.696712
0.194171 0.0242771 0.769146
0.308598 0.00793469 0.829541
0.462928 0 0.873625
0.66038 0 0.898207
0.908171 0 0.908156
0.0262913 0.0679637 0.750729
0.0364996 0.0741283 0.822934
0.0775616 0.0777905 0.908309
0.148394 0.0761273 0.97174
0.253605 0.0681315 0.998398
0.395392 0.0536355 1
0.572381 0.0333562 1
0.778698 0.011902 0.999817
0.993408 0 0.992615
0.00555428 0.135042 0.982254
0.0188144 0.146975 0.999023
0.0735332 0.156603 1
0.161288 0.161288 1
0.281529 0.160906 1
0.432059 0.155123 1
0.612634 0.143557 1
0.824247 0.125719 1
1 0.101656 1
0 0.24184 1
0.00457771 0.260075 1
0.0709239 0.276936 1
0.167224 0.288228 1
0.293645 0.293645 1
0.450477 0.293019 1
0.638453 0.286259 1
0.858045 0.273106 1
1 0.253819 1
0 0.381247 1
0.00149538 0.40415 1
0.0660868 0.427405 1
0.166522 0.444587 1
0.297902 0.455726 1
0.460746 0.460746 1
0.655283 0.459419 1
0.881926 0.451637 1
1 0.437446 1
0 0.54992 1
0 0.57734 1
0.0547799 0.607019 1
0.158877 0.630793 1
0.294865 0.64802 1
0.462959 0.658991 1
0.663462 0.663462 1
0.896681 0.66154 1
1 0.659648 1
0 0.748699 1
0 0.780102 1
0.0370031 0.816983 1
0.144518 0.84741 1
0.289448 0.87013 1
0.49044 0.881743 1
0.722408 0.890364 1
0.914946 0.913542 1
0.999969 0.967926 0.999969
0 0.978149 0.978149
0 0.993561 0.991012
0.128817 1 1
0.406317 1 0.999405
0.709987 1 0.998398
0.97258 0.999176 0.999802
1 1 1
1 1 1
1 1 1
