luts/Subtle green.cube
TITLE "Generated by Resolve"
LUT_3D_SIZE 33
0.0207523 0.0207523 0.0207523
0.021622 0.0213474 0.0213474
0.0229953 0.0223087 0.0223087
0.0247196 0.0234684 0.0234684
0.0268101 0.0247959 0.0247959
0.0292363 0.0262608 0.0262608
0.0319829 0.027863 0.027863
0.0351873 0.0295567 0.0295567
0.0387579 0.0313573 0.0313573
0.0427558 0.0332341 0.0332341
0.0472572 0.035172 0.035172
0.0523384 0.037171 0.037171
0.0579995 0.0392157 0.0392157
0.0643168 0.0412909 0.0412909
0.0713512 0.0433814 0.0433814
0.079118 0.0454566 0.0454566
0.0877699 0.0475319 0.0475319
0.097322 0.049546 0.049546
0.107881 0.0515145 0.0515145
0.119463 0.0534066 0.0534066
0.132204 0.0552224 0.0552224
0.146181 0.0569162 0.0569162
0.161456 0.0584878 0.0584878
0.178027 0.0599069 0.0599069
0.195941 0.0611734 0.0611734
0.215366 0.0622568 0.0622568
0.236347 0.0631876 0.0631876
0.258793 0.0638895 0.0638895
0.282933 0.0643931 0.0643931
0.308751 0.0646982 0.0646982
0.33608 0.0647898 0.0647898
0.365011 0.064683 0.064683
0.395605 0.0643778 0.0643778
0.0226291 0.0233158 0.0226291
0.0237888 0.0241093 0.0233768
0.0253758 0.0250248 0.0242924
0.0271916 0.0260166 0.0253605
0.0291905 0.0270542 0.0265507
0.0313725 0.0281529 0.0278019
0.0337224 0.0292973 0.0290684
0.0364538 0.0304723 0.0303655
0.0395666 0.0317388 0.0317388
0.0437018 0.0336461 0.0336461
0.0483406 0.0356146 0.0356146
0.0535286 0.037644 0.037644
0.0593881 0.039704 0.039704
0.0659342 0.0417945 0.0417945
0.073167 0.0438849 0.0438849
0.081239 0.0459754 0.0459754
0.090135 0.0480507 0.0480507
0.0999619 0.0500649 0.0500649
0.110826 0.052018 0.052018
0.122759 0.0538949 0.0538949
0.135851 0.0556802 0.0556802
0.150195 0.0573587 0.0573587
0.165774 0.0588846 0.0588846
0.182742 0.0602731 0.0602731
0.201144 0.0615091 0.0615091
0.221057 0.0625467 0.0625467
0.242542 0.0634012 0.0634012
0.265583 0.0640421 0.0640421
0.290196 0.0644999 0.0644999
0.316411 0.064744 0.064744
0.344228 0.0647898 0.0647898
0.373709 0.064622 0.064622
0.404929 0.0642252 0.0642252
0.0255741 0.0273442 0.0255741
0.0270085 0.0283055 0.0264134
0.0291295 0.0294652 0.0274815
0.0314641 0.0306249 0.0287175
0.0340429 0.0318608 0.0302129
0.0366827 0.0332189 0.0317845
0.0394293 0.0346075 0.033341
0.0425879 0.0360266 0.0348516
0.0461433 0.0374914 0.0363622
0.0500649 0.0389258 0.0378576
0.0544137 0.0403754 0.0393835
0.0591745 0.0417945 0.0408942
0.0644541 0.0431678 0.0424048
0.0702678 0.0445106 0.0438849
0.0766918 0.0458228 0.0453803
0.0836805 0.0470283 0.0468299
0.0916457 0.0483711 0.0483711
0.101717 0.0504005 0.0504005
0.112749 0.0523384 0.0523384
0.124926 0.0542153 0.0542153
0.138277 0.0560006 0.0560006
0.152895 0.0576486 0.0576486
0.16878 0.0591592 0.0591592
0.186069 0.0605173 0.0605173
0.204852 0.0617075 0.0617075
0.225193 0.0627146 0.0627146
0.247044 0.0635386 0.0635386
0.270375 0.0641489 0.0641489
0.295369 0.0645762 0.0645762
0.321965 0.0647898 0.0647898
0.350286 0.0647593 0.0647593
0.380209 0.0645457 0.0645457
0.411734 0.0641337 0.0641337
0.029099 0.0325017 0.029099
0.0306401 0.0336614 0.0299382
0.0332036 0.0350347 0.0310826
0.0361181 0.0364233 0.0324254
0.0393378 0.0378119 0.0340124
0.0426337 0.0392615 0.0357671
0.0460212 0.0407874 0.0376287
0.0496681 0.0424048 0.0395056
0.0536507 0.044007 0.0412909
0.0580606 0.0456245 0.0430304
0.062974 0.0472572 0.0447547
0.0684062 0.0488441 0.0463569
0.0744182 0.0504005 0.0479133
0.081117 0.051957 0.0494698
0.088426 0.0533913 0.0509499
0.096437 0.0547951 0.0523995
0.10518 0.0560922 0.0537881
0.114687 0.0572824 0.0551003
0.124956 0.0583352 0.0563516
0.136187 0.0592966 0.0575113
0.148318 0.0601205 0.0585946
0.161334 0.0607462 0.059556
0.175525 0.0612192 0.0604105
0.190799 0.0614939 0.0611276
0.20795 0.0618753 0.0618753
0.228519 0.0628672 0.0628672
0.250614 0.0636454 0.0636454
0.274281 0.0642405 0.0642405
0.299626 0.0646372 0.0646372
0.326665 0.0647898 0.0647898
0.355352 0.064744 0.064744
0.38555 0.0644846 0.0644846
0.41735 0.0640421 0.0640421
0.0329747 0.0390631 0.0329747
0.0344549 0.0402991 0.0337987
0.0373541 0.0418708 0.0350042
0.0407568 0.0434577 0.0362707
0.0447395 0.0449836 0.0375677
0.0491951 0.04654 0.0391852
0.0537881 0.0481117 0.0410773
0.0582437 0.0498054 0.0433814
0.0628061 0.0515908 0.0456092
0.0677806 0.0534218 0.0476844
0.0732891 0.0552529 0.0496223
0.0793927 0.0570535 0.0514382
0.0860761 0.0587472 0.0531472
0.0934157 0.0603799 0.0547799
0.10164 0.0619821 0.0563668
0.110491 0.0634318 0.0578164
0.120241 0.0648051 0.0592355
0.1308 0.0660716 0.0605478
0.142214 0.0671702 0.0617838
0.154589 0.0681163 0.0628824
0.168002 0.0689555 0.06392
0.182513 0.0695964 0.0647593
0.198108 0.0701305 0.0654307
0.214862 0.0704967 0.06598
0.232685 0.070634 0.0663767
0.251667 0.0705577 0.0666209
0.271916 0.0702983 0.0667277
0.2934 0.06981 0.0666819
0.316152 0.0690166 0.0664378
0.340459 0.06804 0.0660563
0.365927 0.066804 0.0654917
0.392676 0.0652781 0.0647288
0.422232 0.0639658 0.0639658
0.0368658 0.0468605 0.0368658
0.0381933 0.0482795 0.0375982
0.0413977 0.0501564 0.038819
0.0451972 0.0520027 0.0400397
0.0497444 0.053727 0.0412146
0.0550088 0.0553902 0.0425116
0.0607919 0.057023 0.0440528
0.0668193 0.0587015 0.0460822
0.072755 0.0604257 0.0484932
0.0787671 0.0622568 0.0509957
0.085069 0.0641794 0.0534371
0.0917678 0.0660716 0.0556802
0.0991379 0.0679179 0.0577401
0.10724 0.0697032 0.0596017
0.116136 0.0713817 0.061326
0.125994 0.0730144 0.0629129
0.136614 0.0744488 0.0643626
0.148165 0.0757458 0.0656748
0.160784 0.0769818 0.0668193
0.174472 0.0780652 0.0677806
0.189166 0.0789807 0.0686351
0.205035 0.0797436 0.0693523
0.221836 0.0802472 0.0699168
0.239933 0.0806439 0.0703746
0.259068 0.080766 0.0706645
0.279469 0.0807202 0.0708171
0.30103 0.080415 0.0708171
0.324056 0.0799115 0.0706645
0.348287 0.0791333 0.0703288
0.373785 0.0781567 0.0698405
0.400595 0.076936 0.0691844
0.428489 0.0756542 0.0683299
0.457725 0.0741131 0.0673381
0.0407874 0.0559091 0.0407874
0.0417792 0.0573892 0.0413367
0.0452583 0.0596323 0.0424811
0.0493629 0.0617685 0.0436408
0.0543984 0.0637369 0.0447242
0.0603799 0.0656138 0.0457313
0.067155 0.0673686 0.0467536
0.0748455 0.0689403 0.0480354
0.0827802 0.070573 0.0501259
0.0904707 0.0722362 0.0527352
0.0981003 0.0741283 0.0556497
0.105776 0.0760815 0.0585031
0.113893 0.0780499 0.0611124
0.122759 0.0799878 0.0634012
0.132433 0.0818189 0.0652476
0.14316 0.0835889 0.0668956
0.154818 0.0852216 0.0683604
0.167437 0.0866865 0.0696422
0.181109 0.0879988 0.0707713
0.195865 0.089189 0.0717632
0.211658 0.090135 0.0725872
0.228611 0.0909438 0.0732738
0.246601 0.0915236 0.0738079
0.265904 0.0919509 0.0742199
0.28629 0.0921645 0.074464
0.307912 0.0921492 0.0745708
0.33077 0.0919356 0.0745251
0.354986 0.0914626 0.0742962
0.380316 0.0907454 0.07393
0.406806 0.0899825 0.0733654
0.434531 0.0890516 0.072694
0.463233 0.0878309 0.0718853
0.49337 0.0864881 0.070985
0.0439002 0.0669108 0.0439002
0.0445563 0.0683909 0.0443427
0.0483864 0.0708629 0.0454261
0.052842 0.0732586 0.0465095
0.058381 0.0754559 0.0474708
0.0649271 0.0775616 0.0483406
0.0724346 0.0795148 0.0491035
0.0811627 0.0812848 0.0497444
0.090959 0.0827955 0.0507362
0.101152 0.0842603 0.05243
0.111254 0.0858167 0.0548409
0.12105 0.0875868 0.0578012
0.130632 0.0894636 0.060914
0.140612 0.0914931 0.0638285
0.151125 0.093431 0.066392
0.16257 0.0952773 0.0685588
0.175021 0.0970626 0.0704356
0.188464 0.0986343 0.0720226
0.203052 0.100099 0.0733806
0.218631 0.10132 0.0745251
0.235416 0.102419 0.0754864
0.253391 0.103365 0.0762493
0.272419 0.104036 0.0768597
0.292668 0.104555 0.0773022
0.314122 0.10486 0.0775921
0.336736 0.104982 0.0777295
0.360647 0.104891 0.0776989
0.385687 0.104616 0.0775006
0.41181 0.104234 0.0771649
0.439078 0.103655 0.0767224
0.467308 0.102861 0.076173
0.496712 0.10193 0.0755474
0.527321 0.100862 0.0748608
0.0462806 0.079408 0.0462806
0.0465095 0.0811627 0.0465095
0.0504158 0.0838941 0.0473487
0.0551308 0.0866407 0.048249
0.0611124 0.089128 0.0489967
0.0681621 0.0915084 0.0496529
0.0762951 0.0936446 0.0501717
0.0858778 0.095552 0.0505074
0.0968948 0.0972152 0.0507668
0.10898 0.0986343 0.0513619
0.121782 0.0999619 0.0526284
0.13463 0.101259 0.0547646
0.147097 0.102739 0.0576181
0.159243 0.104448 0.0608988
0.171267 0.106249 0.06421
0.18381 0.108125 0.067216
0.197101 0.109972 0.0698558
0.211368 0.111696 0.0720836
0.226719 0.113283 0.0739757
0.243091 0.114687 0.0755474
0.260609 0.115923 0.0768444
0.279393 0.117006 0.0778973
0.299168 0.11783 0.0787366
0.32015 0.118486 0.0793774
0.342428 0.119036 0.0798657
0.36582 0.119356 0.0801709
0.390341 0.119539 0.0802625
0.4159 0.119539 0.0802625
0.442466 0.119402 0.0801709
0.470115 0.119097 0.0800031
0.498787 0.118669 0.0797742
0.52842 0.118074 0.0794995
0.558923 0.117388 0.0791943
0.0476844 0.0937514 0.0476844
0.0476844 0.0957961 0.0476844
0.0512245 0.0986954 0.0481727
0.0561685 0.101762 0.0488289
0.0626078 0.104585 0.0493172
0.070161 0.10721 0.0497139
0.0788891 0.109636 0.0499886
0.0892348 0.111757 0.0500343
0.101213 0.113558 0.0498512
0.114717 0.115114 0.0496376
0.129534 0.116304 0.0497292
0.145251 0.117342 0.0505379
0.16112 0.118303 0.052369
0.176562 0.119448 0.0551461
0.19144 0.120851 0.0585489
0.206012 0.122469 0.0622263
0.220661 0.124193 0.0657664
0.23592 0.125933 0.0689708
0.252018 0.127672 0.0717327
0.269047 0.129229 0.0741131
0.287236 0.130678 0.0760662
0.306416 0.131884 0.0777295
0.326863 0.132982 0.0790875
0.348424 0.133944 0.0802014
0.371008 0.134707 0.0810407
0.394781 0.135363 0.0816968
0.419684 0.135912 0.0822461
0.445426 0.136217 0.0826886
0.47219 0.136431 0.0830701
0.499947 0.136553 0.0834058
0.528496 0.136553 0.083711
0.557824 0.136416 0.0840009
0.587884 0.136233 0.0843061
0.047715 0.109941 0.047715
0.0474708 0.112383 0.0474708
0.0505684 0.115465 0.0476081
0.0557259 0.118944 0.0479591
0.062562 0.122057 0.0481727
0.0705577 0.125017 0.0482948
0.0799115 0.127672 0.0482948
0.0910658 0.130068 0.0480507
0.103868 0.132006 0.0476081
0.118364 0.133669 0.0469368
0.134569 0.13492 0.0462043
0.152468 0.135821 0.0457771
0.171374 0.136507 0.0461433
0.190631 0.137163 0.0476387
0.209339 0.137881 0.0502327
0.227237 0.138918 0.0538033
0.244602 0.140322 0.0578164
0.261509 0.141833 0.0619821
0.278767 0.143542 0.0659037
0.296529 0.145159 0.0694896
0.315236 0.146761 0.0725261
0.334859 0.148257 0.0751965
0.35555 0.149615 0.0774853
0.377371 0.150927 0.0793164
0.400015 0.152026 0.0809339
0.423804 0.153033 0.0823682
0.4486 0.153964 0.0836652
0.474266 0.154742 0.0848554
0.500725 0.155398 0.0859998
0.527932 0.155947 0.0870985
0.555978 0.156481 0.0882277
0.584619 0.157 0.0893568
0.614008 0.157305 0.0903944
0.0457465 0.128695 0.0457465
0.0454719 0.131243 0.0454719
0.0481422 0.134295 0.0454108
0.0535592 0.138079 0.0454566
0.0607309 0.141604 0.0453956
0.0691539 0.144839 0.0452583
0.079118 0.147829 0.0449989
0.090959 0.150393 0.0444953
0.104601 0.152621 0.0438239
0.119982 0.154421 0.0429389
0.137316 0.155871 0.041825
0.156588 0.156847 0.0406043
0.177722 0.157427 0.039704
0.199954 0.157702 0.0397192
0.222629 0.157931 0.0409247
0.244724 0.158221 0.0434272
0.26598 0.158923 0.0470283
0.286076 0.159899 0.0515145
0.305547 0.161273 0.0563363
0.324804 0.162844 0.0611582
0.344198 0.164508 0.0657054
0.364279 0.166186 0.0698253
0.385016 0.167834 0.0733654
0.406714 0.169497 0.0765698
0.429129 0.170962 0.0794842
0.45275 0.172457 0.0821241
0.476951 0.17377 0.0845808
0.501991 0.175082 0.0869306
0.527733 0.176272 0.089189
0.554406 0.177447 0.09131
0.581842 0.1785 0.0933089
0.61001 0.179446 0.0952163
0.639124 0.180331 0.0970016
0.0420844 0.149477 0.0420844
0.0415045 0.152453 0.0415045
0.0435645 0.15552 0.0411994
0.0494087 0.159609 0.0411078
0.0569162 0.163348 0.0408789
0.0658122 0.166964 0.0405127
0.0763867 0.170184 0.0400397
0.0890059 0.172976 0.0393683
0.10341 0.175372 0.0385595
0.119707 0.177447 0.0375372
0.137957 0.179034 0.0363317
0.158267 0.180117 0.0349279
0.180728 0.18088 0.0333562
0.204974 0.181079 0.0321813
0.230594 0.18088 0.0320592
0.256626 0.180682 0.0331579
0.282155 0.180652 0.0356298
0.3066 0.180941 0.0393835
0.329564 0.181582 0.044358
0.351476 0.182727 0.049958
0.372656 0.184192 0.0558328
0.393423 0.185931 0.0615702
0.414527 0.187869 0.0670176
0.436027 0.189837 0.0720836
0.458152 0.191653 0.0767071
0.481041 0.193622 0.0810559
0.504677 0.195422 0.0850538
0.529244 0.197192 0.0886702
0.55462 0.198856 0.0920272
0.581048 0.200473 0.095079
0.608362 0.201938 0.0978714
0.636606 0.20325 0.10045
0.665873 0.204501 0.102831
0.0366674 0.172564 0.0366674
0.0358129 0.175891 0.0358129
0.0370336 0.179065 0.0352331
0.0432136 0.183474 0.0349126
0.051133 0.187503 0.0345769
0.0606241 0.191302 0.034165
0.0718395 0.194705 0.0336156
0.0851606 0.197803 0.0328832
0.100343 0.200381 0.0320439
0.117464 0.202609 0.0310521
0.136568 0.204349 0.0299077
0.157794 0.205692 0.0285954
0.181186 0.20647 0.0271
0.206714 0.20679 0.0255131
0.234211 0.206668 0.0243687
0.262974 0.206195 0.0243381
0.292058 0.205661 0.0256352
0.320592 0.20528 0.0283665
0.347921 0.205234 0.0325628
0.373709 0.205676 0.0380407
0.397757 0.206699 0.0446326
0.420569 0.208164 0.0517891
0.442512 0.209964 0.0590524
0.464439 0.212039 0.0660563
0.486763 0.214221 0.0725719
0.50959 0.216388 0.0785077
0.533333 0.21857 0.0838331
0.557916 0.220706 0.0887617
0.583307 0.222721 0.0932174
0.609598 0.224582 0.0972457
0.637064 0.226429 0.100923
0.665492 0.228214 0.104311
0.694774 0.229847 0.107424
0.029633 0.197772 0.029633
0.0285496 0.201434 0.0285496
0.0288701 0.204593 0.0277714
0.0354925 0.209323 0.0273594
0.0437476 0.213733 0.0269627
0.053727 0.217807 0.0265507
0.0657054 0.221469 0.0260319
0.0796979 0.224613 0.0254368
0.0956893 0.227481 0.0247349
0.113619 0.229877 0.0239567
0.133562 0.231754 0.0230869
0.155718 0.233234 0.0220798
0.17995 0.23415 0.0209964
0.206287 0.234745 0.0197757
0.234745 0.234775 0.0185092
0.264973 0.234348 0.0178225
0.296529 0.233631 0.0183261
0.328222 0.232853 0.0202029
0.359258 0.23212 0.023621
0.389029 0.231876 0.0285649
0.417075 0.232303 0.0348821
0.443351 0.233173 0.0422217
0.468132 0.234516 0.0500343
0.492287 0.236347 0.0580148
0.515892 0.238453 0.0657969
0.539544 0.240681 0.0731518
0.563729 0.243076 0.0799725
0.588556 0.245457 0.0863203
0.614267 0.24773 0.0919814
0.640681 0.249928 0.0972
0.668223 0.25211 0.101976
0.696712 0.254261 0.106355
0.725963 0.256168 0.110369
0.0213321 0.22504 0.0213321
0.0200961 0.229007 0.0200961
0.0193942 0.232258 0.0191196
0.0265049 0.237232 0.0187533
0.0351873 0.241901 0.0184634
0.0457008 0.246204 0.0182345
0.0584421 0.25005 0.0179294
0.0731975 0.253483 0.0176089
0.0899062 0.256367 0.0173037
0.108705 0.258915 0.016968
0.129458 0.261051 0.0165866
0.152422 0.262669 0.0161746
0.177401 0.263722 0.0157626
0.20441 0.264485 0.0153048
0.233463 0.264698 0.0148318
0.2645 0.2645 0.0143893
0.297154 0.263905 0.0145876
0.3308 0.26305 0.0158846
0.364843 0.26215 0.0183108
0.398306 0.261402 0.0219577
0.430701 0.260975 0.0268711
0.461463 0.261082 0.0330205
0.490578 0.26183 0.040238
0.518013 0.262974 0.0482795
0.544289 0.264698 0.0566415
0.56994 0.266758 0.0650187
0.595407 0.269108 0.0731212
0.621012 0.271565 0.0808118
0.647135 0.274052 0.0879835
0.673945 0.276524 0.0945754
0.701671 0.278981 0.100557
0.730175 0.281376 0.106142
0.759686 0.283742 0.111254
0.012253 0.2542 0.012253
0.0109102 0.258564 0.0109102
0.0099031 0.26183 0.0099031
0.016846 0.266926 0.00968948
0.0261387 0.271839 0.00973526
0.0373236 0.276326 0.00987259
0.0508583 0.280308 0.0100404
0.0663767 0.283894 0.0102541
0.0838483 0.287022 0.010544
0.103502 0.289693 0.0109407
0.125063 0.291814 0.011368
0.148775 0.293553 0.0118563
0.174411 0.294911 0.0123445
0.201984 0.295735 0.0128328
0.231449 0.296193 0.0131838
0.262837 0.2963 0.0132906
0.29601 0.296025 0.0131991
0.330983 0.295384 0.013489
0.366888 0.294469 0.0147097
0.403204 0.293492 0.0169833
0.439246 0.292622 0.0204318
0.474327 0.292165 0.0251011
0.508049 0.291997 0.0310521
0.540063 0.292485 0.0381018
0.570169 0.293584 0.0462043
0.598962 0.295155 0.0548714
0.626749 0.297108 0.0637369
0.654154 0.299428 0.0724804
0.681437 0.30193 0.0809644
0.708904 0.304524 0.0889448
0.737041 0.307225 0.0964065
0.76582 0.309895 0.10338
0.795605 0.312413 0.109667
0.00404364 0.284901 0.00404364
0.00311284 0.289494 0.00311284
0.00239567 0.293095 0.00239567
0.00825513 0.298039 0.00195315
0.01738 0.30312 0.00181582
0.0294804 0.307698 0.00242618
0.0438087 0.311803 0.00329595
0.0601511 0.315496 0.00434882
0.0784924 0.318715 0.00556954
0.0989548 0.321492 0.0069276
0.121309 0.323903 0.00827039
0.145418 0.325872 0.00943008
0.171435 0.327398 0.0104067
0.19942 0.328695 0.0111849
0.22916 0.329519 0.0117342
0.260731 0.329961 0.0120394
0.294377 0.330053 0.0121309
0.329747 0.329763 0.0120394
0.366796 0.329091 0.0122988
0.40502 0.32813 0.0134432
0.443778 0.327062 0.0155795
0.482307 0.32607 0.0188296
0.520134 0.325322 0.0233158
0.556695 0.325078 0.0290074
0.591592 0.325338 0.0358892
0.624537 0.326192 0.0439765
0.655879 0.327565 0.0528115
0.686183 0.329488 0.0619974
0.715724 0.331731 0.0713054
0.744778 0.334249 0.0804303
0.773953 0.336904 0.0892653
0.803372 0.339727 0.0976272
0.833646 0.342626 0.105364
0 0.317052 0
0 0.321813 0
0 0.325444 0
0.00352483 0.330159 0
0.00994888 0.33547 3.0518e-05
0.0231022 0.340078 0.000137331
0.0382696 0.344289 0.000122072
0.055314 0.348135 0.000869764
0.0742351 0.351644 0.00247196
0.0948959 0.354726 0.00411994
0.117464 0.357397 0.00567636
0.141802 0.359731 0.00703441
0.1682 0.361761 0.00820935
0.196353 0.363409 0.00918593
0.226368 0.364599 0.00996414
0.25832 0.365438 0.0105135
0.292149 0.365881 0.0108186
0.327871 0.36582 0.0108949
0.365484 0.365499 0.0108034
0.404807 0.364782 0.0110475
0.445396 0.36379 0.0120851
0.486488 0.362646 0.0140993
0.527642 0.361547 0.0171817
0.568154 0.360784 0.0214237
0.60737 0.360388 0.026978
0.645045 0.360464 0.033753
0.681056 0.361028 0.0416266
0.715267 0.362127 0.0504616
0.748211 0.363836 0.0599222
0.779873 0.366018 0.0696574
0.811002 0.36849 0.079408
0.842069 0.371252 0.0889448
0.873152 0.374166 0.0980697
0 0.349874 0
0 0.354757 0
0 0.358648 0
0.00135805 0.36318 0
0.00433356 0.368551 0
0.0178988 0.373526 0
0.0333867 0.378088 0
0.0505989 0.382376 0
0.0695964 0.38613 0.000259403
0.0905318 0.389746 0.0012665
0.113207 0.392782 0.00276188
0.137911 0.395514 0.00433356
0.164462 0.397894 0.00570687
0.192874 0.399802 0.00689708
0.223163 0.401373 0.00788891
0.255406 0.402579 0.00865187
0.289494 0.403418 0.00920119
0.325536 0.403845 0.00950637
0.363516 0.403769 0.00956741
0.403403 0.403418 0.00946059
0.44506 0.402686 0.00967422
0.487907 0.401633 0.0106508
0.53138 0.400427 0.0125277
0.575067 0.399359 0.0154269
0.618143 0.398337 0.0195468
0.660105 0.397787 0.024918
0.70074 0.397635 0.0314488
0.739605 0.397971 0.0391394
0.776898 0.398993 0.0479286
0.812406 0.400549 0.0575265
0.846754 0.402502 0.0676127
0.880293 0.404929 0.0778363
0.913268 0.407691 0.0879835
0 0.38381 0
0 0.388952 0
0 0.393057 0
0.000137331 0.397543 0
0.000228885 0.403265 0
0.0128176 0.40853 0
0.0281682 0.413581 0
0.0455177 0.418265 0
0.0646525 0.422538 0
0.085771 0.426429 1.5259e-05
0.108675 0.429984 0.00030518
0.133639 0.433097 0.00151064
0.160433 0.435737 0.00291447
0.18909 0.438041 0.00430304
0.219654 0.439994 0.00550851
0.252049 0.441566 0.00650034
0.286412 0.442786 0.00727855
0.322774 0.443473 0.00781262
0.361059 0.4439 0.00810254
0.401328 0.443946 0.00813306
0.443549 0.44358 0.00802625
0.487449 0.442664 0.00820935
0.532601 0.441566 0.00909438
0.5785 0.440436 0.0108339
0.624674 0.439139 0.0136568
0.67039 0.438148 0.0176242
0.71516 0.437278 0.0227665
0.758618 0.437064 0.0290837
0.800504 0.437186 0.0365606
0.840497 0.438025 0.045304
0.878965 0.439368 0.0549172
0.915969 0.441123 0.0651713
0.951782 0.443473 0.075761
0 0.419287 0
0 0.424842 0
0 0.429084 0
0 0.433509 0
0 0.439643 0
0.00885023 0.445533 0
0.0225376 0.45098 0
0.0400092 0.456092 0
0.0593118 0.460655 0
0.0806134 0.464927 0
0.103792 0.468879 0
0.128969 0.472389 0
0.155871 0.475425 0.00062562
0.184771 0.478111 0.00151064
0.215595 0.480461 0.00280766
0.248386 0.482444 0.00402838
0.28307 0.483909 0.00503548
0.319692 0.485145 0.00579843
0.358175 0.485817 0.00631724
0.398779 0.486244 0.0065919
0.441245 0.486259 0.00660716
0.48571 0.485725 0.00648508
0.531884 0.484932 0.00662242
0.579538 0.483787 0.00743114
0.627878 0.482444 0.0091249
0.6766 0.481224 0.0118257
0.724849 0.479942 0.0155947
0.772534 0.479042 0.0204929
0.818875 0.47866 0.0266117
0.863554 0.47863 0.0340581
0.90663 0.47921 0.0425269
0.947997 0.480293 0.0520943
0.985046 0.482063 0.0624552
0 0.456703 0
0 0.46244 0
0 0.467079 0
0 0.471275 0
0 0.478035 0
0.00534066 0.48423 0
0.0166171 0.490105 0
0.034226 0.495476 0
0.0536507 0.500603 0
0.0751202 0.505272 0
0.098497 0.509499 0
0.123873 0.51342 0
0.15111 0.516869 0
0.180148 0.519951 9.15541e-05
0.211215 0.522698 0.000549325
0.24416 0.525093 0.00132753
0.279133 0.526955 0.00247196
0.31603 0.528588 0.00347906
0.354971 0.529656 0.00422675
0.395773 0.530327 0.00474556
0.43859 0.530755 0.00500496
0.483436 0.530602 0.00502022
0.530175 0.53019 0.00485237
0.578683 0.529366 0.00491341
0.628779 0.528161 0.00569161
0.679606 0.526757 0.00732433
0.73077 0.525444 0.00985733
0.781781 0.524025 0.0134279
0.83212 0.522988 0.018143
0.8813 0.522469 0.0241245
0.928985 0.522194 0.0312963
0.975006 0.522545 0.0396277
0.999283 0.523598 0.049073
0 0.495857 0
0 0.5019 0
0 0.506661 0
0 0.510979 0
0 0.517998 0
0.00234989 0.524773 0
0.0102998 0.530938 0
0.0280003 0.536889 0
0.0476539 0.542275 0
0.069337 0.547372 0
0.0928817 0.55201 0
0.118349 0.556344 0
0.145815 0.560204 0
0.175189 0.563714 0
0.206409 0.566857 0
0.239643 0.569512 9.15541e-05
0.274891 0.571786 0.000289921
0.311955 0.573816 0.000854505
0.351171 0.575296 0.00183108
0.392309 0.576379 0.00257877
0.435462 0.57705 0.00308232
0.480674 0.577462 0.00332647
0.52781 0.577295 0.00332647
0.576852 0.576867 0.00311284
0.627802 0.575845 0.0031281
0.680201 0.574578 0.00387579
0.733562 0.573266 0.00538643
0.787381 0.571694 0.0077821
0.841138 0.570336 0.0111696
0.894102 0.569177 0.0157626
0.946181 0.56846 0.0215
0.995254 0.567971 0.0284581
1 0.568154 0.0366674
0 0.536767 0
0 0.543114 0
0 0.548424 0
0 0.55285 0
0 0.559838 0
0.000427253 0.567056 0
0.00469978 0.573678 0
0.0213931 0.580056 0
0.0412757 0.585855 0
0.0631113 0.591363 0
0.0868391 0.596445 0
0.11252 0.601053 0
0.1402 0.605325 0
0.169696 0.609262 0
0.201312 0.612696 0
0.234791 0.6159 0
0.270191 0.618585 0
0.307561 0.620905 0
0.347051 0.622827 0
0.38851 0.624323 0.000183108
0.432013 0.625406 0.000885023
0.477424 0.626078 0.00134279
0.524773 0.626322 0.00155642
0.574212 0.626307 0.00154116
0.625666 0.625666 0.00129702
0.679103 0.62475 0.00129702
0.734005 0.623438 0.00195315
0.789929 0.621866 0.00332647
0.846281 0.620356 0.00556954
0.902617 0.618891 0.00886549
0.958541 0.617563 0.0132296
0.999466 0.616495 0.0187228
1 0.616037 0.0255589
0 0.579599 0
0 0.586374 0
0 0.591821 0
0 0.596674 0
0 0.603586 0
0 0.611124 0
0.00164797 0.618189 0
0.0149081 0.624994 0
0.0346075 0.63122 0
0.0565957 0.637018 0
0.0804913 0.642527 0
0.106249 0.647715 0
0.134142 0.652323 0
0.163867 0.656718 0
0.195605 0.660594 0
0.229343 0.664103 0
0.265034 0.667231 0
0.302678 0.669978 0
0.342458 0.672328 0
0.384085 0.674067 0
0.427924 0.675578 0
0.473686 0.676661 0
0.521401 0.677333 3.0518e-05
0.571206 0.677562 0.000106813
0.623041 0.677531 4.57771e-05
0.676844 0.67686 0
0.732677 0.675898 0
0.789868 0.674556 0.000396735
0.848188 0.672953 0.00149538
0.907134 0.671382 0.00347906
0.966262 0.669795 0.0065919
0.999496 0.668299 0.0107118
1 0.667262 0.0160983
0 0.624475 0
0 0.631464 0
0 0.637201 0
0 0.642313 0
0 0.649119 0
0 0.656962 0
0.000167849 0.664622 0
0.00895705 0.671687 0
0.0274968 0.678401 0
0.0496376 0.684703 0
0.0735943 0.6907 0
0.0996567 0.696223 0
0.127626 0.701411 0
0.157595 0.706081 0
0.189563 0.710399 0
0.223575 0.714351 0
0.259556 0.717739 0
0.29749 0.720913 0
0.337423 0.72369 0
0.379324 0.725872 0
0.423499 0.72781 0
0.469474 0.729152 0
0.517693 0.730251 0
0.567712 0.730907 0
0.61973 0.731136 0
0.674113 0.73106 0
0.730343 0.730358 0
0.788464 0.729381 0
0.848173 0.728008 0
0.909117 0.726345 0.00030518
0.970581 0.724697 0.00161746
0.999557 0.723003 0.00433356
1 0.721492 0.0101167
0 0.671092 0
0 0.678538 0
0 0.684565 0
