luts/Sunny Farm.cube
TITLE "Generated by Resolve"
LUT_3D_SIZE 33
0 0 0
0 0 0
0 0 0
0 0 0
0.00383001 0 0
0.0228122 0 0
0.0472114 0 0
0.0727092 0 0
0.0967117 0 0
0.120516 0 0
0.149447 0 0
0.185229 0 0
0.228489 0 0
0.279637 0 0
0.338491 0 0
0.404562 0 0
0.479332 0 0
0.561486 0 0
0.648157 0 0
0.736706 0 0
0.824079 0 0
0.905531 0 0
0.980972 0 0
1 0 0
1 0 0
1 0 0
1 0 0
1 0 0
1 0 0
1 0 0
1 0 0
1 0 0
1 0 0
0 0 0
0 0 0
0 0 0
0 0 0
0.00450141 0 0
0.0260166 0 0
0.0534371 0 0
0.0798657 0 0
0.104234 0 0
0.130877 0 0
0.163867 0 0
0.203784 0 0
0.251423 0 0
0.307134 0 0
0.370672 0 0
0.441672 0 0
0.520424 0 0
0.60589 0 0
0.695033 0 0
0.784817 0 0
0.871992 0 0
0.952132 0 0
1 0 0
1 0 0
1 0 0
1 0 0
1 0 0
1 0 0
1 0 0
1 0 0
1 0 0
1 0 0
1 0 0
0 0 0
0 0 0
0 0 0
0 0 0
0 0 0
0.0168612 0 0
0.0428931 0 0
0.0715953 0 0
0.0981765 0 0
0.12813 0 0
0.165652 0 0
0.211521 0 0
0.266011 0 0
0.329107 0 0
0.400153 0 0
0.477958 0 0
0.563363 0 0
0.654582 0 0
0.748394 0 0
0.84004 0 0
0.926986 0 0
1 0 0
1 0 0
1 0 0
1 0 0
1 0 0
1 0 0
1 0 0
1 0 0
1 0 0
1 0 0
1 0 0
1 0 0
0 0 0
0 0 0
0 0 0
0 0 0
0 0 0
0.00903334 0 0
0.033341 0 0
0.0627146 0 0
0.090425 0 0
0.121309 0 0
0.159792 0 0
0.207309 0 0
0.264729 0 0
0.332662 0 0
0.410086 0 0
0.494972 0 0
0.588006 0 0
0.686244 0 0
0.785122 0 0
0.880781 0 0
0.969604 0 0
1 0 0
1 0 0
1 0 0
1 0 0
1 0 0
1 0 0
1 0 0
1 0 0
1 0 0
1 0 0
1 0 0
1 0 0
0 0 0
0 0 0
0 0 0
0 0 0
0 0 0
0.00234989 0 0
0.0242771 0 0
0.0535134 0 0
0.0824903 0 0
0.114534 0 0
0.154238 0 0
0.202914 0 0
0.261662 0 0
0.3308 0 0
0.409964 0 0
0.497932 0 0
0.595407 0 0
0.699397 0 0
0.803754 0 0
0.903838 0 0
0.995605 0 0
1 0 0
1 0 0
1 0 0
1 0 0
1 0 0
1 0 0
1 0 0
1 0 0
1 0 0
1 0 0
1 0 0
1 0 0
0 0.00479133 0
0 0.00306706 0
0 0.00155642 0
0 0.000396735 0
0 0.00030518 0
0 0 0
0.0154116 0 0
0.0432593 0 0
0.0739147 0 0
0.107362 0 0
0.14844 0 0
0.198566 0 0
0.258656 0 0
0.329351 0 0
0.410178 0 0
0.499733 0 0
0.599039 0 0
0.704723 0 0
0.811261 0 0
0.914031 0 0
1 0 0
1 0 0
1 0 0
1 0 0
1 0 0
1 0 0
1 0 0
1 0 0
1 0 0
1 0 0
1 0 0
1 0 0
1 0 0
0 0.0202487 0
0 0.0180209 0
0 0.0158999 0
0 0.0140383 0
0 0.0122225 0
0 0.0130007 0
0 0.0112459 0
0.0324559 0.00610361 0
0.0642557 0.00366217 0
0.0993973 0.000915541 0
0.142061 0 0
0.193729 0 0
0.255512 0 0
0.327916 0 0
0.410574 0 0
0.501961 0 0
0.603098 0 0
0.710216 0 0
0.817929 0 0
0.921447 0 0
1 0 0
1 0 0
1 0 0
1 0 0
1 0 0
1 0 0
1 0 0
1 0 0
1 0 0
1 0 0
1 0 0
1 0 0
1 0 0
0 0.0395209 0
0 0.0370947 0
0 0.0347906 0
0 0.0327459 0
0 0.0307622 0
0 0.0287633 0
0 0.0304112 0
0.00978103 0.0277714 0
0.0525826 0.020798 0
0.0900435 0.0167697 0
0.134569 0.0113832 0
0.187961 0.00463874 0
0.251469 0 0
0.325582 0 0
0.410147 0 0
0.503334 0 0
0.606271 0 0
0.7149 0 0
0.823835 0 0
0.928115 0 0
1 0 0
1 0 0
1 0 0
1 0 0
1 0 0
1 0 0
1 0 0
1 0 0
1 0 0
1 0 0
1 0 0
1 0 0
1 0 0
0 0.0610056 0
0 0.0587778 0
0 0.0567025 0
0 0.0548104 0
0 0.0529641 0
0 0.0509804 0
0 0.0491035 0
0 0.0515297 0
0.0238804 0.0481727 0
0.078172 0.038529 0
0.125628 0.0320745 0
0.180865 0.023682 0
0.246006 0.0130312 0
0.321935 0.00129702 0
0.408087 0 0
0.503273 0 0
0.607736 0 0
0.718013 0 0
0.828199 0 0
0.933288 0 0
1 0 0
1 0 0
1 0 0
1 0 0
1 0 0
1 0 0
1 0 0
1 0 0
1 0 0
1 0 0
1 0 0
1 0 0
1 0 0
0 0.0840009 0
0 0.0822766 0
0 0.080766 0
0 0.0794995 0
0 0.0782788 0
0 0.0769818 0
0 0.0753643 0
0 0.0744335 0
0.00529488 0.0779278 0
0.0395056 0.0742657 0
0.11133 0.061799 0
0.170825 0.0523995 0
0.238071 0.0395666 0
0.315816 0.0235294 0
0.4038 0.0056611 0
0.500786 0 0
0.607446 0 0
0.719051 0 0
0.830472 0 0
0.936217 0 0
1 0 0
1 0 0
1 0 0
1 0 0
1 0 0
1 0 0
1 0 0
1 0 0
1 0 0
1 0 0
1 0 0
1 0 0
1 0 0
0 0.112245 0
0 0.111147 0
0 0.110307 0
0 0.109773 0
0 0.109316 0
0 0.108766 0
0 0.107988 0
0 0.106706 0
0.00030518 0.107134 0
0.0101472 0.111635 0
0.0614481 0.106813 0
0.151354 0.0913252 0
0.225177 0.0795148 0
0.305364 0.0643473 0
0.395651 0.0424353 0
0.494499 0.0165255 0
0.602808 0 0
0.715892 0 0
0.828397 0 0
0.935088 0 0
1 0 0
1 0 0
1 0 0
1 0 0
1 0 0
1 0 0
1 0 0
1 0 0
1 0 0
1 0 0
1 0 0
1 0 0
1 0 0
0 0.146822 0
0 0.146471 0
0 0.146456 0
0 0.146761 0
0 0.14725 0
0 0.147646 0
0 0.147768 0
0 0.147402 0
0 0.146456 0
0 0.148821 0
0.0155184 0.15378 0
0.0878614 0.14757 0
0.198901 0.128588 0
0.289281 0.113985 0
0.38201 0.0970016 0
0.483253 0.0736248 0
0.593103 0.0402075 0
0.707973 0.00434882 0
0.821759 0 0
0.929442 0 0
1 0 0
1 0 0
1 0 0
1 0 0
1 0 0
1 0 0
1 0 0
1 0 0
1 0 0
1 0 0
1 0 0
1 0 0
1 0 0
0 0.188861 0
0 0.189456 0
0 0.190356 0
0 0.191745 0
0 0.193317 0
0 0.194827 0
0 0.196063 0
0 0.19678 0
0 0.196643 0
0 0.195758 0
0 0.200717 0
0.0231632 0.205554 0
0.119661 0.197559 0
0.253544 0.17496 0
0.362341 0.157137 0
0.46598 0.139055 0
0.57821 0.114504 0
0.694865 0.0817578 0
0.810208 0.0384222 0
0.919249 0 0
1 0 0
1 0 0
1 0 0
1 0 0
1 0 0
1 0 0
1 0 0
1 0 0
1 0 0
1 0 0
1 0 0
1 0 0
1 0 0
0 0.239536 0
0 0.24126 0
0 0.24329 0
0 0.245899 0
0 0.248768 0
0 0.251484 0
0 0.253895 0
0 0.255634 0
0 0.256504 0
0 0.256352 0
0 0.255222 0
0 0.263523 0
0.0352789 0.267399 0
0.157549 0.25742 0
0.314015 0.23151 0
0.442039 0.210254 0
0.557382 0.190799 0
0.676478 0.166064 0
0.793698 0.136217 0
0.904433 0.101183 0
1 0.0625467 0
1 0.0231785 0
1 0 0
1 0 0
1 0 0
1 0 0
1 0 0
1 0 0
1 0 0
1 0 0
1 0 0
1 0 0
1 0 0
0 0.299794 0
0 0.302693 0
0 0.305898 0
0 0.309895 0
0 0.314031 0
0 0.317983 0
0 0.321508 0
0 0.324315 0
0 0.326146 0
0 0.326726 0
0 0.325643 0
0 0.325338 0
0 0.336965 0
0.0560006 0.339101 0
0.201511 0.32723 0
0.379004 0.298466 0
0.528038 0.273045 0
0.652415 0.252155 0
0.771878 0.228763 0
0.883986 0.203037 0
0.983261 0.176638 0
1 0.151003 0
1 0.127718 0
1 0.108385 0
1 0.0931563 0
1 0.0834363 0
1 0.0783856 0
1 0.0781262 0
1 0.0805066 0
1 0.086656 0
1 0.0944076 0
1 0.103487 0
1 0.113603 0
0 0.369711 0
0 0.373877 0
0 0.378271 0
0 0.383413 0
0 0.388754 0
0 0.393973 0
0 0.398627 0
0 0.402365 0
0 0.404959 0
0 0.406195 0
0 0.405844 0
0 0.40325 0
0 0.406012 0
0 0.419333 0
0.086656 0.419165 0
0.25214 0.405585 0
0.451728 0.373388 0
0.616876 0.344152 0
0.744427 0.322805 0
0.859037 0.301656 0
0.96022 0.280568 0
1 0.261295 0
1 0.244404 0
1 0.231922 0
1 0.22298 0
1 0.217868 0
1 0.216205 0
1 0.21799 0
1 0.221942 0
1 0.228153 0
1 0.235325 0
1 0.24329 0
1 0.252064 0
0 0.449592 0
0 0.454917 0
0 0.460273 0
0 0.466499 0
0 0.472984 0
0 0.479118 0
0 0.484642 0
0 0.489113 0
0 0.492332 0
0 0.494041 0
0 0.493858 0
0 0.491768 0
0 0.48838 0
0 0.495689 0
0 0.508263 0
0.122042 0.506218 0
0.308965 0.490211 0
0.525383 0.455192 0
0.700298 0.423453 0
0.826383 0.402838 0
0.930617 0.385534 0
1 0.369909 0
1 0.356985 0
1 0.347402 0
1 0.341161 0
1 0.338811 0
1 0.338567 0
1 0.341497 0
1 0.345953 0
1 0.352087 0
1 0.359442 0
1 0.367376 0
1 0.375479 0
0 0.537758 0
0 0.543816 0
0 0.549706 0
0 0.556481 0
0 0.563546 0
0 0.57023 0
0 0.57612 0
0 0.58085 0
0 0.584146 0
0 0.586114 0
0 0.585946 0
0 0.583902 0
0 0.580148 0
0 0.577142 0
0 0.588922 0
0 0.59939 0
0.169467 0.595621 0
0.373236 0.577691 0
0.597131 0.542397 0
0.774014 0.510582 0
0.895262 0.490715 0
0.986206 0.477684 0
1 0.467109 0
1 0.459632 0
1 0.454978 0
1 0.453544 0
1 0.454322 0
1 0.457557 0
1 0.462242 0
1 0.468147 0
1 0.474952 0
1 0.482628 0
1 0.490211 0
0 0.629206 0
0 0.635386 0
0 0.641596 0
0 0.648417 0
0 0.655589 0
0 0.662257 0
0 0.668025 0
0 0.672618 0
0 0.675853 0
0 0.677516 0
0 0.677333 0
0 0.675395 0
0 0.671931 0
0 0.66714 0
0 0.667674 0
0 0.682368 0
0.0144503 0.689509 0
0.235035 0.683803 0
0.443503 0.665248 0
0.664576 0.631586 0
0.834928 0.601144 0
0.946761 0.582986 0
1 0.573007 0
1 0.566567 0
1 0.56318 0
1 0.561776 0
1 0.563256 0
1 0.566125 0
1 0.570672 0
1 0.576211 0
1 0.582406 0
1 0.589181 0
1 0.596262 0
0 0.719676 0
0 0.725734 0
0 0.731502 0
0 0.738003 0
0 0.744701 0
0 0.750896 0
0 0.756176 0
0 0.760403 0
0 0.76347 0
0 0.76524 0
0 0.765377 0
0 0.764004 0
0 0.761059 0
0 0.756771 0
0 0.751934 0
0 0.756634 0
0 0.770977 0
0.103929 0.774273 0
0.313451 0.766705 0
0.519097 0.748089 0
0.725429 0.717754 0
0.882155 0.690166 0
0.983032 0.673884 0
1 0.666072 0
1 0.662928 0
1 0.662104 0
1 0.662837 0
1 0.665446 0
1 0.669306 0
1 0.67393 0
1 0.679408 0
1 0.685313 0
1 0.690806 0
0 0.804791 0
0 0.810208 0
0 0.815259 0
0 0.820813 0
0 0.826719 0
0 0.832258 0
0 0.837125 0
0 0.841077 0
0 0.843976 0
0 0.845731 0
0 0.845991 0
0 0.8448 0
0 0.842145 0
0 0.838209 0
0 0.833265 0
0 0.82974 0
0 0.837598 0
0 0.848554 0
0.2121 0.847959 0
0.4047 0.839094 0
0.595254 0.821546 0
0.780438 0.795087 0
0.919295 0.771282 0
1 0.757183 0
1 0.751064 0
1 0.749187 0
1 0.749371 0
1 0.751293 0
1 0.754421 0
1 0.757961 0
1 0.762097 0
1 0.766842 0
1 0.771313 0
0 0.879484 0
0 0.884108 0
0 0.888502 0
0 0.893538 0
0 0.899001 0
0 0.904128 0
0 0.908583 0
0 0.91223 0
0 0.91487 0
0 0.916365 0
0 0.916625 0
0 0.915434 0
0 0.913024 0
0 0.909239 0
0 0.904494 0
0 0.898711 0
0 0.897566 0
0 0.906477 0
0.142077 0.912596 0
0.326299 0.908995 0
0.499413 0.899351 0
0.669139 0.883406 0
0.82884 0.861463 0
0.946685 0.841993 0
1 0.83006 0
1 0.824552 0
1 0.823362 0
1 0.824353 0
1 0.826459 0
1 0.829252 0
1 0.832303 0
1 0.83563 0
1 0.839078 0
0 0.944732 0
0 0.948852 0
0 0.952712 0
0 0.957061 0
0 0.961791 0
0 0.966201 0
0 0.970001 0
0 0.973007 0
0 0.975265 0
0 0.976516 0
0 0.976562 0
0 0.975341 0
0 0.97293 0
0 0.969329 0
0 0.964569 0
0 0.95874 0
0 0.952834 0
0.0309606 0.953964 0
0.141268 0.961639 0
0.280507 0.963058 0
0.439094 0.957473 0
0.591821 0.947707 0
0.738537 0.93373 0
0.870665 0.916167 0
0.967254 0.900847 0
1 0.89099 0
1 0.886198 0
1 0.884871 0
1 0.885603 0
1 0.887282 0
1 0.889494 0
1 0.891691 0
1 0.894087 0
0 0.999802 0
0 1 0
0 1 0
0 1 0
0 1 0
0 1 0
0 1 0
0 1 0
0 1 0
0 1 0
0 1 0
0 1 0
0 1 0
0 1 0
0 1 0
0 1 0
0 1 0
0.0570687 0.995331 0
0.197879 0.998322 0
0.281559 1 0
0.408606 1 0
0.547204 0.994003 0
0.67837 0.984741 0
0.800031 0.972961 0
0.906065 0.959319 0
0.983749 0.947402 0
1 0.939223 0
1 0.935119 0
1 0.933516 0
1 0.933532 0
1 0.934554 0
1 0.936095 0
1 0.93756 0
0 1 0
0 1 0
0 1 0
0 1 0
0 1 0
0 1 0
0 1 0
0 1 0
0 1 0
0 1 0
0 1 0
0 1 0
0 1 0
0 1 0
0 1 0
0 1 0
0 1 0
0.0505226 1 0
0.253239 1 0
0.32668 1 0
0.409751 1 0
0.526421 1 0
0.644251 1 0
0.753552 1 0
0.852308 1 0
0.935378 0.992233 0
0.997223 0.983047 0
1 0.976455 0
1 0.972732 0
1 0.970779 0
1 0.970382 0
1 0.970687 0
1 0.971588 0
0 1 0
0 1 0
0 1 0
0 1 0
0 1 0
0 1 0
0 1 0
0 1 0
0 1 0
0 1 0
0 1 0
0 1 0
0 1 0
0 1 0
0 1 0
0 1 0
0 1 0
0.0375982 1 0
0.287694 1 0
0.38587 1 0
0.441871 1 0
0.526513 1 0
0.629679 1 0
0.727993 1 0
0.816739 1 0
0.894682 1 0
0.960037 1 0
1 1 0
1 1 0
1 1 0
1 0.999176 0
1 0.998245 0
1 0.998123 0
0 1 0
0 1 0
0 1 0
0 1 0
0 1 0
0 1 0
0 1 0
0 1 0
0 1 0
0 1 0
0 1 0
0 1 0
0 1 0
0 1 0
0 1 0
0 1 0
0 1 0
0.0302129 1 0
0.308736 1 0
0.434836 1 0
0.490929 1 0
0.546975 1 0
0.629129 1 0
0.716701 1 0
0.796735 1 0
0.868238 1 0
0.929458 1 0
0.980011 1 0
1 1 0
1 1 0
1 1 0
1 1 0
1 1 0
0 1 0
0 1 0
0 1 0
0 1 0
0 1 0
0 1 0
0 1 0
0 1 0
0 1 0
