luts/Sunny Farm.cube
TITLE "Generated by Resolve"
LUT_3D_SIZE 9
0 0 0
0.00383001 0 0
0.0967117 0 0
0.228489 0 0
0.479332 0 0
0.824079 0 0
1 0 0
1 0 0
1 0 0
0 0 0
0 0 0
0.0824903 0 0
0.261662 0 0
0.595407 0 0
0.995605 0 0
1 0 0
1 0 0
1 0 0
0 0.0610056 0
0 0.0529641 0
0.0238804 0.0481727 0
0.246006 0.0130312 0
0.607736 0 0
1 0 0
1 0 0
1 0 0
1 0 0
0 0.188861 0
0 0.193317 0
0 0.196643 0
0.119661 0.197559 0
0.57821 0.114504 0
1 0 0
1 0 0
1 0 0
1 0 0
0 0.449592 0
0 0.472984 0
0 0.492332 0
0 0.48838 0
0.308965 0.490211 0
0.930617 0.385534 0
1 0.341161 0
1 0.345953 0
1 0.375479 0
0 0.804791 0
0 0.826719 0
0 0.843976 0
0 0.842145 0
0 0.837598 0
0.595254 0.821546 0
1 0.751064 0
1 0.754421 0
1 0.771313 0
0 1 0
0 1 0
0 1 0
0 1 0
0 1 0
0.409751 1 0
0.852308 1 0
1 0.972732 0
1 0.971588 0
0 1 0
0 1 0
0 1 0
0 1 0
0 1 0
0.581415 1 0
0.786328 1 0
0.979019 1 0
1 1 0
0 1 0
0 1 0
0 1 0
0 1 0
0 1 0
0.649973 1 0
0.824674 1 0
0.947188 1 0
1 1 0
0 0 0
0.00694286 0 0
0.109392 0 0
0.272633 0 0
0.508568 0 0
0.818601 0 0
1 0 0
1 0 0
1 0 0
0 0 0
0 0 0
0.0678111 0 0
0.220996 0 0
0.497108 0 0
0.862272 0 0
1 0 0
1 0 0
1 0 0
0 0.0543374 0
0 0.046128 0
0.0256504 0.0392615 0
0.24625 0.00799573 0
0.613657 0 0
1 0 0
1 0 0
1 0 0
1 0 0
0 0.188067 0
0 0.193576 0
0 0.197925 0
0.134783 0.194842 0
0.587045 0.114076 0
1 0 0
1 0 0
1 0 0
1 0 0
0 0.456779 0
0 0.480903 0
0 0.500694 0
0 0.49546 0
0.338689 0.49044 0
0.936553 0.392187 0
1 0.349233 0
1 0.35436 0
1 0.38378 0
0 0.812436 0
0 0.833799 0
0 0.851331 0
0 0.849439 0
0.0391394 0.831342 0
0.627924 0.820829 0
1 0.756283 0
1 0.759594 0
1 0.775479 0
0 1 0
0 1 0
0 1 0
0 1 0
0 1 0
0.481559 1 0
0.868544 1 0
1 0.971679 0
1 0.971618 0
0 1 0
0 1 0
0 1 0
0 1 0
0 1 0
0.621714 1 0
0.807996 1 0
0.985061 1 0
1 1 0
0 1 0
0 1 0
0 1 0
0 1 0
0 1 0
0.647944 1 0
0.856153 1 0
0.95494 1 0
1 1 0
0 0 0.0458381
0.00169375 0 0.0455177
0.102953 0 0.0430762
0.271763 0 0.0338598
0.594888 0 0.0162203
0.991592 0 0
1 0 0
1 0 0
1 0 0
0 0 0.0368353
0 0 0.0356146
0.0699474 0 0.0334478
0.254917 0 0.0256809
0.575875 0 0.0106203
0.894896 0 0
1 0 0
1 0 0
1 0 0
0 0.0457923 0.0238956
0 0.038056 0.0246586
0.0274815 0.0290684 0.0249027
0.225544 0.00624094 0.0215915
0.546761 0 0.0116732
0.935866 0 0
1 0 0
1 0 0
1 0 0
0 0.185885 0
0 0.192355 0.000518807
0 0.197574 0.00137331
0.150668 0.189899 0
0.592508 0.112703 0
1 0 0
1 0 0
1 0 0
1 0 0
0 0.462058 0
0 0.486778 0
0 0.506767 0
0 0.501427 0
0.370169 0.488151 0
0.941512 0.39707 0
1 0.355016 0
1 0.360739 0
1 0.389334 0
0 0.818112 0
0 0.839643 0
0 0.857664 0
0 0.855619 0
0.108049 0.831312 0
0.659602 0.818723 0
1 0.760891 0
1 0.763317 0
1 0.778393 0
0 1 0
0 1 0
0 1 0
0 1 0
0 1 0
0.566247 1 0
0.885527 0.996536 0
1 0.97023 0
1 0.97084 0
0 1 0
0 1 0
0 1 0
0 1 0
0 1 0
0.634089 1 0
0.832029 1 0
0.990662 1 0
1 1 0
0 1 0
0 1 0
0 1 0
0 1 0
0 1 0
0.641718 1 0
0.88838 1 0
0.963088 1 0
1 1 0
0 0 0.186313
0 0 0.187366
0.0859846 0 0.184161
0.25716 0 0.170184
0.578775 0 0.148455
0.979049 0 0.118853
1 0 0.0954604
1 0 0.0870375
1 0 0.0887465
0 0 0.180011
0 0 0.179751
0.0504158 0 0.1776
0.240833 0 0.166186
0.581552 0 0.147692
0.995209 0 0.122179
1 0 0.104845
1 0 0.104341
1 0 0.114504
0 0.0243839 0.167208
0 0.0171664 0.172107
0.0104829 0.00920119 0.176196
0.233234 0 0.171221
0.610651 0 0.158648
1 0 0.139406
1 0 0.13109
1 0 0.141482
1 0 0.162554
0 0.174472 0.132692
0 0.18114 0.143648
0 0.186145 0.15378
0.164431 0.170596 0.153841
0.561715 0.108003 0.148119
0.965591 0 0.137057
1 0 0.13257
1 0 0.143603
1 0 0.164599
0 0.458228 0.0581369
0 0.482841 0.0696727
0 0.502205 0.0802167
0 0.495888 0.0800641
0.400656 0.473198 0.0572976
0.937301 0.392447 0.038819
1 0.349172 0.0240177
1 0.352605 0.0290074
1 0.380819 0.046067
0 0.816144 0
0 0.837781 0
0 0.855802 0
0 0.853635 0
0.0906691 0.829221 0
0.690959 0.807248 0
1 0.757137 0
1 0.75819 0
1 0.771771 0
0 1 0
0 1 0
0 1 0
0 1 0
0 1 0
0.638788 1 0
0.89984 0.987869 0
1 0.964294 0
1 0.964782 0
0 1 0
0 1 0
0 1 0
0 1 0
0 1 0
0.61912 1 0
0.862196 1 0
0.994751 1 0
1 1 0
0 1 0
0 1 0
0 1 0
0 1 0
0 1 0
0.621042 1 0
0.90695 1 0
0.970474 1 0
1 1 0
0 0 0.454932
0 0 0.456336
0.0272984 0 0.451575
0.22118 0 0.430671
0.549691 0 0.402441
0.955932 0 0.371084
1 0 0.349966
1 0 0.3458
1 0 0.353017
0 0 0.448661
0 0 0.449577
0 0 0.447745
0.204242 0 0.432105
0.555215 0 0.411032
0.976059 0 0.388434
1 0 0.377462
1 0 0.384939
1 0 0.404334
0 0 0.436515
0 0 0.44683
0 0 0.455756
0.196292 0 0.451438
0.588159 0 0.441703
1 0 0.429938
1 0 0.429892
1 0 0.447456
1 0 0.474815
0 0.131411 0.400443
0 0.136248 0.421958
0 0.139803 0.441001
0.122576 0.120714 0.444556
0.56701 0.0290684 0.44033
1 0 0.432044
1 0 0.433234
1 0 0.45005
1 0 0.477028
0 0.436606 0.354955
0 0.46009 0.379278
0 0.478798 0.399939
0 0.471412 0.402914
0.420691 0.435203 0.396506
0.90782 0.370581 0.390387
1 0.336477 0.397726
1 0.343893 0.41883
1 0.374456 0.448661
0 0.801877 0.278492
0 0.822766 0.303197
0 0.840406 0.326284
0 0.837766 0.331701
0.0296941 0.81239 0.325505
0.710735 0.78056 0.301396
1 0.738735 0.306249
1 0.737819 0.31664
1 0.749203 0.33695
0 1 0.239551
0 1 0.2701
0 1 0.296681
0 1 0.297627
0 1 0.282155
0.622736 0.984726 0.256626
0.905089 0.967895 0.222095
1 0.947463 0.244221
1 0.946914 0.256077
0 1 0.289891
0 1 0.315251
0 1 0.334142
0 1 0.323232
0 1 0.293095
0.586725 1 0.25478
0.893141 1 0.226017
0.990707 1 0.191058
1 1 0.218601
0 1 0.360342
0 1 0.372381
0 1 0.377935
0 1 0.354726
0 1 0.312627
0.582376 1 0.26334
0.890364 1 0.225132
0.973419 1 0.199908
1 1 0.172992
0 0 0.775753
0 0 0.776532
0 0 0.77229
0.150774 0 0.75375
0.504143 0 0.728252
0.921965 0 0.699992
1 0 0.681483
1 0 0.679866
1 0 0.689235
0 0 0.770138
0 0 0.771618
0 0 0.770626
0.130816 0 0.757717
0.512779 0 0.740353
0.946303 0 0.722332
1 0 0.714992
1 0 0.724422
1 0 0.743511
0 0 0.761975
0 0 0.772442
0 0 0.781857
0.121706 0 0.779644
0.550668 0 0.772854
0.994446 0 0.764889
1 0 0.766506
1 0 0.782132
1 0 0.80415
0 0.0179599 0.734508
0 0.0218357 0.75581
0 0.0245823 0.77409
0.0216373 0.00283818 0.778073
0.530648 0 0.775265
0.987976 0 0.769894
1 0 0.77203
1 0 0.78706
1 0 0.808759
0 0.389151 0.702892
0 0.412863 0.726497
0 0.431479 0.745403
0 0.424186 0.748135
0.380179 0.384176 0.74403
0.896437 0.3084 0.738903
1 0.254246 0.742245
1 0.252613 0.757321
1 0.282307 0.776776
0 0.771328 0.653712
0 0.791897 0.677165
0 0.80911 0.69781
0 0.807065 0.70309
0 0.78088 0.698436
0.719219 0.735424 0.68983
1 0.704524 0.689494
1 0.706813 0.704067
1 0.720729 0.72256
0 1 0.640467
0 1 0.664302
0 1 0.684413
0 1 0.685832
0 0.996323 0.675181
0.583597 0.956054 0.659022
0.897093 0.933211 0.640909
1 0.916991 0.64889
1 0.915633 0.656092
0 1 0.680949
0 1 0.6981
0 1 0.71107
0 1 0.703655
0 1 0.682948
0.536553 1 0.656153
0.873716 1 0.6365
0.975692 1 0.61799
1 0.994781 0.630396
0 1 0.727123
0 1 0.734569
0 1 0.738216
0 1 0.722759
0 1 0.694179
0.526223 1 0.66038
0.858122 1 0.634607
0.970077 1 0.623713
1 1 0.60528
0 0 0.972625
0 0 0.972702
0 0 0.970108
0.0790417 0 0.958968
0.465095 0 0.943221
0.893462 0 0.925322
1 0 0.913512
1 0 0.912963
1 0 0.919814
0 0 0.968658
0 0 0.969619
0 0 0.969345
0.0543984 0 0.962142
0.478248 0 0.951797
0.923171 0 0.940337
1 0 0.935699
1 0 0.941634
1 0 0.953246
0 0 0.964614
0 0 0.971054
0 0 0.976806
0.0487068 0 0.975937
0.52372 0 0.971725
0.976791 0 0.966033
1 0 0.965972
1 0 0.973892
1 0 0.985122
0 0 0.949523
0 0 0.962005
0 0 0.972519
0 0 0.975067
0.504997 0 0.972686
0.971313 0 0.967788
1 0 0.967468
1 0 0.97464
1 0 0.985092
0 0.347448 0.92784
0 0.373877 0.940978
0 0.394537 0.950988
0 0.387594 0.952743
0.345434 0.34461 0.950011
0.878752 0.261769 0.945449
1 0.201831 0.945769
1 0.203952 0.952346
1 0.236683 0.961135
0 0.746029 0.890654
0 0.767865 0.903639
0 0.786236 0.914595
0 0.784039 0.917128
0 0.757412 0.913619
0.700435 0.708797 0.907286
1 0.676265 0.905592
1 0.672938 0.910384
1 0.682521 0.917311
0 0.989761 0.875685
0 0.998291 0.888045
0 1 0.898009
0 0.99884 0.898497
0 0.975326 0.892164
0.552178 0.9337 0.88159
0.893629 0.903746 0.874449
1 0.892485 0.874739
1 0.891691 0.879301
0 1 0.893202
0 1 0.901137
0 1 0.906828
0 1 0.902846
0 1 0.891554
0.496086 1 0.876036
0.849363 0.988098 0.864088
0.963317 0.978943 0.856214
1 0.971756 0.859083
0 1 0.91313
0 1 0.916228
0 1 0.91751
0 1 0.909789
0 1 0.894728
0.481697 1 0.875731
0.83093 1 0.86041
0.953353 1 0.853849
0.994766 1 0.846571
0 0 1
0 0 1
0 0 1
0.035462 0 1
0.446235 0 1
0.8804 0 1
1 0 1
1 0 1
1 0 1
0 0 1
0 0 1
0 0 1
0.014725 0 1
0.464958 0 1
0.915068 0 1
1 0 1
1 0 1
1 0 1
0 0 1
0 0 1
0 0 1
0.0180056 0 1
0.5178 0 1
0.974227 0 1
1 0 1
1 0 1
1 0 1
0 0 1
0 0 1
0 0 1
0 0 1
0.500587 0 1
0.968277 0 1
1 0 1
1 0 1
1 0 1
0 0.333181 1
0 0.361807 1
0 0.38378 1
0 0.376455 1
0.3364 0.331792 1
0.875731 0.245792 1
1 0.186313 1
1 0.191867 1
1 0.23003 1
0 0.738872 0.990753
0 0.761685 0.995789
0 0.780743 0.999847
0 0.778347 1
0 0.75079 0.997925
0.69308 0.701183 0.992615
1 0.667674 0.989776
1 0.664332 0.990631
1 0.674998 0.992554
0 0.982483 0.971267
0 0.991348 0.976379
0 0.997696 0.980377
0 0.991882 0.980133
0 0.967391 0.975967
0.539528 0.924971 0.968658
0.887678 0.893294 0.963592
1 0.882124 0.962997
1 0.880049 0.964248
0 1 0.973724
0 1 0.976913
0 1 0.978988
0 1 0.976669
0 1 0.970169
0.480888 1 0.960754
0.837781 0.978378 0.953445
0.960906 0.966369 0.950469
1 0.961166 0.950027
0 1 0.980606
0 1 0.981659
0 1 0.981826
0 1 0.977859
0 1 0.969573
0.459968 1 0.958495
0.817914 1 0.94963
0.943481 0.999695 0.945647
0.98883 0.996139 0.943053
0 0 1
0 0 1
0 0 1
0.0173495 0 1
0.438758 0 1
0.875776 0 1
1 0 1
1 0 1
1 0 1
0 0 1
0 0 1
0 0 1
0.00360113 0 1
0.462593 0 1
0.915419 0 1
1 0 1
1 0 1
1 0 1
0 0 1
0 0 1
0 0 1
0.0127108 0 1
0.522576 0 1
0.978698 0 1
1 0 1
1 0 1
1 0 1
0 0 1
0 0 1
0 0 1
0 0 1
0.505669 0 1
0.972686 0 1
1 0 1
1 0 1
1 0 1
0 0.33489 1
0 0.364233 1
0 0.386633 1
0 0.379507 1
0.340475 0.33373 1
0.87863 0.248554 1
1 0.191043 1
1 0.198444 1
1 0.236072 1
0 0.741634 1
0 0.764675 1
0 0.783642 1
0 0.780682 1
0 0.75227 1
0.695109 0.701549 1
0.999054 0.668315 1
1 0.665187 1
1 0.675563 1
0 0.982071 1
0 0.990799 1
0 0.996979 1
0 0.990494 1
0 0.965255 1
0.537789 0.922454 1
0.884947 0.890211 0.999695
1 0.878706 0.998459
1 0.87686 0.998413
0 1 1
0 1 1
0 1 1
0 1 1
0 1 1
0.475395 1 0.994919
0.833677 0.974365 0.989761
0.958572 0.961715 0.987655
1 0.956725 0.987167
0 1 1
0 1 1
0 1 1
0 1 1
0 1 0.999329
0.454658 1 0.991714
0.813458 1 0.985809
0.939361 0.995438 0.9832
0.987945 0.99086 0.982254
