luts/Sunny Farm.cube
TITLE "Generated by Resolve"
LUT_3D_SIZE 5
0 0 0
0.0967117 0 0
0.479332 0 0
1 0 0
1 0 0
0 0.0610056 0
0.0238804 0.0481727 0
0.607736 0 0
1 0 0
1 0 0
0 0.449592 0
0 0.492332 0
0.308965 0.490211 0
1 0.341161 0
1 0.375479 0
0 1 0
0 1 0
0 1 0
0.852308 1 0
1 0.971588 0
0 1 0
0 1 0
0 1 0
0.824674 1 0
1 1 0
0 0 0.0458381
0.102953 0 0.0430762
0.594888 0 0.0162203
1 0 0
1 0 0
0 0.0457923 0.0238956
0.0274815 0.0290684 0.0249027
0.546761 0 0.0116732
1 0 0
1 0 0
0 0.462058 0
0 0.506767 0
0.370169 0.488151 0
1 0.355016 0
1 0.389334 0
0 1 0
0 1 0
0 1 0
0.885527 0.996536 0
1 0.97084 0
0 1 0
0 1 0
0 1 0
0.88838 1 0
1 1 0
0 0 0.454932
0.0272984 0 0.451575
0.549691 0 0.402441
1 0 0.349966
1 0 0.353017
0 0 0.436515
0 0 0.455756
0.588159 0 0.441703
1 0 0.429892
1 0 0.474815
0 0.436606 0.354955
0 0.478798 0.399939
0.420691 0.435203 0.396506
1 0.336477 0.397726
1 0.374456 0.448661
0 1 0.239551
0 1 0.296681
0 1 0.282155
0.905089 0.967895 0.222095
1 0.946914 0.256077
0 1 0.360342
0 1 0.377935
0 1 0.312627
0.890364 1 0.225132
1 1 0.172992
0 0 0.972625
0 0 0.970108
0.465095 0 0.943221
1 0 0.913512
1 0 0.919814
0 0 0.964614
0 0 0.976806
0.52372 0 0.971725
1 0 0.965972
1 0 0.985122
0 0.347448 0.92784
0 0.394537 0.950988
0.345434 0.34461 0.950011
1 0.201831 0.945769
1 0.236683 0.961135
0 0.989761 0.875685
0 1 0.898009
0 0.975326 0.892164
0.893629 0.903746 0.874449
1 0.891691 0.879301
0 1 0.91313
0 1 0.91751
0 1 0.894728
0.83093 1 0.86041
0.994766 1 0.846571
0 0 1
0 0 1
0.438758 0 1
1 0 1
1 0 1
0 0 1
0 0 1
0.522576 0 1
1 0 1
1 0 1
0 0.33489 1
0 0.386633 1
0.340475 0.33373 1
1 0.191043 1
1 0.236072 1
0 0.982071 1
0 0.996979 1
0 0.965255 1
0.884947 0.890211 0.999695
1 0.87686 0.998413
0 1 1
0 1 1
0 1 0.999329
0.813458 1 0.985809
0.987945 0.99086 0.982254
