luts/Terra.cube
TITLE "Generated by Resolve"
LUT_3D_SIZE 33
0.0435035 0.0737621 0.0814832
0.0435035 0.0737621 0.0814832
0.0435035 0.0737621 0.0814832
0.0435035 0.0737621 0.0814832
0.0435035 0.0737621 0.0814832
0.0435035 0.0737621 0.0814832
0.045594 0.0742657 0.0816663
0.0497139 0.0752575 0.0820325
0.0551614 0.0767681 0.082475
0.0612345 0.0784619 0.0829328
0.0686961 0.0802777 0.0832074
0.0766155 0.0821851 0.0834363
0.0853285 0.0842603 0.0835279
0.0948959 0.086656 0.0836805
0.104707 0.0891737 0.0838788
0.115831 0.0920119 0.0838636
0.130205 0.0955215 0.0836957
0.152926 0.100572 0.0827955
0.180529 0.105928 0.0805066
0.213519 0.111269 0.0770275
0.250965 0.116518 0.0735485
0.291569 0.122881 0.0723888
0.331075 0.132586 0.0760815
0.37911 0.141527 0.085832
0.434012 0.150362 0.098146
0.492256 0.159319 0.112078
0.550561 0.168063 0.127001
0.603021 0.17734 0.139879
0.651774 0.187198 0.150683
0.699702 0.198795 0.158724
0.746944 0.21091 0.165927
0.795041 0.224369 0.171786
0.823682 0.23299 0.174548
0.0435035 0.0737621 0.0814832
0.0435035 0.0737621 0.0814832
0.0435035 0.0737621 0.0814832
0.0435035 0.0737621 0.0814832
0.0435035 0.0737621 0.0814832
0.0435798 0.0737774 0.0814832
0.0477302 0.0747845 0.0818647
0.0524147 0.0759899 0.0822614
0.0584268 0.0776837 0.0827192
0.0653239 0.0794537 0.0830854
0.0728313 0.0812848 0.0833753
0.0814374 0.0833295 0.0834821
0.0905165 0.0855268 0.0835889
0.103914 0.0889754 0.0838636
0.121675 0.093492 0.0838483
0.143221 0.098497 0.0833295
0.169436 0.103914 0.0815747
0.200748 0.109392 0.0784314
0.23714 0.114626 0.0747082
0.278264 0.12047 0.0724498
0.318135 0.129381 0.0740063
0.36286 0.138781 0.0823224
0.416007 0.147524 0.0940108
0.473365 0.15642 0.107439
0.531701 0.165072 0.122225
0.585428 0.174136 0.135561
0.634485 0.183429 0.147234
0.681254 0.194247 0.155718
0.72781 0.205936 0.163104
0.77438 0.218387 0.169512
0.821469 0.232319 0.174334
0.823682 0.23299 0.174548
0.823682 0.23299 0.174548
0.0435035 0.0737621 0.0814832
0.0435035 0.0737621 0.0814832
0.0435035 0.0737621 0.0814832
0.0435035 0.0737621 0.0814832
0.0435035 0.0737621 0.0814832
0.0456855 0.0742962 0.0816815
0.0498207 0.075288 0.0820478
0.0555581 0.0768749 0.0825055
0.0617838 0.078584 0.082948
0.0695048 0.0804761 0.083238
0.0805066 0.0831159 0.0834669
0.0940871 0.0864424 0.0836652
0.110155 0.0905623 0.0838941
0.129946 0.0954604 0.0836957
0.15407 0.100801 0.0827192
0.183246 0.106401 0.0802319
0.217411 0.111833 0.0766003
0.257053 0.117342 0.0730602
0.298268 0.124514 0.0726787
0.338598 0.134447 0.0772869
0.388922 0.143145 0.0879683
0.444327 0.151965 0.100542
0.501884 0.1608 0.114443
0.557275 0.169192 0.128649
0.608301 0.178317 0.141176
0.6551 0.187991 0.151263
0.700923 0.1991 0.158923
0.746258 0.210727 0.165835
0.791836 0.223438 0.17145
0.823682 0.23299 0.174548
0.823682 0.23299 0.174548
0.823682 0.23299 0.174548
0.823682 0.23299 0.174548
0.0435035 0.0737621 0.0814832
0.0435035 0.0737621 0.0814832
0.0435035 0.0737621 0.0814832
0.0435035 0.0737621 0.0814832
0.0441138 0.0739147 0.0815442
0.0479133 0.0748302 0.0818799
0.0528267 0.076112 0.0822919
0.0598611 0.0782177 0.0829328
0.0691539 0.0809033 0.0834974
0.0807355 0.0839857 0.083711
0.0950637 0.0877089 0.0839246
0.112398 0.0920272 0.0841993
0.133684 0.0969253 0.0838483
0.159777 0.102174 0.0824292
0.190768 0.107729 0.07953
0.22652 0.113176 0.0755932
0.267765 0.118929 0.072755
0.309117 0.127169 0.073167
0.352041 0.13695 0.0800031
0.40415 0.145647 0.09131
0.460029 0.154376 0.104265
0.516777 0.162966 0.118288
0.571237 0.171588 0.132097
0.619852 0.180453 0.14403
0.665354 0.190417 0.153033
0.709941 0.201389 0.160342
0.754131 0.212818 0.166964
0.798581 0.225422 0.172168
0.823682 0.23299 0.174548
0.823682 0.23299 0.174548
0.823682 0.23299 0.174548
0.823682 0.23299 0.174548
0.823682 0.23299 0.174548
0.0435187 0.0740826 0.081529
0.0435798 0.0750591 0.0816663
0.0436561 0.0760662 0.0818036
0.0437171 0.0771344 0.0819562
0.046952 0.0786145 0.0837568
0.0508888 0.0800488 0.0861524
0.05626 0.0821698 0.0863203
0.0643626 0.0844434 0.0859541
0.0756695 0.0873426 0.0852216
0.0903334 0.0912184 0.0848249
0.108446 0.0949569 0.0855268
0.130709 0.0992294 0.0851148
0.158099 0.103258 0.08336
0.1906 0.107881 0.0801404
0.227909 0.113436 0.0760052
0.270558 0.119158 0.0729686
0.31162 0.127275 0.0737469
0.354742 0.137087 0.0808118
0.406638 0.145922 0.0919509
0.462242 0.154711 0.104799
0.518502 0.16321 0.11873
0.571878 0.171695 0.13225
0.620157 0.180499 0.144106
0.664897 0.190311 0.152956
0.708629 0.201053 0.160128
0.751766 0.212192 0.166629
0.795132 0.224399 0.171801
0.823682 0.23299 0.174548
0.823682 0.23299 0.174548
0.823682 0.23299 0.174548
0.823682 0.23299 0.174548
0.823682 0.23299 0.174548
0.823682 0.23299 0.174548
0.0439765 0.0810407 0.0825055
0.0440833 0.0823835 0.0826734
0.0443427 0.0838941 0.0827955
0.0459449 0.0852216 0.084123
0.0504005 0.0863508 0.0878157
0.0553292 0.0880903 0.0903639
0.0608988 0.090135 0.0925002
0.0683604 0.0923629 0.0924544
0.0806439 0.0951553 0.0902113
0.0985428 0.0985122 0.0878004
0.119936 0.103166 0.0873274
0.146517 0.108156 0.0859388
0.179721 0.111711 0.0828107
0.218173 0.115068 0.0779889
0.261555 0.119356 0.0733654
0.304891 0.125795 0.0735027
0.346548 0.135546 0.0791638
0.397604 0.143984 0.0903182
0.452552 0.15314 0.10251
0.508888 0.162173 0.115877
0.562661 0.170596 0.129473
0.610285 0.179171 0.141039
0.654093 0.18793 0.150866
0.697078 0.198138 0.158328
0.739666 0.208988 0.164889
0.781888 0.220493 0.170397
0.823682 0.23299 0.174548
0.823682 0.23299 0.174548
0.823682 0.23299 0.174548
0.823682 0.23299 0.174548
0.823682 0.23299 0.174548
0.823682 0.23299 0.174548
0.823682 0.23299 0.174548
0.0455787 0.0914778 0.0833295
0.0458534 0.0930648 0.0834516
0.0458228 0.0949111 0.0834821
0.0484169 0.0963455 0.0852827
0.0544137 0.0972915 0.0892195
0.0604562 0.0984207 0.0953078
0.0665141 0.0999619 0.0995956
0.0737469 0.102342 0.101015
0.0853132 0.105013 0.0987716
0.103868 0.108186 0.0937819
0.12929 0.11162 0.0903334
0.159701 0.116991 0.0869612
0.196643 0.121416 0.0822919
0.240085 0.123934 0.0758984
0.286961 0.127214 0.0720378
0.330922 0.134493 0.0747387
0.378256 0.142977 0.0844892
0.43212 0.15172 0.096437
0.488151 0.16054 0.109407
0.543359 0.168872 0.123201
0.592752 0.177844 0.134646
0.638071 0.187015 0.144518
0.680583 0.196445 0.152621
0.721965 0.206165 0.15996
0.762066 0.216281 0.16643
0.801755 0.226963 0.171832
0.823682 0.23299 0.174548
0.823682 0.23299 0.174548
0.823682 0.23299 0.174548
0.823682 0.23299 0.174548
0.823682 0.23299 0.174548
0.823682 0.23299 0.174548
0.823682 0.23299 0.174548
0.045594 0.106432 0.08365
0.0455482 0.108431 0.0835889
0.0455024 0.110292 0.0834516
0.0471809 0.111833 0.0842908
0.0540322 0.113237 0.0881208
0.0635691 0.112718 0.0965438
0.0723278 0.1131 0.105058
0.0805676 0.114824 0.110521
0.0909438 0.117678 0.110109
0.10898 0.119982 0.104341
0.135546 0.121935 0.0974746
0.168521 0.126452 0.0902876
0.20882 0.132021 0.0821851
0.254368 0.136263 0.0734264
0.30396 0.140169 0.0688029
0.350759 0.147219 0.0725261
0.40174 0.154284 0.0843824
0.457465 0.161822 0.0976883
0.514168 0.169802 0.111452
0.566949 0.177844 0.1243
0.61503 0.187015 0.1346
0.659144 0.195956 0.143725
0.700679 0.205371 0.151476
0.741039 0.215106 0.158389
0.780621 0.225574 0.164248
0.819165 0.236255 0.169314
0.831022 0.238926 0.17145
0.829038 0.237324 0.17229
0.82707 0.235721 0.173114
0.825071 0.234104 0.173968
0.823682 0.23299 0.174548
0.823682 0.23299 0.174548
0.823682 0.23299 0.174548
0.0450752 0.124926 0.0822461
0.0449836 0.126986 0.0820172
0.044892 0.128771 0.0818189
0.0448157 0.130205 0.0816663
0.0499886 0.13283 0.0848859
0.059968 0.133211 0.0919966
0.0737926 0.131624 0.103929
0.0874342 0.131044 0.116335
0.098909 0.13315 0.122087
0.113817 0.136065 0.119707
0.139757 0.135988 0.110918
0.173434 0.137789 0.10013
0.215778 0.142306 0.0856336
0.262989 0.148669 0.0713817
0.313787 0.155749 0.0641031
0.364721 0.163882 0.0656596
0.416999 0.171206 0.0775311
0.474601 0.176486 0.0930343
0.531273 0.182544 0.107805
0.583688 0.190341 0.12015
0.631174 0.19881 0.13048
0.674754 0.206989 0.139605
0.716396 0.21677 0.146914
0.755917 0.226734 0.153368
0.794751 0.23714 0.158984
0.83212 0.24773 0.16379
0.843214 0.24976 0.166201
0.840513 0.247333 0.167361
0.837827 0.244923 0.168521
0.835218 0.242588 0.16965
0.832624 0.240269 0.170764
0.830655 0.238621 0.171603
0.828855 0.237171 0.172366
0.043946 0.146853 0.0796674
0.0438392 0.148638 0.0794232
0.0437476 0.150149 0.0792248
0.0436713 0.151431 0.0790417
0.0451209 0.153628 0.0798352
0.0517891 0.157046 0.0837873
0.0667124 0.155917 0.093492
0.08748 0.153689 0.111147
0.105867 0.153338 0.12842
0.121187 0.155596 0.134737
0.143557 0.156847 0.129427
0.176226 0.15462 0.118746
0.217548 0.155123 0.0990921
0.266697 0.158679 0.0762493
0.319371 0.166415 0.0616922
0.372641 0.17612 0.0597238
0.424521 0.185534 0.0695964
0.48307 0.192508 0.0845808
0.540688 0.198779 0.099382
0.594049 0.206897 0.111513
0.642481 0.215183 0.121889
0.686885 0.223713 0.130755
0.728603 0.232975 0.138231
0.767651 0.243046 0.144366
0.805249 0.253056 0.149859
0.84123 0.263188 0.15465
0.859083 0.266987 0.157855
0.856062 0.263478 0.159564
0.853117 0.260288 0.161105
0.850278 0.257206 0.1626
0.847379 0.254078 0.164111
0.84448 0.25095 0.165621
0.842084 0.248737 0.16669
0.0431983 0.169986 0.0764172
0.0431983 0.171267 0.0762341
0.0431983 0.172351 0.0760815
0.0431983 0.173159 0.0759594
0.0431983 0.173495 0.0759136
0.0443427 0.17995 0.0760052
0.055787 0.181521 0.0805676
0.0784924 0.179644 0.0928664
0.10634 0.178241 0.117571
0.129519 0.179416 0.139605
0.151385 0.181506 0.144762
0.181918 0.178927 0.14052
0.218357 0.17525 0.124437
0.265003 0.173663 0.0959487
0.318669 0.177157 0.0694896
0.376272 0.18584 0.0570535
0.430152 0.19617 0.0633402
0.486976 0.20473 0.0770581
0.543694 0.214176 0.0894942
0.597391 0.22504 0.0998398
0.647364 0.23595 0.108766
0.693401 0.246143 0.116869
0.735882 0.256001 0.124071
0.775036 0.265629 0.130388
0.811597 0.275502 0.135637
0.84651 0.285313 0.140352
0.876387 0.293751 0.14435
0.873579 0.288273 0.14728
0.87071 0.283894 0.149493
0.867857 0.279728 0.151553
0.864988 0.275563 0.153613
0.862119 0.271397 0.155673
0.859266 0.267231 0.157733
0.0431983 0.193164 0.0730297
0.0431983 0.194186 0.0728771
0.0431983 0.194812 0.0728008
0.0431983 0.19501 0.0727703
0.0431983 0.194949 0.0727703
0.0433204 0.197223 0.072221
0.0474098 0.20528 0.071107
0.0658427 0.206683 0.0759747
0.0986191 0.205524 0.0930343
0.134218 0.205524 0.124681
0.162356 0.207248 0.149248
0.192554 0.207294 0.156146
0.224552 0.203311 0.152132
0.26424 0.197971 0.13106
0.314488 0.194736 0.0969558
0.371466 0.197864 0.0685435
0.42945 0.205142 0.057084
0.490043 0.215183 0.070222
0.547997 0.226017 0.082475
0.599512 0.238575 0.0909285
0.647807 0.251911 0.0976883
0.693523 0.264759 0.103838
0.735805 0.278309 0.108385
0.775494 0.291691 0.11223
0.812436 0.303716 0.116014
0.847333 0.31519 0.119539
0.880339 0.325536 0.123201
0.890852 0.325017 0.127047
0.888502 0.318074 0.131212
0.885832 0.312154 0.134524
0.882979 0.306569 0.137499
0.88011 0.300999 0.140475
0.877241 0.295415 0.143465
0.0431983 0.217075 0.069749
0.0431983 0.217487 0.069688
0.0431983 0.217624 0.0696727
0.0431983 0.217411 0.0697032
0.0431983 0.216922 0.0697642
0.0431983 0.216236 0.0698558
0.0431983 0.224506 0.0659037
0.0513619 0.234012 0.0615702
0.0849165 0.234043 0.0715801
0.130541 0.233143 0.0975052
0.174823 0.232486 0.136858
0.208576 0.235569 0.160464
0.239261 0.234379 0.168124
0.270909 0.230091 0.167758
0.312505 0.223728 0.144091
0.364172 0.218616 0.107393
0.424079 0.220203 0.071458
0.482902 0.22742 0.0585489
0.544686 0.237385 0.0726329
0.600183 0.250065 0.0826734
0.648127 0.263371 0.0894636
0.6916 0.276844 0.0944533
0.732586 0.290959 0.0981613
0.771374 0.306416 0.100191
0.808103 0.322576 0.100923
0.843793 0.338247 0.101564
0.877394 0.353735 0.101717
0.905104 0.365682 0.102358
0.903075 0.360265 0.105714
0.901015 0.354742 0.109133
0.898787 0.34844 0.112978
0.896437 0.341482 0.117159
0.894133 0.334676 0.121248
0.0431983 0.241382 0.0666972
0.0431983 0.24123 0.0667124
0.0431983 0.240879 0.0667582
0.0431983 0.240162 0.0668498
0.0431983 0.239307 0.0669566
0.0431983 0.238239 0.0670787
0.0431983 0.240818 0.0649882
0.0442206 0.255177 0.0543832
0.0686961 0.262394 0.0533455
0.118242 0.261921 0.0730144
0.17583 0.256947 0.110201
0.225895 0.260197 0.14815
0.260136 0.266987 0.170535
0.287968 0.265507 0.177829
0.319265 0.261631 0.185657
0.36173 0.254063 0.163165
0.415213 0.248173 0.124346
0.476829 0.248127 0.0783093
0.533883 0.253651 0.057084
0.590982 0.262745 0.069398
0.641871 0.274952 0.0783551
0.68719 0.288197 0.0844129
0.728054 0.302052 0.0882124
0.766888 0.317067 0.090547
0.80325 0.333562 0.0908675
0.839216 0.351263 0.0900435
0.873381 0.369802 0.0878004
0.904952 0.389044 0.0839704
0.914382 0.39234 0.0848249
0.913024 0.387991 0.0879072
0.911681 0.383642 0.0909743
0.910124 0.37908 0.0940261
0.908064 0.373556 0.0974594
0.0431983 0.266117 0.0653391
0.0431983 0.265461 0.0653544
0.0431983 0.264576 0.0653849
0.0431983 0.263478 0.0654307
0.0431983 0.262287 0.0654612
0.0431983 0.260822 0.065507
0.0431983 0.259129 0.065568
0.0438239 0.270787 0.0560616
0.058793 0.285924 0.0456703
0.102434 0.293629 0.0518196
0.166949 0.288334 0.0825666
0.227741 0.285512 0.126055
0.280629 0.296681 0.158465
0.311879 0.303243 0.183536
0.337606 0.301869 0.200046
0.369741 0.29749 0.20473
0.412268 0.290455 0.184558
0.467491 0.282216 0.143862
0.52813 0.279393 0.0920119
0.580499 0.283299 0.0511788
0.63122 0.291737 0.0601511
0.677943 0.302693 0.0691539
0.720287 0.314916 0.0751659
0.758801 0.329152 0.0779889
0.795819 0.344671 0.0792248
0.831525 0.36231 0.078233
0.865858 0.381308 0.0755016
0.899184 0.401617 0.071046
0.923781 0.417914 0.0663615
0.922316 0.414389 0.0689555
0.920806 0.410788 0.0715953
0.91928 0.407111 0.0742962
0.917769 0.403204 0.0771191
0.0431983 0.291722 0.0655528
0.0431983 0.290455 0.0654612
0.0431983 0.289097 0.0653697
0.0431983 0.287495 0.0652628
0.0431983 0.285771 0.0651865
0.0431983 0.283848 0.0652018
0.0431983 0.281849 0.0652171
0.0432593 0.287861 0.058854
0.0520485 0.304295 0.0448005
0.0965133 0.31725 0.044419
0.15903 0.31928 0.0634928
0.225345 0.314351 0.103105
0.287098 0.321096 0.144228
0.336294 0.335698 0.176471
0.363897 0.341207 0.202289
0.389578 0.340032 0.221012
0.42385 0.335515 0.225025
0.466285 0.328862 0.205982
0.51902 0.319554 0.166506
0.575113 0.314244 0.11725
0.626917 0.316411 0.0632181
0.667857 0.324178 0.0463111
0.709438 0.333883 0.0535592
0.748501 0.345357 0.059617
0.784894 0.358846 0.0624094
0.820432 0.374182 0.0632639
0.854765 0.392065 0.0612192
0.889296 0.41239 0.0571603
0.92195 0.434669 0.049546
0.929458 0.437812 0.0499733
0.928695 0.434409 0.0529183
0.927916 0.43093 0.0559396
0.927123 0.427359 0.0590372
0.0431983 0.319814 0.0648661
0.0431983 0.317723 0.0651408
0.0431983 0.315648 0.0654154
0.0431983 0.313054 0.0657511
0.0431983 0.310384 0.0661021
0.0431983 0.3075 0.0664683
0.0431983 0.304952 0.066453
0.0433661 0.305791 0.0633097
0.0548257 0.323598 0.0471199
0.0968795 0.337743 0.0433051
0.154681 0.346838 0.0539406
0.222309 0.34287 0.0871138
0.287541 0.344045 0.130388
0.350912 0.362387 0.162615
0.392218 0.375082 0.195453
0.418677 0.381094 0.221225
0.44506 0.379278 0.24181
0.479408 0.374197 0.243503
0.520241 0.367941 0.226261
0.567041 0.359854 0.192981
0.616785 0.353521 0.149859
0.664088 0.353811 0.102907
0.702571 0.360006 0.0594186
0.736675 0.368673 0.0451362
0.773388 0.379461 0.0468452
0.807553 0.391852 0.0478676
0.841688 0.406989 0.0466468
0.876265 0.424796 0.0442054
0.908904 0.445121 0.0431983
0.931533 0.458686 0.0434119
0.93138 0.455802 0.0436866
0.931228 0.452842 0.0439765
0.931075 0.449821 0.0442664
0.0445869 0.353063 0.0552224
0.0444038 0.350225 0.0563211
0.0441901 0.347143 0.057496
0.0439765 0.34374 0.0588083
0.0437324 0.3402 0.0601663
0.0434882 0.336446 0.0616007
0.0432441 0.332815 0.0630045
0.0431983 0.329549 0.0635996
0.0565499 0.346136 0.0460517
0.099794 0.359442 0.0431983
0.152682 0.372183 0.0476844
0.218418 0.36965 0.0764782
0.285252 0.368353 0.115297
0.355032 0.383978 0.14902
0.414343 0.404257 0.179934
0.449454 0.415686 0.214618
0.473426 0.421149 0.243458
0.50045 0.418769 0.26157
0.533913 0.413321 0.261799
0.569558 0.408728 0.249729
0.61091 0.403342 0.223011
0.653834 0.397574 0.187015
0.696773 0.394354 0.145815
0.733913 0.398672 0.105959
0.767742 0.40647 0.071046
0.798245 0.416052 0.047776
0.827787 0.427588 0.0432441
0.860716 0.442084 0.0431983
0.893919 0.458778 0.0431983
0.926116 0.477852 0.0431983
0.929763 0.477195 0.0431983
0.930114 0.474067 0.0431983
0.930465 0.471015 0.0431983
0.0542306 0.384817 0.044892
0.0529793 0.381567 0.0458839
0.0516823 0.378225 0.0469062
0.0503853 0.374868 0.0479286
0.0491035 0.371527 0.0489509
0.0477607 0.368063 0.0500038
0.0465095 0.364813 0.0509957
0.0452583 0.361578 0.0519875
0.0624552 0.368582 0.0449683
0.10396 0.380545 0.0431983
0.154086 0.391684 0.0478828
0.215183 0.392828 0.0691081
0.281697 0.39324 0.101793
0.351278 0.402472 0.13846
0.424949 0.428779 0.162036
0.474952 0.445853 0.198703
0.503014 0.457038 0.236133
0.527245 0.462837 0.265461
0.551904 0.458335 0.282322
0.583429 0.45478 0.283925
0.615198 0.451789 0.275746
0.649912 0.447944 0.255039
0.687114 0.442878 0.225284
0.724376 0.439338 0.190585
0.758831 0.440635 0.15671
0.790707 0.44683 0.121004
0.819089 0.455161 0.0895705
0.847929 0.465202 0.0656138
0.877577 0.477501 0.049836
0.908644 0.492164 0.0437629
0.924956 0.499046 0.0431983
0.925689 0.496025 0.0431983
0.92636 0.49308 0.0431983
0.0729076 0.411582 0.0432136
0.0707103 0.408606 0.0432898
0.068574 0.405722 0.0433814
0.0663005 0.402655 0.043473
0.0640879 0.39968 0.0435645
0.0618906 0.396704 0.0436408
0.0597543 0.393835 0.0437324
0.0575418 0.39086 0.0438239
0.0687114 0.391501 0.0436408
0.109071 0.401434 0.0431983
0.156481 0.411688 0.047303
0.214633 0.413367 0.0661021
0.278401 0.415763 0.0923629
0.345739 0.422843 0.126543
0.423514 0.447913 0.149874
0.490761 0.472923 0.17937
0.529534 0.488548 0.221515
0.552804 0.499977 0.260014
0.575936 0.505455 0.287205
0.600748 0.501137 0.302922
0.627909 0.497276 0.307744
0.655695 0.495171 0.303105
0.685771 0.492302 0.287907
0.716976 0.489036 0.264958
0.749203 0.485405 0.23621
0.780423 0.485359 0.206989
0.809949 0.488792 0.177371
0.838071 0.495232 0.146532
0.865553 0.503044 0.111147
0.893217 0.513222 0.0776379
0.918898 0.523934 0.0544747
0.919081 0.520272 0.0451667
0.91986 0.516869 0.0431983
0.0850233 0.435416 0.0508125
0.0830549 0.433204 0.0494545
0.0818189 0.430533 0.0486763
0.0804913 0.427695 0.047837
0.0792859 0.425116 0.0470741
0.0779736 0.422263 0.0462501
0.0766918 0.419516 0.0454414
0.0754101 0.416754 0.0446326
0.0756085 0.414466 0.0438544
0.113451 0.424048 0.0438697
0.158526 0.431067 0.0502937
0.213825 0.43331 0.0668956
0.274464 0.436927 0.0887312
0.339376 0.443519 0.117464
0.412009 0.463111 0.146212
0.49218 0.495628 0.166323
0.546654 0.517571 0.20589
0.577523 0.533043 0.251026
0.599176 0.544442 0.286122
0.620813 0.547387 0.30927
0.644144 0.542229 0.324315
0.668406 0.538628 0.331685
0.69276 0.537148 0.331807
0.718746 0.535988 0.32166
0.74551 0.533822 0.30428
0.772931 0.530983 0.281178
0.801282 0.528649 0.253895
0.828061 0.530159 0.228138
0.854276 0.534951 0.202182
0.881743 0.5411 0.172122
0.909239 0.54934 0.138796
0.917159 0.548791 0.119707
0.917815 0.544747 0.107836
0.104662 0.453346 0.0645457
0.102296 0.451362 0.0629129
0.100069 0.449424 0.0613718
0.0978866 0.447379 0.0598306
0.0957656 0.445411 0.0583505
0.0935683 0.443381 0.0568093
0.09131 0.441276 0.0552224
0.089128 0.439231 0.0536812
0.0869306 0.437201 0.0521553
0.117052 0.442679 0.0528878
0.161166 0.449866 0.057908
0.213275 0.452476 0.0711376
0.271107 0.457008 0.0890211
0.333959 0.464439 0.11249
0.401907 0.478569 0.141054
0.480858 0.510399 0.163226
0.553796 0.542153 0.190738
0.595895 0.561685 0.237293
0.62005 0.575326 0.28365
0.640833 0.587213 0.313893
0.662089 0.587991 0.331701
0.684001 0.581079 0.345785
0.705882 0.578546 0.356054
0.727474 0.577981 0.360052
0.749432 0.576837 0.354238
0.772869 0.575631 0.340917
0.797009 0.573449 0.322759
0.821607 0.570352 0.299321
0.847242 0.56968 0.274159
0.871214 0.573114 0.251087
0.896925 0.577951 0.224567
0.912566 0.580072 0.205386
0.912978 0.575998 0.196277
0.126085 0.470741 0.0791485
0.123522 0.468818 0.0774395
0.121187 0.467063 0.0758984
0.118639 0.465049 0.0741894
0.116274 0.463066 0.0725567
0.113909 0.461082 0.0709239
0.111467 0.459037 0.0692454
0.109102 0.457069 0.0676127
0.106813 0.455146 0.0660258
0.1243 0.458351 0.0654917
0.166217 0.466972 0.067689
0.216098 0.470756 0.0781109
0.270588 0.475059 0.0924849
0.330846 0.483421 0.11078
0.395758 0.495979 0.135653
0.470253 0.523522 0.15964
0.547341 0.558755 0.18352
0.605524 0.585702 0.222431
0.638819 0.602899 0.272541
0.658534 0.615641 0.31873
0.679072 0.625559 0.344045
0.70013 0.625422 0.356512
0.720699 0.619104 0.368902
0.740261 0.616129 0.37908
0.759182 0.615702 0.385885
0.778485 0.615274 0.384894
0.79852 0.614252 0.377157
0.820127 0.612329 0.36231
0.842969 0.608743 0.341054
0.86566 0.60734 0.318486
0.888792 0.608774 0.294896
0.910872 0.612345 0.272984
0.910735 0.608499 0.265812
0.149416 0.487511 0.0945754
0.146761 0.485725 0.0928206
0.144183 0.484001 0.0911116
0.14136 0.482094 0.0892348
0.13872 0.480201 0.0874952
0.136156 0.478279 0.0857862
0.133577 0.476341 0.0840925
0.131167 0.47454 0.0824903
0.128511 0.472557 0.0807355
0.133837 0.472862 0.0792401
0.174212 0.482429 0.0798199
0.221454 0.487511 0.0874342
0.273533 0.492561 0.0988327
0.330526 0.50045 0.11284
0.393149 0.513176 0.132937
0.46334 0.536934 0.154757
0.538003 0.570703 0.180194
0.604471 0.603555 0.212009
0.650614 0.626566 0.259358
0.677501 0.641642 0.311635
0.695537 0.654292 0.354635
0.714656 0.662547 0.374701
0.734508 0.660395 0.382528
0.754208 0.654612 0.390448
0.771908 0.651576 0.399939
0.788846 0.651133 0.408911
0.806226 0.650813 0.411612
0.824125 0.64979 0.407401
0.843442 0.647181 0.3953
0.864271 0.643503 0.376455
0.885405 0.641016 0.354879
0.9066 0.641291 0.333547
0.912688 0.639735 0.323018
0.170626 0.510445 0.106325
0.168643 0.507042 0.105562
0.166735 0.503746 0.104845
0.164767 0.500343 0.104082
0.162783 0.496941 0.103334
0.160128 0.494697 0.101686
0.157473 0.492912 0.0999313
0.154818 0.491127 0.0981613
0.152071 0.489296 0.0963455
0.149248 0.487388 0.0944686
0.184466 0.496468 0.093843
0.229541 0.503014 0.0991531
0.278843 0.508614 0.107866
0.333486 0.51722 0.118822
0.392462 0.528817 0.1337
0.458686 0.549187 0.153262
0.531044 0.582162 0.175586
0.599023 0.616236 0.206226
0.652567 0.644236 0.249012
0.690913 0.664759 0.301015
0.712093 0.678065 0.35314
0.728756 0.689769 0.389838
0.747265 0.697612 0.402945
0.766445 0.693843 0.404959
0.78584 0.687495 0.407858
0.802213 0.684886 0.417029
0.81738 0.683742 0.426474
0.832639 0.68275 0.431281
0.849271 0.681529 0.429236
0.867002 0.678935 0.419226
0.885771 0.674586 0.402914
0.905486 0.671458 0.383398
0.917769 0.669581 0.369467
0.170962 0.572976 0.0885176
0.172396 0.563134 0.0926375
0.17377 0.553582 0.0966049
0.175204 0.54374 0.100725
0.176638 0.533898 0.104829
0.177966 0.524666 0.108675
0.176364 0.520348 0.108507
0.17438 0.516945 0.107759
0.172412 0.513542 0.107012
0.170382 0.510018 0.106233
0.192737 0.517357 0.103609
0.236713 0.525353 0.107118
0.285481 0.529351 0.115892
0.337667 0.535134 0.125734
0.393896 0.547936 0.135714
0.45478 0.566903 0.149401
0.523857 0.600305 0.166171
0.590204 0.63183 0.199069
0.648768 0.660517 0.242359
0.693538 0.683162 0.292958
0.725093 0.70013 0.346365
0.742794 0.71162 0.393133
0.759625 0.723018 0.420401
0.777356 0.729351 0.427604
0.796307 0.723964 0.424094
0.814893 0.717494 0.42417
0.829618 0.714214 0.432761
0.843183 0.712154 0.442496
0.857267 0.710735 0.448478
0.872801 0.709621 0.447974
0.889525 0.707042 0.439292
0.907317 0.702953 0.424796
0.924498 0.699443 0.407538
0.164797 0.651026 0.052903
0.165118 0.642969 0.0567636
0.165438 0.634928 0.0606241
0.165774 0.626352 0.064744
0.166094 0.618311 0.0686046
0.166415 0.609995 0.0725872
0.166812 0.601602 0.076585
0.168231 0.591745 0.0806897
0.169711 0.581598 0.0849317
0.171145 0.57174 0.0890364
0.185855 0.570214 0.0899519
0.228962 0.581369 0.089128
