luts/Terra.cube
TITLE "Generated by Resolve"
LUT_3D_SIZE 9
0.0435035 0.0737621 0.0814832
0.0435035 0.0737621 0.0814832
0.0551614 0.0767681 0.082475
0.0853285 0.0842603 0.0835279
0.130205 0.0955215 0.0836957
0.250965 0.116518 0.0735485
0.434012 0.150362 0.098146
0.651774 0.187198 0.150683
0.823682 0.23299 0.174548
0.0435187 0.0740826 0.081529
0.046952 0.0786145 0.0837568
0.0756695 0.0873426 0.0852216
0.158099 0.103258 0.08336
0.31162 0.127275 0.0737469
0.518502 0.16321 0.11873
0.708629 0.201053 0.160128
0.823682 0.23299 0.174548
0.823682 0.23299 0.174548
0.0450752 0.124926 0.0822461
0.0499886 0.13283 0.0848859
0.098909 0.13315 0.122087
0.215778 0.142306 0.0856336
0.416999 0.171206 0.0775311
0.631174 0.19881 0.13048
0.794751 0.23714 0.158984
0.837827 0.244923 0.168521
0.828855 0.237171 0.172366
0.0431983 0.217075 0.069749
0.0431983 0.216922 0.0697642
0.0849165 0.234043 0.0715801
0.239261 0.234379 0.168124
0.424079 0.220203 0.071458
0.648127 0.263371 0.0894636
0.808103 0.322576 0.100923
0.903075 0.360265 0.105714
0.894133 0.334676 0.121248
0.0431983 0.319814 0.0648661
0.0431983 0.310384 0.0661021
0.0548257 0.323598 0.0471199
0.287541 0.344045 0.130388
0.44506 0.379278 0.24181
0.616785 0.353521 0.149859
0.773388 0.379461 0.0468452
0.908904 0.445121 0.0431983
0.931075 0.449821 0.0442664
0.0850233 0.435416 0.0508125
0.0792859 0.425116 0.0470741
0.0756085 0.414466 0.0438544
0.274464 0.436927 0.0887312
0.546654 0.517571 0.20589
0.644144 0.542229 0.324315
0.74551 0.533822 0.30428
0.854276 0.534951 0.202182
0.917815 0.544747 0.107836
0.170626 0.510445 0.106325
0.162783 0.496941 0.103334
0.152071 0.489296 0.0963455
0.278843 0.508614 0.107866
0.531044 0.582162 0.175586
0.712093 0.678065 0.35314
0.78584 0.687495 0.407858
0.849271 0.681529 0.429236
0.917769 0.669581 0.369467
0.186511 0.734905 0.0431983
0.188449 0.707912 0.0431983
0.189014 0.682399 0.0432593
0.26334 0.691371 0.0431983
0.499504 0.729809 0.0608072
0.718853 0.763577 0.319448
0.823438 0.798978 0.481636
0.889586 0.788663 0.462516
0.936522 0.779797 0.486473
0.197986 0.82118 0.0431983
0.196979 0.820996 0.0431983
0.193027 0.820294 0.0431983
0.229831 0.8224 0.0431983
0.453071 0.847257 0.0431983
0.686244 0.892134 0.19527
0.844678 0.86743 0.476677
0.906416 0.879637 0.54316
0.950256 0.862455 0.506172
0.0435035 0.0737621 0.0814832
0.0435035 0.0737621 0.0814832
0.0552071 0.0767681 0.082475
0.0867323 0.084596 0.0835431
0.145083 0.0986801 0.0843366
0.280293 0.122332 0.0729229
0.476616 0.157046 0.10811
0.685512 0.19527 0.156435
0.823682 0.23299 0.174548
0.0436103 0.0755932 0.0820172
0.0480964 0.0807813 0.0874342
0.0852064 0.0906233 0.0890364
0.176913 0.107332 0.0835737
0.333455 0.132876 0.0766766
0.547036 0.167468 0.126131
0.729747 0.206424 0.163394
0.823682 0.23299 0.174548
0.823682 0.23299 0.174548
0.0460059 0.125887 0.0885481
0.0488746 0.133516 0.0858778
0.0986038 0.132845 0.121889
0.225055 0.142397 0.0817578
0.437125 0.169451 0.0855268
0.64538 0.198596 0.135882
0.803647 0.236469 0.16289
0.833051 0.24065 0.170581
0.825727 0.234638 0.173693
0.0431983 0.217624 0.0696727
0.0431983 0.216159 0.0698558
0.0793622 0.231403 0.0703899
0.233097 0.230671 0.166323
0.421332 0.216281 0.0665751
0.650767 0.26186 0.0914778
0.814176 0.320928 0.104173
0.899168 0.349569 0.112291
0.889509 0.32105 0.129427
0.0431983 0.317235 0.0652018
0.0431983 0.306905 0.0665446
0.0509804 0.317662 0.0489967
0.27744 0.337881 0.127398
0.436683 0.372915 0.238087
0.611811 0.34612 0.143191
0.773999 0.374868 0.0488289
0.913817 0.44419 0.0446632
0.930816 0.444587 0.04477
0.0827344 0.432517 0.0492561
0.0776074 0.4215 0.0460212
0.0720836 0.410468 0.0432441
0.265629 0.432959 0.0852522
0.539071 0.510826 0.201205
0.637522 0.535836 0.320897
0.741466 0.526986 0.298131
0.853773 0.528817 0.191318
0.918151 0.539498 0.0941939
0.168032 0.505974 0.105333
0.159533 0.494301 0.101289
0.148638 0.486992 0.0940719
0.270008 0.505135 0.104814
0.52079 0.575174 0.172137
0.707073 0.672602 0.346685
0.781018 0.682445 0.405264
0.845685 0.676692 0.425742
0.916747 0.665278 0.363821
0.187121 0.726329 0.0431983
0.189044 0.699565 0.0431983
0.184833 0.680095 0.0434577
0.25565 0.687556 0.0431983
0.490974 0.720638 0.0625467
0.713252 0.758206 0.3122
0.819684 0.795056 0.47805
0.886061 0.785336 0.460975
0.933425 0.776211 0.484993
0.197986 0.82118 0.0431983
0.195727 0.820783 0.0431983
0.191806 0.820081 0.0431983
0.222278 0.821683 0.0431983
0.445274 0.845853 0.0431983
0.681193 0.887678 0.188678
0.842023 0.863142 0.475166
0.903853 0.875486 0.539254
0.948882 0.859236 0.502663
0.043534 0.0745556 0.0827802
0.043595 0.0766461 0.0862593
0.0552987 0.0792248 0.090074
0.0886397 0.0840772 0.096437
0.163668 0.0937057 0.0963607
0.305531 0.11548 0.0818799
0.515236 0.155734 0.12575
0.717708 0.199466 0.168078
0.830839 0.23061 0.18088
0.0438392 0.0847334 0.0966049
0.049546 0.0930037 0.10663
0.0907607 0.09897 0.115923
0.202228 0.106523 0.110964
0.3561 0.121706 0.0937972
0.569451 0.165255 0.140719
0.749996 0.209064 0.170306
0.830198 0.233219 0.177234
0.828321 0.233768 0.175784
0.0462196 0.127749 0.129229
0.0494698 0.131731 0.132509
0.100954 0.139513 0.141283
0.266941 0.147982 0.0986343
0.46862 0.167193 0.097612
0.660639 0.198154 0.142336
0.810147 0.235721 0.166278
0.82974 0.237888 0.172
0.823682 0.23299 0.174548
0.043473 0.218891 0.125872
0.0432136 0.211902 0.111894
0.0562295 0.23798 0.0892042
0.227939 0.233936 0.179568
0.431312 0.215396 0.0632181
0.658427 0.261097 0.0946517
0.820691 0.317922 0.108583
0.89456 0.335943 0.12047
0.884459 0.309468 0.135958
0.0431983 0.312993 0.0873732
0.0431983 0.303624 0.0799115
0.0454871 0.312444 0.0572976
0.266667 0.333028 0.123796
0.427756 0.36643 0.234607
0.608621 0.339864 0.133776
0.778393 0.370871 0.0512093
0.922301 0.445029 0.0454261
0.929442 0.437736 0.0500343
0.0804608 0.429206 0.0487221
0.0760052 0.418051 0.0450141
0.069337 0.406744 0.0433509
0.256107 0.42884 0.0814374
0.531228 0.503868 0.196628
0.630808 0.529427 0.317601
0.738094 0.519478 0.290455
0.854765 0.522622 0.178119
0.918456 0.53315 0.0780041
0.16556 0.501732 0.104387
0.1561 0.491997 0.0990158
0.14522 0.484688 0.0917983
0.261158 0.501747 0.101686
0.510399 0.568093 0.168643
0.701778 0.666896 0.34052
0.776135 0.67744 0.40264
0.84213 0.671519 0.421851
0.915618 0.660456 0.357488
0.187747 0.717769 0.0431983
0.18967 0.69099 0.0431983
0.180743 0.677836 0.0436408
0.247517 0.683925 0.0431983
0.481956 0.710857 0.0670176
0.707652 0.752575 0.305028
0.815808 0.791058 0.474693
0.881987 0.782025 0.460395
0.930358 0.772717 0.483589
0.197986 0.82118 0.0431983
0.194476 0.820554 0.0431983
0.190585 0.819867 0.0431983
0.215076 0.820966 0.0431983
0.437781 0.844526 0.0431983
0.676249 0.883223 0.182467
0.839704 0.859037 0.473396
0.901381 0.871519 0.535683
0.947616 0.856291 0.499779
0.0442664 0.0846265 0.0975814
0.0445258 0.088365 0.102617
0.0577096 0.0899367 0.105257
0.0911727 0.092958 0.112535
0.175998 0.109407 0.122438
0.347112 0.123293 0.114946
0.560265 0.16376 0.137484
0.751598 0.209049 0.171206
0.845899 0.235554 0.181674
0.0441138 0.101961 0.120363
0.0497139 0.118212 0.141314
0.0909133 0.127016 0.155947
0.210834 0.134203 0.159777
0.3944 0.148226 0.148806
0.610864 0.177279 0.144274
0.772259 0.216114 0.17145
0.845243 0.235019 0.182055
0.842054 0.232731 0.183764
0.0433967 0.150851 0.175097
0.0434272 0.160159 0.187488
0.0681163 0.18584 0.222431
0.281666 0.175174 0.197391
0.537545 0.174334 0.160159
0.689616 0.196521 0.157031
0.818982 0.225788 0.181888
0.837812 0.228702 0.187671
0.829602 0.225254 0.188968
0.0435035 0.238025 0.225345
0.0435035 0.231708 0.219043
0.0442512 0.241779 0.228046
0.210712 0.252232 0.243488
0.501122 0.236469 0.151293
0.686748 0.245502 0.11516
0.836942 0.292622 0.13196
0.896696 0.308736 0.140536
0.889128 0.292943 0.149203
0.0432136 0.356054 0.244999
0.0431983 0.337926 0.22536
0.0432288 0.326696 0.209033
0.167849 0.372564 0.126329
0.426917 0.388144 0.29398
0.638926 0.352712 0.154101
0.807279 0.385565 0.0472419
0.937987 0.458549 0.0431983
0.930968 0.437491 0.0524453
0.0432288 0.399481 0.19765
0.0432288 0.385763 0.175036
0.0431983 0.371695 0.15378
0.19762 0.445228 0.0978408
0.506508 0.506844 0.220798
0.626963 0.538598 0.357641
0.742412 0.520821 0.305486
0.863905 0.521782 0.169924
0.918822 0.525368 0.0581521
0.108095 0.488899 0.181827
0.107103 0.484993 0.160861
0.10486 0.480369 0.140108
0.227848 0.506844 0.115511
0.482811 0.558907 0.178744
0.69688 0.665537 0.350835
0.772824 0.677394 0.415091
0.839475 0.668116 0.423331
0.914458 0.655314 0.350607
0.0946059 0.7505 0.0445869
0.115999 0.730938 0.0438087
0.129702 0.705043 0.0472419
0.217029 0.699809 0.0437781
0.466575 0.705882 0.0768292
0.700832 0.747311 0.29836
0.811856 0.787015 0.471626
0.878126 0.778607 0.459388
0.927214 0.769024 0.48217
0.172915 0.825467 0.0431983
0.179431 0.822828 0.0431983
0.185397 0.820279 0.0431983
0.207309 0.820203 0.0431983
0.430137 0.842252 0.0431983
0.674479 0.876509 0.183932
0.838209 0.855177 0.472541
0.899687 0.869886 0.543832
0.948394 0.859709 0.526558
0.0450294 0.099794 0.11809
0.0451057 0.10425 0.124132
0.0601053 0.105745 0.126864
0.0955673 0.110246 0.137942
0.203174 0.128542 0.155459
0.368673 0.153155 0.162509
0.619455 0.193164 0.180972
0.802075 0.243565 0.21001
0.889845 0.284123 0.234043
0.0437018 0.129549 0.157702
0.0443732 0.157565 0.194034
0.0856947 0.180301 0.224353
0.205829 0.17612 0.237537
0.420874 0.194095 0.211063
0.631296 0.210147 0.201312
0.79881 0.25774 0.22414
0.889784 0.295781 0.242634
0.889799 0.295094 0.24213
0.0435645 0.220279 0.268498
0.043595 0.240101 0.294499
0.0453803 0.265415 0.32871
0.245899 0.23711 0.317067
0.538033 0.232959 0.237949
0.715724 0.242832 0.22475
0.854673 0.281483 0.238621
0.895354 0.281559 0.230915
0.892134 0.267414 0.216892
0.0436408 0.266926 0.30988
0.0436255 0.263523 0.307469
0.0436866 0.278233 0.324422
0.118441 0.305882 0.372808
0.514595 0.282475 0.295354
0.73579 0.275212 0.260227
0.875715 0.288045 0.245426
0.908614 0.297246 0.237507
0.910033 0.275166 0.204288
0.0437934 0.383276 0.370336
0.0437476 0.367773 0.353887
0.0437171 0.360327 0.345129
0.0567025 0.402274 0.383749
0.403449 0.410819 0.397803
0.685588 0.405966 0.305806
0.845884 0.416587 0.24123
0.939376 0.448218 0.212467
0.938827 0.421363 0.175219
0.0440681 0.533989 0.440208
0.0439307 0.512444 0.415183
0.0438087 0.490593 0.390921
0.131579 0.491905 0.374578
0.389029 0.511009 0.276768
0.617426 0.559335 0.458778
0.767468 0.539178 0.350988
0.906157 0.552056 0.218326
0.952529 0.556085 0.143053
0.0872663 0.563928 0.432319
0.0870069 0.547616 0.40824
0.0902113 0.532357 0.384848
0.146014 0.514656 0.32781
0.40145 0.564965 0.229755
0.680354 0.669322 0.397696
0.773144 0.694728 0.497932
0.84654 0.681697 0.482612
0.925551 0.6692 0.384924
0.0572518 0.707088 0.37731
0.0512856 0.674205 0.347127
0.0542153 0.641367 0.31873
0.0543221 0.664637 0.236637
0.369436 0.757183 0.134936
0.656138 0.753521 0.303822
0.812848 0.794507 0.521218
0.877684 0.788388 0.52015
0.927733 0.778347 0.530556
0.0431983 0.844419 0.220691
0.0431983 0.840269 0.191516
0.0431983 0.835737 0.161273
0.0435187 0.835218 0.11693
0.356023 0.871092 0.0432441
0.636378 0.90457 0.193225
0.826749 0.861524 0.501183
0.898848 0.878233 0.608499
0.943069 0.87097 0.609415
0.044892 0.118364 0.143084
0.0447242 0.123903 0.150439
0.0610056 0.126574 0.154803
0.10248 0.14139 0.179919
0.218692 0.160006 0.20882
0.422843 0.195422 0.212299
0.639826 0.220783 0.211109
0.800549 0.277638 0.235966
0.879789 0.325399 0.288334
0.0435035 0.172229 0.212665
0.043534 0.217029 0.268498
0.0611276 0.249119 0.305226
0.187335 0.252872 0.321874
0.407324 0.260441 0.282658
0.671244 0.260822 0.231281
0.790158 0.289967 0.239292
0.875929 0.332845 0.305745
0.874723 0.335348 0.311589
0.0437476 0.300801 0.37496
0.0438849 0.328405 0.413077
0.0439002 0.355276 0.448814
0.187945 0.333272 0.403922
0.49865 0.3075 0.320577
0.732036 0.295796 0.249622
0.821347 0.313069 0.273335
0.883024 0.337743 0.315847
0.878325 0.328267 0.295003
0.0439002 0.350408 0.430304
0.0439002 0.350454 0.431937
0.0439002 0.359579 0.445838
0.0484321 0.379614 0.492668
0.480522 0.348302 0.397925
0.719585 0.329198 0.323339
0.828336 0.351186 0.349767
0.887495 0.415869 0.431113
0.890272 0.384787 0.383215
0.0439155 0.391348 0.456336
0.0439002 0.377493 0.439612
0.0439002 0.371603 0.432258
0.0439918 0.411322 0.483467
0.281468 0.431861 0.551629
0.667323 0.428214 0.452628
0.831281 0.43444 0.451026
0.89395 0.454459 0.455863
0.896178 0.418387 0.405188
0.0440986 0.517708 0.520302
0.0440528 0.502831 0.502037
0.0440375 0.487388 0.483894
0.0440833 0.52134 0.514946
0.218616 0.570947 0.567452
0.60914 0.577096 0.561105
0.816144 0.596796 0.500847
0.937911 0.597772 0.451575
0.940459 0.579431 0.417334
0.0443885 0.687114 0.6309
0.0443732 0.672496 0.612161
0.044358 0.658183 0.593317
0.0445563 0.655985 0.58996
0.332235 0.635447 0.556085
0.595224 0.650813 0.464317
0.768063 0.71046 0.608454
0.862409 0.699031 0.54316
0.951354 0.692409 0.441917
0.0445411 0.765301 0.640116
0.0444648 0.742245 0.615061
0.044419 0.717693 0.589868
0.0831159 0.70312 0.561288
0.28368 0.74139 0.490318
0.556786 0.784283 0.34902
0.802167 0.800214 0.577264
0.872816 0.803052 0.622904
0.928374 0.792508 0.609995
0.0487984 0.891081 0.590372
0.0621805 0.8813 0.572045
0.0674907 0.870054 0.553246
0.0785992 0.854582 0.528893
0.114244 0.939773 0.349248
0.526009 0.946456 0.27834
0.789029 0.872175 0.511101
0.895003 0.883696 0.683818
0.935714 0.882353 0.699672
0.0438392 0.141314 0.173236
0.0436408 0.14873 0.182712
0.0585946 0.156512 0.192782
0.106203 0.190021 0.238376
0.223621 0.206622 0.281971
0.432776 0.249851 0.267674
0.696529 0.272221 0.232792
0.816449 0.319097 0.281102
0.87335 0.361975 0.365057
0.043595 0.229618 0.284047
0.0437018 0.281407 0.34786
0.044419 0.32546 0.396216
0.170504 0.336019 0.398047
0.43154 0.333684 0.353246
0.660044 0.313268 0.279072
0.806714 0.340658 0.326909
0.873671 0.389654 0.418891
0.874083 0.397528 0.436194
0.0440223 0.394141 0.505913
0.0440986 0.414084 0.533715
0.0440986 0.416358 0.533318
0.159564 0.403601 0.48101
0.506645 0.390921 0.436362
0.698131 0.353185 0.358007
0.824048 0.378851 0.402533
0.879515 0.399451 0.440223
0.875074 0.386694 0.412604
0.0440986 0.422705 0.542321
0.0440986 0.421439 0.541314
0.0440986 0.421958 0.543221
0.0433204 0.441749 0.589441
0.376776 0.398733 0.566155
0.680079 0.3944 0.455329
0.824826 0.413275 0.488121
0.888731 0.44477 0.526329
0.8869 0.441184 0.511727
0.0442054 0.468254 0.590753
0.0442054 0.457191 0.576577
0.0441901 0.448066 0.565179
0.0442817 0.485374 0.61825
0.145617 0.488624 0.668544
0.660105 0.440604 0.599176
0.817288 0.47187 0.576684
0.898955 0.510445 0.609339
0.89807 0.50959 0.602991
0.0442664 0.523537 0.618158
0.0442206 0.50779 0.599374
0.0442054 0.491051 0.579034
0.0442817 0.521248 0.615167
0.0443885 0.549004 0.659937
0.491173 0.565286 0.722835
0.793027 0.588663 0.653361
0.903075 0.608957 0.667185
0.90222 0.600931 0.65359
0.0444038 0.643549 0.686656
0.044358 0.629862 0.667491
0.0443122 0.615808 0.64799
0.0443122 0.627695 0.656489
0.0445106 0.664652 0.692866
0.459678 0.710231 0.720638
0.761959 0.72285 0.703487
0.900786 0.733516 0.658167
0.943633 0.727749 0.630671
0.0446021 0.78558 0.775952
0.0445716 0.776333 0.76144
0.0445716 0.767071 0.746273
0.0445563 0.768811 0.740368
0.0707103 0.79823 0.755138
0.518273 0.795529 0.692775
0.740597 0.802167 0.61207
0.864851 0.81503 0.724987
0.935225 0.807309 0.674006
0.044831 0.905196 0.82356
0.0447852 0.898039 0.808942
0.0447242 0.884688 0.790158
0.0446937 0.870893 0.771252
0.189242 0.872175 0.721782
0.486442 0.907179 0.618906
0.718929 0.907668 0.542611
0.8878 0.888472 0.739025
0.927749 0.891646 0.775769
0.0434882 0.16997 0.209644
0.0435035 0.17847 0.220188
0.0500954 0.203906 0.250797
0.0997024 0.247242 0.303227
0.227832 0.275975 0.347448
0.468208 0.308705 0.3205
0.701534 0.317372 0.281559
0.831907 0.382086 0.404593
0.887816 0.4327 0.528374
0.0437476 0.289601 0.358923
0.0439002 0.357229 0.44448
0.044007 0.403845 0.493645
0.157122 0.397757 0.463325
0.438041 0.396994 0.463035
0.646189 0.387533 0.409735
0.788373 0.407813 0.459464
0.898222 0.445151 0.576806
0.899138 0.445792 0.581537
0.0440986 0.414267 0.53463
0.0440986 0.413916 0.532937
0.0440986 0.415854 0.532158
0.15964 0.403021 0.479454
0.526558 0.414618 0.545129
0.691707 0.427649 0.517266
0.810803 0.429191 0.524788
0.905653 0.457984 0.608438
0.900008 0.450156 0.583917
0.0440986 0.42237 0.542062
0.0440986 0.421225 0.541268
0.0440986 0.421622 0.542733
0.0433051 0.440696 0.587121
0.374914 0.405097 0.582254
0.707881 0.433249 0.647501
0.831785 0.441535 0.607156
0.923125 0.4804 0.682612
0.920439 0.495872 0.679469
0.0442969 0.491615 0.626719
0.0442969 0.483711 0.617273
0.0442512 0.475685 0.607401
0.0442969 0.497734 0.638651
0.128923 0.500206 0.685908
0.586236 0.459709 0.727779
0.823865 0.477333 0.693172
0.931945 0.513787 0.734356
0.928695 0.545693 0.730648
0.0444038 0.563897 0.705348
0.0444038 0.552911 0.69279
0.0444038 0.541161 0.679484
0.044419 0.568124 0.710658
0.0444953 0.585397 0.737041
0.390677 0.587533 0.800488
0.793759 0.570428 0.779507
0.918242 0.59736 0.764355
0.928313 0.625849 0.76109
0.0445411 0.646433 0.764218
0.0444953 0.634058 0.749798
0.04448 0.621393 0.734661
0.0444953 0.628779 0.741955
0.0445411 0.645243 0.762158
0.239872 0.65362 0.781018
0.703136 0.694759 0.810758
0.879683 0.71603 0.779721
0.923323 0.720027 0.782742
0.0446021 0.744015 0.818936
0.0446021 0.734279 0.806622
0.0446021 0.723232 0.793072
0.0446021 0.720775 0.786297
0.0446021 0.743648 0.800778
0.250477 0.773587 0.813428
0.669276 0.813107 0.81146
0.858671 0.825971 0.796475
0.947738 0.832547 0.769223
0.0446937 0.826474 0.859861
0.0446937 0.831601 0.856504
0.0446937 0.834638 0.851667
0.0446784 0.830762 0.843305
0.0446937 0.858854 0.849104
0.39559 0.886244 0.84242
0.721157 0.898909 0.78909
0.857954 0.897047 0.766934
0.921462 0.897383 0.829694
0.0435187 0.202365 0.249378
0.043534 0.211139 0.260029
0.0438697 0.257282 0.314977
0.0835126 0.313283 0.377188
0.228565 0.346502 0.406043
0.50515 0.370016 0.376989
0.697139 0.384604 0.406332
0.837354 0.434028 0.531594
0.900618 0.446845 0.589227
0.0439307 0.363241 0.452979
0.0440986 0.407431 0.510201
0.044007 0.403601 0.492851
0.166903 0.397391 0.461479
0.46389 0.411566 0.509697
0.65478 0.424063 0.484031
0.790555 0.425528 0.501381
0.900618 0.446845 0.589227
0.900618 0.446845 0.589227
0.0440986 0.414237 0.534386
0.0440986 0.413764 0.532128
0.0440986 0.415198 0.530236
0.156603 0.402472 0.478202
0.524819 0.415122 0.541421
0.692149 0.433448 0.535729
0.807767 0.436118 0.545083
0.908171 0.45658 0.621378
0.905699 0.45304 0.608331
0.0440986 0.422004 0.541787
0.0440986 0.420859 0.541024
0.0440986 0.420981 0.542
0.0433051 0.43917 0.584009
0.369818 0.404547 0.578271
0.71809 0.435554 0.653666
0.839796 0.453071 0.676951
0.936294 0.480491 0.736187
0.937591 0.508186 0.75169
0.0442969 0.489967 0.624659
0.0442817 0.482216 0.615305
0.0442359 0.473899 0.605097
0.0442969 0.495155 0.635401
0.121508 0.497765 0.681575
0.604318 0.458244 0.727428
0.827893 0.491325 0.776593
0.941939 0.513161 0.810971
0.947417 0.555856 0.816648
0.0444038 0.562112 0.703258
0.0444038 0.554604 0.695537
0.0444038 0.546731 0.687312
0.044419 0.565545 0.708385
0.04448 0.583886 0.734951
0.384161 0.585138 0.798123
0.791409 0.571023 0.829358
0.921782 0.593332 0.852934
0.950225 0.626368 0.855528
0.0446021 0.649042 0.784253
0.0445869 0.639368 0.776043
0.0445716 0.62977 0.767407
0.0445869 0.637476 0.775021
0.0446021 0.653803 0.792645
0.149264 0.658427 0.804959
0.668421 0.689189 0.844785
0.887144 0.694255 0.868345
0.948226 0.716411 0.867842
0.0446937 0.740246 0.851194
0.0446937 0.728801 0.84361
0.0446632 0.717464 0.83592
0.0446326 0.713527 0.833616
0.0446937 0.726619 0.844633
0.068574 0.729198 0.848814
0.512551 0.749111 0.861372
0.839658 0.806592 0.865782
0.929137 0.815396 0.857176
0.0446937 0.783001 0.873274
0.0446937 0.782589 0.87306
0.0446937 0.782513 0.872923
0.0446937 0.783139 0.870909
0.0446937 0.806149 0.879011
0.152621 0.828321 0.880842
0.61503 0.860929 0.876982
0.839078 0.891234 0.864256
0.920256 0.90312 0.863081
