luts/Terra.cube
TITLE "Generated by Resolve"
LUT_3D_SIZE 5
0.0435035 0.0737621 0.0814832
0.0551614 0.0767681 0.082475
0.130205 0.0955215 0.0836957
0.434012 0.150362 0.098146
0.823682 0.23299 0.174548
0.0450752 0.124926 0.0822461
0.098909 0.13315 0.122087
0.416999 0.171206 0.0775311
0.794751 0.23714 0.158984
0.828855 0.237171 0.172366
0.0431983 0.319814 0.0648661
0.0548257 0.323598 0.0471199
0.44506 0.379278 0.24181
0.773388 0.379461 0.0468452
0.931075 0.449821 0.0442664
0.170626 0.510445 0.106325
0.152071 0.489296 0.0963455
0.531044 0.582162 0.175586
0.78584 0.687495 0.407858
0.917769 0.669581 0.369467
0.197986 0.82118 0.0431983
0.193027 0.820294 0.0431983
0.453071 0.847257 0.0431983
0.844678 0.86743 0.476677
0.950256 0.862455 0.506172
0.043534 0.0745556 0.0827802
0.0552987 0.0792248 0.090074
0.163668 0.0937057 0.0963607
0.515236 0.155734 0.12575
0.830839 0.23061 0.18088
0.0462196 0.127749 0.129229
0.100954 0.139513 0.141283
0.46862 0.167193 0.097612
0.810147 0.235721 0.166278
0.823682 0.23299 0.174548
0.0431983 0.312993 0.0873732
0.0454871 0.312444 0.0572976
0.427756 0.36643 0.234607
0.778393 0.370871 0.0512093
0.929442 0.437736 0.0500343
0.16556 0.501732 0.104387
0.14522 0.484688 0.0917983
0.510399 0.568093 0.168643
0.776135 0.67744 0.40264
0.915618 0.660456 0.357488
0.197986 0.82118 0.0431983
0.190585 0.819867 0.0431983
0.437781 0.844526 0.0431983
0.839704 0.859037 0.473396
0.947616 0.856291 0.499779
0.0450294 0.099794 0.11809
0.0601053 0.105745 0.126864
0.203174 0.128542 0.155459
0.619455 0.193164 0.180972
0.889845 0.284123 0.234043
0.0435645 0.220279 0.268498
0.0453803 0.265415 0.32871
0.538033 0.232959 0.237949
0.854673 0.281483 0.238621
0.892134 0.267414 0.216892
0.0437934 0.383276 0.370336
0.0437171 0.360327 0.345129
0.403449 0.410819 0.397803
0.845884 0.416587 0.24123
0.938827 0.421363 0.175219
0.0872663 0.563928 0.432319
0.0902113 0.532357 0.384848
0.40145 0.564965 0.229755
0.773144 0.694728 0.497932
0.925551 0.6692 0.384924
0.0431983 0.844419 0.220691
0.0431983 0.835737 0.161273
0.356023 0.871092 0.0432441
0.826749 0.861524 0.501183
0.943069 0.87097 0.609415
0.0438392 0.141314 0.173236
0.0585946 0.156512 0.192782
0.223621 0.206622 0.281971
0.696529 0.272221 0.232792
0.87335 0.361975 0.365057
0.0440223 0.394141 0.505913
0.0440986 0.416358 0.533318
0.506645 0.390921 0.436362
0.824048 0.378851 0.402533
0.875074 0.386694 0.412604
0.0442054 0.468254 0.590753
0.0441901 0.448066 0.565179
0.145617 0.488624 0.668544
0.817288 0.47187 0.576684
0.89807 0.50959 0.602991
0.0444038 0.643549 0.686656
0.0443122 0.615808 0.64799
0.0445106 0.664652 0.692866
0.761959 0.72285 0.703487
0.943633 0.727749 0.630671
0.044831 0.905196 0.82356
0.0447242 0.884688 0.790158
0.189242 0.872175 0.721782
0.718929 0.907668 0.542611
0.927749 0.891646 0.775769
0.0435187 0.202365 0.249378
0.0438697 0.257282 0.314977
0.228565 0.346502 0.406043
0.697139 0.384604 0.406332
0.900618 0.446845 0.589227
0.0440986 0.414237 0.534386
0.0440986 0.415198 0.530236
0.524819 0.415122 0.541421
0.807767 0.436118 0.545083
0.905699 0.45304 0.608331
0.0442969 0.489967 0.624659
0.0442359 0.473899 0.605097
0.121508 0.497765 0.681575
0.827893 0.491325 0.776593
0.947417 0.555856 0.816648
0.0446021 0.649042 0.784253
0.0445716 0.62977 0.767407
0.0446021 0.653803 0.792645
0.668421 0.689189 0.844785
0.948226 0.716411 0.867842
0.0446937 0.783001 0.873274
0.0446937 0.782513 0.872923
0.0446937 0.806149 0.879011
0.61503 0.860929 0.876982
0.920256 0.90312 0.863081
