luts/THE LUT.cube
# VEGAS Pro LUT
TITLE "THE LUT"
LUT_3D_SIZE 33
0.00000000 0.00000000 0.00000000
0.00000000 0.00000000 0.00000000
0.00000000 0.00000000 0.00000000
0.00000000 0.00000000 0.00000000
0.00000000 0.00000000 0.00000000
0.00000000 0.00000000 0.00000000
0.00000000 0.00000000 0.00000000
0.00191551 0.00000000 0.00000000
0.02141735 0.00000000 0.00000000
0.05585444 0.00000000 0.00000000
0.09340471 0.00000000 0.00000000
0.13439074 0.00000000 0.00000000
0.18035752 0.00000000 0.00000000
0.23082852 0.00000000 0.00000000
0.28395209 0.00000000 0.00000000
0.33898944 0.00000000 0.00000000
0.39129341 0.00000000 0.00000000
0.44085965 0.00000000 0.00000000
0.48814568 0.00000000 0.00000000
0.53121203 0.00000000 0.00000000
0.57264823 0.00000000 0.00000000
0.60795844 0.00000000 0.00000000
0.63559061 0.00000000 0.00000000
0.66095984 0.00000000 0.00000000
0.68537945 0.00000000 0.00000000
0.70843214 0.00000000 0.00000000
0.72930026 0.00000000 0.00000000
0.74453360 0.00000000 0.00000000
0.75364721 0.00000000 0.00000000
0.76250285 0.00000000 0.00000000
0.77135891 0.00000000 0.00000000
0.77979428 0.00000000 0.00000000
0.78817171 0.00000000 0.00000000
0.00000000 0.00000000 0.00000000
0.00000000 0.00000000 0.00000000
0.00000000 0.00000000 0.00000000
0.00000000 0.00000000 0.00000000
0.00000000 0.00000000 0.00000000
0.00000000 0.00000000 0.00000000
0.00000000 0.00000000 0.00000000
0.00000000 0.00000000 0.00000000
0.01820865 0.00000000 0.00000000
0.05378410 0.00000000 0.00000000
0.09070203 0.00000000 0.00000000
0.13147545 0.00000000 0.00000000
0.17716962 0.00000000 0.00000000
0.22741136 0.00000000 0.00000000
0.28093156 0.00000000 0.00000000
0.33655632 0.00000000 0.00000000
0.38937682 0.00000000 0.00000000
0.43980098 0.00000000 0.00000000
0.48760220 0.00000000 0.00000000
0.53176129 0.00000000 0.00000000
0.57315940 0.00000000 0.00000000
0.61010748 0.00000000 0.00000000
0.63840204 0.00000000 0.00000000
0.66394925 0.00000000 0.00000000
0.68854398 0.00000000 0.00000000
0.71173042 0.00000000 0.00000000
0.73297423 0.00000000 0.00000000
0.74897796 0.00000000 0.00000000
0.75802696 0.00000000 0.00000000
0.76685584 0.00000000 0.00000000
0.77571040 0.00000000 0.00000000
0.78411335 0.00000000 0.00000000
0.79252297 0.00000000 0.00000000
0.00000000 0.00000000 0.00000000
0.00000000 0.00000000 0.00000000
0.00000000 0.00000000 0.00000000
0.00000000 0.00000000 0.00000000
0.00000000 0.00000000 0.00000000
0.00000000 0.00000000 0.00000000
0.00000000 0.00000000 0.00000000
0.00000000 0.00000000 0.00000000
0.01670519 0.00000000 0.00000000
0.05367476 0.00000000 0.00000000
0.09108111 0.00000000 0.00000000
0.13120413 0.00000000 0.00000000
0.17781296 0.00000000 0.00000000
0.22815436 0.00000000 0.00000000
0.28208163 0.00000000 0.00000000
0.33722752 0.00000000 0.00000000
0.39063632 0.00000000 0.00000000
0.44146681 0.00000000 0.00000000
0.48968998 0.00000000 0.00000000
0.53381944 0.00000000 0.00000000
0.57508188 0.00000000 0.00000000
0.61278814 0.00000000 0.00000000
0.64185649 0.00000000 0.00000000
0.66717404 0.00000000 0.00000000
0.69173205 0.00000000 0.00000000
0.71501476 0.00000000 0.00000000
0.73670524 0.00000000 0.00000000
0.75328773 0.00000000 0.00000000
0.76241308 0.00000000 0.00000000
0.77123576 0.00000000 0.00000000
0.78003752 0.00000000 0.00000000
0.78842747 0.00000000 0.00000000
0.79684120 0.00000000 0.00000000
0.00000000 0.00000000 0.00000000
0.00000000 0.00000000 0.00000000
0.00000000 0.00000000 0.00000000
0.00000000 0.00000000 0.00000000
0.00000000 0.00000000 0.00000000
0.00000000 0.00000000 0.00000000
0.00000000 0.00000000 0.00000000
0.00000000 0.00000000 0.00000000
0.01840624 0.00000000 0.00000000
0.05412066 0.00000000 0.00000000
0.09284362 0.00000000 0.00000000
0.13276556 0.00000000 0.00000000
0.17908993 0.00000000 0.00000000
0.23087808 0.00000000 0.00000000
0.28559682 0.00000000 0.00000000
0.34107226 0.00000000 0.00000000
0.39430776 0.00000000 0.00000000
0.44624043 0.00000000 0.00000000
0.49471611 0.00000000 0.00000000
0.53913540 0.00000000 0.00000000
0.58038151 0.00000000 0.00000000
0.61916941 0.00000000 0.00000000
0.65064192 0.00000000 0.00000000
0.67644638 0.00000000 0.00000000
0.70057887 0.00000000 0.00000000
0.72298223 0.00000000 0.00000000
0.74361241 0.00000000 0.00000000
0.75964165 0.00000000 0.00000000
0.76815820 0.00000000 0.00000000
0.77625924 0.00000000 0.00000000
0.78446156 0.00000000 0.00000000
0.79287016 0.00000000 0.00000000
0.80128980 0.00000000 0.00000000
0.00000000 0.00000000 0.00000000
0.00000000 0.00000000 0.00000000
0.00000000 0.00000000 0.00000000
0.00000000 0.00000000 0.00000000
0.00000000 0.00000000 0.00000000
0.00000000 0.00000000 0.00000000
0.00000000 0.00000000 0.00000000
0.00111488 0.00000000 0.00000000
0.02020487 0.00000000 0.00000000
0.05646354 0.00000000 0.00000000
0.09540877 0.00000000 0.00000000
0.13676101 0.00000000 0.00000000
0.18344930 0.00000000 0.00000000
0.23506069 0.00000000 0.00000000
0.29068747 0.00000000 0.00000000
0.34701329 0.00000000 0.00000000
0.40014282 0.00000000 0.00000000
0.45116284 0.00000000 0.00000000
0.50103545 0.00000000 0.00000000
0.54578620 0.00000000 0.00000000
0.58773923 0.00000000 0.00000000
0.62673140 0.00000000 0.00000000
0.66022688 0.00000000 0.00000000
0.68713945 0.00000000 0.00000000
0.71087611 0.00000000 0.00000000
0.73303860 0.00000000 0.00000000
0.75394219 0.00000000 0.00000000
0.77079225 0.00000000 0.00000000
0.77890635 0.00000000 0.00000000
0.78687757 0.00000000 0.00000000
0.79475492 0.00000000 0.00000000
0.80236900 0.00000000 0.00000000
0.81012356 0.00000000 0.00000000
0.00000000 0.00000000 0.00000000
0.00000000 0.00000000 0.00000000
0.00000000 0.00000000 0.00000000
0.00000000 0.00000000 0.00000000
0.00000000 0.00000000 0.00000000
0.00000000 0.00000000 0.00000000
0.00000000 0.00000000 0.00000000
0.00367698 0.00000000 0.00000000
0.02566127 0.00000000 0.00000000
0.06019753 0.00000000 0.00000000
0.09816721 0.00000000 0.00000000
0.14059594 0.00000000 0.00000000
0.18826596 0.00000000 0.00000000
0.24073596 0.00000000 0.00000000
0.29657555 0.00000000 0.00000000
0.35302153 0.00000000 0.00000000
0.40649894 0.00000000 0.00000000
0.45723891 0.00000000 0.00000000
0.50855601 0.00012708 0.00000000
0.55378544 0.00084996 0.00000000
0.59540981 0.00122173 0.00000000
0.63502669 0.00142714 0.00000000
0.67126358 0.00169654 0.00000000
0.69905615 0.00196497 0.00000000
0.72329289 0.00212082 0.00000000
0.74588114 0.00203986 0.00000000
0.76666373 0.00219010 0.00000000
0.78430122 0.00230873 0.00000000
0.79250669 0.00152966 0.00000000
0.80038351 0.00055394 0.00000000
0.80832922 0.00000000 0.00000000
0.81628376 0.00000000 0.00000000
0.82435578 0.00000000 0.00000000
0.00000000 0.00000000 0.00000000
0.00000000 0.00000000 0.00000000
0.00000000 0.00000000 0.00000000
0.00000000 0.00000000 0.00000000
0.00000000 0.00000000 0.00000000
0.00000000 0.00000000 0.00000000
0.00000000 0.00000000 0.00000000
0.01135488 0.00000000 0.00000000
0.03976333 0.00000000 0.00000000
0.06935500 0.00000000 0.00000000
0.10262707 0.00138555 0.00000000
0.14464232 0.00275069 0.00000000
0.19360380 0.00311442 0.00000000
0.24690670 0.00156845 0.00000000
0.30285981 0.00279045 0.00000000
0.35931644 0.00623840 0.00000000
0.41316599 0.00840057 0.00000000
0.46493787 0.00872487 0.00000000
0.51655257 0.00799540 0.00000000
0.56236303 0.00741459 0.00000000
0.60486037 0.00685911 0.00000000
0.64529037 0.00799321 0.00000000
0.68235368 0.00914097 0.00000000
0.71264988 0.00998403 0.00000000
0.73697090 0.01070912 0.00000000
0.75987267 0.01171346 0.00000000
0.78117454 0.01308371 0.00000000
0.80003214 0.01450205 0.00000000
0.80896330 0.01504517 0.00000000
0.81725174 0.01548238 0.00000000
0.82522631 0.01598386 0.00000000
0.83329463 0.01656158 0.00000000
0.84133613 0.01661889 0.00000000
0.00000000 0.00000000 0.00000000
0.00000000 0.00000000 0.00000000
0.00000000 0.00000000 0.00000000
0.00000000 0.00025451 0.00000000
0.00000000 0.00027102 0.00000000
0.00000000 0.00000000 0.00000000
0.00396648 0.00000000 0.00000000
0.02419075 0.00000000 0.00000000
0.05468094 0.00171067 0.00000000
0.08530407 0.00375611 0.00000000
0.11838028 0.00550847 0.00000000
0.15439674 0.00759804 0.00000000
0.19925287 0.01301683 0.00000000
0.25313610 0.01664516 0.00000000
0.30942407 0.01940116 0.00000000
0.36744723 0.02130711 0.00000000
0.42121360 0.02329853 0.00000000
0.47403729 0.02509564 0.00000000
0.52488434 0.02664486 0.00000000
0.57199246 0.02860402 0.00000000
0.61498868 0.03028783 0.00000000
0.65592313 0.03230362 0.00000000
0.69469959 0.03469522 0.00000000
0.72668850 0.03687693 0.00000000
0.75146782 0.03822979 0.00000000
0.77515244 0.04007053 0.00000000
0.79711950 0.04240891 0.00000000
0.81665832 0.04465446 0.00000000
0.82674843 0.04530610 0.00000000
0.83509541 0.04525821 0.00000000
0.84325546 0.04557121 0.00000000
0.85143518 0.04591270 0.00000000
0.85962021 0.04614420 0.00000000
0.00000000 0.00453351 0.00000000
0.00000000 0.00397643 0.00000000
0.00000000 0.00454250 0.00000000
0.00000000 0.00356831 0.00000000
0.00000000 0.00180009 0.00000000
0.00000000 0.00333901 0.00000000
0.00997551 0.00331089 0.00000000
0.03776088 0.00355586 0.00000000
0.06793042 0.00556771 0.00000000
0.10116246 0.00962684 0.00000000
0.13632265 0.01619987 0.00000000
0.17275319 0.02179213 0.00000000
0.21393961 0.02771004 0.00000000
0.26103985 0.03324199 0.00000000
0.31616971 0.03721583 0.00000000
0.37466553 0.04037702 0.00000000
0.42874870 0.04282191 0.00000000
0.48280427 0.04601026 0.00000000
0.53467536 0.04907998 0.00000000
0.58195865 0.05181816 0.00000000
0.62570423 0.05482304 0.00000000
0.66701406 0.05778837 0.00000000
0.70677269 0.06110597 0.00000000
0.74072373 0.06479974 0.00000000
0.76628947 0.06751537 0.00000000
0.79010934 0.07013124 0.00000000
0.81214559 0.07328205 0.00000000
0.83194309 0.07605579 0.00000000
0.84309840 0.07712585 0.00000000
0.85164446 0.07753468 0.00000000
0.86014444 0.07829724 0.00000000
0.86849993 0.07883769 0.00000000
0.87694246 0.07960863 0.00000000
0.00000000 0.02415730 0.00000000
0.00000000 0.02438286 0.00000000
0.00000000 0.02521986 0.00000000
0.00000000 0.02563162 0.00000000
0.00000000 0.02491598 0.00000000
0.00244625 0.02613424 0.00000000
0.02690011 0.02452856 0.00000000
0.04740313 0.01750186 0.00000000
0.08260320 0.01785852 0.00000000
0.11575252 0.02468692 0.00000000
0.15334696 0.03113355 0.00000000
0.19266510 0.03671084 0.00000000
0.23581792 0.04224721 0.00000000
0.28208157 0.04774027 0.00000000
0.32980454 0.05338025 0.00000000
0.38246921 0.05930787 0.00000000
0.43698955 0.06397749 0.00000000
0.49090633 0.06723242 0.00000000
0.54396266 0.07153279 0.00000000
0.59196132 0.07571410 0.00000000
0.63636351 0.07986972 0.00000000
0.67819786 0.08407533 0.00000000
0.71895438 0.08879374 0.00000000
0.75378871 0.09399536 0.00000000
0.77922428 0.09735888 0.00000000
0.80335563 0.10079037 0.00000000
0.82602757 0.10480519 0.00000000
0.84632272 0.10847640 0.00000000
0.85864961 0.11024134 0.00000000
0.86748278 0.11121473 0.00000000
0.87631601 0.11247106 0.00000000
0.88498318 0.11348571 0.00000000
0.89370972 0.11468677 0.00000000
0.00000000 0.04539984 0.00000000
0.00000000 0.04548834 0.00000000
0.00000000 0.04668532 0.00000000
0.00000000 0.04738632 0.00000000
0.00000000 0.04772943 0.00000000
0.01049221 0.04856828 0.00000000
0.04418179 0.04906809 0.00000000
0.07049420 0.04622655 0.00000000
0.09171547 0.03915402 0.00000000
0.13181692 0.04013605 0.00000000
0.16925389 0.04607332 0.00000000
0.21211235 0.05195481 0.00000000
0.25834975 0.05785033 0.00000000
0.30525708 0.06343703 0.00000000
0.35273376 0.06905124 0.00000000
0.40035874 0.07573414 0.00000000
0.44720015 0.08417597 0.00000000
0.49926183 0.09041253 0.00000000
0.55339921 0.09564015 0.00000000
0.60211366 0.10067746 0.00000000
0.64709991 0.10562038 0.00000000
0.69049180 0.11131173 0.00000000
0.73091406 0.11721769 0.00000000
0.76590466 0.12404945 0.00000000
0.79194653 0.12834752 0.00000000
0.81610906 0.13236497 0.00000000
0.83915919 0.13680622 0.00000000
0.86072087 0.14127444 0.00000000
0.87482220 0.14379381 0.00000000
0.88385040 0.14517261 0.00000000
0.89289492 0.14663775 0.00000000
0.90193915 0.14817695 0.00000000
0.91083938 0.14974245 0.00000000
0.00000000 0.06602973 0.00000000
0.00000000 0.06633812 0.00000000
0.00000000 0.06804106 0.00000000
0.00000000 0.06877440 0.00000000
0.00020944 0.07050239 0.00000000
0.02490808 0.07394570 0.00000000
0.05790345 0.07223068 0.00000000
0.09202035 0.07378708 0.00000000
0.11745360 0.06896259 0.00000000
0.14203429 0.06136824 0.00000000
0.18729462 0.06208436 0.00000000
0.23094358 0.06783172 0.00000000
0.27963880 0.07394561 0.00000000
0.32858127 0.07997286 0.00000000
0.37475201 0.08613461 0.00000000
0.42143437 0.09342267 0.00000000
0.46684825 0.10176933 0.00000000
0.51220232 0.11119571 0.00000000
0.56064302 0.11995578 0.00000000
0.61062855 0.12724084 0.00000000
0.65710306 0.13397413 0.00000000
0.70152760 0.14076687 0.00000000
0.74109757 0.14737472 0.00000000
0.77660710 0.15473792 0.00000000
0.80406010 0.15986398 0.00000000
0.82915735 0.16477913 0.00000000
0.85276115 0.17009233 0.00000000
0.87439024 0.17523223 0.00000000
0.88971740 0.17866494 0.00000000
0.89870906 0.18030214 0.00000000
0.90765834 0.18196508 0.00000000
0.91666490 0.18372786 0.00000000
0.92555970 0.18555816 0.00000000
0.00000000 0.08607438 0.00000000
0.00000000 0.08646333 0.00000000
0.00000000 0.08933046 0.00000000
0.00000000 0.08953491 0.00000000
0.00775982 0.09308398 0.00000000
0.03753197 0.09722553 0.00000000
0.07185327 0.09897693 0.00000000
0.10773188 0.09931979 0.00000000
0.14553981 0.10021394 0.00000000
0.16940816 0.09176061 0.00000000
0.20149355 0.08443427 0.00000000
0.25325730 0.08476305 0.00000000
0.30136403 0.09126042 0.00000000
0.35091507 0.09821731 0.00000000
0.39825612 0.10491098 0.00000000
0.44433859 0.11344698 0.00000000
0.48882538 0.12261477 0.00000000
0.53234744 0.13215376 0.00000000
0.57630295 0.14192408 0.00000000
0.61996043 0.15314277 0.00000000
0.66614074 0.16291046 0.00000000
0.71056533 0.17092746 0.00000000
0.74987942 0.17889869 0.00000000
0.78711182 0.18689419 0.00000000
0.81541890 0.19306798 0.00000000
0.84024274 0.19878501 0.00000000
0.86362213 0.20478533 0.00000000
0.88518649 0.21033432 0.00000000
0.90158033 0.21427664 0.00000000
0.91064322 0.21622081 0.00000000
0.91965866 0.21818554 0.00000000
0.92872244 0.22012684 0.00000000
0.93767440 0.22216511 0.00000000
0.00000000 0.10655303 0.00000000
0.00000000 0.10737976 0.00000000
0.00000000 0.11068600 0.00000000
0.00102057 0.11234999 0.00000000
0.01551770 0.11619520 0.00000000
0.05086736 0.12166154 0.00000000
0.08573623 0.12632737 0.00000000
0.12198776 0.12644286 0.00000000
0.16518486 0.12854144 0.00000000
0.20354672 0.12657936 0.00000000
0.22966772 0.11566460 0.00000000
0.26901630 0.10910979 0.00000000
0.32459870 0.11055692 0.00000000
0.37250382 0.11791992 0.00000000
0.42067578 0.12622404 0.00000000
0.46805871 0.13556939 0.00000000
0.51139176 0.14470510 0.00000000
0.55362773 0.15523112 0.00000000
0.59715700 0.16630158 0.00000000
0.63889134 0.17717376 0.00000000
0.67887974 0.18939693 0.00000000
0.71849340 0.20058277 0.00000000
0.75787389 0.21064834 0.00000000
0.79576606 0.21948324 0.00000000
0.82433248 0.22673100 0.00000000
0.84912306 0.23331058 0.00000000
0.87236673 0.23965442 0.00000000
0.89436859 0.24597645 0.00000000
0.91212320 0.25096428 0.00000000
0.92127144 0.25327083 0.00000000
0.93035877 0.25549287 0.00000000
0.93950802 0.25778177 0.00000000
0.94837463 0.26015225 0.00000000
0.00000000 0.12752952 0.00000000
0.00000000 0.12906219 0.00000000
0.00000000 0.13251056 0.00000000
0.00284177 0.13605630 0.00000000
0.02793495 0.14126267 0.00000000
0.06363326 0.14816257 0.00000000
0.09970355 0.15521070 0.00000000
0.13743825 0.15649328 0.00000000
0.17930803 0.15707411 0.00000000
0.22902457 0.16068339 0.00000000
0.26781905 0.15525106 0.00000000
0.29818404 0.14394091 0.00000000
0.34303027 0.13806753 0.00000000
0.39703855 0.14001296 0.00000000
0.44357735 0.14907870 0.00000000
0.48911276 0.15900852 0.00000000
0.53373861 0.16954631 0.00000000
0.57579398 0.18001828 0.00000000
0.61826265 0.19156845 0.00000000
0.65828305 0.20291543 0.00000000
0.69642460 0.21542008 0.00000000
0.73071367 0.22829293 0.00000000
0.76667911 0.24165711 0.00000000
0.80350906 0.25268900 0.00000000
0.83216846 0.26089770 0.00000000
0.85700136 0.26846516 0.00000000
0.88027567 0.27553847 0.00000000
0.90236753 0.28220358 0.00000000
0.92139363 0.28831175 0.00000000
0.93040371 0.29083204 0.00000000
0.93956769 0.29337594 0.00000000
0.94879955 0.29604411 0.00000000
0.95780379 0.29880646 0.00000000
0.00000000 0.14927399 0.00000000
0.00000000 0.15193295 0.00000000
0.00000000 0.15658557 0.00000000
0.00730689 0.16127695 0.00000000
0.03845179 0.16757219 0.00000000
0.07475141 0.17537735 0.00000000
0.11210088 0.18449973 0.00000000
0.15234828 0.19080313 0.00000000
0.19603881 0.18969834 0.00000000
0.24616940 0.19308263 0.00000000
0.30061740 0.19593510 0.00000000
0.33815852 0.18812735 0.00000000
0.36870328 0.17569901 0.00000000
0.41638082 0.17159452 0.00000000
0.46724692 0.17532624 0.00000000
0.51092130 0.18515238 0.00000000
0.55489999 0.19646820 0.00000000
0.59851664 0.20834242 0.00000000
0.63884860 0.21901214 0.00000000
0.67714018 0.22994488 0.00000000
0.71391600 0.24221462 0.00000000
0.74685282 0.25522700 0.00000000
0.78069544 0.26884258 0.00000000
0.81230724 0.28313693 0.00000000
0.83940536 0.29503801 0.00000000
0.86356103 0.30391717 0.00000000
0.88700330 0.31152672 0.00000000
0.90913367 0.31836066 0.00000000
0.92883760 0.32490540 0.00000000
0.93842149 0.32800934 0.00000000
0.94751906 0.33096823 0.00000000
0.95667785 0.33393592 0.00000000
0.96576303 0.33709991 0.00000000
0.00000000 0.17226417 0.00000000
0.00000000 0.17634962 0.00000000
0.00000000 0.18188719 0.00000000
0.01388440 0.18826941 0.00000000
0.04846673 0.19620609 0.00000000
0.08611980 0.20557320 0.00000000
0.12310891 0.21384034 0.00000000
0.16781458 0.22651066 0.00000000
0.21369377 0.22705160 0.00000000
0.26479977 0.22847268 0.00000000
0.32407191 0.23501661 0.00000000
0.37745258 0.23761339 0.00000000
0.41058037 0.22512838 0.00000000
0.44050330 0.21323758 0.00000000
0.48822325 0.21102101 0.00000000
0.53540307 0.21604168 0.00000000
0.57786465 0.22653350 0.00000000
0.61974198 0.23772234 0.00000000
0.65855223 0.24894202 0.00000000
0.69559634 0.25970855 0.00000000
0.73062110 0.27120748 0.00000000
0.76412034 0.28354746 0.00000000
0.79633671 0.29654539 0.00000000
0.82556021 0.31027716 0.00000000
0.84814727 0.32455117 0.00000000
0.86998636 0.33766377 0.00000000
0.89248466 0.34726202 0.00000000
0.91466242 0.35449702 0.00000000
0.93473351 0.36146051 0.00000000
0.94562989 0.36552364 0.00000000
0.95492274 0.36913225 0.00011611
0.96424472 0.37272388 0.00075949
0.97344363 0.37647492 0.00268909
0.00000000 0.19746670 0.00000000
0.00000000 0.20272140 0.00000000
0.00365402 0.21067119 0.00000000
0.02465977 0.21756417 0.00000000
0.05881873 0.22728211 0.00000000
0.09743096 0.23863171 0.00000000
0.13675196 0.24753657 0.00000000
0.18263017 0.26141518 0.00000000
0.23270085 0.26847824 0.00000000
0.28586900 0.26914042 0.00000000
0.34331012 0.27405769 0.00000000
0.40533295 0.28582093 0.00000000
0.45251584 0.28363943 0.00000000
0.48079413 0.26861653 0.00000000
0.50985545 0.25625733 0.00000000
0.55897343 0.25560009 0.00000000
0.60270029 0.26034200 0.00000000
0.64270216 0.27074492 0.00000000
0.67965889 0.28116816 0.00000000
0.71555996 0.29174843 0.00000000
0.74958652 0.30229142 0.00000000
0.78229642 0.31393892 0.00000000
0.81218588 0.32580522 0.00000000
0.83712006 0.33826435 0.00000000
0.85874647 0.35199070 0.00000000
0.87903112 0.36557561 0.00000000
0.89929217 0.37986046 0.00000000
0.92094743 0.39064279 0.00030437
0.94133973 0.39932525 0.00089541
0.95353580 0.40450224 0.00227927
0.96281034 0.40866661 0.00328194
0.97230124 0.41292703 0.00457129
0.98016220 0.41727656 0.00756685
0.00000000 0.22496071 0.00000000
0.00000000 0.23231778 0.00000000
0.00820814 0.24090442 0.00000000
0.03567606 0.25015464 0.00000000
0.07002124 0.26126829 0.00000000
0.11063376 0.27407280 0.00000000
0.15261225 0.28492415 0.00000000
0.19895630 0.29842803 0.00000000
0.25352332 0.31212679 0.00000000
0.30799198 0.31488627 0.00000000
0.36567771 0.31757617 0.00000000
0.42595294 0.32949540 0.00000000
0.48421270 0.33940068 0.00000000
0.52518022 0.33305258 0.00000000
0.55163646 0.31719100 0.00000000
0.58031338 0.30347005 0.00000000
0.62719852 0.30141380 0.00000000
0.66698611 0.30648836 0.00000000
0.70235175 0.31623051 0.00000000
0.73643374 0.32571408 0.00000000
0.76919168 0.33509511 0.00000000
0.80041039 0.34520432 0.00000000
0.82589257 0.35491577 0.00000000
0.84869474 0.36699465 0.00000000
0.86914235 0.37997061 0.00000000
0.88918209 0.39336216 0.00000000
0.90856051 0.40718678 0.00000000
0.92860782 0.42306012 0.00000000
0.94867700 0.43597758 0.00359658
0.96204019 0.44405752 0.00715069
0.97151858 0.44893092 0.00936310
0.98102772 0.45382628 0.01112477
0.98653597 0.45874152 0.01445827
0.00000000 0.25685936 0.00000000
0.00000000 0.26606849 0.00000000
0.01452081 0.27588245 0.00000000
0.04750204 0.28591129 0.00000000
0.08324561 0.29802474 0.00000000
0.12558457 0.31223279 0.00000000
0.17070167 0.32539234 0.00000000
0.21825764 0.33853474 0.00000000
0.27647874 0.35621727 0.00000000
0.33197910 0.36383265 0.00000000
0.39046803 0.36698079 0.00000000
0.44887108 0.37563959 0.00000000
0.51042587 0.39092940 0.00000000
0.56103319 0.39503059 0.00000000
0.59591204 0.38373953 0.00000000
0.61990428 0.36640832 0.00000000
0.64860314 0.35254753 0.00000000
0.69070309 0.34767869 0.00000000
0.72647893 0.35307530 0.00000000
0.75895232 0.36116958 0.00000000
0.78909451 0.36840850 0.00000000
0.81715441 0.37732548 0.00000000
0.83962721 0.38615397 0.00000000
0.86027795 0.39719930 0.00000000
0.88011032 0.40951756 0.00000000
0.89991307 0.42269254 0.00000000
0.91926998 0.43668938 0.00000000
0.93808126 0.45148286 0.00000000
0.95645702 0.46733618 0.00158523
0.96990764 0.48137361 0.00981547
0.98044306 0.49052510 0.01568089
0.99003887 0.49598119 0.01931590
0.99318773 0.50135112 0.02352980
0.00000000 0.29135841 0.00000000
0.00259148 0.30207333 0.00000000
0.02716331 0.31307328 0.00000000
0.06117697 0.32393113 0.00000000
0.09813038 0.33687815 0.00000000
0.14190128 0.35204682 0.00000000
0.19078922 0.36733350 0.00000000
0.23982087 0.37996677 0.00000000
0.29910004 0.39750886 0.00000000
0.35983509 0.41344640 0.00000000
0.41573697 0.41778922 0.00000000
0.47423607 0.42502153 0.00000000
0.53275281 0.43870747 0.00000000
0.58849406 0.45125318 0.00000000
0.63205689 0.44857773 0.00000000
0.66008019 0.43207157 0.00000000
0.68284357 0.41395083 0.00000000
0.71279407 0.40044257 0.00000000
0.74926704 0.39325264 0.00000000
0.78089845 0.39780137 0.00000000
0.80877137 0.40458420 0.00000000
0.83294964 0.41176268 0.00000000
0.85298425 0.41981703 0.00000000
0.87247676 0.42941141 0.00000000
0.89214402 0.44147059 0.00000000
0.91149157 0.45466506 0.00000000
0.93034494 0.46786401 0.00000000
0.94770801 0.48144227 0.00000000
0.96289593 0.49557099 0.00000000
0.97511667 0.51103938 0.00703951
0.98756891 0.52850688 0.02021226
0.99679393 0.53878599 0.02809108
0.99900317 0.54600614 0.03354410
0.00000000 0.32838783 0.00000000
0.01327844 0.34094414 0.00000000
0.04325490 0.35218966 0.00000000
0.07711913 0.36376858 0.00000000
0.11549601 0.37751761 0.00000000
0.16203442 0.39349580 0.00000000
0.21310866 0.40913272 0.00000000
0.26481083 0.42247343 0.00000000
0.32247138 0.43911219 0.00000000
0.38683656 0.46087143 0.00000000
0.44160295 0.46916801 0.00000000
0.49831793 0.47684932 0.00000000
0.55367267 0.48595595 0.00000000
0.60988665 0.50098580 0.00000000
0.65707493 0.50683576 0.00000000
0.69537729 0.50004041 0.00000000
0.71828467 0.47935301 0.00000000
0.74075431 0.46030992 0.00000000
0.76873887 0.44566438 0.00000000
0.80252421 0.43712875 0.00000000
0.82816052 0.44176140 0.00000000
0.84830040 0.44813481 0.00000000
0.86755878 0.45599115 0.00000000
0.88588047 0.46485466 0.00000000
0.90428466 0.47491673 0.00000000
0.92277074 0.48753327 0.00000000
0.94043851 0.49963030 0.00000000
0.95674264 0.51264489 0.00000000
0.96834570 0.52506948 0.00059700
0.97834510 0.53935730 0.00322177
0.98801005 0.55605251 0.01621011
0.99808246 0.57500392 0.03185970
