luts/THE LUT.cube
# VEGAS Pro LUT
TITLE "THE LUT"
LUT_3D_SIZE 9
0.00000000 0.00000000 0.00000000
0.00000000 0.00000000 0.00000000
0.02141735 0.00000000 0.00000000
0.18035752 0.00000000 0.00000000
0.39129341 0.00000000 0.00000000
0.57264823 0.00000000 0.00000000
0.68537945 0.00000000 0.00000000
0.75364721 0.00000000 0.00000000
0.78817171 0.00000000 0.00000000
0.00000000 0.00000000 0.00000000
0.00000000 0.00000000 0.00000000
0.02020487 0.00000000 0.00000000
0.18344930 0.00000000 0.00000000
0.40014282 0.00000000 0.00000000
0.58773923 0.00000000 0.00000000
0.71087611 0.00000000 0.00000000
0.77890635 0.00000000 0.00000000
0.81012356 0.00000000 0.00000000
0.00000000 0.00453351 0.00000000
0.00000000 0.00180009 0.00000000
0.06793042 0.00556771 0.00000000
0.21393961 0.02771004 0.00000000
0.42874870 0.04282191 0.00000000
0.62570423 0.05482304 0.00000000
0.76628947 0.06751537 0.00000000
0.84309840 0.07712585 0.00000000
0.87694246 0.07960863 0.00000000
0.00000000 0.08607438 0.00000000
0.00775982 0.09308398 0.00000000
0.14553981 0.10021394 0.00000000
0.30136403 0.09126042 0.00000000
0.48882538 0.12261477 0.00000000
0.66614074 0.16291046 0.00000000
0.81541890 0.19306798 0.00000000
0.90158033 0.21427664 0.00000000
0.93767440 0.22216511 0.00000000
0.00000000 0.17226417 0.00000000
0.04846673 0.19620609 0.00000000
0.21369377 0.22705160 0.00000000
0.41058037 0.22512838 0.00000000
0.57786465 0.22653350 0.00000000
0.73062110 0.27120748 0.00000000
0.84814727 0.32455117 0.00000000
0.93473351 0.36146051 0.00000000
0.97344363 0.37647492 0.00268909
0.00000000 0.29135841 0.00000000
0.09813038 0.33687815 0.00000000
0.29910004 0.39750886 0.00000000
0.53275281 0.43870747 0.00000000
0.68284357 0.41395083 0.00000000
0.80877137 0.40458420 0.00000000
0.89214402 0.44147059 0.00000000
0.96289593 0.49557099 0.00000000
0.99900317 0.54600614 0.03354410
0.03045116 0.45175231 0.00000000
0.18013552 0.50487232 0.00000000
0.39663374 0.56877851 0.00000000
0.61733299 0.63908017 0.00000000
0.79614216 0.66294259 0.00000000
0.87677675 0.59472728 0.00000000
0.94256485 0.58731103 0.00235018
0.98526019 0.61907369 0.00746615
1.00000000 0.67359787 0.03593376
0.12707078 0.64362472 0.00000000
0.27937603 0.68998992 0.00000000
0.49677277 0.74728602 0.00101201
0.69404495 0.79609436 0.00410692
0.84730887 0.82212669 0.00946726
0.95958781 0.82055384 0.02097693
0.97915035 0.75428140 0.01924508
0.99873662 0.74724382 0.02170667
1.00000000 0.76941735 0.02901965
0.13596325 0.78898537 0.00000000
0.32188061 0.83059019 0.01393126
0.54321188 0.87979203 0.02409967
0.74399668 0.91593647 0.02819428
0.88645399 0.93099523 0.03166370
0.99458390 0.94192994 0.04094053
1.00000000 0.93504441 0.04296807
1.00000000 0.87315011 0.04311918
1.00000000 0.86750633 0.04473578
0.00000000 0.00000000 0.00000000
0.00000000 0.00000000 0.00000000
0.01723155 0.00000000 0.00000000
0.18682021 0.00000000 0.00000000
0.38603866 0.00000000 0.00000000
0.56313270 0.00000000 0.00000000
0.68052793 0.00000000 0.00000000
0.75579387 0.00000000 0.00000000
0.78870559 0.00000000 0.00000000
0.00000000 0.00000000 0.00000000
0.00000000 0.00000000 0.00000000
0.02329385 0.00000000 0.00000000
0.19199517 0.00000000 0.00000000
0.40619192 0.00000000 0.00000000
0.58982825 0.00000000 0.00000000
0.71860319 0.00216942 0.00000000
0.79726082 0.00529793 0.00000000
0.82568574 0.00000000 0.00000000
0.00000000 0.01969609 0.00000000
0.00000000 0.01676685 0.00000000
0.07125299 0.01079682 0.00000000
0.21437994 0.03586766 0.00000000
0.43481231 0.04912911 0.00000000
0.62860131 0.06406060 0.00000000
0.77271557 0.08424237 0.00000000
0.85720539 0.10019466 0.00000000
0.89024407 0.10034984 0.00000000
0.00000000 0.09899957 0.00000000
0.00000000 0.09908661 0.00000000
0.13401288 0.11177239 0.00000000
0.31125295 0.09950787 0.00000000
0.49679846 0.13248742 0.00000000
0.67296153 0.17476694 0.00000000
0.82002294 0.20768315 0.00000000
0.90984756 0.23238857 0.00000000
0.94541669 0.23903543 0.00004958
0.00000000 0.18154183 0.00000000
0.00273331 0.19295417 0.00000000
0.18784206 0.24225584 0.00000000
0.43537948 0.25804460 0.00000000
0.59471411 0.24062848 0.00000000
0.74218732 0.28338298 0.00000000
0.85264391 0.33407629 0.00044899
0.93832451 0.37499103 0.00734600
0.97773319 0.39022467 0.02061485
0.00000000 0.28810504 0.00000000
0.03950235 0.32624912 0.00000000
0.25653493 0.39443856 0.00000000
0.51911688 0.44903594 0.00000000
0.69817287 0.43975952 0.00000000
0.81610137 0.41501588 0.00000000
0.89642406 0.44965476 0.00263074
0.96645510 0.50227684 0.01740862
1.00000000 0.55703562 0.06095404
0.00000000 0.42425126 0.00000000
0.11584619 0.48993704 0.00000000
0.34992078 0.56450707 0.00000000
0.60041600 0.64630550 0.00042061
0.79304779 0.67333519 0.00928335
0.88304371 0.61257470 0.01312943
0.94681573 0.59549040 0.02071901
0.98855150 0.62543792 0.02928758
1.00000000 0.68037701 0.06252605
0.02865373 0.62499040 0.00000000
0.22373126 0.67957711 0.00000000
0.45860291 0.74014133 0.00651472
0.68544340 0.79820776 0.02069053
0.84666348 0.82696104 0.03193129
0.96182185 0.82705110 0.04493581
0.98290420 0.76408899 0.04593845
0.99882597 0.75228846 0.04775986
1.00000000 0.77420413 0.05525112
0.04742713 0.77297831 0.00306073
0.27114427 0.82139915 0.03144215
0.51066351 0.87376004 0.04748394
0.72878611 0.91571230 0.05048115
0.88025218 0.93224907 0.05378077
0.99254376 0.94379234 0.06318867
1.00000000 0.94053239 0.06625278
1.00000000 0.87865883 0.06851736
1.00000000 0.87048560 0.06974746
0.00000000 0.00000000 0.00433503
0.00000000 0.00000000 0.00110355
0.00519079 0.00000000 0.00283980
0.18969777 0.00000000 0.00622097
0.40261924 0.00000000 0.00000000
0.58482653 0.00000000 0.00000000
0.68784267 0.00000000 0.00000000
0.75574410 0.00000000 0.00000000
0.79015297 0.00000000 0.00000000
0.00000000 0.00063223 0.01164696
0.00000000 0.00111023 0.01037548
0.00971989 0.00000000 0.01327433
0.20902926 0.00000000 0.01245227
0.41818112 0.00000000 0.00000000
0.59878170 0.00000000 0.00000000
0.71032023 0.00000000 0.00000000
0.78724420 0.00000000 0.00000000
0.82867455 0.00161926 0.00000000
0.00000000 0.01642889 0.01990558
0.00000000 0.01776432 0.01827151
0.00578350 0.04058211 0.02965896
0.22622417 0.06292632 0.03394017
0.45305496 0.06630805 0.01953615
0.64456648 0.07959095 0.01478316
0.77949429 0.09350729 0.01144208
0.85990822 0.10506968 0.00631715
0.89823675 0.11421198 0.00198211
0.00000000 0.09909931 0.05617771
0.00000000 0.12051083 0.05503978
0.01940724 0.13263756 0.00830224
0.31086737 0.13301800 0.01704821
0.49692520 0.17423533 0.03531575
0.69107157 0.21047252 0.04333258
0.83823687 0.23640415 0.04514191
0.92014372 0.25262776 0.04034085
0.95340979 0.25794986 0.02752221
0.00000000 0.22117364 0.04992126
0.00000000 0.20483272 0.01276223
0.09228307 0.23928161 0.00585152
0.41191080 0.29066733 0.01061536
0.60397732 0.27282548 0.01772265
0.75156099 0.32316947 0.04237024
0.86400396 0.37364161 0.06226733
0.94930494 0.39994788 0.06334263
0.98215771 0.41004306 0.05585863
0.00000000 0.30493438 0.00000000
0.00000000 0.30473366 0.00000000
0.15727445 0.38236204 0.00113520
0.47450227 0.46463671 0.00830896
0.70798284 0.47963667 0.01255649
0.82014668 0.43369699 0.01912384
0.90251631 0.47296512 0.04231785
0.97566170 0.52622169 0.07048547
1.00000000 0.57085800 0.09315101
0.00000000 0.44425529 0.00000000
0.00000000 0.44451764 0.00000000
0.23906413 0.54133916 0.00000000
0.54829234 0.63891572 0.01430940
0.77298236 0.68364531 0.03115756
0.88937026 0.63873798 0.04040074
0.95083678 0.60783511 0.04782850
0.99283558 0.63660985 0.05705796
1.00000000 0.68784195 0.09115935
0.00000000 0.62196630 0.00000000
0.00353128 0.62545663 0.00000000
0.34018147 0.71606505 0.02340203
0.63696748 0.79443878 0.04284012
0.83065218 0.83380622 0.05552640
0.96101606 0.83605319 0.06989557
0.98812383 0.77759922 0.07529673
0.99910098 0.75929594 0.07698984
1.00000000 0.78116494 0.08430240
0.01606157 0.77501225 0.01616149
0.07818039 0.78446090 0.02520720
0.43678707 0.85976255 0.06978829
0.69484687 0.91293603 0.07579695
0.86842710 0.93405551 0.07779250
0.98621291 0.94642144 0.08598235
1.00000000 0.94588822 0.09029690
1.00000000 0.88644010 0.09464492
1.00000000 0.87385464 0.09626021
0.00000000 0.00646427 0.08126612
0.00000000 0.00350845 0.08025423
0.00000000 0.00000000 0.07453975
0.13737214 0.00000000 0.07978427
0.39253220 0.00000000 0.06836438
0.57672554 0.00000000 0.04673615
0.69160348 0.00000000 0.02812070
0.75605559 0.00000000 0.01463506
0.79151899 0.00000000 0.01199594
0.00000000 0.04106557 0.08943734
0.00000000 0.04293630 0.08953553
0.00000000 0.01499084 0.08541110
0.15530467 0.00186804 0.09653346
0.41516024 0.00000000 0.07737157
0.59083360 0.00000000 0.05262098
0.70759964 0.00000000 0.03557089
0.77870089 0.00000000 0.03494835
0.81339651 0.00000000 0.02546775
0.00000000 0.07556149 0.09825134
0.00000000 0.07732439 0.09820785
0.00000000 0.08095926 0.09794521
0.17274475 0.07260330 0.11973938
0.46193001 0.07341099 0.11224091
0.65093911 0.06326817 0.09371798
0.77935606 0.07936919 0.09162742
0.85549664 0.09626046 0.09029955
0.89052975 0.10244319 0.07984394
0.00000000 0.10919279 0.10654666
0.00000000 0.11135782 0.10642457
0.00000000 0.11565113 0.10567454
0.18741938 0.18439540 0.14517523
0.50637513 0.23094760 0.15973522
0.71235591 0.25800011 0.15872271
0.85467589 0.27106664 0.15131332
0.93237990 0.27675837 0.14041826
0.96587574 0.27694845 0.12620556
0.00000000 0.16611736 0.13494314
0.00000000 0.18920262 0.13729338
0.00000000 0.23294502 0.13886595
0.23662117 0.32169658 0.11774594
0.59179276 0.34405410 0.14435565
0.74494678 0.39495593 0.16707124
0.88234687 0.42217568 0.16787972
0.96607268 0.43591508 0.15972969
0.99332297 0.43904296 0.14661565
0.00000000 0.38382331 0.17760883
0.00000000 0.38959950 0.16446221
0.00000000 0.38310862 0.12320200
0.32557264 0.46579194 0.11295383
0.68607306 0.53789127 0.11978692
0.82880694 0.48851115 0.12798795
0.91608137 0.52734447 0.15222058
0.98941118 0.57692128 0.17837231
1.00000000 0.59362125 0.17463154
0.00000000 0.53386903 0.15664938
0.00000000 0.49914730 0.10361230
0.00000000 0.47260931 0.04772776
0.40718505 0.61264187 0.09610049
0.73343903 0.70717901 0.09804413
0.89700854 0.68360126 0.09513005
0.95794147 0.63588309 0.11200893
0.99890590 0.66901875 0.14293253
1.00000000 0.71021622 0.16969220
0.00000000 0.65196025 0.03969817
0.00591647 0.65325856 0.02030458
0.03820601 0.65152645 0.02018752
0.50351399 0.76359761 0.06538758
0.78461897 0.83221513 0.07752547
0.94568443 0.84487963 0.09318583
0.99037534 0.79968113 0.10717186
0.99951708 0.76988143 0.10899442
1.00000000 0.78890651 0.11605936
0.02377507 0.78771257 0.04534023
0.06485558 0.79451025 0.05138706
0.11644347 0.80137140 0.05867885
0.55821311 0.89025819 0.10242891
0.83002186 0.93499506 0.10191274
0.97369564 0.95020705 0.10895928
1.00000000 0.95214605 0.11541694
1.00000000 0.89710575 0.12212509
1.00000000 0.87710840 0.12506577
0.00000000 0.05493560 0.16669366
0.00000000 0.05016947 0.16686526
0.00000000 0.02967152 0.16473666
0.00000000 0.00000000 0.15841323
0.31885567 0.00000000 0.16105616
0.55993462 0.00000000 0.14161119
0.69179106 0.00000000 0.12587199
0.76701456 0.00000000 0.11132187
0.79933888 0.00000000 0.09421495
0.00000000 0.09004936 0.17689335
0.00000000 0.09195933 0.17779493
0.00000000 0.07863623 0.17746297
0.00000000 0.03176861 0.17032254
0.34833732 0.01155761 0.18752792
0.58550161 0.00000000 0.16183284
0.70896405 0.00000000 0.13887137
0.78479272 0.00000000 0.12562230
0.81727046 0.00000000 0.10927278
0.00000000 0.12673947 0.18722603
0.00000000 0.12879740 0.18806837
0.00000000 0.13235615 0.18887921
0.00000000 0.09995994 0.18541560
0.38654697 0.10123909 0.22879152
0.64943087 0.09866033 0.22483388
0.77717042 0.08295953 0.20175046
0.83794862 0.06015752 0.17606515
0.86517721 0.04979716 0.15703723
0.00000000 0.16537906 0.19663092
0.00000000 0.16831382 0.19752708
0.00000000 0.17301242 0.19837844
0.00000000 0.18026091 0.19770251
0.42634699 0.22693940 0.27756375
0.71627790 0.26821789 0.29952320
0.85754365 0.26184890 0.27531451
0.93151945 0.27103633 0.26456094
0.96582550 0.27451524 0.24813907
0.00000000 0.20905636 0.20566466
0.00000000 0.21351677 0.20739338
0.00000000 0.22033909 0.20942372
0.00342834 0.23630528 0.21524246
0.48064238 0.40121353 0.31198078
0.74940884 0.45566753 0.34140390
0.89952278 0.47242442 0.33171076
0.97883254 0.47411585 0.31194234
1.00000000 0.46976191 0.28874943
0.00000000 0.27933761 0.24248841
0.00000000 0.28839454 0.24874328
0.00000000 0.31109256 0.25792786
0.04638912 0.39972135 0.28360662
0.53686357 0.55792147 0.28016886
0.81546402 0.56793493 0.30966076
0.92290562 0.60185897 0.33082896
0.99577504 0.62427318 0.32912844
1.00000000 0.62690997 0.30943558
0.00000000 0.53514975 0.35424247
0.00000000 0.56172425 0.36096299
0.00563268 0.57959139 0.34815046
0.08830826 0.59264463 0.29618651
0.60033476 0.69298482 0.25512409
0.88240767 0.73725617 0.24199727
0.96504384 0.68186069 0.26563865
0.99953216 0.71373987 0.29844865
1.00000000 0.74965107 0.32842433
0.00000000 0.75658435 0.42187110
0.02054071 0.76457554 0.40351251
0.04147887 0.72917271 0.31422666
0.04704081 0.65203714 0.14993869
0.65371776 0.80910850 0.20916682
0.91011459 0.86367726 0.19788906
0.99532253 0.83656991 0.19874462
1.00000000 0.79612887 0.21079840
1.00000000 0.81539911 0.24877092
0.01611477 0.83611941 0.29841441
0.03014420 0.79453409 0.21295294
0.11864609 0.81297708 0.12524068
0.17159274 0.81775987 0.10307799
0.70638525 0.92271268 0.13352087
0.93184626 0.95034796 0.13182159
1.00000000 0.95850825 0.14224042
1.00000000 0.91235113 0.15149285
1.00000000 0.88196695 0.15938129
0.00000000 0.09899573 0.27944228
0.00000000 0.09779204 0.28082407
0.00000000 0.08428225 0.28151467
0.00000000 0.05601950 0.28057188
0.00000000 0.00297599 0.27761060
0.48562682 0.00000000 0.28251272
0.68213415 0.00000000 0.26601198
0.77687764 0.00000000 0.25724232
0.81058341 0.00000000 0.23859704
0.00000000 0.13674222 0.29206327
0.00000000 0.13899864 0.29354325
0.00000000 0.13246581 0.29530963
0.00000000 0.10394442 0.29438490
0.00000000 0.04603343 0.29173052
0.52551770 0.03874047 0.32693195
0.72153217 0.01312421 0.30680490
0.80340272 0.00028138 0.28533614
0.83275002 0.00200681 0.26153216
0.00000000 0.17883188 0.30282620
0.00000000 0.18231925 0.30487904
0.00000000 0.18748996 0.30776697
0.00000000 0.16715151 0.30916798
0.00158033 0.11016199 0.30580857
0.57844448 0.14562230 0.38697749
0.79289067 0.14104792 0.38611153
0.87854660 0.13320093 0.36799383
0.89961064 0.10819310 0.33284071
0.00000000 0.22700456 0.31415164
0.00000000 0.23173761 0.31675696
0.00000000 0.23836684 0.31997126
0.00000000 0.24688268 0.32235709
0.01004034 0.20468600 0.32481915
0.62951469 0.28464314 0.44060382
0.85128862 0.30282244 0.45140547
0.93800467 0.29988268 0.43799624
0.96722323 0.28091288 0.41073996
0.00000000 0.28132114 0.32642046
0.00000000 0.28769055 0.33013806
0.00000000 0.29642314 0.33447197
0.00000000 0.30694067 0.33788317
0.02079386 0.32099259 0.33953005
0.67301881 0.43953082 0.48221478
0.89459908 0.47876555 0.50217104
0.98089701 0.48753250 0.49286905
1.00000000 0.48852473 0.47446489
0.00000000 0.34173411 0.34389654
0.00000000 0.34938109 0.34895155
0.00000000 0.35921589 0.35419613
0.00000000 0.37193027 0.35874206
0.16126779 0.45882699 0.42783055
0.74229473 0.62689906 0.52059400
0.92369264 0.66252488 0.53814882
0.99931604 0.67240369 0.52883291
1.00000000 0.66985077 0.50615913
0.00000000 0.42625794 0.39546022
0.00000000 0.43767932 0.40464267
0.00000000 0.45288184 0.41581059
0.03701320 0.48118386 0.43393800
0.22189106 0.62380469 0.49947929
0.78803736 0.76785415 0.48474091
0.96297026 0.74651778 0.49079257
0.99984539 0.77470779 0.52257127
1.00000000 0.78690326 0.51905090
0.00000000 0.64909697 0.52348471
0.00652279 0.67960852 0.53800893
0.04446629 0.72398198 0.55777389
0.09716740 0.76048225 0.55721796
0.28119192 0.80448776 0.51388168
0.81135958 0.85436267 0.41474473
0.99909359 0.87068576 0.38964203
1.00000000 0.83422929 0.44072875
1.00000000 0.85178190 0.46967003
0.03209458 0.85506761 0.61525887
0.07679269 0.86843538 0.61192662
0.12307265 0.88664234 0.60043186
0.17263141 0.91261929 0.57394367
0.16575290 0.83615744 0.31223398
0.83439112 0.93941504 0.31504765
1.00000000 0.96682328 0.23118009
1.00000000 0.93916404 0.19205296
1.00000000 0.89172333 0.19992732
0.00000000 0.14720568 0.41101074
0.00000000 0.14905354 0.41325217
0.00000000 0.13840564 0.41594902
0.00000000 0.11692485 0.41633728
0.00009771 0.07954806 0.41795215
0.04407381 0.01639158 0.43298945
0.63939333 0.01208204 0.45759565
0.78282100 0.00000000 0.45124346
0.82392752 0.00000000 0.43318501
0.00000000 0.19171581 0.42124569
0.00000000 0.19577903 0.42384815
0.00000000 0.19442512 0.42778131
0.00000000 0.17115605 0.43064520
0.00268191 0.12940791 0.42943668
0.04243717 0.06654701 0.44329181
0.69055617 0.09445949 0.51230252
0.84295708 0.08847281 0.52008277
0.88125294 0.07377280 0.50025582
0.00000000 0.24361558 0.43175587
0.00000000 0.24909624 0.43551132
0.00000000 0.25633973 0.44017339
0.00000000 0.24423857 0.44413841
0.00601111 0.20033914 0.44542125
0.03457505 0.13438402 0.46080467
0.74864608 0.21090333 0.57036823
0.90515804 0.22296131 0.59066921
0.94831437 0.21767196 0.57852137
0.00000000 0.30243215 0.44583192
0.00000000 0.30934775 0.45073307
0.00000000 0.31836656 0.45664242
0.00000000 0.32946545 0.46209848
0.01924548 0.29877535 0.46368030
0.06157592 0.23446620 0.48156980
0.79440254 0.34623194 0.61350149
0.94610417 0.37096179 0.63673967
0.98679203 0.37123182 0.62599832
0.00000000 0.36607414 0.46430838
0.00000000 0.37414947 0.47038817
0.00000000 0.38424897 0.47728437
0.00287919 0.39635539 0.48365334
0.04075610 0.41062027 0.48865226
0.13770469 0.39726934 0.52792233
0.83602136 0.49355748 0.65059394
0.97952831 0.52786320 0.67073679
0.99898547 0.53091729 0.66112310
0.00000000 0.43151060 0.48720917
0.00000000 0.44079417 0.49426997
0.00000000 0.45180836 0.50185543
0.01668608 0.46422845 0.50842524
0.05587258 0.47846356 0.51329255
0.10993921 0.50005656 0.51917911
0.87135124 0.65109497 0.67929304
0.99570137 0.68002641 0.68845600
1.00000000 0.68296087 0.67824370
0.00000000 0.49894595 0.51471198
0.00000000 0.50816113 0.52158135
0.00217729 0.51893723 0.52889878
0.02962351 0.53206897 0.53563195
0.07012129 0.54759121 0.54032248
0.51994604 0.69277418 0.65270454
0.91796261 0.79930973 0.69680792
1.00000000 0.81169325 0.69623113
1.00000000 0.81486589 0.68763816
0.00000000 0.57839924 0.56469941
0.00000000 0.58891082 0.57324266
0.01381677 0.60264885 0.58351171
0.05061141 0.62148082 0.59633398
0.20632038 0.67519879 0.63500327
0.49442115 0.81878889 0.70633185
0.94036406 0.89478111 0.65955383
1.00000000 0.87923068 0.66989607
1.00000000 0.89601898 0.68181974
0.00000000 0.72684902 0.66557717
0.02172364 0.75091326 0.67873669
0.07804445 0.79243809 0.69837737
0.14155294 0.84636474 0.72130811
0.19450742 0.87866968 0.71898472
0.47058263 0.93708253 0.69497311
0.94819081 0.96066123 0.56878442
1.00000000 0.97476721 0.51757151
1.00000000 0.92854041 0.50257403
0.00000000 0.20378546 0.54542506
0.00000000 0.20877528 0.55047774
0.00000000 0.20341156 0.55575007
0.00000000 0.18483002 0.55866879
0.00403997 0.15544169 0.56174427
0.01859124 0.10971369 0.56963044
0.22666943 0.05864388 0.60717553
0.79765505 0.07791653 0.64184183
0.89699638 0.08107293 0.65800029
0.00000000 0.25954771 0.55636269
0.00000000 0.26595592 0.56174475
0.00000000 0.27060232 0.56783932
0.00000000 0.25073522 0.57226717
0.00806776 0.21616386 0.57346928
0.03265886 0.16242902 0.57728016
0.23989686 0.12271236 0.63412285
0.84553713 0.16653161 0.68604594
0.94582695 0.17686836 0.70650655
0.00000000 0.32132798 0.56962627
0.00000000 0.32923746 0.57549685
0.00000000 0.33893922 0.58237463
0.00000000 0.33457437 0.58824766
0.02180445 0.29887611 0.59042472
0.04892220 0.23890661 0.59102380
0.25064394 0.20319752 0.65516645
0.88997948 0.27936256 0.72753000
0.98362815 0.29481331 0.74802780
0.00000000 0.38693810 0.58514130
0.00000000 0.39554670 0.59161860
0.00000000 0.40638575 0.59925151
0.01086858 0.41914555 0.60726523
0.04194353 0.40080231 0.61091262
0.06905460 0.34443176 0.60999560
0.33747011 0.32900152 0.68396497
0.92374456 0.40594482 0.75615245
1.00000000 0.42776385 0.77640563
0.00000000 0.45386118 0.60303873
0.00000000 0.46314788 0.61015707
0.00000000 0.47421074 0.61818063
0.02444252 0.48670664 0.62610799
0.06406063 0.50136214 0.63304526
0.09545171 0.46389377 0.63282943
0.45292315 0.48122710 0.71430010
0.95558560 0.54320002 0.78051376
1.00000000 0.56735700 0.79678100
0.00000000 0.52129078 0.62344807
0.00000000 0.53023773 0.63041216
0.00498844 0.54084438 0.63793361
0.03648413 0.55337912 0.64550543
0.07849399 0.56837243 0.65316856
0.12220471 0.58632398 0.65905464
0.56787306 0.64779621 0.74138111
0.97823286 0.68313891 0.79300523
1.00000000 0.70474130 0.80123121
0.00000000 0.58534825 0.64345598
0.00025667 0.59436738 0.65026814
0.01617734 0.60551327 0.65831876
0.05251688 0.61853480 0.66638333
0.09544539 0.63420200 0.67454219
0.14048824 0.65281564 0.68165857
0.31798878 0.71654105 0.71760613
0.99124402 0.80652362 0.79942280
1.00000000 0.82206172 0.79980338
0.00000000 0.64607275 0.66657925
0.00454931 0.65578121 0.67403919
0.02929444 0.66763222 0.68245572
0.07176940 0.68127251 0.69094908
0.11559601 0.69766951 0.69915891
0.18641604 0.72341299 0.71138674
0.82220989 0.85733128 0.79731780
1.00000000 0.91693705 0.80352491
1.00000000 0.92348850 0.80061424
0.00000000 0.71211565 0.70593071
0.01146209 0.72155023 0.71391481
0.05391871 0.73321384 0.72337979
0.09792576 0.74758476 0.73418427
0.14419436 0.76718789 0.74625248
0.32439283 0.81645703 0.77609283
0.82150739 0.93228829 0.82843333
1.00000000 0.98870492 0.79431140
1.00000000 0.97764444 0.78542846
0.00000000 0.25698784 0.65332568
0.00000000 0.26530552 0.65899092
0.00000000 0.27101958 0.66560352
0.00000000 0.25605419 0.67081732
0.01275577 0.23063573 0.67303711
0.04262576 0.19734728 0.67737770
0.09623715 0.15218592 0.69035578
0.64261442 0.13537687 0.74698871
0.93342495 0.19048283 0.78740615
0.00000000 0.32681265 0.66202348
0.00000000 0.33503446 0.66898739
0.00000000 0.34397843 0.67684346
0.00119224 0.33062139 0.68268597
0.02642068 0.30360478 0.68610793
0.05722046 0.26623365 0.68758625
0.08974382 0.21344365 0.70003724
0.66756898 0.21707346 0.77262384
0.96369368 0.27643645 0.81376398
0.00000000 0.39345309 0.67432040
0.00000000 0.40224677 0.68199927
0.00000000 0.41187236 0.68988991
0.01312956 0.41345814 0.69635653
0.04347964 0.38750654 0.69969213
0.07418419 0.34940323 0.70070863
0.10220376 0.29121068 0.70805514
0.68872058 0.31359655 0.79067653
0.98521900 0.37616849 0.83278942
0.00000000 0.46228185 0.68948978
0.00000000 0.47134626 0.69696832
0.00200028 0.48057938 0.70446599
0.02936934 0.49281189 0.71242702
0.06498852 0.48418862 0.71758300
0.09562530 0.44464040 0.71732098
0.12444134 0.39206535 0.72088498
0.71314812 0.42502704 0.80437368
0.99863118 0.49557263 0.84961760
0.00000000 0.53133196 0.70298839
0.00000000 0.53970635 0.70981491
0.00898268 0.54879189 0.71744651
0.04228834 0.55942547 0.72531080
0.08447771 0.57513422 0.73399073
0.11897327 0.55199337 0.73537976
0.16569857 0.51179671 0.74106473
0.76055682 0.55668247 0.82248235
1.00000000 0.61909610 0.85941303
0.00000000 0.59504241 0.71550912
0.00156216 0.60404378 0.72285712
0.02004015 0.61378646 0.73084682
0.05863935 0.62508392 0.73867089
0.10136276 0.63974988 0.74746674
0.14686096 0.65971398 0.75695890
0.19176421 0.62756634 0.75760758
0.84544635 0.71245480 0.84181702
1.00000000 0.73428637 0.86154103
0.00000000 0.65874803 0.73111743
0.00624301 0.66776484 0.73857653
0.03603528 0.67749256 0.74679548
0.07775359 0.68757850 0.75461745
0.12062514 0.70146292 0.76313514
0.16706100 0.71909165 0.77255219
0.21959639 0.74406689 0.78409630
0.92081434 0.84077841 0.85784787
1.00000000 0.83786839 0.86548942
0.00000000 0.71499139 0.74881017
0.01513498 0.72361219 0.75599146
0.05617515 0.73261309 0.76357567
0.09767227 0.74140245 0.77078760
0.14048095 0.75301909 0.77886981
0.18745051 0.77001452 0.78858066
0.24113023 0.79518604 0.80022806
0.87552744 0.90399152 0.86324078
1.00000000 0.93595159 0.87768191
0.00000000 0.75693798 0.76342851
0.03189818 0.76425624 0.77005196
0.07294273 0.77202642 0.77700031
0.11393224 0.77946430 0.78371912
0.15534756 0.78768897 0.79048854
0.20336412 0.80658799 0.80063510
0.42564303 0.86285174 0.82953978
1.00000000 0.97997147 0.88117105
1.00000000 0.99390858 0.88825923
