luts/THE LUT.cube
# VEGAS Pro LUT
TITLE "THE LUT"
LUT_3D_SIZE 5
0.00000000 0.00000000 0.00000000
0.02141735 0.00000000 0.00000000
0.39129341 0.00000000 0.00000000
0.68537945 0.00000000 0.00000000
0.78817171 0.00000000 0.00000000
0.00000000 0.00453351 0.00000000
0.06793042 0.00556771 0.00000000
0.42874870 0.04282191 0.00000000
0.76628947 0.06751537 0.00000000
0.87694246 0.07960863 0.00000000
0.00000000 0.17226417 0.00000000
0.21369377 0.22705160 0.00000000
0.57786465 0.22653350 0.00000000
0.84814727 0.32455117 0.00000000
0.97344363 0.37647492 0.00268909
0.03045116 0.45175231 0.00000000
0.39663374 0.56877851 0.00000000
0.79614216 0.66294259 0.00000000
0.94256485 0.58731103 0.00235018
1.00000000 0.67359787 0.03593376
0.13596325 0.78898537 0.00000000
0.54321188 0.87979203 0.02409967
0.88645399 0.93099523 0.03166370
1.00000000 0.93504441 0.04296807
1.00000000 0.86750633 0.04473578
0.00000000 0.00000000 0.00433503
0.00519079 0.00000000 0.00283980
0.40261924 0.00000000 0.00000000
0.68784267 0.00000000 0.00000000
0.79015297 0.00000000 0.00000000
0.00000000 0.01642889 0.01990558
0.00578350 0.04058211 0.02965896
0.45305496 0.06630805 0.01953615
0.77949429 0.09350729 0.01144208
0.89823675 0.11421198 0.00198211
0.00000000 0.22117364 0.04992126
0.09228307 0.23928161 0.00585152
0.60397732 0.27282548 0.01772265
0.86400396 0.37364161 0.06226733
0.98215771 0.41004306 0.05585863
0.00000000 0.44425529 0.00000000
0.23906413 0.54133916 0.00000000
0.77298236 0.68364531 0.03115756
0.95083678 0.60783511 0.04782850
1.00000000 0.68784195 0.09115935
0.01606157 0.77501225 0.01616149
0.43678707 0.85976255 0.06978829
0.86842710 0.93405551 0.07779250
1.00000000 0.94588822 0.09029690
1.00000000 0.87385464 0.09626021
0.00000000 0.05493560 0.16669366
0.00000000 0.02967152 0.16473666
0.31885567 0.00000000 0.16105616
0.69179106 0.00000000 0.12587199
0.79933888 0.00000000 0.09421495
0.00000000 0.12673947 0.18722603
0.00000000 0.13235615 0.18887921
0.38654697 0.10123909 0.22879152
0.77717042 0.08295953 0.20175046
0.86517721 0.04979716 0.15703723
0.00000000 0.20905636 0.20566466
0.00000000 0.22033909 0.20942372
0.48064238 0.40121353 0.31198078
0.89952278 0.47242442 0.33171076
1.00000000 0.46976191 0.28874943
0.00000000 0.53514975 0.35424247
0.00563268 0.57959139 0.34815046
0.60033476 0.69298482 0.25512409
0.96504384 0.68186069 0.26563865
1.00000000 0.74965107 0.32842433
0.01611477 0.83611941 0.29841441
0.11864609 0.81297708 0.12524068
0.70638525 0.92271268 0.13352087
1.00000000 0.95850825 0.14224042
1.00000000 0.88196695 0.15938129
0.00000000 0.14720568 0.41101074
0.00000000 0.13840564 0.41594902
0.00009771 0.07954806 0.41795215
0.63939333 0.01208204 0.45759565
0.82392752 0.00000000 0.43318501
0.00000000 0.24361558 0.43175587
0.00000000 0.25633973 0.44017339
0.00601111 0.20033914 0.44542125
0.74864608 0.21090333 0.57036823
0.94831437 0.21767196 0.57852137
0.00000000 0.36607414 0.46430838
0.00000000 0.38424897 0.47728437
0.04075610 0.41062027 0.48865226
0.83602136 0.49355748 0.65059394
0.99898547 0.53091729 0.66112310
0.00000000 0.49894595 0.51471198
0.00217729 0.51893723 0.52889878
0.07012129 0.54759121 0.54032248
0.91796261 0.79930973 0.69680792
1.00000000 0.81486589 0.68763816
0.00000000 0.72684902 0.66557717
0.07804445 0.79243809 0.69837737
0.19450742 0.87866968 0.71898472
0.94819081 0.96066123 0.56878442
1.00000000 0.92854041 0.50257403
0.00000000 0.25698784 0.65332568
0.00000000 0.27101958 0.66560352
0.01275577 0.23063573 0.67303711
0.09623715 0.15218592 0.69035578
0.93342495 0.19048283 0.78740615
0.00000000 0.39345309 0.67432040
0.00000000 0.41187236 0.68988991
0.04347964 0.38750654 0.69969213
0.10220376 0.29121068 0.70805514
0.98521900 0.37616849 0.83278942
0.00000000 0.53133196 0.70298839
0.00898268 0.54879189 0.71744651
0.08447771 0.57513422 0.73399073
0.16569857 0.51179671 0.74106473
1.00000000 0.61909610 0.85941303
0.00000000 0.65874803 0.73111743
0.03603528 0.67749256 0.74679548
0.12062514 0.70146292 0.76313514
0.21959639 0.74406689 0.78409630
1.00000000 0.83786839 0.86548942
0.00000000 0.75693798 0.76342851
0.07294273 0.77202642 0.77700031
0.15534756 0.78768897 0.79048854
0.42564303 0.86285174 0.82953978
1.00000000 0.99390858 0.88825923
