luts/Til orange.cube
LUT_3D_SIZE 6
0.000000 0.026505 0.000000
0.129845 0.026505 0.000000
0.370214 0.026505 0.000000
0.625355 0.026505 0.000000
0.858788 0.026505 0.000000
1.013120 0.026505 0.000000
0.000000 0.187355 0.000000
0.129845 0.187355 0.000000
0.370214 0.213688 0.000000
0.625355 0.230400 0.000000
0.858788 0.235532 0.000000
1.013120 0.231404 0.000000
0.000000 0.384077 0.000000
0.162231 0.384077 0.000000
0.370214 0.384077 0.000000
0.625355 0.415700 0.000000
0.858788 0.425426 0.000000
1.013120 0.417603 0.000000
0.000000 0.593438 0.000000
0.182713 0.593438 0.000000
0.408754 0.593438 0.000000
0.625355 0.593438 0.000000
0.858788 0.607553 0.000000
1.013120 0.596190 0.000000
0.000000 0.784540 0.000000
0.189010 0.784540 0.000000
0.420661 0.784540 0.000000
0.642577 0.784540 0.000000
0.858788 0.784540 0.000000
1.013120 0.769786 0.000000
0.000000 0.939916 0.000000
0.183924 0.939916 0.000000
0.411052 0.939916 0.000000
0.628737 0.939916 0.000000
0.840724 0.939916 0.000000
1.013120 0.939916 0.000000
0.000000 0.026505 0.189956
0.129845 0.026505 0.189956
0.370214 0.026505 0.219192
0.625355 0.026505 0.237349
0.858788 0.026505 0.242895
1.013120 0.026505 0.238454
0.000000 0.187355 0.189956
0.129845 0.187355 0.189956
0.370214 0.187355 0.189956
0.625355 0.187355 0.189956
0.858788 0.187355 0.189956
1.013120 0.187355 0.189956
0.000000 0.384077 0.219192
0.129845 0.384077 0.189956
0.370214 0.384077 0.189956
0.625355 0.406891 0.189956
0.858788 0.413155 0.189956
1.013120 0.405280 0.189956
0.000000 0.593438 0.237349
0.129845 0.593438 0.189956
0.397960 0.593438 0.189956
0.625355 0.593438 0.189956
0.858788 0.603460 0.189956
1.013120 0.590940 0.189956
0.000000 0.784540 0.242895
0.129845 0.784540 0.189956
0.405620 0.784540 0.189956
0.637631 0.784540 0.189956
0.858788 0.784540 0.189956
1.013120 0.767789 0.189956
0.000000 0.939916 0.238454
0.129845 0.939915 0.189956
0.396102 0.939915 0.189956
0.622305 0.939915 0.189956
0.838242 0.939915 0.189956
1.013120 0.939915 0.189956
0.000000 0.026505 0.395006
0.162231 0.026505 0.395006
0.370214 0.026505 0.395006
0.625355 0.026505 0.425887
0.858788 0.026505 0.435347
1.013120 0.026505 0.427785
0.000000 0.213688 0.395006
0.129845 0.187355 0.395006
0.370214 0.187355 0.395006
0.625355 0.187355 0.417305
0.858788 0.187355 0.423379
1.013120 0.187355 0.415773
0.000000 0.384077 0.395006
0.129845 0.384077 0.395006
0.370214 0.384077 0.395006
0.625355 0.384077 0.395006
0.858788 0.384077 0.395006
1.013120 0.384077 0.395006
0.000000 0.593438 0.425887
0.129845 0.593438 0.417305
0.370214 0.593438 0.395006
0.625355 0.593438 0.395006
0.858788 0.594498 0.395006
1.013120 0.582294 0.395006
0.000000 0.784540 0.435347
0.129845 0.784540 0.423379
0.370214 0.784540 0.395006
0.626635 0.784540 0.395006
0.858788 0.784540 0.395006
1.013120 0.764528 0.395006
0.000000 0.939916 0.427785
0.129845 0.939915 0.415773
0.370214 0.939916 0.395006
0.611772 0.939916 0.395006
0.834292 0.939916 0.395006
1.013120 0.939916 0.395006
0.000000 0.026505 0.593226
0.182713 0.026505 0.593226
0.408754 0.026505 0.593226
0.625355 0.026505 0.593226
0.858788 0.026505 0.606135
1.013120 0.026505 0.595763
0.000000 0.230400 0.593226
0.129845 0.187355 0.593226
0.397960 0.187355 0.593226
0.625355 0.187355 0.593226
0.858788 0.187355 0.602403
1.013120 0.187355 0.590906
0.000000 0.415700 0.593226
0.129845 0.406891 0.593226
0.370214 0.384077 0.593226
0.625355 0.384077 0.593226
0.858788 0.384077 0.594191
1.013120 0.384077 0.583026
0.000000 0.593438 0.593226
0.129845 0.593438 0.593226
0.370214 0.593438 0.593226
0.625355 0.593438 0.593226
0.858788 0.593438 0.593226
1.013120 0.593438 0.593226
0.000000 0.784540 0.606135
0.129845 0.784540 0.602403
0.370214 0.784540 0.594191
0.625355 0.784540 0.593226
0.858788 0.784540 0.593226
1.013120 0.768670 0.593226
0.000000 0.939916 0.595763
0.129845 0.939915 0.590906
0.370214 0.939916 0.583026
0.625355 0.939916 0.593226
0.839373 0.939916 0.593226
1.013120 0.939916 0.593226
0.000000 0.026505 0.764366
0.189010 0.026505 0.764366
0.420661 0.026505 0.764366
0.642577 0.026505 0.764366
0.858788 0.026505 0.764366
1.013120 0.026505 0.751427
0.000000 0.235532 0.764366
0.129845 0.187355 0.764366
0.405620 0.187355 0.764366
0.637631 0.187355 0.764366
0.858788 0.187355 0.764366
1.013120 0.187355 0.749544
0.000000 0.425426 0.764366
0.129845 0.413155 0.764366
0.370214 0.384077 0.764366
0.626635 0.384077 0.764366
0.858788 0.384077 0.764366
1.013120 0.384077 0.746782
0.000000 0.607553 0.764366
0.129845 0.603460 0.764366
0.370214 0.594498 0.764366
0.625355 0.593438 0.764366
0.858788 0.593438 0.764366
1.013120 0.593438 0.750545
0.000000 0.784540 0.764366
0.129845 0.784540 0.764366
0.370214 0.784540 0.764366
0.625355 0.784540 0.764366
0.858788 0.784540 0.764366
1.013120 0.784540 0.764366
0.000000 0.939916 0.751427
0.129845 0.939915 0.749544
0.370214 0.939916 0.746782
0.625355 0.939916 0.750545
0.858788 0.939916 0.764366
1.013120 0.939916 0.764366
0.000000 0.026505 0.898748
0.183924 0.026505 0.898748
0.411052 0.026505 0.898748
0.628737 0.026505 0.898748
0.840724 0.026505 0.898748
1.013120 0.026505 0.898748
0.000000 0.231404 0.898748
0.129845 0.187355 0.898748
0.396102 0.187355 0.898748
0.622305 0.187355 0.898748
0.838242 0.187355 0.898748
1.013120 0.187355 0.898748
0.000000 0.417603 0.898748
0.129845 0.405280 0.898748
0.370214 0.384077 0.898748
0.611772 0.384077 0.898748
0.834292 0.384077 0.898748
1.013120 0.384077 0.898748
0.000000 0.596190 0.898748
0.129845 0.590940 0.898748
0.370214 0.582294 0.898748
0.625355 0.593438 0.898748
0.839373 0.593438 0.898748
1.013120 0.593438 0.898748
0.000000 0.769786 0.898748
0.129845 0.767789 0.898748
0.370214 0.764528 0.898748
0.625355 0.768670 0.898748
0.858788 0.784540 0.898748
1.013120 0.784540 0.898748
0.000000 0.939916 0.898748
0.129845 0.939915 0.898748
0.370214 0.939916 0.898748
0.625355 0.939916 0.898748
0.858788 0.939916 0.898748
1.013120 0.939916 0.898748
