luts/Til orange.cube
LUT_3D_SIZE 16
0.000000 0.026505 0.000000
0.017674 0.026505 0.000000
0.062222 0.026505 0.000000
0.129845 0.026505 0.000000
0.207707 0.026505 0.000000
0.287901 0.026505 0.000000
0.370214 0.026505 0.000000
0.454290 0.026505 0.000000
0.540120 0.026505 0.000000
0.625355 0.026505 0.000000
0.706887 0.026505 0.000000
0.784981 0.026505 0.000000
0.858788 0.026505 0.000000
0.927635 0.026505 0.000000
0.979464 0.026505 0.000000
1.013120 0.026505 0.000000
0.000000 0.070863 0.000000
0.017674 0.070863 0.000000
0.062222 0.078310 0.000000
0.129845 0.083225 0.000000
0.207707 0.086975 0.000000
0.287901 0.090067 0.000000
0.370214 0.092710 0.000000
0.454290 0.095006 0.000000
0.540120 0.097071 0.000000
0.625355 0.098722 0.000000
0.706887 0.099765 0.000000
0.784981 0.100360 0.000000
0.858788 0.100582 0.000000
0.927635 0.100456 0.000000
0.979464 0.099979 0.000000
1.013120 0.099091 0.000000
0.000000 0.126850 0.000000
0.022419 0.126850 0.000000
0.062222 0.126850 0.000000
0.129845 0.136244 0.000000
0.207707 0.143406 0.000000
0.287901 0.149288 0.000000
0.370214 0.154333 0.000000
0.454290 0.158715 0.000000
0.540120 0.162657 0.000000
0.625355 0.165803 0.000000
0.706887 0.167817 0.000000
0.784981 0.168937 0.000000
0.858788 0.169345 0.000000
0.927635 0.169097 0.000000
0.979464 0.168196 0.000000
1.013120 0.166510 0.000000
0.000000 0.187355 0.000000
0.025770 0.187355 0.000000
0.071525 0.187355 0.000000
0.129845 0.187355 0.000000
0.207707 0.197793 0.000000
0.287901 0.206334 0.000000
0.370214 0.213688 0.000000
0.454290 0.220050 0.000000
0.540120 0.225807 0.000000
0.625355 0.230400 0.000000
0.706887 0.233304 0.000000
0.784981 0.234947 0.000000
0.858788 0.235532 0.000000
0.927635 0.235190 0.000000
0.979464 0.233890 0.000000
1.013120 0.231404 0.000000
0.000000 0.250802 0.000000
0.028438 0.250802 0.000000
0.078941 0.250802 0.000000
0.142705 0.250802 0.000000
0.207707 0.250802 0.000000
0.287901 0.261978 0.000000
0.370214 0.271548 0.000000
0.454290 0.279864 0.000000
0.540120 0.287358 0.000000
0.625355 0.293329 0.000000
0.706887 0.297110 0.000000
0.784981 0.299243 0.000000
0.858788 0.300025 0.000000
0.927635 0.299585 0.000000
0.979464 0.297871 0.000000
1.013120 0.294648 0.000000
0.000000 0.316505 0.000000
0.030700 0.316505 0.000000
0.085216 0.316505 0.000000
0.153212 0.316505 0.000000
0.221345 0.316505 0.000000
0.287901 0.316505 0.000000
0.370214 0.328257 0.000000
0.454290 0.338486 0.000000
0.540120 0.347651 0.000000
0.625355 0.355025 0.000000
0.706887 0.359693 0.000000
0.784981 0.362331 0.000000
0.858788 0.363251 0.000000
0.927635 0.362682 0.000000
0.979464 0.360591 0.000000
1.013120 0.356629 0.000000
0.000000 0.384077 0.000000
0.032687 0.384077 0.000000
0.090733 0.384077 0.000000
0.162231 0.384077 0.000000
0.233026 0.384077 0.000000
0.302227 0.384077 0.000000
0.370214 0.384077 0.000000
0.454290 0.396114 0.000000
0.540120 0.407051 0.000000
0.625355 0.415700 0.000000
0.706887 0.421206 0.000000
0.784981 0.424319 0.000000
0.858788 0.425426 0.000000
0.927635 0.424789 0.000000
0.979464 0.422306 0.000000
1.013120 0.417603 0.000000
0.000000 0.453077 0.000000
0.034451 0.453077 0.000000
0.095635 0.453077 0.000000
0.170045 0.453077 0.000000
0.243193 0.453077 0.000000
0.314654 0.453077 0.000000
0.384944 0.453077 0.000000
0.454290 0.453077 0.000000
0.540120 0.465600 0.000000
0.625355 0.475609 0.000000
0.706887 0.481938 0.000000
0.784981 0.485523 0.000000
0.858788 0.486794 0.000000
0.927635 0.486042 0.000000
0.979464 0.483187 0.000000
1.013120 0.477811 0.000000
0.000000 0.523483 0.000000
0.036072 0.523483 0.000000
0.100133 0.523483 0.000000
0.177089 0.523483 0.000000
0.252317 0.523483 0.000000
0.325864 0.523483 0.000000
0.398174 0.523483 0.000000
0.469546 0.523483 0.000000
0.540120 0.523483 0.000000
0.625355 0.534808 0.000000
0.706887 0.541983 0.000000
0.784981 0.546008 0.000000
0.858788 0.547448 0.000000
0.927635 0.546643 0.000000
0.979464 0.543420 0.000000
1.013120 0.537321 0.000000
0.000000 0.593438 0.000000
0.037388 0.593438 0.000000
0.103779 0.593438 0.000000
0.182713 0.593438 0.000000
0.259613 0.593438 0.000000
0.334825 0.593438 0.000000
0.408754 0.593438 0.000000
0.481730 0.593438 0.000000
0.553906 0.593438 0.000000
0.625355 0.593438 0.000000
0.706887 0.601412 0.000000
0.784981 0.605955 0.000000
0.858788 0.607553 0.000000
0.927635 0.606602 0.000000
0.979464 0.603007 0.000000
1.013120 0.596190 0.000000
0.000000 0.660244 0.000000
0.038226 0.660244 0.000000
0.106118 0.660244 0.000000
0.186272 0.660244 0.000000
0.264239 0.660244 0.000000
0.340478 0.660244 0.000000
0.415446 0.660244 0.000000
0.489454 0.660244 0.000000
0.562618 0.660244 0.000000
0.635124 0.660244 0.000000
0.706887 0.660244 0.000000
0.784981 0.665254 0.000000
0.858788 0.667024 0.000000
0.927635 0.665982 0.000000
0.979464 0.661989 0.000000
1.013120 0.654478 0.000000
0.000000 0.724145 0.000000
0.038707 0.724145 0.000000
0.107445 0.724145 0.000000
0.188279 0.724145 0.000000
0.266850 0.724145 0.000000
0.343690 0.724145 0.000000
0.419273 0.724145 0.000000
0.493814 0.724145 0.000000
0.567579 0.724145 0.000000
0.640636 0.724145 0.000000
0.713015 0.724145 0.000000
0.784981 0.724145 0.000000
0.858788 0.726092 0.000000
0.927635 0.724939 0.000000
0.979464 0.720568 0.000000
1.013120 0.712401 0.000000
0.000000 0.784540 0.000000
0.038879 0.784540 0.000000
0.107919 0.784540 0.000000
0.189010 0.784540 0.000000
0.267777 0.784540 0.000000
0.344854 0.784540 0.000000
0.420661 0.784540 0.000000
0.495380 0.784540 0.000000
0.569363 0.784540 0.000000
0.642577 0.784540 0.000000
0.715077 0.784540 0.000000
0.787305 0.784540 0.000000
0.858788 0.784540 0.000000
0.927635 0.783325 0.000000
0.979464 0.778622 0.000000
1.013120 0.769786 0.000000
0.000000 0.841479 0.000000
0.038778 0.841479 0.000000
0.107639 0.841479 0.000000
0.188583 0.841479 0.000000
0.267223 0.841479 0.000000
0.344175 0.841479 0.000000
0.419837 0.841479 0.000000
0.494463 0.841479 0.000000
0.568298 0.841479 0.000000
0.641443 0.841479 0.000000
0.713860 0.841479 0.000000
0.785917 0.841479 0.000000
0.857286 0.841479 0.000000
0.927635 0.841479 0.000000
0.979464 0.836512 0.000000
1.013120 0.826932 0.000000
0.000000 0.893649 0.000000
0.038392 0.893649 0.000000
0.106577 0.893649 0.000000
0.186962 0.893649 0.000000
0.265145 0.893649 0.000000
0.341611 0.893649 0.000000
0.416806 0.893649 0.000000
0.490972 0.893649 0.000000
0.564322 0.893649 0.000000
0.637014 0.893649 0.000000
0.709092 0.893649 0.000000
0.780606 0.893649 0.000000
0.851578 0.893649 0.000000
0.921868 0.893649 0.000000
0.979464 0.893649 0.000000
1.013120 0.883493 0.000000
0.000000 0.939916 0.000000
0.037675 0.939916 0.000000
0.104588 0.939916 0.000000
0.183924 0.939916 0.000000
0.261228 0.939916 0.000000
0.336799 0.939916 0.000000
0.411052 0.939916 0.000000
0.484414 0.939916 0.000000
0.556927 0.939916 0.000000
0.628737 0.939916 0.000000
0.699935 0.939916 0.000000
0.770583 0.939916 0.000000
0.840724 0.939916 0.000000
0.910485 0.939916 0.000000
0.970741 0.939916 0.000000
1.013120 0.939916 0.000000
0.000000 0.026505 0.054634
0.017674 0.026505 0.054634
0.062222 0.026505 0.063397
0.129845 0.026505 0.069168
0.207707 0.026505 0.073581
0.287901 0.026505 0.077191
0.370214 0.026505 0.080285
0.454290 0.026505 0.082967
0.540120 0.026505 0.085386
0.625355 0.026505 0.087320
0.706887 0.026505 0.088547
0.784981 0.026505 0.089224
0.858788 0.026505 0.089489
0.927635 0.026505 0.089343
0.979464 0.026505 0.088789
1.013120 0.026505 0.087742
0.000000 0.070863 0.054634
0.017674 0.070863 0.054634
0.062222 0.070863 0.054634
0.129845 0.070863 0.054634
0.207707 0.070863 0.054634
0.287901 0.070863 0.054634
0.370214 0.070863 0.054634
0.454290 0.070863 0.054634
0.540120 0.070863 0.054634
0.625355 0.070863 0.054634
0.706887 0.070863 0.054634
0.784981 0.070863 0.054634
0.858788 0.070863 0.054634
0.927635 0.070863 0.054634
0.979464 0.070863 0.054634
1.013120 0.070863 0.054634
0.000000 0.126850 0.063397
0.017674 0.126850 0.054634
0.062222 0.126850 0.054634
0.129845 0.133670 0.054634
0.207707 0.139344 0.054634
0.287901 0.144198 0.054634
0.370214 0.148453 0.054634
0.454290 0.152200 0.054634
0.540120 0.155613 0.054634
0.625355 0.158360 0.054634
0.706887 0.160090 0.054634
0.784981 0.161068 0.054634
0.858788 0.161396 0.054634
0.927635 0.161184 0.054634
0.979464 0.160367 0.054634
1.013120 0.158856 0.054634
0.000000 0.187355 0.069168
0.017674 0.187355 0.054634
0.068930 0.187355 0.054634
0.129845 0.187355 0.054634
0.207707 0.196434 0.054634
0.287901 0.204165 0.054634
0.370214 0.210922 0.054634
0.454290 0.216871 0.054634
0.540120 0.222260 0.054634
0.625355 0.226583 0.054634
0.706887 0.229317 0.054634
0.784981 0.230860 0.054634
0.858788 0.231385 0.054634
0.927635 0.231043 0.054634
0.979464 0.229757 0.054634
1.013120 0.227357 0.054634
0.000000 0.250802 0.073581
0.017674 0.250802 0.054634
0.074698 0.250802 0.054634
0.141045 0.250802 0.054634
0.207707 0.250802 0.054634
0.287901 0.261160 0.054634
0.370214 0.270175 0.054634
0.454290 0.278107 0.054634
0.540120 0.285302 0.054634
0.625355 0.291039 0.054634
0.706887 0.294695 0.054634
0.784981 0.296729 0.054634
0.858788 0.297440 0.054634
0.927635 0.296956 0.054634
0.979464 0.295246 0.054634
1.013120 0.292076 0.054634
0.000000 0.316505 0.077191
0.017674 0.316505 0.054634
0.079763 0.316505 0.054634
0.150555 0.316505 0.054634
0.220326 0.316505 0.054634
0.287901 0.316505 0.054634
0.370214 0.327704 0.054634
0.454290 0.337556 0.054634
0.540120 0.346447 0.054634
0.625355 0.353558 0.054634
0.706887 0.358044 0.054634
0.784981 0.360614 0.054634
0.858788 0.361453 0.054634
0.927635 0.360882 0.054634
0.979464 0.358793 0.054634
1.013120 0.354875 0.054634
0.000000 0.384077 0.080285
0.017674 0.384077 0.054634
0.084308 0.384077 0.054634
0.158864 0.384077 0.054634
0.231349 0.384077 0.054634
0.301519 0.384077 0.054634
0.370214 0.384077 0.054634
0.454290 0.395796 0.054634
0.540120 0.406343 0.054634
0.625355 0.414783 0.054634
0.706887 0.420216 0.054634
0.784981 0.423163 0.054634
0.858788 0.424185 0.054634
0.927635 0.423497 0.054634
0.979464 0.420997 0.054634
1.013120 0.416318 0.054634
0.000000 0.453077 0.082967
0.017674 0.453077 0.054634
0.088392 0.453077 0.054634
0.166151 0.453077 0.054634
0.241036 0.453077 0.054634
0.313534 0.453077 0.054634
0.384453 0.453077 0.054634
0.454290 0.453077 0.054634
0.540120 0.465286 0.054634
0.625355 0.475081 0.054634
0.706887 0.481231 0.054634
0.784981 0.484728 0.054634
0.858788 0.485923 0.054634
0.927635 0.485131 0.054634
0.979464 0.482221 0.054634
1.013120 0.476837 0.054634
0.000000 0.523483 0.085386
0.017674 0.523483 0.054634
0.092165 0.523483 0.054634
0.172757 0.523483 0.054634
0.249797 0.523483 0.054634
0.324371 0.523483 0.054634
0.397334 0.523483 0.054634
0.469168 0.523483 0.054634
0.540120 0.523483 0.054634
0.625355 0.534571 0.054634
0.706887 0.541539 0.054634
0.784981 0.545528 0.054634
0.858788 0.546837 0.054634
0.927635 0.546012 0.054634
0.979464 0.542679 0.054634
1.013120 0.536530 0.054634
0.000000 0.593438 0.087320
0.017674 0.593438 0.054634
0.095242 0.593438 0.054634
0.178046 0.593438 0.054634
0.256840 0.593438 0.054634
0.333068 0.593438 0.054634
0.407641 0.593438 0.054634
0.481085 0.593438 0.054634
0.553619 0.593438 0.054634
0.625355 0.593438 0.054634
0.706887 0.601242 0.054634
0.784981 0.605605 0.054634
0.858788 0.607118 0.054634
0.927635 0.606139 0.054634
0.979464 0.602463 0.054634
1.013120 0.595619 0.054634
0.000000 0.660244 0.088547
0.017674 0.660244 0.054634
0.097190 0.660244 0.054634
0.181402 0.660244 0.054634
0.261279 0.660244 0.054634
0.338563 0.660244 0.054634
0.414169 0.660244 0.054634
0.488638 0.660244 0.054634
0.562137 0.660244 0.054634
0.634903 0.660244 0.054634
0.706887 0.660244 0.054634
0.784981 0.665050 0.054634
0.858788 0.666741 0.054634
0.927635 0.665640 0.054634
0.979464 0.661615 0.054634
1.013120 0.654051 0.054634
0.000000 0.724145 0.089224
0.017674 0.724145 0.054634
0.098299 0.724145 0.054634
0.183284 0.724145 0.054634
0.263753 0.724145 0.054634
0.341632 0.724145 0.054634
0.417893 0.724145 0.054634
0.492820 0.724145 0.054634
0.566923 0.724145 0.054634
0.640173 0.724145 0.054634
0.712753 0.724145 0.054634
0.784981 0.724145 0.054634
0.858788 0.725936 0.054634
0.927635 0.724711 0.054634
0.979464 0.720304 0.054634
1.013120 0.712185 0.054634
0.000000 0.784540 0.089489
0.017674 0.784540 0.054634
0.098688 0.784540 0.054634
0.183922 0.784540 0.054634
0.264613 0.784540 0.054634
0.342725 0.784540 0.054634
0.419110 0.784540 0.054634
0.494303 0.784540 0.054634
0.568631 0.784540 0.054634
0.642102 0.784540 0.054634
0.714919 0.784540 0.054634
0.787104 0.784540 0.054634
0.858788 0.784540 0.054634
0.927635 0.783190 0.054634
0.979464 0.778511 0.054634
1.013120 0.769568 0.054634
0.000000 0.841479 0.089343
0.017674 0.841479 0.054634
0.098446 0.841479 0.054634
0.183487 0.841479 0.054634
0.264050 0.841479 0.054634
0.342003 0.841479 0.054634
0.418250 0.841479 0.054634
0.493348 0.841479 0.054634
0.567536 0.841479 0.054634
0.640849 0.841479 0.054634
0.713516 0.841479 0.054634
0.785681 0.841479 0.054634
0.857204 0.841479 0.054634
0.927635 0.841479 0.054634
0.979464 0.836433 0.054634
1.013120 0.826724 0.054634
0.000000 0.893649 0.088789
0.017674 0.893649 0.054634
0.097509 0.893649 0.054634
0.181898 0.893649 0.054634
0.261966 0.893649 0.054634
0.339383 0.893649 0.054634
0.415230 0.893649 0.054634
0.489801 0.893649 0.054634
0.563456 0.893649 0.054634
0.636420 0.893649 0.054634
0.708581 0.893649 0.054634
0.780263 0.893649 0.054634
0.851352 0.893649 0.054634
0.921702 0.893649 0.054634
0.979464 0.893649 0.054634
1.013120 0.883455 0.054634
0.000000 0.939916 0.087742
0.017674 0.939916 0.054634
0.095773 0.939916 0.054634
0.179020 0.939916 0.054634
0.258088 0.939916 0.054634
0.334607 0.939916 0.054634
0.409490 0.939916 0.054634
0.483213 0.939916 0.054634
0.556021 0.939916 0.054634
0.628049 0.939916 0.054634
0.699349 0.939916 0.054634
0.770292 0.939916 0.054634
0.840394 0.939916 0.054634
0.910381 0.939916 0.054634
0.970720 0.939916 0.054634
1.013120 0.939916 0.054634
0.000000 0.026505 0.120107
0.022419 0.026505 0.120107
0.062222 0.026505 0.120107
0.129845 0.026505 0.131041
0.207707 0.026505 0.139389
0.287901 0.026505 0.146231
0.370214 0.026505 0.152096
0.454290 0.026505 0.157184
0.540120 0.026505 0.161764
0.625355 0.026505 0.165417
0.706887 0.026505 0.167719
0.784981 0.026505 0.169030
0.858788 0.026505 0.169485
0.927635 0.026505 0.169220
0.979464 0.026505 0.168166
1.013120 0.026505 0.166215
0.000000 0.078310 0.120107
0.017674 0.070863 0.120107
0.062222 0.070863 0.120107
0.129845 0.070863 0.128065
0.207707 0.070863 0.134664
0.287901 0.070863 0.140294
0.370214 0.070863 0.145246
0.454290 0.070863 0.149615
0.540120 0.070863 0.153575
0.625355 0.070863 0.156777
0.706887 0.070863 0.158784
0.784981 0.070863 0.159908
0.858788 0.070863 0.160311
0.927635 0.070863 0.160043
0.979464 0.070863 0.159100
1.013120 0.070863 0.157334
0.000000 0.126850 0.120107
0.017674 0.126850 0.120107
0.062222 0.126850 0.120107
0.129845 0.126850 0.120107
0.207707 0.126850 0.120107
0.287901 0.126850 0.120107
0.370214 0.126850 0.120107
0.454290 0.126850 0.120107
0.540120 0.126850 0.120107
0.625355 0.126850 0.120107
0.706887 0.126850 0.120107
0.784981 0.126850 0.120107
0.858788 0.126850 0.120107
0.927635 0.126850 0.120107
0.979464 0.126850 0.120107
1.013120 0.126850 0.120107
0.000000 0.187355 0.131041
0.017674 0.187355 0.128065
0.062222 0.187355 0.120107
0.129845 0.187355 0.120107
0.207707 0.192658 0.120107
0.287901 0.197561 0.120107
0.370214 0.202037 0.120107
0.454290 0.206136 0.120107
0.540120 0.209944 0.120107
0.625355 0.213027 0.120107
0.706887 0.214943 0.120107
0.784981 0.216010 0.120107
0.858788 0.216314 0.120107
0.927635 0.215986 0.120107
0.979464 0.214965 0.120107
1.013120 0.213117 0.120107
0.000000 0.250802 0.139389
0.017674 0.250802 0.134664
0.062222 0.250802 0.120107
0.136394 0.250802 0.120107
0.207707 0.250802 0.120107
0.287901 0.258700 0.120107
0.370214 0.265879 0.120107
0.454290 0.272385 0.120107
0.540120 0.278386 0.120107
0.625355 0.283226 0.120107
0.706887 0.286250 0.120107
0.784981 0.287911 0.120107
0.858788 0.288415 0.120107
0.927635 0.287884 0.120107
0.979464 0.286270 0.120107
1.013120 0.283357 0.120107
0.000000 0.316505 0.146231
0.017674 0.316505 0.140294
0.062222 0.316505 0.120107
0.142400 0.316505 0.120107
0.217331 0.316505 0.120107
0.287901 0.316505 0.120107
0.370214 0.325972 0.120107
0.454290 0.334493 0.120107
0.540120 0.342360 0.120107
0.625355 0.348720 0.120107
0.706887 0.352675 0.120107
0.784981 0.354813 0.120107
0.858788 0.355493 0.120107
0.927635 0.354763 0.120107
0.979464 0.352680 0.120107
1.013120 0.348921 0.120107
0.000000 0.384077 0.152096
0.017674 0.384077 0.145246
0.062222 0.384077 0.120107
0.147932 0.384077 0.120107
0.226121 0.384077 0.120107
0.299395 0.384077 0.120107
0.370214 0.384077 0.120107
0.454290 0.394483 0.120107
0.540120 0.404074 0.120107
0.625355 0.411747 0.120107
0.706887 0.416577 0.120107
0.784981 0.419209 0.120107
0.858788 0.420005 0.120107
0.927635 0.419183 0.120107
0.979464 0.416652 0.120107
1.013120 0.412016 0.120107
0.000000 0.453077 0.157184
0.017674 0.453077 0.149615
0.062222 0.453077 0.120107
0.152955 0.453077 0.120107
0.234035 0.453077 0.120107
0.309788 0.453077 0.120107
0.382897 0.453077 0.120107
0.454290 0.453077 0.120107
0.540120 0.464303 0.120107
0.625355 0.473333 0.120107
0.706887 0.478973 0.120107
0.784981 0.481998 0.120107
0.858788 0.482948 0.120107
0.927635 0.481946 0.120107
0.979464 0.478994 0.120107
1.013120 0.473612 0.120107
0.000000 0.523483 0.161764
0.017674 0.523483 0.153575
0.062222 0.523483 0.120107
0.157618 0.523483 0.120107
0.241379 0.523483 0.120107
0.319405 0.523483 0.120107
0.394560 0.523483 0.120107
0.467954 0.523483 0.120107
0.540120 0.523483 0.120107
0.625355 0.533784 0.120107
0.706887 0.540211 0.120107
0.784981 0.543734 0.120107
0.858788 0.544761 0.120107
0.927635 0.543659 0.120107
0.979464 0.540235 0.120107
1.013120 0.534109 0.120107
0.000000 0.593438 0.165417
0.017674 0.593438 0.156777
0.062222 0.593438 0.120107
0.161407 0.593438 0.120107
0.247296 0.593438 0.120107
0.327145 0.593438 0.120107
0.404031 0.593438 0.120107
0.478964 0.593438 0.120107
0.552702 0.593438 0.120107
0.625355 0.593438 0.120107
0.706887 0.600623 0.120107
0.784981 0.604529 0.120107
0.858788 0.605749 0.120107
0.927635 0.604486 0.120107
0.979464 0.600682 0.120107
1.013120 0.593770 0.120107
0.000000 0.660244 0.167719
0.017674 0.660244 0.158784
0.062222 0.660244 0.120107
0.163780 0.660244 0.120107
0.250987 0.660244 0.120107
0.331949 0.660244 0.120107
0.409853 0.660244 0.120107
0.485820 0.660244 0.120107
0.560496 0.660244 0.120107
0.634155 0.660244 0.120107
0.706887 0.660244 0.120107
0.784981 0.664559 0.120107
0.858788 0.665929 0.120107
0.927635 0.664529 0.120107
0.979464 0.660369 0.120107
1.013120 0.652703 0.120107
0.000000 0.724145 0.169030
0.017674 0.724145 0.159908
0.062222 0.724145 0.120107
0.165070 0.724145 0.120107
0.252993 0.724145 0.120107
0.334556 0.724145 0.120107
0.413006 0.724145 0.120107
0.489538 0.724145 0.120107
0.564744 0.724145 0.120107
0.638950 0.724145 0.120107
0.712118 0.724145 0.120107
0.784981 0.724145 0.120107
0.858788 0.725613 0.120107
0.927635 0.724044 0.120107
0.979464 0.719511 0.120107
1.013120 0.711031 0.120107
0.000000 0.784540 0.169485
0.017674 0.784540 0.160311
0.062222 0.784540 0.120107
0.165468 0.784540 0.120107
0.253619 0.784540 0.120107
0.335369 0.784540 0.120107
0.413998 0.784540 0.120107
0.490670 0.784540 0.120107
0.566019 0.784540 0.120107
0.640376 0.784540 0.120107
0.713763 0.784540 0.120107
0.786677 0.784540 0.120107
0.858788 0.784540 0.120107
0.927635 0.782936 0.120107
0.979464 0.777957 0.120107
1.013120 0.768846 0.120107
0.000000 0.841479 0.169220
0.017674 0.841479 0.160043
0.062222 0.841479 0.120107
0.165053 0.841479 0.120107
0.252977 0.841479 0.120107
0.334535 0.841479 0.120107
0.412981 0.841479 0.120107
0.489503 0.841479 0.120107
0.564727 0.841479 0.120107
0.638854 0.841479 0.120107
0.712099 0.841479 0.120107
0.784879 0.841479 0.120107
0.856682 0.841479 0.120107
0.927635 0.841479 0.120107
0.979464 0.836113 0.120107
1.013120 0.826363 0.120107
0.000000 0.893649 0.168166
0.017674 0.893649 0.159100
0.062222 0.893649 0.120107
0.163791 0.893649 0.120107
0.251009 0.893649 0.120107
0.331976 0.893649 0.120107
0.409833 0.893649 0.120107
0.485851 0.893649 0.120107
0.560532 0.893649 0.120107
0.634185 0.893649 0.120107
0.706969 0.893649 0.120107
0.779255 0.893649 0.120107
0.850637 0.893649 0.120107
0.921454 0.893649 0.120107
0.979464 0.893649 0.120107
1.013120 0.883174 0.120107
0.000000 0.939916 0.166215
0.017674 0.939916 0.157334
0.062222 0.939916 0.120107
0.161509 0.939916 0.120107
0.247477 0.939916 0.120107
0.327348 0.939916 0.120107
0.404290 0.939916 0.120107
0.479270 0.939916 0.120107
0.553039 0.939916 0.120107
0.625820 0.939916 0.120107
0.697736 0.939916 0.120107
0.769055 0.939916 0.120107
0.839585 0.939916 0.120107
0.909840 0.939916 0.120107
0.970526 0.939916 0.120107
1.013120 0.939916 0.120107
0.000000 0.026505 0.189956
0.025770 0.026505 0.189956
0.071525 0.026505 0.189956
0.129845 0.026505 0.189956
0.207707 0.026505 0.201640
0.287901 0.026505 0.211123
0.370214 0.026505 0.219192
0.454290 0.026505 0.226155
0.540120 0.026505 0.232405
0.625355 0.026505 0.237349
0.706887 0.026505 0.240484
0.784981 0.026505 0.242263
0.858788 0.026505 0.242895
0.927635 0.026505 0.242520
0.979464 0.026505 0.241097
1.013120 0.026505 0.238454
0.000000 0.083225 0.189956
0.017674 0.070863 0.189956
0.068930 0.070863 0.189956
0.129845 0.070863 0.189956
0.207707 0.070863 0.200154
0.287901 0.070863 0.208755
0.370214 0.070863 0.216187
0.454290 0.070863 0.222672
0.540120 0.070863 0.228552
0.625355 0.070863 0.233252
0.706887 0.070863 0.236185
0.784981 0.070863 0.237833
0.858788 0.070863 0.238433
0.927635 0.070863 0.238043
0.979464 0.070863 0.236675
1.013120 0.070863 0.234056
0.000000 0.136244 0.189956
0.017674 0.133670 0.189956
0.062222 0.126850 0.189956
0.129845 0.126850 0.189956
0.207707 0.126850 0.195937
0.287901 0.126850 0.201370
0.370214 0.126850 0.206367
0.454290 0.126850 0.210907
0.540120 0.126850 0.215076
0.625355 0.126850 0.218445
0.706887 0.126850 0.220572
0.784981 0.126850 0.221733
0.858788 0.126850 0.222060
0.927635 0.126850 0.221708
0.979464 0.126850 0.220568
1.013120 0.126850 0.218564
0.000000 0.187355 0.189956
0.017674 0.187355 0.189956
0.062222 0.187355 0.189956
0.129845 0.187355 0.189956
0.207707 0.187355 0.189956
0.287901 0.187355 0.189956
0.370214 0.187355 0.189956
0.454290 0.187355 0.189956
0.540120 0.187355 0.189956
0.625355 0.187355 0.189956
0.706887 0.187355 0.189956
0.784981 0.187355 0.189956
0.858788 0.187355 0.189956
0.927635 0.187355 0.189956
0.979464 0.187355 0.189956
1.013120 0.187355 0.189956
0.000000 0.250802 0.201640
0.017674 0.250802 0.200154
0.062222 0.250802 0.195937
0.129845 0.250802 0.189956
0.207707 0.250802 0.189956
0.287901 0.255128 0.189956
0.370214 0.259268 0.189956
0.454290 0.263163 0.189956
0.540120 0.266886 0.189956
0.625355 0.269890 0.189956
0.706887 0.271720 0.189956
0.784981 0.272675 0.189956
0.858788 0.272856 0.189956
0.927635 0.272373 0.189956
0.979464 0.271205 0.189956
1.013120 0.269139 0.189956
0.000000 0.316505 0.211123
0.017674 0.316505 0.208755
0.062222 0.316505 0.201370
0.129845 0.316505 0.189956
0.212967 0.316505 0.189956
0.287901 0.316505 0.189956
0.370214 0.323363 0.189956
0.454290 0.329751 0.189956
0.540120 0.335804 0.189956
0.625355 0.340685 0.189956
0.706887 0.343633 0.189956
0.784981 0.345129 0.189956
0.858788 0.345458 0.189956
0.927635 0.344713 0.189956
0.979464 0.342761 0.189956
1.013120 0.339482 0.189956
0.000000 0.384077 0.219192
0.017674 0.384077 0.216187
0.062222 0.384077 0.206367
0.129845 0.384077 0.189956
0.218033 0.384077 0.189956
0.296250 0.384077 0.189956
0.370214 0.384077 0.189956
0.454290 0.392494 0.189956
0.540120 0.400449 0.189956
0.625355 0.406891 0.189956
0.706887 0.410705 0.189956
0.784981 0.412711 0.189956
0.858788 0.413155 0.189956
0.927635 0.412137 0.189956
0.979464 0.409602 0.189956
1.013120 0.405280 0.189956
0.000000 0.453077 0.226155
0.017674 0.453077 0.222672
0.062222 0.453077 0.210907
0.129845 0.453077 0.189956
0.222778 0.453077 0.189956
0.304007 0.453077 0.189956
0.380481 0.453077 0.189956
0.454290 0.453077 0.189956
