luts/TJTOP_2383_V1_FOR_LOG.cube
LUT_3D_SIZE 5
0.0265965 0.027924 0.0330968
0.186313 0.0534066 0.00285344
0.620523 0 0
0.676478 0 0
0.676478 0 0
0 0.0905623 0.0595254
0.10071 0.104036 0.049134
0.617563 0.0642863 0
0.729107 0.00859083 0
0.71928 0 0
0 0.346685 0
0 0.371557 0.000946059
0.596399 0.514931 0
0.868498 0.483818 0
0.857725 0.413153 0
0 0.472816 0
0 0.521157 0
0.29633 0.826566 0
0.871489 0.860945 0
0.873121 0.840375 0
0 0.509224 0
0 0.549355 0
0 0.809781 0
0.850034 0.915496 0
0.868574 0.912886 0
0 0 0.217716
0.183673 0.0126497 0.201053
0.646983 0 0.169131
0.708324 0 0.125399
0.70457 0 0.0523995
0 0.101717 0.155901
0.0548257 0.108232 0.116411
0.604303 3.0518e-05 0.0061799
0.739712 0 0
0.726253 0 0
0 0.378149 0.100404
0 0.377646 0.0717937
0.544594 0.499031 0
0.864057 0.464958 0
0.854459 0.394369 0
0 0.492592 0.00862135
0 0.520363 0
0.209491 0.822385 0
0.872099 0.859373 0
0.874464 0.833112 0
0 0.52784 0
0 0.548424 0
0 0.79617 0
0.824353 0.91577 0
0.868574 0.912108 0
0 0 0.519997
0.156237 0 0.56553
0.70222 0 0.624231
0.766781 0 0.607355
0.761471 0 0.571603
0 0 0.558328
0 0.0184939 0.537896
0.616831 0 0.569436
0.784344 0 0.524544
0.773938 0 0.457664
0 0.443137 0.638636
0 0.434714 0.580484
0.436332 0.514488 0.532967
0.834714 0.463478 0.44625
0.830762 0.3897 0.349096
0 0.599557 0.554162
0 0.622797 0.470222
0 0.854826 0.359609
0.888457 0.891966 0.0239261
0.894652 0.859281 0
0 0.626307 0.451728
0 0.641398 0.389517
0 0.837858 0.310475
0.756085 0.943999 0.00787366
0.863798 0.92488 0
0 0 0.585916
0.112032 0 0.652964
0.701946 0 0.742901
0.786648 0 0.757397
0.786648 0 0.757397
0 0 0.652003
0 0.121752 0.683757
0.582025 0.118914 0.778073
0.790509 0.0873732 0.774899
0.793652 0 0.745815
0 0.446983 0.82208
0 0.438056 0.814389
0.31809 0.549111 0.880919
0.826322 0.494682 0.872221
0.833402 0.4168 0.8318
0 0.615671 0.861875
0 0.639704 0.851774
0 0.869963 0.903899
0.907088 0.923568 0.914473
0.98854 0.898604 0.871275
0 0.653819 0.85568
0 0.666239 0.836072
0 0.866545 0.860166
0.687648 0.992569 0.851774
0.999359 0.994278 0.788846
0 0 0.585916
0.0294499 0 0.647364
0.683558 0 0.742092
0.786648 0 0.757397
0.786648 0 0.757397
0 0 0.647852
0 0.0872969 0.672007
0.544732 0.094728 0.771664
0.790951 0.0460059 0.783062
0.791577 0 0.771466
0 0.426764 0.818799
0 0.410101 0.812726
0.247669 0.52134 0.888716
0.810803 0.484764 0.898878
0.825376 0.439689 0.880751
0 0.611627 0.873564
0 0.631449 0.866911
0 0.854047 0.939956
0.881865 0.912108 0.987381
0.982605 0.885496 0.983612
0 0.657374 0.890806
0 0.664363 0.890806
0 0.857908 0.940002
0.614328 0.992004 0.994598
0.996628 0.996475 0.997024
