luts/TJTOP_2383_V1_FOR_LOG.cube
LUT_3D_SIZE 33
0.0265965 0.027924 0.0330968
0.0283818 0.0290837 0.0350195
0.0322728 0.030396 0.0364385
0.0383307 0.0322881 0.0370642
0.0490272 0.034638 0.0370031
0.0721141 0.039353 0.0368811
0.0955062 0.0454566 0.0345006
0.139254 0.0500954 0.0278477
0.186313 0.0534066 0.00285344
0.242756 0.0546273 0
0.316075 0.0495155 0
0.387442 0.0328679 0
0.452796 0.000411994 0
0.512474 0 0
0.558846 0 0
0.593561 0 0
0.620523 0 0
0.639933 0 0
0.654261 0 0
0.664683 0 0
0.672099 0 0
0.676478 0 0
0.676478 0 0
0.676478 0 0
0.676478 0 0
0.676478 0 0
0.676478 0 0
0.676478 0 0
0.676478 0 0
0.676478 0 0
0.676478 0 0
0.676478 0 0
0.676478 0 0
0.0261997 0.030518 0.0346075
0.027512 0.0311437 0.0356756
0.0301061 0.0319524 0.0370642
0.0374609 0.0333562 0.0375677
0.0439612 0.0352789 0.0374914
0.0659953 0.0391089 0.0375219
0.0867475 0.0450752 0.0355535
0.124163 0.0496071 0.0301671
0.171435 0.0531472 0.00582895
0.223499 0.0543832 0
0.292317 0.0513313 0
0.365515 0.0382086 0
0.432776 0.000762951 0
0.494652 0 0
0.545846 0 0
0.583627 0 0
0.612741 0 0
0.634623 0 0
0.650065 0 0
0.662013 0 0
0.669917 0 0
0.676478 0 0
0.676478 0 0
0.676478 0 0
0.676478 0 0
0.676478 0 0
0.676478 0 0
0.676478 0 0
0.676478 0 0
0.676478 0 0
0.676478 0 0
0.676478 0 0
0.676478 0 0
0.0254368 0.0329137 0.0361028
0.0265354 0.03299 0.0365301
0.0281987 0.0335088 0.0378271
0.0352789 0.0347753 0.038468
0.0406653 0.0369116 0.0386816
0.0601816 0.0403296 0.0386053
0.0830396 0.0466773 0.0372015
0.113024 0.0521401 0.0326238
0.162692 0.0551614 0.0143587
0.211307 0.0564736 0
0.277241 0.055375 0
0.350622 0.0452583 0
0.418616 0.0018616 0
0.481193 0 0
0.535485 0 0
0.575113 0 0
0.605203 0 0
0.628367 0 0
0.645792 0 0
0.658503 0 0
0.667704 0 0
0.674769 0 0
0.676478 0 0
0.676478 0 0
0.676478 0 0
0.676478 0 0
0.676478 0 0
0.676478 0 0
0.676478 0 0
0.676478 0 0
0.676478 0 0
0.676478 0 0
0.676478 0 0
0.0215763 0.0377508 0.0381323
0.0224308 0.0374304 0.0380102
0.0259709 0.0375525 0.0392309
0.0314183 0.0380865 0.0397498
0.0379644 0.0398566 0.0400702
0.0523079 0.0429236 0.0400854
0.0787366 0.0488136 0.03888
0.104417 0.0543374 0.0352483
0.151934 0.0570535 0.0252537
0.202823 0.0585184 0.000610361
0.262837 0.0584115 0
0.337407 0.0520943 0
0.408759 0.0214847 0
0.474022 0 0
0.532692 0 0
0.576852 0 0
0.608881 0 0
0.633341 0 0
0.650263 0 0
0.66247 0 0
0.671061 0 0
0.677012 0 0
0.679683 0 0
0.678508 0 0
0.677302 0 0
0.676478 0 0
0.676478 0 0
0.676478 0 0
0.676478 0 0
0.676478 0 0
0.676478 0 0
0.676478 0 0
0.676478 0 0
0.0193179 0.0428321 0.0408484
0.0194247 0.0425574 0.0404059
0.023331 0.043061 0.0412757
0.0283818 0.0437171 0.0419318
0.0365606 0.0452888 0.0421302
0.0454108 0.0482948 0.0420844
0.0733806 0.0532082 0.0408484
0.0961013 0.0586862 0.0381628
0.139651 0.0618906 0.0294041
0.193332 0.064622 0.00173953
0.251057 0.0649119 0
0.323217 0.0601053 0
0.39791 0.0446784 0
0.464286 0.00169375 0
0.528038 6.10361e-05 0
0.577157 0 0
0.612207 0 0
0.63801 0 0
0.656977 0 0
0.669383 0 0
0.678859 0 0
0.68484 0 0
0.689403 0 0
0.688228 0 0
0.687083 0 0
0.685908 0 0
0.684718 0 0
0.683558 0 0
0.682353 0 0
0.681178 0 0
0.679973 0 0
0.678752 0 0
0.677577 0 0
0.0112917 0.0488746 0.0440375
0.0126192 0.0479133 0.0434882
0.0161135 0.0479744 0.0437934
0.0232242 0.0480812 0.0444648
0.0349889 0.0494087 0.0447089
0.0421759 0.0523384 0.0450752
0.0666056 0.0570535 0.043534
0.0925002 0.0632486 0.0415198
0.126665 0.0676738 0.0347143
0.183612 0.0720226 0.00846876
0.238987 0.0756237 0
0.309773 0.0728923 0
0.387076 0.0644236 0
0.455589 0.0350042 0
0.520409 7.62951e-05 0
0.576776 1.5259e-05 0
0.614969 0 0
0.643107 0 0
0.663127 0 0
0.676936 0 0
0.686427 0 0
0.693004 0 0
0.697993 0 0
0.697963 0 0
0.696757 0 0
0.695583 0 0
0.694377 0 0
0.693202 0 0
0.692012 0 0
0.690822 0 0
0.689677 0 0
0.688502 0 0
0.687327 0 0
0 0.0615244 0.0489509
0 0.0596017 0.0480354
0.000228885 0.058381 0.0474708
0.00436408 0.057496 0.047837
0.0198672 0.0580148 0.0477913
0.0356756 0.0594339 0.0480812
0.0552834 0.0631571 0.0469062
0.0874037 0.069398 0.0454566
0.11809 0.0745708 0.0389868
0.172564 0.0790723 0.0225681
0.229618 0.0828107 9.15541e-05
0.295903 0.0829786 0
0.374807 0.0777905 0
0.448753 0.0627146 0
0.513054 0.0205539 0
0.573754 1.5259e-05 0
0.618387 0 0
0.648127 0 0
0.670436 0 0
0.685008 0 0
0.695201 0 0
0.702174 0 0
0.706752 0 0
0.708461 0 0
0.707149 0 0
0.705852 0 0
0.70454 0 0
0.703227 0 0
0.701946 0 0
0.700618 0 0
0.699413 0 0
0.698238 0 0
0.697032 0 0
0 0.0760967 0.054612
0 0.0742504 0.0538491
0 0.0728618 0.0530861
0 0.0718395 0.052781
0.000411994 0.0719615 0.0521248
0.0123751 0.0737011 0.0517739
0.0380102 0.0770428 0.0509957
0.0778821 0.0827802 0.048661
0.107362 0.0881666 0.0439307
0.159457 0.0926375 0.0309911
0.219959 0.0968032 0.00138857
0.283742 0.0989242 0
0.361532 0.0959029 0
0.44033 0.0875105 0
0.507179 0.0648051 0
0.568399 0.0204776 0
0.618173 0.00726329 0
0.652644 0.00135805 0
0.676646 0 0
0.693767 0 0
0.70454 0.000106813 0
0.712169 0 0
0.716899 0 0
0.720302 0 0
0.718929 0 0
0.717449 0 0
0.715999 0 0
0.714519 0 0
0.713039 0 0
0.711604 0 0
0.710124 0 0
0.708766 0 0
0.707454 0 0
0 0.0905623 0.0595254
0 0.0882124 0.058793
0 0.0867628 0.0580606
0 0.085832 0.0577707
0 0.0857404 0.0574807
0 0.0873732 0.0564126
0.00787366 0.090898 0.0554513
0.0657664 0.0971084 0.0534524
0.10071 0.104036 0.049134
0.145144 0.109651 0.0365148
0.209644 0.115969 0.00268559
0.272602 0.121248 0
0.348577 0.122637 0
0.430823 0.119097 0
0.502327 0.107683 0
0.564996 0.0888838 0
0.617563 0.0642863 0
0.652766 0.0384222 0
0.679332 0.0207675 0
0.698848 0.0143893 0
0.711498 0.0129702 0
0.719432 0.0108034 0
0.724788 0.0125124 0
0.729198 0.0108644 0
0.729107 0.00859083 0
0.728298 0.00639353 0
0.727001 0.00411994 0
0.725734 0.00184634 0
0.724437 0 0
0.723171 0 0
0.721874 0 0
0.720577 0 0
0.71928 0 0
0 0.113176 0.0633402
0 0.10956 0.0628214
0 0.106493 0.0622873
0 0.104707 0.0619974
0 0.103746 0.0620279
0 0.104341 0.0610208
0 0.106783 0.0599527
0.0287327 0.112139 0.0575418
0.0900282 0.119173 0.0538338
0.13193 0.126055 0.0435645
0.197681 0.133593 0.0145876
0.262501 0.141756 0
0.335973 0.146471 0
0.42031 0.146914 0
0.498207 0.14168 0
0.563836 0.131395 0
0.619684 0.120119 0
0.660334 0.105364 0
0.686397 0.0879377 0
0.705806 0.0796368 0
0.718715 0.0791333 0
0.727871 0.0853285 0
0.733837 0.089128 0
0.737514 0.0817578 0
0.738201 0.0701152 0
0.736385 0.0587778 0
0.734569 0.0471351 0
0.733333 0.0354925 0
0.732525 0.0241703 0
0.731701 0.0147402 0
0.730907 0.0124819 0
0.730098 0.0102693 0
0.729274 0.00799573 0
0 0.142016 0.066804
0 0.138247 0.0662394
0 0.134386 0.0657206
0 0.132189 0.0652628
0 0.13051 0.0654612
0 0.1308 0.0649119
0 0.132311 0.0640879
0 0.136797 0.0601358
0.0521096 0.143999 0.0553902
0.110979 0.150668 0.0448005
0.17911 0.158801 0.0107271
0.250141 0.168521 0
0.323323 0.174609 0
0.407416 0.177264 0
0.492164 0.17435 0
0.562158 0.166217 0
0.622873 0.157214 0
0.667552 0.149432 0
0.697826 0.142855 0
0.718166 0.140215 0
0.732815 0.140032 0
0.741878 0.14139 0
0.748486 0.143893 0
0.752392 0.143038 0
0.754559 0.135607 0
0.752377 0.128161 0
0.750149 0.120912 0
0.747921 0.113481 0
0.7458 0.106233 0
0.743984 0.0988022 0
0.742168 0.0900282 0
0.740398 0.0786908 0
0.738582 0.0670481 0
0 0.171908 0.0695659
0 0.168048 0.0697032
0 0.16408 0.0696117
0 0.161837 0.0690013
0 0.160327 0.0688182
0 0.160952 0.0683604
0 0.163226 0.0668193
0 0.167895 0.0632944
0 0.176562 0.0554208
0.0767376 0.185702 0.0413214
0.151843 0.195926 0.0093843
0.23299 0.207553 0
0.309804 0.215381 0
0.393194 0.219837 0
0.482185 0.219104 0
0.559838 0.212421 0
0.623331 0.204242 0
0.67538 0.195422 0
0.708507 0.189044 0
0.731487 0.185245 0
0.747448 0.183917 0
0.757671 0.184375 0
0.764691 0.186557 0
0.769314 0.186816 0
0.772869 0.180423 0
0.770977 0.174838 0
0.768704 0.169406 0
0.766369 0.163821 0
0.764096 0.158373 0
0.761761 0.152789 0
0.759487 0.147204 0
0.757321 0.141085 0
0.755077 0.133639 0
0 0.203998 0.0680705
0 0.199741 0.0684062
0 0.195361 0.0687419
0 0.19266 0.0690318
0 0.191104 0.0693065
0 0.191699 0.0696269
0 0.194827 0.0681315
0 0.199878 0.0652323
0 0.20943 0.0551919
0 0.22118 0.0333562
0.112795 0.234974 0.0011902
0.20943 0.249622 0
0.293095 0.260502 0
0.377722 0.267628 0
0.470756 0.270436 0
0.555993 0.26688 0
0.625132 0.260609 0
0.681041 0.253559 0
0.720913 0.246601 0
0.745678 0.241535 0
0.763439 0.238834 0
0.774792 0.237827 0
0.782086 0.23859 0
0.787167 0.239429 0
0.790524 0.231556 0
0.790463 0.223987 0
0.788113 0.217594 0
0.785702 0.211017 0
0.783307 0.20444 0
0.780957 0.198047 0
0.778546 0.191485 0
0.77615 0.185077 0
0.773877 0.178958 0
0 0.240452 0.0627298
0 0.235645 0.063859
0 0.230701 0.0649729
0 0.227131 0.0661021
0 0.225528 0.067155
0 0.225834 0.0675975
0 0.229206 0.0656138
0 0.235035 0.0621195
0 0.24477 0.0495003
0 0.258717 0.0106813
0.025452 0.275898 0.000595102
0.170855 0.293263 0
0.270237 0.306462 0
0.358206 0.316335 0
0.453391 0.321477 0
0.549615 0.320745 0
0.62388 0.315999 0
0.686809 0.309987 0
0.73164 0.303334 0
0.761166 0.298497 0
0.780499 0.29601 0
0.793622 0.295613 0
0.801511 0.296529 0
0.80705 0.298238 0
0.810437 0.29221 0
0.811826 0.284321 0
0.80914 0.276631 0
0.806577 0.268696 0
0.803922 0.260777 0
0.801282 0.253056 0
0.798703 0.245121 0
0.796063 0.237186 0
0.793484 0.229465 0
0 0.279393 0.0535592
0 0.274281 0.0550546
0 0.269291 0.0565194
0 0.264973 0.0579843
0 0.263798 0.0594492
0 0.264332 0.0603037
0 0.268086 0.0595254
0 0.274846 0.0542306
0 0.285374 0.0313268
0 0.302342 0.00132753
0 0.321767 3.0518e-05
0.0913405 0.342061 0
0.234165 0.358358 0
0.331701 0.370031 0
0.430686 0.377691 0
0.534371 0.379156 0
0.619715 0.375265 0
0.686748 0.36968 0
0.7402 0.362615 0
0.774014 0.356649 0
0.796384 0.353613 0
0.811704 0.352941 0
0.82089 0.354223 0
0.827085 0.35668 0
0.830839 0.352712 0
0.833844 0.344793 0
0.831357 0.337087 0
0.828717 0.329168 0
0.826047 0.321279 0
0.823301 0.313603 0
0.82063 0.305715 0
0.817884 0.297826 0
0.815152 0.290135 0
0 0.315557 0.0318608
0 0.31104 0.0379644
0 0.306447 0.0408484
0 0.301732 0.0437324
0 0.301717 0.0466011
0 0.302617 0.0478828
0 0.307851 0.0476539
0 0.316304 0.0320287
0 0.330098 0.0119326
0 0.349477 0.000350958
0 0.371359 0
0 0.395041 0
0.181949 0.416083 0
0.297139 0.431113 0
0.402228 0.441718 0
0.514809 0.445258 0
0.609644 0.442802 0
0.684337 0.4374 0
0.743633 0.429801 0
0.784543 0.422446 0
0.81001 0.417975 0
0.827604 0.415656 0
0.838651 0.415839 0
0.845472 0.417624 0
0.850034 0.415396 0
0.852872 0.406897 0
0.852323 0.398627 0
0.849867 0.390127 0
0.847486 0.381903 0
0.844923 0.374197 0
0.842298 0.366262 0
0.83975 0.358343 0
0.83714 0.350637 0
0 0.346685 0
0 0.342763 0
0 0.338811 0.000289921
0 0.334722 0.00715648
0 0.335012 0.0140383
0 0.336843 0.0199741
0 0.343404 0.0221408
0 0.354223 0.00215152
0 0.371557 0.000946059
0 0.393576 0
0 0.418357 0
0 0.44593 0
0.095964 0.471977 0
0.254551 0.492164 0
0.369146 0.507027 0
0.48687 0.514809 0
0.596399 0.514931 0
0.677134 0.510689 0
0.744152 0.503426 0
0.791821 0.495155 0
0.822171 0.489647 0
0.842374 0.486534 0
0.855634 0.484718 0
0.863401 0.484962 0
0.868498 0.483818 0
0.871244 0.474556 0
0.87216 0.465553 0
0.869749 0.456291 0
0.867338 0.447044 0
0.864973 0.438422 0
0.862547 0.429923 0
0.860105 0.421439 0
0.857725 0.413153 0
0 0.376532 0
0 0.372702 0
0 0.368963 0
0 0.365057 0
0 0.36524 0
0 0.368017 0
0 0.375006 0
0 0.387839 0
0 0.405661 0
0 0.430503 0
0 0.457969 0
0 0.488823 0
0 0.520012 0
0.198169 0.545495 0
0.331075 0.56553 0
0.453666 0.578653 0
0.571664 0.582574 0
0.665003 0.581262 0
0.738079 0.575509 0
0.794659 0.567407 0
0.830549 0.561929 0
0.853941 0.558968 0
0.870115 0.557061 0
0.879454 0.556527 0
0.885817 0.556252 0
0.889387 0.546792 0
0.891707 0.537224 0
0.889372 0.527901 0
0.886976 0.518334 0
0.884581 0.509026 0
0.882246 0.499641 0
0.87985 0.490394 0
0.877501 0.481376 0
0 0.4038 0
0 0.400641 0
0 0.397574 0
0 0.39443 0
0 0.393866 0
0 0.397711 0
0 0.405631 0
0 0.41883 0
0 0.437583 0
0 0.463676 0
0 0.493751 0
0 0.526436 0
0 0.561944 0
0.0865797 0.591516 0
0.287098 0.615854 0
0.415396 0.632914 0
0.541695 0.641245 0
0.645151 0.643061 0
0.726207 0.639872 0
0.790616 0.633143 0
0.834104 0.628016 0
0.861509 0.625528 0
0.879927 0.62385 0
0.888792 0.623667 0
0.893507 0.624262 0
0.894286 0.617044 0
0.894362 0.608057 0
0.89453 0.599283 0
0.894759 0.590295 0
0.894987 0.581292 0
0.895216 0.572534 0
0.89546 0.563149 0
0.895689 0.553826 0
0 0.424582 0
0 0.422263 0
0 0.420005 0
0 0.4177 0
0 0.417197 0
0 0.422736 0
0 0.431281 0
0 0.445197 0
0 0.46508 0
0 0.492073 0
0 0.524773 0
0 0.559869 0
0 0.598703 0
0 0.633341 0
0.235019 0.661707 0
0.373388 0.683482 0
0.504143 0.696284 0
0.621164 0.70106 0
0.708751 0.700999 0
0.780926 0.695476 0
0.832578 0.68983 0
0.865278 0.685527 0
0.883253 0.682033 0
0.887449 0.679088 0
0.888151 0.677791 0
0.888579 0.673167 0
0.888869 0.666239 0
0.889296 0.659495 0
0.889998 0.652567 0
0.890715 0.645624 0
0.891432 0.63888 0
0.892134 0.631952 0
0.892851 0.623682 0
0 0.439384 0
0 0.437659 0
0 0.435981 0
0 0.434256 0
0 0.432532 0
0 0.440681 0
0 0.449561 0
0 0.464759 0
0 0.484749 0
0 0.512688 0
0 0.547234 0
0 0.584405 0
0 0.626856 0
0 0.666484 0
0.173327 0.699016 0
0.329366 0.72636 0
0.463966 0.743572 0
0.5897 0.752804 0
0.687724 0.756329 0
0.766094 0.754086 0
0.8262 0.747692 0
0.865141 0.740276 0
0.881041 0.734661 0
0.882124 0.730251 0
0.88275 0.727962 0
0.883223 0.724041 0
0.883528 0.717494 0
0.883833 0.71104 0
0.884413 0.704402 0
0.885023 0.69778 0
0.88571 0.69131 0
0.886397 0.684688 0
0.887068 0.67805 0
0 0.450538 0
0 0.449165 0
0 0.447791 0
0 0.446448 0
0 0.445075 0
0 0.452537 0
0 0.462516 0
0 0.477821 0
0 0.497688 0
0 0.525429 0
0 0.560479 0
0 0.599344 0
0 0.642969 0
0 0.687022 0
0.0772869 0.724071 0
0.283543 0.756039 0
0.421698 0.778515 0
0.55433 0.792035 0
0.662104 0.799283 0
0.746731 0.801312 0
0.814588 0.794965 0
0.860105 0.786801 0
0.877043 0.781476 0
0.87808 0.777203 0
0.87863 0.77435 0
0.879042 0.771481 0
0.879347 0.766155 0
0.879561 0.76025 0
0.879957 0.753887 0
0.880385 0.747509 0
0.880827 0.741314 0
0.881407 0.734936 0
0.881971 0.728557 0
0 0.459861 0
0 0.458671 0
0 0.457481 0
0 0.456306 0
0 0.455116 0
0 0.461295 0
0 0.472175 0
0 0.487312 0
0 0.507134 0
0 0.53344 0
0 0.568414 0
0 0.607782 0
0 0.651514 0
0 0.698177 0
0 0.739101 0
0.231037 0.774487 0
0.378637 0.802029 0
0.514412 0.818647 0
0.633463 0.829374 0
0.723857 0.834073 0
0.798093 0.82884 0
0.851911 0.822248 0
0.874464 0.817624 0
0.875135 0.813962 0
0.875578 0.811429 0
0.875898 0.809476 0
0.876188 0.805417 0
0.876387 0.80145 0
0.876661 0.796414 0
0.877012 0.791089 0
0.877348 0.785916 0
0.877699 0.780591 0
0.878111 0.775265 0
0 0.466972 0
0 0.466224 0
0 0.465263 0
0 0.464332 0
0 0.463386 0
0 0.467903 0
0 0.480095 0
0 0.495506 0
0 0.514992 0
0 0.539956 0
0 0.573907 0
0 0.612924 0
0 0.656229 0
0 0.704204 0
0 0.747433 0
0.181186 0.786068 0
0.336568 0.816648 0
0.473472 0.837293 0
0.600549 0.850538 0
0.699062 0.857755 0
0.778683 0.854337 0
0.839445 0.848951 0
0.870909 0.844999 0
0.872831 0.84181 0
0.873274 0.83946 0
0.873579 0.837766 0
0.873808 0.834836 0
0.873991 0.831601 0
0.874174 0.828458 0
0.874449 0.824506 0
0.874723 0.820539 0
0.874983 0.816464 0
0.875257 0.81239 0
0 0.472816 0
0 0.472007 0
0 0.471214 0
0 0.470481 0
0 0.469734 0
0 0.472007 0
0 0.486046 0
0 0.501839 0
0 0.521157 0
0 0.545525 0
0 0.577554 0
0 0.616419 0
0 0.658518 0
0 0.706859 0
0 0.752163 0
0.0973068 0.792676 0
0.29633 0.826566 0
0.433707 0.850416 0
0.565515 0.865827 0
0.672068 0.876219 0
0.756558 0.874311 0
0.824659 0.869245 0
0.865476 0.865919 0
0.871107 0.863096 0
0.871489 0.860945 0
0.871778 0.859495 0
0.871977 0.857404 0
0.872099 0.854902 0
0.872236 0.852445 0
0.87245 0.849943 0
0.872679 0.846845 0
0.872892 0.84361 0
0.873121 0.840375 0
0 0.479637 0
0 0.478614 0
0 0.477562 0
0 0.476585 0
0 0.475792 0
0 0.474983 0
0 0.490929 0
0 0.507134 0
0 0.52668 0
0 0.549538 0
0 0.580255 0
0 0.617838 0
0 0.659037 0
0 0.706569 0
0 0.753643 0
0.00933852 0.794903 0
0.256168 0.831998 0
0.39617 0.858244 0
0.528328 0.87631 0
0.643839 0.88867 0
0.732845 0.88957 0
0.806165 0.885206 0
0.8607 0.882338 0
0.869886 0.880156 0
0.870253 0.878202 0
0.870497 0.876768 0
0.870695 0.87509 0
0.870817 0.872969 0
0.870909 0.870909 0
0.871015 0.868788 0
0.871183 0.866667 0
0.871336 0.86421 0
0.871504 0.861708 0
0 0.48838 0
0 0.487175 0
0 0.485939 0
0 0.484733 0
0 0.483543 0
0 0.48249 0
0 0.496605 0
0 0.513832 0
0 0.533364 0
0 0.554757 0
0 0.583291 0
0 0.618906 0
0 0.659113 0
0 0.70489 0
0 0.752041 0
0 0.794293 0
0.225162 0.832486 0
0.36257 0.861662 0
0.492348 0.881971 0
0.613199 0.896071 0
0.707759 0.900191 0
0.786114 0.896544 0
0.845777 0.893858 0
0.868971 0.891905 0
0.869368 0.890471 0
0.869596 0.889403 0
0.869764 0.888289 0
0.869886 0.886778 0
0.869947 0.885328 0
0.870008 0.883818 0
0.8701 0.882322 0
0.870207 0.880827 0
0.870344 0.878706 0
0 0.498085 0
0 0.496834 0
0 0.495537 0
0 0.494255 0
0 0.492988 0
0 0.491722 0
0 0.503288 0
0 0.522316 0
0 0.542107 0
