luts/TJTOP_2383_V1_FOR_LOG.cube
LUT_3D_SIZE 9
0.0265965 0.027924 0.0330968
0.0490272 0.034638 0.0370031
0.186313 0.0534066 0.00285344
0.452796 0.000411994 0
0.620523 0 0
0.672099 0 0
0.676478 0 0
0.676478 0 0
0.676478 0 0
0.0193179 0.0428321 0.0408484
0.0365606 0.0452888 0.0421302
0.139651 0.0618906 0.0294041
0.39791 0.0446784 0
0.612207 0 0
0.678859 0 0
0.687083 0 0
0.682353 0 0
0.677577 0 0
0 0.0905623 0.0595254
0 0.0857404 0.0574807
0.10071 0.104036 0.049134
0.348577 0.122637 0
0.617563 0.0642863 0
0.711498 0.0129702 0
0.729107 0.00859083 0
0.724437 0 0
0.71928 0 0
0 0.203998 0.0680705
0 0.191104 0.0693065
0 0.20943 0.0551919
0.293095 0.260502 0
0.625132 0.260609 0
0.763439 0.238834 0
0.790524 0.231556 0
0.783307 0.20444 0
0.773877 0.178958 0
0 0.346685 0
0 0.335012 0.0140383
0 0.371557 0.000946059
0.095964 0.471977 0
0.596399 0.514931 0
0.822171 0.489647 0
0.868498 0.483818 0
0.867338 0.447044 0
0.857725 0.413153 0
0 0.439384 0
0 0.432532 0
0 0.484749 0
0 0.626856 0
0.463966 0.743572 0
0.8262 0.747692 0
0.88275 0.727962 0
0.884413 0.704402 0
0.887068 0.67805 0
0 0.472816 0
0 0.469734 0
0 0.521157 0
0 0.658518 0
0.29633 0.826566 0
0.756558 0.874311 0
0.871489 0.860945 0
0.872236 0.852445 0
0.873121 0.840375 0
0 0.507713 0
0 0.5028 0
0 0.551934 0
0 0.662623 0
0.16257 0.829175 0
0.656153 0.912383 0
0.86836 0.905516 0
0.868894 0.902907 0
0.869062 0.899748 0
0 0.509224 0
0 0.509224 0
0 0.549355 0
0 0.652644 0
0 0.809781 0
0.526329 0.911513 0
0.850034 0.915496 0
0.868376 0.91339 0
0.868574 0.912886 0
0.0134737 0.0302129 0.0634623
0.0435187 0.0366827 0.0589761
0.185336 0.0543832 0.0440681
0.451469 0 0
0.629404 0 0
0.683711 0 0
0.688258 0 0
0.686687 0 0
0.685481 0 0
0.00355535 0.045716 0.0560311
0.0344396 0.0466011 0.0546883
0.129183 0.0619821 0.0437476
0.386618 0.0087892 0
0.611124 0 0
0.682155 0 0
0.691279 0 0
0.685023 0 0
0.680583 0 0
0 0.0927596 0.0665599
0 0.0869001 0.0612192
0.0953841 0.10277 0.0532082
0.329503 0.115145 0
0.605615 0.0443122 0
0.709514 0 0
0.728191 0.00448615 0
0.721309 0 0
0.715373 0 0
0 0.205524 0.0717327
0 0.190188 0.0694896
0 0.204242 0.0576944
0.271656 0.25005 0
0.60116 0.249454 0
0.751812 0.22443 0
0.782757 0.219318 0
0.77702 0.193378 0
0.767727 0.169406 0
0 0.34699 0
0 0.33164 0.0235294
0 0.358907 0.00410468
0.0411994 0.454139 0
0.56643 0.497215 0
0.809308 0.472358 0
0.860441 0.467979 0
0.861006 0.432395 0
0.851347 0.398627 0
0 0.437476 0
0 0.429206 0
0 0.47567 0
0 0.611383 0
0.43061 0.730617 0
0.811322 0.735027 0
0.884382 0.71606 0
0.886152 0.693233 0
0.888884 0.666423 0
0 0.471443 0
0 0.468482 0
0 0.515419 0
0 0.648478 0
0.255497 0.818402 0
0.736522 0.87129 0
0.8719 0.856458 0
0.872847 0.8477 0
0.873747 0.834928 0
0 0.505623 0
0 0.500664 0
0 0.545068 0
0 0.653925 0
0.0873426 0.822141 0
0.63212 0.911238 0
0.868376 0.904448 0
0.869001 0.901549 0
0.8692 0.898039 0
0 0.509224 0
0 0.509224 0
0 0.545449 0
0 0.647181 0
0 0.803723 0
0.497551 0.909148 0
0.837812 0.915618 0
0.868345 0.91339 0
0.868574 0.91249 0
0 0 0.217716
0 0.00015259 0.202976
0.183673 0.0126497 0.201053
0.462867 0 0.191714
0.646983 0 0.169131
0.703243 0 0.152148
0.708324 0 0.125399
0.706615 0 0.0989853
0.70457 0 0.0523995
0 0.0125582 0.172488
0 0.0375219 0.150072
0.116167 0.0554208 0.140948
0.385061 0.000167849 0.12079
0.619104 0 0.0989853
0.695094 0 0.0669871
0.705913 0 0.028275
0.699886 0 0
0.698116 0 0
0 0.101717 0.155901
0 0.0947585 0.133486
0.0548257 0.108232 0.116411
0.321675 0.103746 0.0738384
0.604303 3.0518e-05 0.0061799
0.718929 3.0518e-05 0
0.739712 0 0
0.732891 0 0
0.726253 0 0
0 0.227771 0.141375
0 0.208591 0.120867
0 0.21651 0.0984512
0.264591 0.247837 0.00389105
0.58294 0.224308 0
0.745907 0.198062 0
0.7823 0.202167 0
0.780926 0.175967 0
0.772885 0.152224 0
0 0.378149 0.100404
0 0.35877 0.092195
0 0.377646 0.0717937
0 0.456046 0
0.544594 0.499031 0
0.80856 0.471519 0
0.864057 0.464958 0
0.865095 0.42948 0
0.854459 0.394369 0
0 0.465721 0.0310979
0 0.453864 0.00947585
0 0.488975 1.5259e-05
0 0.616892 0
0.399832 0.740017 0
0.803845 0.741543 0
0.884703 0.718029 0
0.886763 0.694408 0
0.88983 0.664851 0
0 0.492592 0.00862135
0 0.485374 0
0 0.520363 0
0 0.649958 0
0.209491 0.822385 0
0.718837 0.876951 0
0.872099 0.859373 0
0.873365 0.848051 0
0.874464 0.833112 0
0 0.528908 0
0 0.518181 0
0 0.546838 0
0 0.647761 0
0.00440986 0.818265 0
0.603296 0.911986 0
0.867475 0.904723 0
0.869108 0.900755 0
0.869368 0.895994 0
0 0.52784 0
0 0.52401 0
0 0.548424 0
0 0.640131 0
0 0.79617 0
0.468406 0.906111 0
0.824353 0.91577 0
0.86833 0.913008 0
0.868574 0.912108 0
0 0 0.414099
0 0 0.4094
0.159442 0 0.427329
0.472419 0 0.445518
0.669703 0 0.439643
0.731167 0 0.424781
0.738323 0 0.396109
0.73669 0 0.366781
0.734462 0 0.336812
0 0 0.387518
0 0 0.36585
0.0577249 0 0.368338
0.385946 0 0.376562
0.636225 0 0.364401
0.71928 0 0.346624
0.732326 0 0.316487
0.729717 0 0.28603
0.727474 0 0.255131
0 0.00195315 0.372381
0 0.00289921 0.339239
0 0.0930648 0.332006
0.298939 0.0619059 0.324865
0.61471 1.5259e-05 0.303197
0.73814 0 0.275853
0.76141 0 0.244282
0.754589 0 0.207019
0.747951 0 0.172595
0 0.244678 0.386954
0 0.224674 0.342412
0 0.236698 0.317998
0.164981 0.265126 0.285313
0.582193 0.228794 0.231708
0.74168 0.176181 0.181079
0.77821 0.174197 0.149279
0.775998 0.131792 0.10367
0.769192 0.0836957 0.0574197
0 0.429358 0.34519
0 0.406699 0.303914
0 0.42211 0.270298
0 0.481193 0.214847
0.549676 0.494957 0.0945907
0.778378 0.452064 0.00654612
0.832044 0.442618 0
0.837751 0.406577 0
0.830564 0.368017 0
0 0.528771 0.280598
0 0.514733 0.242786
0 0.542611 0.207767
0 0.637613 0.111192
0.289448 0.725856 0
0.741497 0.715541 0
0.870466 0.698482 0
0.886046 0.679286 0
0.886168 0.649744 0
0 0.553384 0.25272
0 0.544228 0.205768
0 0.572168 0.16141
0 0.672236 0.0287327
0 0.804364 0
0.652064 0.862623 0
0.872099 0.854551 0
0.873655 0.846784 0
0.874235 0.836851 0
0 0.580682 0.262181
0 0.569146 0.237369
0 0.592737 0.206439
0 0.673961 0.132036
0 0.803113 0
0.525795 0.890867 0
0.847318 0.900847 0
0.869368 0.90135 0
0.86923 0.900969 0
0 0.579156 0.197391
0 0.574487 0.17055
0 0.593713 0.145663
0 0.673671 0.0692607
0 0.793088 0
0.388067 0.87892 0
0.78146 0.901366 0
0.8692 0.900038 0
0.869535 0.903426 0
0 0 0.519997
0 0 0.528847
0.156237 0 0.56553
0.492287 0 0.612619
0.70222 0 0.624231
0.761608 0 0.622812
0.766781 0 0.607355
0.763806 0 0.591134
0.761471 0 0.571603
0 0 0.534203
0 0 0.523583
0 0 0.540856
0.380438 0 0.579629
0.653239 0 0.585901
0.741726 0 0.576867
0.759838 0 0.557595
0.757198 0 0.53431
0.754528 0 0.510384
0 0 0.558328
0 0 0.536629
0 0.0184939 0.537896
0.283162 0.00347906 0.568643
0.616831 0 0.569436
0.755901 0 0.550072
0.784344 0 0.524544
0.779767 0 0.491249
0.773938 0 0.457664
0 0.197528 0.619058
0 0.174945 0.580743
0 0.203204 0.571694
0.0488899 0.259922 0.573754
0.54345 0.214511 0.556039
0.741939 0.143572 0.517205
0.78764 0.156664 0.487129
0.789029 0.100221 0.441779
0.788968 0.0503243 0.400504
0 0.443137 0.638636
0 0.418662 0.601648
0 0.434714 0.580484
0 0.498833 0.560281
0.436332 0.514488 0.532967
0.776669 0.470237 0.482002
0.834714 0.463478 0.44625
0.840848 0.429084 0.398199
0.830762 0.3897 0.349096
0 0.568383 0.596872
0 0.556603 0.558907
0 0.583337 0.526955
0 0.680705 0.507912
0.0145571 0.765225 0.450446
0.801984 0.755978 0.380072
0.920516 0.737713 0.326299
0.928405 0.712871 0.270542
0.916045 0.677699 0.198962
0 0.599557 0.554162
0 0.593759 0.512367
0 0.622797 0.470222
0 0.725933 0.440009
0 0.854826 0.359609
0.647791 0.90045 0.207309
0.888457 0.891966 0.0239261
0.905074 0.87837 0.00616464
0.894652 0.859281 0
0 0.622965 0.535241
0 0.615213 0.504952
0 0.640055 0.460899
0 0.724056 0.426352
0 0.85211 0.345418
0.444297 0.926833 0.175982
0.829496 0.932189 0.00216678
0.876982 0.92105 0
0.86833 0.911315 0
0 0.626307 0.451728
0 0.623484 0.420111
0 0.641398 0.389517
0 0.723369 0.364416
0 0.837858 0.310475
0.229969 0.924331 0.174929
0.756085 0.943999 0.00787366
0.866651 0.932906 0
0.863798 0.92488 0
0 0 0.585916
0 0 0.604669
0.135698 0 0.645106
0.480873 0 0.696422
0.710536 0 0.711086
0.777691 0 0.714626
0.786648 0 0.704707
0.786648 0 0.696757
0.786648 0 0.68986
0 0 0.604883
0 0 0.599481
0.00015259 0.00117494 0.620295
0.369543 1.5259e-05 0.670939
0.664683 0 0.687785
0.765484 0 0.689677
0.786648 0 0.684199
0.786648 0 0.674815
0.786648 0 0.664469
0 0 0.631266
0 1.5259e-05 0.620768
0 0.0364233 0.634974
0.245747 0.020798 0.688487
0.600488 1.5259e-05 0.714595
0.764035 0 0.712016
0.790036 0 0.700252
0.791821 0 0.679072
0.794369 0 0.657572
0 0.196658 0.711452
0 0.150576 0.683116
0 0.191546 0.692821
0 0.263844 0.731914
0.52668 0.214801 0.750301
0.746319 0.121828 0.730922
0.798459 0.13315 0.715709
0.800259 0.0390936 0.685359
0.794812 9.15541e-05 0.658824
0 0.438422 0.789944
0 0.41062 0.770153
0 0.418265 0.7682
0 0.491585 0.784405
0.361715 0.508019 0.798184
0.749249 0.462791 0.774166
0.825284 0.455543 0.749538
0.834577 0.424079 0.712627
0.825986 0.384375 0.671305
0 0.572244 0.803998
0 0.563226 0.783429
0 0.585763 0.773327
0 0.682078 0.791043
0 0.76846 0.784588
0.730465 0.761456 0.761501
0.912276 0.743893 0.726375
0.933455 0.72224 0.690379
0.921798 0.687434 0.648402
0 0.613687 0.785214
0 0.610162 0.762448
0 0.637644 0.737392
0 0.741527 0.743328
0 0.874647 0.721523
0.531609 0.927092 0.697826
0.929458 0.924025 0.651621
0.989944 0.915053 0.604532
0.991043 0.897154 0.554208
0 0.638025 0.771466
0 0.630869 0.747906
0 0.655802 0.718273
0 0.743435 0.713207
0 0.87628 0.685802
0.272679 0.959579 0.64744
0.864256 0.973754 0.587732
0.983688 0.968734 0.526818
0.989105 0.96202 0.46389
0 0.64831 0.714672
0 0.646464 0.686809
0 0.662684 0.659266
0 0.748409 0.649409
0 0.864149 0.634363
0 0.955718 0.599603
0.756832 0.980453 0.553353
0.962188 0.977447 0.504128
0.981384 0.973175 0.448432
0 0 0.585916
0 0 0.603357
0.112032 0 0.652964
0.459403 0 0.71667
0.701946 0 0.742901
0.775525 0 0.757397
0.786648 0 0.757397
0.786648 0 0.757397
0.786648 0 0.757397
0 0 0.616114
0 0 0.619303
0 0.0210422 0.650248
0.345861 0.00138857 0.712947
0.64947 0 0.740642
0.762676 0 0.754177
0.786648 0 0.757397
0.786648 0 0.757397
0.786648 0 0.748852
0 0 0.652003
0 6.10361e-05 0.649622
0 0.121752 0.683757
0.223697 0.186404 0.749065
0.582025 0.118914 0.778073
0.758556 0.00488289 0.78175
0.790509 0.0873732 0.774899
0.793545 0.0391089 0.76141
0.793652 0 0.745815
0 0.235492 0.747234
0 0.218723 0.728359
0 0.252842 0.749599
0 0.335866 0.786618
0.50045 0.325292 0.82089
0.73753 0.286946 0.81323
0.797696 0.306416 0.806867
0.803296 0.263172 0.786542
0.800381 0.210727 0.770565
0 0.446983 0.82208
0 0.423331 0.807965
0 0.438056 0.814389
0 0.516548 0.848112
0.31809 0.549111 0.880919
0.737606 0.507866 0.879789
0.826322 0.494682 0.872221
0.840589 0.461067 0.853971
0.833402 0.4168 0.8318
0 0.573144 0.856977
0 0.561807 0.849653
0 0.58735 0.852476
0 0.678523 0.889113
0 0.763958 0.914458
0.692836 0.759228 0.931151
0.900771 0.738582 0.919936
0.927062 0.716976 0.903044
0.917861 0.679896 0.880415
0 0.615671 0.861875
0 0.610315 0.856336
0 0.639704 0.851774
0 0.739239 0.883391
0 0.869963 0.903899
0.472175 0.926268 0.926329
0.907088 0.923568 0.914473
0.984253 0.915541 0.894911
0.98854 0.898604 0.871275
0 0.64065 0.869032
0 0.635004 0.863218
0 0.65742 0.854063
0 0.742092 0.871229
0 0.875608 0.888655
0.177523 0.965103 0.90016
0.821866 0.983261 0.88632
0.980987 0.982834 0.857298
0.999557 0.977935 0.824506
0 0.653819 0.85568
0 0.653346 0.847562
0 0.666239 0.836072
0 0.749844 0.844297
0 0.866545 0.860166
0 0.962783 0.861448
0.687648 0.992569 0.851774
0.954803 0.995666 0.82475
0.999359 0.994278 0.788846
0 0 0.585916
0 0 0.60206
0.0732128 0 0.650141
0.437324 0 0.714839
0.693339 0 0.742489
0.77322 0 0.757397
0.786648 0 0.757397
0.786648 0 0.757397
0.786648 0 0.757397
0 0 0.614069
0 0 0.616037
0 0.0137331 0.6448
0.322179 0.000198367 0.708095
0.635431 0 0.73785
0.759686 0 0.753628
0.786648 0 0.757397
0.786648 0 0.757397
0.786648 0 0.757397
0 0 0.649851
0 0 0.646937
0 0.105913 0.677791
0.202686 0.179431 0.743969
0.563699 0.110048 0.774823
0.752255 0.00202945 0.782742
0.791348 0.0673838 0.785275
0.794171 0.0177462 0.779126
0.79263 0 0.773449
0 0.22179 0.740749
0 0.200275 0.721813
0 0.237079 0.743481
0 0.32369 0.786603
0.474266 0.315465 0.831601
0.72726 0.274998 0.833921
0.7935 0.293523 0.838224
0.801343 0.270481 0.828794
0.798505 0.244312 0.81976
0 0.43679 0.82182
0 0.412863 0.812665
0 0.423804 0.818357
0 0.500908 0.855299
0.283085 0.535149 0.893858
0.718242 0.504112 0.903243
0.818479 0.499535 0.902876
0.835737 0.481636 0.894682
0.82919 0.45214 0.884276
0 0.569039 0.8598
0 0.556435 0.855985
0 0.57763 0.862959
0 0.667094 0.902937
0 0.754467 0.93109
0.663005 0.756283 0.959854
0.888609 0.737499 0.958251
0.917937 0.722011 0.951003
0.909926 0.691157 0.940047
0 0.613718 0.874174
0 0.608972 0.871305
0 0.636439 0.867964
0 0.732723 0.907698
0 0.862577 0.939086
0.422004 0.920897 0.976715
0.895216 0.919539 0.982879
0.98088 0.911604 0.979644
0.985687 0.894499 0.972274
0 0.640391 0.890806
0 0.636103 0.886717
0 0.655314 0.881697
0 0.738796 0.908202
0 0.870298 0.938827
0.0704509 0.962081 0.970352
0.799588 0.981994 0.982986
0.977234 0.981567 0.97908
0.998657 0.976501 0.97203
0 0.657374 0.887572
0 0.657374 0.885405
0 0.668238 0.882902
0 0.750332 0.900816
0 0.862531 0.932372
0 0.959899 0.954406
0.6486 0.992798 0.974655
0.944335 0.997787 0.971786
0.997742 0.997086 0.960525
0 0 0.585916
0 0 0.600748
0.0294499 0 0.647364
0.413993 0 0.712993
0.683558 0 0.742092
0.770871 0 0.757031
0.786648 0 0.757397
0.786648 0 0.757397
0.786648 0 0.757397
0 0 0.611902
0 0 0.612924
0 0.0074464 0.639368
0.300252 0 0.703227
0.62092 0 0.736019
0.756695 0 0.752911
0.786648 0 0.757397
0.786648 0 0.757397
0.786648 0 0.757397
0 0 0.647852
0 0 0.644343
0 0.0872969 0.672007
0.180377 0.172732 0.738949
0.544732 0.094728 0.771664
0.745541 0.00077821 0.780529
0.790951 0.0460059 0.783062
0.793164 0 0.777173
0.791577 0 0.771466
0 0.208682 0.734295
0 0.183215 0.716365
0 0.22034 0.736065
0 0.312352 0.779782
0.447303 0.305592 0.826993
0.716899 0.263249 0.829938
0.789319 0.280446 0.834897
0.799466 0.25922 0.82562
0.796918 0.233188 0.816983
0 0.426764 0.818799
0 0.402014 0.809064
0 0.410101 0.812726
0 0.484825 0.849805
0.247669 0.52134 0.888716
0.699428 0.490425 0.899245
0.810803 0.484764 0.898878
0.831312 0.468879 0.891096
0.825376 0.439689 0.880751
0 0.563668 0.858381
0 0.550973 0.854841
0 0.568231 0.859556
0 0.653513 0.898253
0 0.740597 0.926894
0.634409 0.743755 0.957214
0.875608 0.724071 0.956664
0.908934 0.708843 0.952316
0.901656 0.677791 0.944106
0 0.611627 0.873564
0 0.607279 0.8701
0 0.631449 0.866911
0 0.72433 0.905669
0 0.854047 0.939956
0.375311 0.914794 0.978439
0.881865 0.912108 0.987381
0.976196 0.905074 0.98677
0.982605 0.885496 0.983612
0 0.638453 0.890166
0 0.634348 0.886687
0 0.649897 0.882734
0 0.732235 0.908522
0 0.864302 0.942275
0 0.959045 0.97612
0.774914 0.980133 0.995102
0.973175 0.9794 0.995727
0.998489 0.974289 0.994888
0 0.657374 0.890806
0 0.657374 0.890806
0 0.664363 0.890806
0 0.747005 0.908034
0 0.857908 0.940002
0 0.957229 0.96585
0.614328 0.992004 0.994598
0.936477 0.997391 0.998688
0.996628 0.996475 0.997024
