luts/Ultra Blue Hour Tone.cube
LUT_3D_SIZE 6
0.000000 0.000000 0.000000
0.119824 0.000000 0.000000
0.266055 0.000000 0.000000
0.415113 0.000000 0.000000
0.557193 0.000000 0.000000
1.000033 0.000000 0.000000
0.000000 0.169122 0.000000
0.119800 0.169122 0.000000
0.266055 0.168942 0.000000
0.415113 0.168566 0.000000
0.557193 0.168170 0.000000
1.000033 0.166934 0.000000
0.000000 0.368692 0.000000
0.119496 0.368692 0.000000
0.265735 0.368692 0.000000
0.415113 0.368282 0.000000
0.557193 0.367403 0.000000
1.000033 0.364722 0.000000
0.000000 0.579762 0.000000
0.119036 0.579762 0.000000
0.264708 0.579762 0.000000
0.414020 0.579762 0.000000
0.557114 0.579762 0.000000
1.000033 0.575595 0.000000
0.000000 0.720225 0.000000
0.118681 0.720225 0.000000
0.263917 0.720225 0.000000
0.412810 0.720225 0.000000
0.555506 0.720225 0.000000
1.000033 0.716734 0.000000
0.000000 1.000031 0.000000
0.118074 1.000031 0.000000
0.262584 1.000031 0.000000
0.410696 1.000031 0.000000
0.552670 1.000031 0.000000
1.000033 1.000031 0.000000
-0.042189 -0.042189 0.272640
0.119953 -0.017258 0.260117
0.266055 0.000000 0.259154
0.415113 0.000000 0.258657
0.557193 0.000000 0.258045
1.000033 0.000000 0.256293
0.000000 0.168972 0.259268
0.114394 0.168605 0.269448
0.266055 0.169122 0.259208
0.415113 0.169122 0.258918
0.557193 0.169122 0.258579
1.000033 0.169122 0.257556
0.000000 0.368692 0.258907
0.119824 0.368692 0.259026
0.265974 0.368692 0.259268
0.415113 0.368489 0.259268
0.557193 0.368003 0.259268
1.000033 0.366627 0.259268
0.000000 0.579762 0.258029
0.119824 0.579762 0.258433
0.265718 0.579762 0.259268
0.414396 0.579762 0.259268
0.557135 0.579762 0.259268
1.000033 0.576527 0.259268
0.000000 0.720225 0.257393
0.119824 0.720225 0.257940
0.265498 0.720225 0.259268
0.413644 0.720225 0.259268
0.555831 0.720225 0.259268
1.000033 0.717251 0.259268
0.000000 1.000031 0.256289
0.119825 1.000031 0.257144
0.265217 1.000031 0.259268
0.412281 1.000031 0.259268
0.553681 1.000031 0.259268
1.000033 1.000031 0.259268
-0.084189 -0.084189 0.565210
0.114752 -0.081797 0.559938
0.265892 -0.044045 0.540785
0.414172 0.000000 0.537475
0.557193 0.000000 0.537321
1.000033 0.000000 0.533683
-0.114951 0.159420 0.569042
0.103972 0.159357 0.565475
0.266643 0.164681 0.545323
0.414315 0.169122 0.537475
0.557193 0.169122 0.537329
1.000033 0.169122 0.534016
0.000000 0.367540 0.537475
0.119824 0.367684 0.537475
0.253598 0.367690 0.555148
0.415018 0.368602 0.537862
0.557193 0.368692 0.537380
1.000033 0.368692 0.535492
0.000000 0.579762 0.537273
0.119824 0.579762 0.537290
0.266055 0.579762 0.537329
0.415113 0.579762 0.537402
0.557202 0.579762 0.537475
1.000033 0.579489 0.537475
0.000000 0.720225 0.535909
0.119824 0.720225 0.536006
0.266055 0.720226 0.536368
0.415113 0.720226 0.536930
0.557103 0.720225 0.537475
1.000033 0.719202 0.537475
0.000000 1.000031 0.533677
0.119825 1.000031 0.533923
0.266055 1.000031 0.534786
0.415113 1.000031 0.536153
0.557025 1.000031 0.537475
1.000033 1.000031 0.537475
-0.124196 -0.124196 0.851875
0.094473 -0.123349 0.848883
0.263298 -0.114128 0.836538
0.413787 -0.072718 0.816847
0.553998 0.000000 0.809985
1.000033 0.000000 0.808456
-0.143318 0.140091 0.854684
0.081646 0.141483 0.852117
0.261299 0.145335 0.840331
0.414632 0.159582 0.819463
0.554300 0.169122 0.809985
1.000033 0.169122 0.808497
-0.202988 0.360090 0.857324
-0.117774 0.359758 0.857205
0.240342 0.359174 0.853016
0.413624 0.361162 0.834221
0.555795 0.368258 0.810899
1.000033 0.368692 0.808887
0.000000 0.576789 0.809985
0.119824 0.576980 0.809985
0.266055 0.577653 0.809985
0.399102 0.578439 0.828468
0.552380 0.576039 0.836369
1.000033 0.579762 0.809411
0.000000 0.718356 0.809985
0.119824 0.718489 0.809985
0.266055 0.718677 0.809985
0.415113 0.719235 0.809985
0.557193 0.719905 0.809985
1.000033 0.720225 0.809701
0.000000 1.000031 0.808442
0.119825 1.000031 0.808424
0.266055 1.000031 0.808671
0.415113 1.000031 0.808989
0.557193 1.000031 0.809366
1.000033 1.000031 0.809985
-0.142131 -0.142131 0.984952
0.079081 -0.141504 0.982322
0.258759 -0.135596 0.971346
0.414219 -0.110875 0.951808
0.553417 -0.042644 0.935210
1.000033 0.000000 0.933789
-0.158118 0.126911 0.987574
0.063782 0.128936 0.985136
0.256169 0.132745 0.974723
0.414405 0.145944 0.954847
0.554144 0.165782 0.936337
1.000033 0.169122 0.933803
-0.213981 0.354216 0.993155
-0.137189 0.354131 0.992187
0.234944 0.354381 0.986435
0.410546 0.356741 0.969226
0.557095 0.363753 0.943493
1.000033 0.368692 0.933831
-0.118916 0.575854 0.940341
0.074972 0.576125 0.942583
0.225533 0.576617 0.958043
0.380104 0.574743 0.981814
0.549778 0.573607 0.970903
1.000033 0.579762 0.933841
0.000000 0.716823 0.933867
0.119824 0.717085 0.933867
0.266055 0.717606 0.933867
0.415113 0.718537 0.933867
0.545379 0.719376 0.947951
1.000033 0.720225 0.933844
0.000000 1.000031 0.933826
0.119825 1.000031 0.933836
0.266055 1.000031 0.933811
0.415113 1.000031 0.933840
0.557193 1.000031 0.933897
1.000033 1.000031 0.933867
-0.143357 -0.143357 0.994603
0.077624 -0.142746 0.991956
0.258122 -0.137012 0.981220
0.413806 -0.113149 0.961930
0.552964 -0.047847 0.943643
0.999948 0.000000 0.941669
-0.159129 0.125671 0.997151
0.062257 0.127858 0.994779
0.255602 0.131757 0.984545
0.413966 0.144840 0.964952
0.553757 0.165016 0.944948
0.999948 0.169122 0.941669
-0.214541 0.353417 1.002842
-0.138237 0.353430 1.001828
0.234508 0.353973 0.996074
0.410204 0.356386 0.979115
0.556808 0.363353 0.953718
0.999950 0.368692 0.941669
-0.132652 0.575372 0.950872
0.060377 0.575621 0.954237
0.221092 0.576031 0.970102
0.379545 0.574194 0.992149
0.549499 0.573396 0.980841
0.999952 0.579762 0.941669
0.000000 0.716073 0.941669
0.119824 0.716402 0.941669
0.266055 0.716963 0.941669
0.415113 0.717790 0.941669
0.543437 0.718951 0.959991
0.999954 0.720225 0.941669
0.000000 1.000000 0.941669
0.119825 1.000001 0.941669
0.266055 1.000002 0.941669
0.415113 1.000007 0.941669
0.557193 1.000010 0.941669
1.000033 1.000031 0.941669
