luts/Ultra Blue Hour Tone.cube
LUT_3D_SIZE 16
0.000000 0.000000 0.000000
0.032153 0.000000 0.000000
0.074069 0.000000 0.000000
0.119824 0.000000 0.000000
0.167644 0.000000 0.000000
0.216575 0.000000 0.000000
0.266055 0.000000 0.000000
0.315762 0.000000 0.000000
0.365684 0.000000 0.000000
0.415113 0.000000 0.000000
0.463858 0.000000 0.000000
0.511519 0.000000 0.000000
0.557193 0.000000 0.000000
0.600290 0.000000 0.000000
0.639076 0.000000 0.000000
1.000033 0.000000 0.000000
0.000000 0.049015 0.000000
0.032152 0.049015 0.000000
0.074069 0.048999 0.000000
0.119824 0.048983 0.000000
0.167644 0.048970 0.000000
0.216575 0.048944 0.000000
0.266055 0.048916 0.000000
0.315762 0.048887 0.000000
0.365684 0.048854 0.000000
0.415113 0.048811 0.000000
0.463858 0.048770 0.000000
0.511519 0.048740 0.000000
0.557193 0.048700 0.000000
0.600290 0.048662 0.000000
0.639076 0.048628 0.000000
1.000033 0.048343 0.000000
0.000000 0.107048 0.000000
0.032145 0.107048 0.000000
0.074052 0.107048 0.000000
0.119824 0.107026 0.000000
0.167644 0.106981 0.000000
0.216575 0.106929 0.000000
0.266055 0.106872 0.000000
0.315762 0.106811 0.000000
0.365684 0.106726 0.000000
0.415113 0.106640 0.000000
0.463858 0.106551 0.000000
0.511519 0.106472 0.000000
0.557193 0.106384 0.000000
0.600290 0.106300 0.000000
0.639076 0.106237 0.000000
1.000033 0.105603 0.000000
0.000000 0.169122 0.000000
0.032127 0.169122 0.000000
0.074022 0.169122 0.000000
0.119800 0.169122 0.000000
0.167644 0.169102 0.000000
0.216575 0.169007 0.000000
0.266055 0.168942 0.000000
0.315762 0.168836 0.000000
0.365684 0.168683 0.000000
0.415113 0.168566 0.000000
0.463858 0.168431 0.000000
0.511519 0.168307 0.000000
0.557193 0.168170 0.000000
0.600290 0.168025 0.000000
0.639076 0.167905 0.000000
1.000033 0.166934 0.000000
0.000000 0.233986 0.000000
0.032110 0.233986 0.000000
0.073970 0.233986 0.000000
0.119703 0.233986 0.000000
0.167567 0.233986 0.000000
0.216575 0.233976 0.000000
0.266055 0.233861 0.000000
0.315762 0.233698 0.000000
0.365684 0.233547 0.000000
0.415113 0.233362 0.000000
0.463858 0.233135 0.000000
0.511519 0.232977 0.000000
0.557193 0.232770 0.000000
0.600290 0.232588 0.000000
0.639076 0.232425 0.000000
1.000033 0.231056 0.000000
0.000000 0.300766 0.000000
0.032083 0.300766 0.000000
0.073916 0.300766 0.000000
0.119612 0.300766 0.000000
0.167433 0.300766 0.000000
0.216446 0.300766 0.000000
0.266002 0.300766 0.000000
0.315762 0.300611 0.000000
0.365684 0.300397 0.000000
0.415113 0.300154 0.000000
0.463858 0.299911 0.000000
0.511519 0.299671 0.000000
0.557193 0.299416 0.000000
0.600290 0.299172 0.000000
0.639076 0.298976 0.000000
1.000033 0.297233 0.000000
0.000000 0.368692 0.000000
0.032048 0.368692 0.000000
0.073835 0.368692 0.000000
0.119496 0.368692 0.000000
0.167275 0.368692 0.000000
0.216216 0.368692 0.000000
0.265735 0.368692 0.000000
0.315667 0.368692 0.000000
0.365684 0.368589 0.000000
0.415113 0.368282 0.000000
0.463858 0.368017 0.000000
0.511519 0.367730 0.000000
0.557193 0.367403 0.000000
0.600290 0.367179 0.000000
0.639076 0.366910 0.000000
1.000033 0.364722 0.000000
0.000000 0.437799 0.000000
0.032011 0.437799 0.000000
0.073760 0.437799 0.000000
0.119347 0.437799 0.000000
0.167094 0.437799 0.000000
0.215982 0.437799 0.000000
0.265420 0.437799 0.000000
0.315280 0.437799 0.000000
0.365315 0.437799 0.000000
0.415118 0.437799 0.000000
0.463858 0.437456 0.000000
0.511519 0.437134 0.000000
0.557193 0.436775 0.000000
0.600290 0.436422 0.000000
0.639076 0.436111 0.000000
1.000033 0.433521 0.000000
0.000000 0.508161 0.000000
0.031966 0.508161 0.000000
0.073649 0.508161 0.000000
0.119193 0.508161 0.000000
0.166859 0.508161 0.000000
0.215667 0.508161 0.000000
0.265059 0.508161 0.000000
0.314784 0.508161 0.000000
0.364875 0.508161 0.000000
0.414602 0.508161 0.000000
0.463684 0.508161 0.000000
0.511519 0.507996 0.000000
0.557193 0.507616 0.000000
0.600290 0.507210 0.000000
0.639076 0.506815 0.000000
1.000033 0.503863 0.000000
0.000000 0.579762 0.000000
0.031921 0.579762 0.000000
0.073546 0.579762 0.000000
0.119036 0.579762 0.000000
0.166621 0.579762 0.000000
0.215377 0.579762 0.000000
0.264708 0.579762 0.000000
0.314400 0.579762 0.000000
0.364334 0.579762 0.000000
0.414020 0.579762 0.000000
0.463026 0.579762 0.000000
0.511044 0.579762 0.000000
0.557114 0.579762 0.000000
0.600290 0.579399 0.000000
0.639076 0.578991 0.000000
1.000033 0.575595 0.000000
0.000000 0.646401 0.000000
0.031876 0.646401 0.000000
0.073449 0.646401 0.000000
0.118844 0.646401 0.000000
0.166394 0.646401 0.000000
0.215074 0.646401 0.000000
0.264299 0.646401 0.000000
0.313930 0.646401 0.000000
0.363785 0.646401 0.000000
0.413420 0.646401 0.000000
0.462386 0.646401 0.000000
0.510283 0.646401 0.000000
0.556322 0.646401 0.000000
0.599868 0.646401 0.000000
0.639076 0.646365 0.000000
1.000033 0.642584 0.000000
0.000000 0.687221 0.000000
0.031848 0.687221 0.000000
0.073383 0.687221 0.000000
0.118739 0.687221 0.000000
0.166236 0.687221 0.000000
0.214888 0.687221 0.000000
0.264062 0.687221 0.000000
0.313658 0.687221 0.000000
0.363468 0.687221 0.000000
0.413034 0.687221 0.000000
0.461950 0.687221 0.000000
0.509740 0.687221 0.000000
0.555837 0.687221 0.000000
0.599362 0.687221 0.000000
0.638560 0.687221 0.000000
1.000033 0.683639 0.000000
0.000000 0.720225 0.000000
0.031831 0.720225 0.000000
0.073330 0.720225 0.000000
0.118681 0.720225 0.000000
0.166145 0.720225 0.000000
0.214756 0.720225 0.000000
0.263917 0.720225 0.000000
0.313526 0.720225 0.000000
0.363283 0.720225 0.000000
0.412810 0.720225 0.000000
0.461638 0.720225 0.000000
0.509520 0.720225 0.000000
0.555506 0.720225 0.000000
0.598987 0.720225 0.000000
0.638146 0.720225 0.000000
1.000033 0.716734 0.000000
0.000000 0.749215 0.000000
0.031812 0.749215 0.000000
0.073289 0.749215 0.000000
0.118614 0.749215 0.000000
0.166040 0.749215 0.000000
0.214635 0.749215 0.000000
0.263761 0.749215 0.000000
0.313273 0.749215 0.000000
0.363059 0.749215 0.000000
0.412552 0.749215 0.000000
0.461406 0.749215 0.000000
0.509154 0.749215 0.000000
0.555167 0.749215 0.000000
0.598637 0.749215 0.000000
0.637808 0.749215 0.000000
1.000033 0.746257 0.000000
0.000000 0.774131 0.000000
0.031799 0.774131 0.000000
0.073252 0.774131 0.000000
0.118555 0.774131 0.000000
0.165955 0.774131 0.000000
0.214516 0.774131 0.000000
0.263647 0.774131 0.000000
0.313149 0.774131 0.000000
0.362923 0.774131 0.000000
0.412365 0.774131 0.000000
0.461244 0.774131 0.000000
0.508971 0.774131 0.000000
0.554908 0.774131 0.000000
0.598355 0.774131 0.000000
0.637464 0.774131 0.000000
1.000033 0.771226 0.000000
0.000000 1.000031 0.000000
0.031670 1.000031 0.000000
0.072963 1.000031 0.000000
0.118074 1.000031 0.000000
0.165294 1.000031 0.000000
0.213666 1.000031 0.000000
0.262584 1.000031 0.000000
0.311877 1.000031 0.000000
0.361460 1.000031 0.000000
0.410696 1.000031 0.000000
0.459318 1.000031 0.000000
0.506951 1.000031 0.000000
0.552670 1.000031 0.000000
0.595939 1.000031 0.000000
0.634848 1.000031 0.000000
1.000033 1.000031 0.000000
-0.013961 -0.013961 0.084891
0.032184 -0.004124 0.080834
0.074069 0.000000 0.080709
0.119824 0.000000 0.080682
0.167644 0.000000 0.080666
0.216575 0.000000 0.080617
0.266055 0.000000 0.080586
0.315762 0.000000 0.080543
0.365684 0.000000 0.080478
0.415113 0.000000 0.080419
0.463858 0.000000 0.080360
0.511519 0.000000 0.080308
0.557193 0.000000 0.080249
0.600290 0.000000 0.080185
0.639076 0.000000 0.080132
1.000033 0.000000 0.079681
0.000000 0.049006 0.080719
0.030859 0.048827 0.084051
0.074069 0.049015 0.080714
0.119824 0.049015 0.080704
0.167644 0.049015 0.080679
0.216575 0.049015 0.080677
0.266055 0.049015 0.080642
0.315762 0.049015 0.080606
0.365684 0.049015 0.080588
0.415113 0.049015 0.080546
0.463858 0.049015 0.080529
0.511519 0.049015 0.080473
0.557193 0.049015 0.080455
0.600290 0.049014 0.080412
0.639076 0.049014 0.080383
1.000033 0.049015 0.080127
0.000000 0.107048 0.080709
0.032153 0.107048 0.080709
0.074055 0.107048 0.080719
0.119824 0.107037 0.080719
0.167644 0.107010 0.080719
0.216575 0.106982 0.080719
0.266055 0.106952 0.080719
0.315762 0.106913 0.080719
0.365684 0.106872 0.080719
0.415113 0.106825 0.080719
0.463858 0.106777 0.080719
0.511519 0.106726 0.080719
0.557193 0.106685 0.080719
0.600290 0.106630 0.080719
0.639076 0.106597 0.080719
1.000033 0.106250 0.080719
0.000000 0.169122 0.080676
0.032153 0.169122 0.080682
0.074039 0.169122 0.080719
0.119805 0.169122 0.080719
0.167644 0.169114 0.080719
0.216575 0.169020 0.080719
0.266055 0.168958 0.080719
0.315762 0.168868 0.080719
0.365684 0.168789 0.080719
0.415113 0.168656 0.080719
0.463858 0.168543 0.080719
0.511519 0.168451 0.080719
0.557193 0.168336 0.080719
0.600290 0.168194 0.080719
0.639076 0.168136 0.080719
1.000033 0.167292 0.080719
0.000000 0.233986 0.080629
0.032153 0.233986 0.080659
0.074029 0.233986 0.080719
0.119763 0.233986 0.080719
0.167604 0.233986 0.080719
0.216575 0.233980 0.080719
0.266055 0.233862 0.080719
0.315762 0.233728 0.080719
0.365684 0.233580 0.080719
0.415113 0.233391 0.080719
0.463858 0.233229 0.080719
0.511519 0.233057 0.080719
0.557193 0.232872 0.080719
0.600290 0.232709 0.080719
0.639076 0.232577 0.080719
1.000033 0.231325 0.080719
0.000000 0.300766 0.080585
0.032153 0.300766 0.080620
0.074007 0.300766 0.080719
0.119678 0.300766 0.080719
0.167483 0.300766 0.080719
0.216457 0.300766 0.080719
0.266004 0.300766 0.080719
0.315762 0.300612 0.080719
0.365684 0.300431 0.080719
0.415113 0.300214 0.080719
0.463858 0.299939 0.080719
0.511519 0.299735 0.080719
0.557193 0.299495 0.080719
0.600290 0.299252 0.080719
0.639076 0.299059 0.080719
1.000033 0.297394 0.080719
0.000000 0.368692 0.080508
0.032153 0.368692 0.080577
0.073982 0.368692 0.080719
0.119568 0.368692 0.080719
0.167346 0.368692 0.080719
0.216255 0.368692 0.080719
0.265747 0.368692 0.080719
0.315680 0.368692 0.080719
0.365684 0.368604 0.080719
0.415113 0.368332 0.080719
0.463858 0.368016 0.080719
0.511519 0.367765 0.080719
0.557193 0.367444 0.080719
0.600290 0.367183 0.080719
0.639076 0.366952 0.080719
1.000033 0.364866 0.080719
0.000000 0.437799 0.080419
0.032153 0.437799 0.080531
0.073948 0.437799 0.080719
0.119474 0.437799 0.080719
0.167165 0.437799 0.080719
0.216030 0.437799 0.080719
0.265458 0.437799 0.080719
0.315321 0.437799 0.080719
0.365352 0.437799 0.080719
0.415118 0.437799 0.080719
0.463858 0.437471 0.080719
0.511519 0.437162 0.080719
0.557193 0.436818 0.080719
0.600290 0.436469 0.080719
0.639076 0.436148 0.080719
1.000033 0.433657 0.080719
0.000000 0.508161 0.080329
0.032153 0.508161 0.080464
0.073918 0.508161 0.080719
0.119339 0.508161 0.080719
0.166972 0.508161 0.080719
0.215755 0.508161 0.080719
0.265117 0.508161 0.080719
0.314831 0.508161 0.080719
0.364845 0.508161 0.080719
0.414597 0.508161 0.080719
0.463693 0.508161 0.080719
0.511519 0.508005 0.080719
0.557193 0.507585 0.080719
0.600290 0.507195 0.080719
0.639076 0.506874 0.080719
1.000033 0.503886 0.080719
0.000000 0.579762 0.080239
0.032153 0.579762 0.080394
0.073875 0.579762 0.080719
0.119232 0.579762 0.080719
0.166749 0.579762 0.080719
0.215466 0.579762 0.080719
0.264772 0.579762 0.080719
0.314414 0.579762 0.080719
0.364356 0.579762 0.080719
0.414048 0.579762 0.080719
0.463063 0.579762 0.080719
0.510950 0.579762 0.080719
0.557116 0.579762 0.080719
0.600290 0.579404 0.080719
0.639076 0.579002 0.080719
1.000033 0.575624 0.080719
0.000000 0.646401 0.080127
0.032153 0.646401 0.080332
0.073845 0.646401 0.080719
0.119110 0.646401 0.080719
0.166563 0.646401 0.080719
0.215211 0.646401 0.080719
0.264416 0.646401 0.080719
0.314049 0.646401 0.080719
0.363824 0.646401 0.080719
0.413438 0.646401 0.080719
0.462395 0.646401 0.080719
0.510252 0.646401 0.080719
0.556340 0.646401 0.080719
0.599874 0.646401 0.080719
0.639076 0.646366 0.080719
1.000033 0.642599 0.080719
0.000000 0.687221 0.080077
0.032153 0.687221 0.080269
0.073823 0.687222 0.080719
0.119028 0.687222 0.080719
0.166438 0.687222 0.080719
0.215000 0.687222 0.080719
0.264172 0.687222 0.080719
0.313742 0.687222 0.080719
0.363518 0.687222 0.080719
0.413105 0.687222 0.080719
0.461966 0.687222 0.080719
0.509835 0.687222 0.080719
0.555808 0.687222 0.080719
0.599357 0.687222 0.080719
0.638568 0.687222 0.080719
1.000033 0.683759 0.080719
0.000000 0.720225 0.080038
0.032153 0.720226 0.080259
0.073802 0.720226 0.080719
0.118974 0.720226 0.080719
0.166327 0.720226 0.080719
0.214889 0.720226 0.080719
0.264032 0.720226 0.080719
0.313577 0.720226 0.080719
0.363377 0.720226 0.080719
0.412833 0.720226 0.080719
0.461716 0.720226 0.080719
0.509500 0.720226 0.080719
0.555519 0.720226 0.080719
0.599007 0.720226 0.080719
0.638161 0.720226 0.080719
1.000033 0.716752 0.080719
0.000000 0.749215 0.079985
0.032153 0.749215 0.080219
0.073785 0.749215 0.080719
0.118916 0.749215 0.080719
0.166255 0.749215 0.080719
0.214770 0.749215 0.080719
0.263891 0.749215 0.080719
0.313438 0.749215 0.080719
0.363101 0.749215 0.080719
0.412653 0.749215 0.080719
0.461489 0.749215 0.080719
0.509255 0.749215 0.080719
0.555209 0.749215 0.080719
0.598662 0.749215 0.080719
0.637797 0.749215 0.080719
1.000033 0.746210 0.080719
0.000000 0.774131 0.079967
0.032153 0.774131 0.080185
0.073781 0.774131 0.080719
0.118879 0.774131 0.080719
0.166180 0.774131 0.080719
0.214714 0.774131 0.080719
0.263789 0.774131 0.080719
0.313228 0.774131 0.080719
0.362964 0.774131 0.080719
0.412450 0.774131 0.080719
0.461215 0.774131 0.080719
0.508975 0.774131 0.080719
0.554991 0.774131 0.080719
0.598352 0.774131 0.080719
0.637533 0.774131 0.080719
1.000033 0.771131 0.080719
0.000000 1.000031 0.079692
0.032153 1.000031 0.079997
0.073677 1.000031 0.080719
0.118536 1.000031 0.080719
0.165585 1.000031 0.080719
0.213922 1.000031 0.080719
0.262788 1.000031 0.080719
0.312017 1.000031 0.080719
0.361536 1.000031 0.080719
0.410854 1.000031 0.080719
0.459482 1.000031 0.080719
0.506979 1.000031 0.080719
0.552829 1.000031 0.080719
0.596025 1.000031 0.080719
0.634933 1.000031 0.080719
1.000033 1.000031 0.080719
-0.028033 -0.028033 0.177142
0.031171 -0.027132 0.175345
0.074145 -0.009975 0.168836
0.119798 0.000000 0.168442
0.167644 0.000000 0.168411
0.216575 0.000000 0.168337
0.266055 0.000000 0.168228
0.315762 0.000000 0.168144
0.365684 0.000000 0.168056
0.415113 0.000000 0.167930
0.463858 0.000000 0.167792
0.511519 0.000000 0.167644
0.557193 0.000000 0.167517
0.600290 0.000000 0.167399
0.639076 0.000000 0.167316
1.000033 0.000000 0.166350
-0.038350 0.046452 0.178352
0.028358 0.046249 0.177132
0.074340 0.048207 0.169876
0.119803 0.049015 0.168442
0.167644 0.049015 0.168408
0.216575 0.049015 0.168346
0.266055 0.049015 0.168252
0.315762 0.049015 0.168172
0.365684 0.049015 0.168066
0.415113 0.049015 0.167953
0.463858 0.049015 0.167829
0.511519 0.049015 0.167716
0.557193 0.049015 0.167607
0.600290 0.049014 0.167486
0.639076 0.049014 0.167393
1.000033 0.049015 0.166533
0.000000 0.107005 0.168442
0.032153 0.107012 0.168442
0.070884 0.106690 0.175268
0.119820 0.107048 0.168442
0.167644 0.107048 0.168423
0.216575 0.107048 0.168362
0.266055 0.107048 0.168350
0.315762 0.107048 0.168266
0.365684 0.107048 0.168216
0.415113 0.107048 0.168134
0.463858 0.107048 0.168069
0.511519 0.107048 0.168004
0.557193 0.107048 0.167928
0.600290 0.107048 0.167866
0.639076 0.107048 0.167784
1.000033 0.107048 0.167264
0.000000 0.169122 0.168424
0.032153 0.169122 0.168426
0.074069 0.169122 0.168432
0.119824 0.169122 0.168445
0.167644 0.169125 0.168442
0.216575 0.169126 0.168442
0.266055 0.169122 0.168442
0.315762 0.169098 0.168442
0.365684 0.169103 0.168442
0.415114 0.169062 0.168442
0.463858 0.169058 0.168442
0.511519 0.169029 0.168442
0.557193 0.169028 0.168442
0.600290 0.169008 0.168442
0.639076 0.168987 0.168442
1.000033 0.168890 0.168442
0.000000 0.233986 0.168351
0.032153 0.233986 0.168364
0.074069 0.233986 0.168369
0.119824 0.233986 0.168421
0.167631 0.233986 0.168442
0.216575 0.233992 0.168442
0.266055 0.233909 0.168442
0.315762 0.233836 0.168442
0.365684 0.233739 0.168442
0.415114 0.233639 0.168442
0.463858 0.233549 0.168442
0.511519 0.233437 0.168442
0.557193 0.233333 0.168442
0.600290 0.233244 0.168442
0.639076 0.233132 0.168442
1.000033 0.232392 0.168442
0.000000 0.300766 0.168216
0.032153 0.300766 0.168217
0.074069 0.300766 0.168280
0.119824 0.300766 0.168391
0.167580 0.300766 0.168442
0.216518 0.300766 0.168442
0.266011 0.300766 0.168442
0.315762 0.300651 0.168442
0.365684 0.300498 0.168442
0.415114 0.300329 0.168442
0.463858 0.300134 0.168442
0.511519 0.299977 0.168442
0.557193 0.299775 0.168442
0.600290 0.299614 0.168442
0.639076 0.299453 0.168442
1.000033 0.298177 0.168442
0.000000 0.368692 0.168065
0.032153 0.368692 0.168097
0.074069 0.368692 0.168208
0.119824 0.368692 0.168348
0.167548 0.368692 0.168442
0.216391 0.368692 0.168442
0.265833 0.368692 0.168442
0.315693 0.368692 0.168442
0.365684 0.368597 0.168442
0.415114 0.368460 0.168442
0.463858 0.368172 0.168442
0.511519 0.367892 0.168442
0.557193 0.367593 0.168442
0.600290 0.367423 0.168442
0.639076 0.367240 0.168442
1.000033 0.365500 0.168442
0.000000 0.437799 0.167932
0.032153 0.437799 0.167930
0.074069 0.437799 0.168072
0.119824 0.437799 0.168328
0.167486 0.437799 0.168442
0.216236 0.437799 0.168442
0.265614 0.437799 0.168442
0.315451 0.437799 0.168442
0.365350 0.437799 0.168442
0.415118 0.437799 0.168442
0.463858 0.437501 0.168442
0.511519 0.437251 0.168442
0.557193 0.436870 0.168442
0.600290 0.436606 0.168442
0.639076 0.436368 0.168442
1.000033 0.434144 0.168442
0.000000 0.508161 0.167714
0.032153 0.508161 0.167783
0.074069 0.508161 0.167910
0.119824 0.508161 0.168247
0.167406 0.508161 0.168442
0.216071 0.508161 0.168442
0.265345 0.508161 0.168442
0.315055 0.508161 0.168442
0.364960 0.508161 0.168442
0.414688 0.508161 0.168442
0.463676 0.508161 0.168442
0.511519 0.507964 0.168442
0.557193 0.507619 0.168442
0.600290 0.507301 0.168442
0.639076 0.506959 0.168442
1.000033 0.504275 0.168442
0.000000 0.579762 0.167486
0.032153 0.579762 0.167562
0.074069 0.579762 0.167782
0.119824 0.579762 0.168213
0.167359 0.579762 0.168442
0.215918 0.579762 0.168442
0.265094 0.579762 0.168442
0.314695 0.579762 0.168442
0.364494 0.579762 0.168442
0.414119 0.579762 0.168442
0.463113 0.579762 0.168442
0.511052 0.579762 0.168442
0.557122 0.579762 0.168442
0.600290 0.579428 0.168442
0.639076 0.579079 0.168442
1.000033 0.575946 0.168442
0.000000 0.646401 0.167311
0.032153 0.646401 0.167363
0.074069 0.646401 0.167640
0.119824 0.646401 0.168165
0.167266 0.646401 0.168442
0.215743 0.646401 0.168442
0.264836 0.646401 0.168442
0.314341 0.646401 0.168442
0.364082 0.646401 0.168442
0.413662 0.646401 0.168442
0.462541 0.646401 0.168442
0.510327 0.646401 0.168442
0.556414 0.646401 0.168442
0.599994 0.646401 0.168442
0.639076 0.646370 0.168442
1.000033 0.642785 0.168442
0.000000 0.687221 0.167196
0.032153 0.687221 0.167250
0.074069 0.687221 0.167556
0.119824 0.687221 0.168142
0.167217 0.687221 0.168442
0.215601 0.687221 0.168442
0.264664 0.687221 0.168442
0.314189 0.687221 0.168442
0.363811 0.687221 0.168442
0.413333 0.687221 0.168442
0.462166 0.687221 0.168442
0.509946 0.687221 0.168442
0.555904 0.687221 0.168442
0.599393 0.687221 0.168442
0.638500 0.687221 0.168442
1.000033 0.684004 0.168442
0.000000 0.720225 0.167089
0.032153 0.720226 0.167192
0.074069 0.720225 0.167491
0.119824 0.720225 0.168106
0.167188 0.720225 0.168442
0.215541 0.720225 0.168442
0.264544 0.720225 0.168442
0.313964 0.720225 0.168442
0.363654 0.720225 0.168442
0.413150 0.720225 0.168442
0.461986 0.720225 0.168442
0.509654 0.720225 0.168442
0.555649 0.720225 0.168442
0.599082 0.720225 0.168442
0.638191 0.720225 0.168442
1.000033 0.717009 0.168442
0.000000 0.749215 0.167011
0.032153 0.749215 0.167091
0.074069 0.749215 0.167445
0.119824 0.749215 0.168088
0.167163 0.749215 0.168442
0.215463 0.749215 0.168442
0.264434 0.749215 0.168442
0.313857 0.749215 0.168442
0.363484 0.749215 0.168442
0.412924 0.749215 0.168442
0.461641 0.749215 0.168442
0.509392 0.749215 0.168442
0.555334 0.749215 0.168442
0.598721 0.749215 0.168442
0.637844 0.749215 0.168442
1.000033 0.746300 0.168442
0.000000 0.774131 0.166934
0.032153 0.774131 0.167045
0.074069 0.774131 0.167389
0.119824 0.774131 0.168068
0.167144 0.774131 0.168442
0.215444 0.774131 0.168442
0.264334 0.774131 0.168442
0.313742 0.774131 0.168442
0.363393 0.774131 0.168442
0.412738 0.774131 0.168442
0.461547 0.774131 0.168442
0.509155 0.774131 0.168442
0.555126 0.774131 0.168442
0.598502 0.774131 0.168442
0.637642 0.774131 0.168442
1.000033 0.771252 0.168442
0.000000 1.000031 0.166344
0.032153 1.000031 0.166497
0.074069 1.000031 0.166989
0.119825 1.000031 0.167923
0.166954 1.000031 0.168442
0.214943 1.000031 0.168442
0.263611 1.000031 0.168442
0.312697 1.000031 0.168442
0.362144 1.000031 0.168442
0.411321 1.000031 0.168442
0.459889 1.000031 0.168442
0.507364 1.000031 0.168442
0.553061 1.000031 0.168442
0.596329 1.000031 0.168442
0.635232 1.000031 0.168442
1.000033 1.000031 0.168442
-0.042189 -0.042189 0.272640
0.025985 -0.041883 0.271675
0.074216 -0.038049 0.267175
0.119953 -0.017258 0.260117
0.167544 0.000000 0.259268
0.216572 0.000000 0.259268
0.266055 0.000000 0.259154
0.315762 0.000000 0.259026
0.365684 0.000000 0.258846
0.415113 0.000000 0.258657
0.463858 0.000000 0.258453
0.511519 0.000000 0.258288
0.557193 0.000000 0.258045
0.600290 0.000000 0.257870
0.639076 0.000000 0.257696
1.000033 0.000000 0.256293
-0.048500 0.040707 0.273538
0.022371 0.040729 0.272656
0.073613 0.042010 0.268358
0.120085 0.047556 0.260667
0.167532 0.049015 0.259268
0.216560 0.049015 0.259268
0.266055 0.049015 0.259159
0.315762 0.049015 0.259041
0.365684 0.049015 0.258870
0.415113 0.049015 0.258701
0.463858 0.049015 0.258465
0.511519 0.049015 0.258299
0.557193 0.049014 0.258100
0.600290 0.049014 0.257901
0.639076 0.049014 0.257773
1.000033 0.049015 0.256381
-0.068547 0.105214 0.274484
-0.037855 0.104992 0.274407
0.068456 0.104353 0.272600
0.120192 0.105262 0.264522
0.167579 0.107048 0.259268
0.216556 0.107048 0.259268
0.266055 0.107048 0.259183
0.315762 0.107048 0.259067
0.365684 0.107048 0.258921
0.415113 0.107048 0.258758
0.463858 0.107048 0.258590
0.511519 0.107048 0.258425
0.557193 0.107048 0.258283
0.600290 0.107048 0.258111
0.639076 0.107048 0.257971
1.000033 0.107048 0.256775
0.000000 0.168972 0.259268
0.032153 0.168976 0.259268
0.073948 0.169036 0.259360
0.114394 0.168605 0.269448
0.167912 0.168633 0.261348
0.216573 0.169122 0.259268
0.266055 0.169122 0.259208
0.315762 0.169122 0.259121
0.365684 0.169122 0.259023
0.415113 0.169122 0.258918
0.463858 0.169122 0.258803
0.511519 0.169122 0.258699
0.557193 0.169122 0.258579
0.600290 0.169122 0.258462
0.639076 0.169122 0.258397
1.000033 0.169122 0.257556
0.000000 0.233925 0.259268
0.032153 0.233927 0.259268
0.074069 0.233952 0.259268
0.119824 0.233949 0.259268
0.167644 0.233980 0.259268
0.216639 0.233950 0.259511
0.266055 0.233986 0.259250
0.315762 0.233986 0.259232
0.365684 0.233986 0.259207
0.415113 0.233986 0.259152
0.463858 0.233986 0.259130
0.511519 0.233986 0.259093
0.557193 0.233986 0.259062
0.600290 0.233986 0.259046
0.639076 0.233986 0.259037
1.000033 0.233986 0.258819
0.000000 0.300766 0.259136
0.032153 0.300766 0.259133
0.074069 0.300766 0.259154
0.119824 0.300766 0.259171
0.167644 0.300766 0.259207
0.216575 0.300766 0.259249
0.266025 0.300766 0.259268
0.315762 0.300735 0.259268
0.365684 0.300652 0.259268
0.415113 0.300590 0.259268
0.463858 0.300506 0.259268
0.511519 0.300481 0.259268
0.557193 0.300381 0.259268
0.600290 0.300305 0.259268
0.639076 0.300254 0.259268
1.000033 0.299742 0.259268
0.000000 0.368692 0.258907
0.032153 0.368692 0.258921
0.074069 0.368692 0.258963
0.119824 0.368692 0.259026
0.167644 0.368692 0.259092
0.216575 0.368692 0.259230
0.265974 0.368692 0.259268
0.315703 0.368692 0.259268
0.365684 0.368651 0.259268
0.415113 0.368489 0.259268
0.463858 0.368362 0.259268
0.511519 0.368258 0.259268
0.557193 0.368003 0.259268
0.600290 0.367849 0.259268
0.639076 0.367736 0.259268
1.000033 0.366627 0.259268
0.000000 0.437799 0.258658
0.032153 0.437799 0.258694
0.074069 0.437799 0.258742
0.119824 0.437799 0.258828
0.167644 0.437799 0.258997
0.216575 0.437799 0.259206
0.265905 0.437799 0.259268
