luts/Vintage Gold.cube
TITLE "Generated by Resolve"
LUT_3D_SIZE 9
0.00128176 4.57771e-05 0
0.0336461 0.00172427 0
0.215061 0.0103151 0.00225834
0.572961 0.0314031 0.00863661
0.891569 0.0465095 0.0139773
0.982071 0.0495308 0.0142214
0.982071 0.0495308 0.0142214
0.982071 0.0495308 0.0142214
0.982071 0.0495308 0.0142214
0.00274662 0.0142977 0.00138857
0.00402838 0.00489815 0
0.186297 0.00920119 0.00180056
0.544381 0.0298619 0.00817884
0.866468 0.045594 0.0136873
0.982071 0.0495308 0.0142214
0.982071 0.0495308 0.0142214
0.982071 0.0495308 0.0142214
0.982071 0.0495308 0.0142214
0.0159915 0.150973 0.0149844
0.0151064 0.139528 0.014023
0.119005 0.124727 0.0128176
0.47689 0.105089 0.00926223
0.845563 0.0443122 0.0145418
0.982071 0.0495308 0.0142214
0.982071 0.0495308 0.0142214
0.982071 0.0495308 0.0142214
0.982071 0.0495308 0.0142214
0.0371557 0.415152 0.0457008
0.0352789 0.396536 0.0431678
0.0336919 0.380728 0.041001
0.354711 0.343084 0.0323644
0.78761 0.363287 0.0360571
0.975921 0.299611 0.0242161
0.976089 0.264973 0.0207675
0.976104 0.259785 0.0204013
0.976028 0.281025 0.0219577
0.0720226 0.742367 0.0858167
0.0705119 0.725643 0.0840162
0.0694591 0.714214 0.0827497
0.178576 0.694041 0.0796368
0.68011 0.681544 0.0758221
0.960296 0.658244 0.0760815
0.968551 0.640238 0.074464
0.968566 0.639216 0.0743725
0.968353 0.654994 0.0758068
0.0932479 0.941039 0.111467
0.0932479 0.941039 0.111467
0.0932479 0.941039 0.111467
0.0932479 0.941039 0.111467
0.547158 0.955856 0.109285
0.882094 0.926268 0.105165
0.963867 0.901564 0.101152
0.963806 0.896819 0.100389
0.963958 0.908751 0.102281
0.0932479 0.941039 0.111467
0.0932479 0.941039 0.111467
0.0932479 0.941039 0.111467
0.0932479 0.941039 0.111467
0.462242 0.957549 0.109972
0.830945 0.971191 0.112367
0.964767 0.97229 0.112428
0.964767 0.97229 0.112428
0.964767 0.97229 0.112428
0.0932479 0.941039 0.111467
0.0932479 0.941039 0.111467
0.0932479 0.941039 0.111467
0.0932479 0.941039 0.111467
0.44712 0.956695 0.109957
0.817243 0.970932 0.112306
0.952987 0.972198 0.112398
0.964767 0.97229 0.112428
0.964767 0.97229 0.112428
0.0932479 0.941039 0.111467
0.0932479 0.941039 0.111467
0.0932479 0.941039 0.111467
0.0932479 0.941039 0.111467
0.515846 0.960433 0.110109
0.842939 0.97142 0.112428
0.95874 0.972244 0.112413
0.964767 0.97229 0.112428
0.964767 0.97229 0.112428
0.00128176 4.57771e-05 0.00453193
0.0150454 0.000259403 0.00384527
0.210483 0.00267033 0.00349432
0.572198 0.018616 0.00590524
0.89012 0.0464485 0.013962
0.982071 0.0495308 0.0142214
0.982071 0.0495308 0.0142214
0.982071 0.0495308 0.0142214
0.982071 0.0495308 0.0142214
0.00128176 0.00399786 0.00198367
0.0030518 0.00169375 0.00149538
0.179507 0.00511177 0.00190738
0.538659 0.0267796 0.00735485
0.862623 0.0454566 0.0136416
0.982071 0.0495308 0.0142214
0.982071 0.0495308 0.0142214
0.982071 0.0495308 0.0142214
0.982071 0.0495308 0.0142214
0.0152132 0.140993 0.0141756
0.0142672 0.128756 0.0131228
0.113954 0.114351 0.0120851
0.474723 0.0852369 0.00885023
0.840269 0.0439155 0.0136568
0.982071 0.0495308 0.0142214
0.982071 0.0495308 0.0142214
0.982071 0.0495308 0.0142214
0.982071 0.0495308 0.0142214
0.0360113 0.403784 0.0441444
0.0340124 0.384024 0.0414435
0.0324712 0.368719 0.039353
0.348394 0.333165 0.0315251
0.781735 0.35021 0.0337682
0.975998 0.285252 0.0224765
0.97615 0.249058 0.0196231
0.976165 0.243015 0.0192111
0.976089 0.264408 0.0207218
0.0712749 0.734142 0.0849165
0.0697337 0.717067 0.0830701
0.0686351 0.705333 0.0817731
0.173877 0.684245 0.0783856
0.67335 0.671107 0.0746166
0.957687 0.648447 0.0751659
0.968704 0.629496 0.0734722
0.968719 0.628031 0.0733349
0.968505 0.64387 0.0747997
0.0932479 0.941039 0.111467
0.0932479 0.941039 0.111467
0.0932479 0.941039 0.111467
0.0932479 0.941039 0.111467
0.538552 0.945418 0.107637
0.878889 0.916197 0.103563
0.963729 0.89012 0.0993057
0.963653 0.88455 0.0984207
0.963806 0.89688 0.100389
0.0932479 0.941039 0.111467
0.0932479 0.941039 0.111467
0.0932479 0.941039 0.111467
0.0932479 0.941039 0.111467
0.448737 0.956786 0.109957
0.824826 0.971069 0.112352
0.964538 0.97229 0.112428
0.964767 0.97229 0.112428
0.964767 0.97229 0.112428
0.0932479 0.941039 0.111467
0.0932479 0.941039 0.111467
0.0932479 0.941039 0.111467
0.0932479 0.941039 0.111467
0.43061 0.955764 0.109957
0.809842 0.970779 0.112276
0.950164 0.972183 0.112398
0.964767 0.97229 0.112428
0.964767 0.97229 0.112428
0.0932479 0.941039 0.111467
0.0932479 0.941039 0.111467
0.0932479 0.941039 0.111467
0.0932479 0.941039 0.111467
0.499092 0.959579 0.110018
0.834791 0.971267 0.112383
0.955139 0.972213 0.112413
0.964767 0.97229 0.112428
0.964767 0.97229 0.112428
0.00128176 4.57771e-05 0.0704662
0.00929274 4.57771e-05 0.0695201
0.203937 4.57771e-05 0.0812848
0.577234 4.57771e-05 0.12546
0.898924 4.57771e-05 0.125628
0.988327 4.57771e-05 0.101595
0.987915 4.57771e-05 0.0940261
0.98819 4.57771e-05 0.0992447
0.989212 4.57771e-05 0.118166
0.00256352 0.000579843 0.0742657
0.00190738 4.57771e-05 0.0632486
0.170443 4.57771e-05 0.0630503
0.537072 4.57771e-05 0.0947738
0.866285 4.57771e-05 0.0929274
0.98616 4.57771e-05 0.062974
0.985428 4.57771e-05 0.0518654
0.985504 4.57771e-05 0.0529183
0.986374 4.57771e-05 0.0667124
0.0148623 0.123934 0.0867781
0.014023 0.111772 0.0782177
0.112108 0.0959793 0.079057
0.46862 0.0572213 0.0664378
0.841047 4.57771e-05 0.0565347
0.984115 4.57771e-05 0.0345159
0.983063 4.57771e-05 0.0222477
0.98294 4.57771e-05 0.0209049
0.983703 4.57771e-05 0.0296178
0.0344396 0.388281 0.0673075
0.032517 0.369329 0.059556
0.0309606 0.354009 0.0534066
0.341909 0.319585 0.0414282
0.777859 0.333654 0.0334173
0.976074 0.266804 0.0208896
0.976226 0.228397 0.0181582
0.976257 0.220417 0.0175937
0.976181 0.242237 0.0191501
0.0704204 0.72462 0.0838941
0.0688487 0.707683 0.0820325
0.0677195 0.695766 0.0806897
0.168444 0.673823 0.0771038
0.66807 0.660121 0.0733349
0.955322 0.637842 0.0741741
0.968856 0.61799 0.0724041
0.968902 0.615503 0.0721904
0.968673 0.63151 0.0736553
0.0932479 0.941039 0.111467
0.0932479 0.941039 0.111467
0.0932479 0.941039 0.111467
0.0932479 0.941039 0.111467
0.53225 0.933593 0.105745
0.876341 0.904585 0.101717
0.963561 0.877333 0.0972763
0.963485 0.871077 0.0962692
0.963638 0.882979 0.0981613
0.0932479 0.941039 0.111467
0.0932479 0.941039 0.111467
0.0932479 0.941039 0.111467
0.0932479 0.941039 0.111467
0.438117 0.956191 0.109957
0.819455 0.970962 0.112322
0.961913 0.972274 0.112428
0.964767 0.97229 0.112428
0.964767 0.97229 0.112428
0.0932479 0.941039 0.111467
0.0932479 0.941039 0.111467
0.0932479 0.941039 0.111467
0.0932479 0.941039 0.111467
0.417441 0.955032 0.109941
0.80354 0.970657 0.112245
0.946899 0.972168 0.112383
0.964767 0.97229 0.112428
0.964767 0.97229 0.112428
0.0932479 0.941039 0.111467
0.0932479 0.941039 0.111467
0.0932479 0.941039 0.111467
0.0932479 0.941039 0.111467
0.484672 0.958801 0.109987
0.82739 0.971115 0.112352
0.951125 0.972198 0.112398
0.964767 0.97229 0.112428
0.964767 0.97229 0.112428
0.00645457 4.57771e-05 0.306691
0.00833143 4.57771e-05 0.305943
0.222553 4.57771e-05 0.320195
0.58172 4.57771e-05 0.367636
0.908934 4.57771e-05 0.390753
0.998077 4.57771e-05 0.381094
0.998123 4.57771e-05 0.384039
0.998337 4.57771e-05 0.394629
0.998779 4.57771e-05 0.416678
0.00633249 4.57771e-05 0.301244
0.0061799 4.57771e-05 0.294514
0.179431 4.57771e-05 0.298924
0.537179 4.57771e-05 0.334401
0.87364 4.57771e-05 0.355932
0.997192 4.57771e-05 0.340322
0.997177 4.57771e-05 0.339162
0.997375 4.57771e-05 0.347265
0.997787 4.57771e-05 0.367117
0.0184482 0.0711528 0.284886
0.0182803 0.0478218 0.283482
0.108309 0.0457618 0.260853
0.492424 0.0125582 0.307225
0.850019 4.57771e-05 0.333104
0.996567 4.57771e-05 0.315373
0.99646 4.57771e-05 0.311223
0.996597 4.57771e-05 0.316472
0.997055 4.57771e-05 0.334737
0.0313725 0.348318 0.258396
0.030869 0.330297 0.246174
0.0307164 0.315145 0.239017
0.334051 0.285893 0.221332
0.778256 0.226825 0.183978
0.985718 0.166949 0.197238
0.986984 0.136416 0.209079
0.987518 0.129259 0.216632
0.987625 0.144015 0.226993
0.0696269 0.706676 0.254185
0.0678569 0.689448 0.240955
0.0665904 0.676982 0.232807
0.143343 0.652796 0.207797
0.656733 0.636667 0.173648
0.951553 0.610849 0.160555
0.969848 0.589807 0.152193
0.969909 0.586618 0.15201
0.969665 0.601022 0.162341
0.0922713 0.943465 0.211963
0.0919966 0.943023 0.196048
0.0918288 0.942763 0.186114
0.0901961 0.93048 0.170169
0.518761 0.909987 0.136477
0.871946 0.881407 0.117266
0.963745 0.858747 0.107103
0.963836 0.854795 0.106172
0.963653 0.861479 0.114992
0.0917678 0.942611 0.179492
0.0915236 0.942061 0.155962
0.0913863 0.941695 0.141665
0.0923629 0.941375 0.127672
0.422293 0.955322 0.112947
0.811215 0.97081 0.112276
0.956771 0.972229 0.112413
0.964767 0.97229 0.112428
0.964767 0.97229 0.112428
0.0918135 0.942733 0.18471
0.0915236 0.942077 0.156527
0.0915999 0.941634 0.138384
0.0928206 0.941222 0.122454
0.397803 0.953994 0.11075
0.794171 0.970474 0.1122
0.941329 0.972122 0.112383
0.964767 0.97229 0.112428
0.964767 0.97229 0.112428
0.0927291 0.944198 0.238376
0.0922408 0.94342 0.21033
0.0918593 0.942809 0.188083
0.0915847 0.942199 0.161807
0.462074 0.95787 0.12842
0.815732 0.970916 0.114153
0.944472 0.972137 0.112383
0.964767 0.97229 0.112428
0.964767 0.97229 0.112428
0.0132601 4.57771e-05 0.612024
0.0132601 4.57771e-05 0.612024
0.249119 4.57771e-05 0.619089
0.59826 4.57771e-05 0.629984
0.906004 4.57771e-05 0.64535
1 4.57771e-05 0.637583
1 4.57771e-05 0.639826
1 4.57771e-05 0.645991
1 4.57771e-05 0.657435
0.0131685 4.57771e-05 0.607569
0.0130312 4.57771e-05 0.601144
0.196368 4.57771e-05 0.599542
0.556878 4.57771e-05 0.603922
0.870329 4.57771e-05 0.61976
1 4.57771e-05 0.609949
1 4.57771e-05 0.610803
1 4.57771e-05 0.616144
1 4.57771e-05 0.629282
0.0130159 4.57771e-05 0.60058
0.0128176 4.57771e-05 0.590402
0.0957961 4.57771e-05 0.585824
0.520333 4.57771e-05 0.587564
0.84625 4.57771e-05 0.605035
1 4.57771e-05 0.594232
1 4.57771e-05 0.593545
1 4.57771e-05 0.597757
1 4.57771e-05 0.610315
0.0366064 0.325231 0.542885
0.0352026 0.306249 0.530602
0.0347753 0.289677 0.52459
0.336492 0.19968 0.526528
0.778912 0.150088 0.548455
0.995972 0.094667 0.545129
0.99736 0.0599374 0.549584
0.998169 0.0530251 0.555108
0.997147 0.0651102 0.56286
0.071397 0.669947 0.531868
0.0694133 0.651591 0.518624
0.0678874 0.637797 0.510414
0.124132 0.612375 0.501472
0.643183 0.582101 0.470207
0.955657 0.525414 0.44213
0.984161 0.497566 0.434791
0.984512 0.492363 0.437079
0.983948 0.511482 0.451118
0.0979019 0.947906 0.5019
0.0956893 0.931228 0.489754
0.0938125 0.916793 0.482689
0.090547 0.890913 0.474327
0.424994 0.865766 0.415869
0.859693 0.849393 0.402731
0.967559 0.822278 0.394003
0.967712 0.817578 0.394812
0.967681 0.82417 0.405905
0.0978103 0.949554 0.485954
0.0975052 0.94931 0.470787
0.0973068 0.949157 0.461128
0.0970779 0.948959 0.450324
0.277577 0.955856 0.423407
0.78085 0.975235 0.370657
0.945617 0.976745 0.363363
0.964004 0.976944 0.36286
0.964096 0.977005 0.372717
0.0979019 0.94963 0.490501
0.0975509 0.949355 0.47361
0.097322 0.949157 0.46183
0.0970626 0.948943 0.449104
0.264576 0.954528 0.421698
0.761654 0.974792 0.364187
0.928954 0.976532 0.355077
0.963897 0.976883 0.35198
0.963958 0.976913 0.358694
0.0985122 0.950072 0.520104
0.0982071 0.949859 0.504845
0.0979324 0.94966 0.491997
0.0976425 0.949416 0.477653
0.312398 0.958709 0.439399
0.781826 0.975479 0.388159
0.931273 0.976654 0.372412
0.963989 0.976928 0.36054
0.963958 0.976913 0.358465
0.0162661 4.57771e-05 0.764248
0.0162661 4.57771e-05 0.764172
0.240955 4.57771e-05 0.763851
0.605432 4.57771e-05 0.765652
0.902129 4.57771e-05 0.767681
1 4.57771e-05 0.757504
1 4.57771e-05 0.757504
1 4.57771e-05 0.760449
1 4.57771e-05 0.767941
0.0161746 4.57771e-05 0.760098
0.0161135 4.57771e-05 0.756527
0.176867 4.57771e-05 0.751736
0.563226 4.57771e-05 0.751247
0.864012 4.57771e-05 0.752178
1 4.57771e-05 0.741604
1 4.57771e-05 0.740536
1 4.57771e-05 0.742733
1 4.57771e-05 0.749645
0.0160525 4.57771e-05 0.753582
0.0159609 4.57771e-05 0.74844
0.0445106 4.57771e-05 0.74464
0.52781 4.57771e-05 0.741772
0.838376 4.57771e-05 0.741451
1 4.57771e-05 0.73135
1 4.57771e-05 0.72929
1 4.57771e-05 0.7308
1 4.57771e-05 0.736812
0.0441138 0.284886 0.708095
0.0440375 0.262058 0.701961
0.0428931 0.242893 0.698711
0.361685 0.146105 0.701762
0.775387 0.0951858 0.707485
1 0.0301366 0.708171
1 4.57771e-05 0.710842
1 4.57771e-05 0.711589
1 4.57771e-05 0.716503
0.0713664 0.644465 0.681559
0.0694896 0.62565 0.674861
0.0681621 0.6121 0.67042
0.105409 0.58764 0.665766
0.645258 0.535836 0.670832
0.957153 0.466255 0.637629
0.991394 0.436133 0.630304
0.991531 0.431937 0.630442
0.990921 0.453925 0.63444
0.0970016 0.91696 0.657206
0.0947585 0.898955 0.65182
0.0928359 0.883375 0.648386
0.0895857 0.856916 0.644053
0.400687 0.842664 0.625589
0.856107 0.822232 0.607263
0.97081 0.796399 0.602289
0.970962 0.791852 0.601526
0.970733 0.799344 0.606989
0.100877 0.951751 0.639078
0.10071 0.951614 0.630808
0.100587 0.951492 0.62501
0.10045 0.95137 0.617899
0.264347 0.958129 0.612985
0.771817 0.975189 0.57261
0.940749 0.975021 0.565011
0.967102 0.965194 0.563455
0.967132 0.967193 0.568521
0.100862 0.951751 0.638605
0.100679 0.951568 0.629007
0.100526 0.951431 0.621851
0.100359 0.951278 0.613458
0.251133 0.956786 0.606638
0.750729 0.975021 0.564095
0.923568 0.976242 0.555688
0.96669 0.976684 0.552331
0.966735 0.976654 0.55494
0.101183 0.951949 0.656397
0.100999 0.951827 0.645792
0.100847 0.951736 0.637613
0.100649 0.951553 0.627604
0.28043 0.959792 0.620447
0.771389 0.975158 0.575799
0.925322 0.976196 0.562844
0.96672 0.976669 0.55436
0.966705 0.976684 0.552865
0.017792 4.57771e-05 0.855772
0.017792 4.57771e-05 0.855634
0.227329 4.57771e-05 0.851896
0.603662 4.57771e-05 0.850904
0.896742 4.57771e-05 0.848692
1 4.57771e-05 0.841291
1 4.57771e-05 0.840665
1 4.57771e-05 0.842451
1 4.57771e-05 0.847623
0.0177462 4.57771e-05 0.852033
0.0177005 4.57771e-05 0.849332
0.152743 4.57771e-05 0.842878
0.559747 4.57771e-05 0.841276
0.857771 4.57771e-05 0.837644
1 4.57771e-05 0.829328
1 4.57771e-05 0.827939
1 4.57771e-05 0.829282
1 4.57771e-05 0.83418
0.0176547 4.57771e-05 0.846464
0.0176089 4.57771e-05 0.843046
0.0192416 4.57771e-05 0.840757
0.523339 4.57771e-05 0.83444
0.832517 4.57771e-05 0.829572
1 4.57771e-05 0.820935
1 4.57771e-05 0.818753
1 4.57771e-05 0.819577
1 4.57771e-05 0.823743
0.0469978 0.24097 0.809339
0.046067 0.215808 0.805173
0.0453193 0.193072 0.802319
0.373159 0.105577 0.803174
0.774197 0.0527962 0.8065
1 4.57771e-05 0.805982
1 4.57771e-05 0.803174
1 4.57771e-05 0.80325
1 4.57771e-05 0.806592
0.0708629 0.627466 0.784436
0.0690929 0.608804 0.780743
0.0677501 0.594522 0.777966
0.0912947 0.570352 0.774945
0.629007 0.484886 0.779004
0.955795 0.423957 0.758236
0.994659 0.393866 0.749462
0.99469 0.389731 0.749065
0.994247 0.412039 0.751232
0.095552 0.891936 0.761288
0.0932326 0.873014 0.757839
0.0912947 0.857069 0.755398
0.0896773 0.839323 0.750607
0.391089 0.823697 0.747372
0.860349 0.810529 0.744076
0.973114 0.78175 0.726253
0.973373 0.776974 0.725093
0.972992 0.784649 0.728664
0.102571 0.952712 0.743282
0.10248 0.952682 0.737484
0.102419 0.952651 0.733089
0.102327 0.952621 0.727367
0.258305 0.958633 0.727138
0.775006 0.969726 0.704433
0.938689 0.945174 0.698344
0.969482 0.934737 0.696925
0.969467 0.936706 0.699962
0.102541 0.952697 0.741588
0.102434 0.952667 0.734493
0.102358 0.952636 0.729427
0.102266 0.95259 0.722637
0.244053 0.957351 0.720485
0.751507 0.974029 0.695079
0.920577 0.974777 0.689601
0.968719 0.975082 0.686336
0.968734 0.975067 0.687449
0.102724 0.952773 0.753689
0.102602 0.952728 0.746014
0.10251 0.952697 0.73991
0.102403 0.952651 0.732021
0.27303 0.959945 0.730037
0.770901 0.974105 0.70309
0.92137 0.974731 0.693111
0.968719 0.975082 0.686122
0.968688 0.975113 0.684779
0.0183719 4.57771e-05 0.893614
0.0183719 4.57771e-05 0.893614
0.215717 4.57771e-05 0.887587
0.601709 4.57771e-05 0.886534
0.8934 4.57771e-05 0.886809
1 4.57771e-05 0.8869
1 4.57771e-05 0.8869
1 4.57771e-05 0.8869
1 4.57771e-05 0.8869
0.0183719 4.57771e-05 0.893614
0.0183719 4.57771e-05 0.893614
0.124529 4.57771e-05 0.888457
0.555917 4.57771e-05 0.886763
0.852613 4.57771e-05 0.885664
1 4.57771e-05 0.8869
1 4.57771e-05 0.885817
1 4.57771e-05 0.886442
1 4.57771e-05 0.8869
0.0183719 4.57771e-05 0.893614
0.0183719 4.57771e-05 0.893614
0.0184634 4.57771e-05 0.893523
0.517769 4.57771e-05 0.886976
0.826001 4.57771e-05 0.883696
1 4.57771e-05 0.880629
1 4.57771e-05 0.878248
1 4.57771e-05 0.87834
1 4.57771e-05 0.881025
0.0487221 0.206821 0.870237
0.0484016 0.178622 0.867643
0.0483558 0.152712 0.865797
0.378653 0.074464 0.867323
0.776333 0.0112612 0.870192
1 4.57771e-05 0.866926
1 4.57771e-05 0.864103
1 4.57771e-05 0.863706
1 4.57771e-05 0.865599
0.0700999 0.613397 0.850492
0.0683299 0.593439 0.848341
0.0669871 0.578103 0.846281
0.0819715 0.553155 0.84329
0.623331 0.457664 0.844892
0.954681 0.395148 0.83267
0.996307 0.366552 0.822873
0.996307 0.362249 0.821973
0.996124 0.384283 0.823117
0.094255 0.874037 0.829694
0.0920119 0.8551 0.827985
0.0910506 0.844556 0.825162
0.0894484 0.826825 0.819944
0.388586 0.806317 0.822141
0.868757 0.806287 0.829343
0.976745 0.766217 0.797559
0.977157 0.760906 0.796033
0.976532 0.768963 0.79823
0.103517 0.953094 0.811566
0.103456 0.953063 0.807462
0.103426 0.953048 0.804334
0.103349 0.953017 0.79942
0.25481 0.958907 0.802152
0.776577 0.954376 0.789075
0.939223 0.927062 0.785168
0.971633 0.915694 0.782498
0.971679 0.917723 0.784054
0.103471 0.953079 0.808637
0.10341 0.953048 0.803677
0.103365 0.953033 0.799832
0.103273 0.953002 0.794186
0.240177 0.957687 0.794675
0.745556 0.973266 0.774258
0.919066 0.973709 0.773953
0.96875 0.973953 0.770855
0.96968 0.973953 0.771115
0.103578 0.953109 0.816495
0.103517 0.953079 0.811048
0.103456 0.953063 0.806455
0.103365 0.953033 0.799847
0.267384 0.959899 0.801297
0.762203 0.973342 0.778195
0.918929 0.973693 0.774792
0.965515 0.973953 0.76968
0.96965 0.973983 0.768856
0.0183719 4.57771e-05 0.893614
0.0183719 4.57771e-05 0.893614
0.215671 4.57771e-05 0.887587
0.606775 4.57771e-05 0.886519
0.8981 4.57771e-05 0.8869
1 4.57771e-05 0.8869
1 4.57771e-05 0.8869
1 4.57771e-05 0.8869
1 4.57771e-05 0.8869
0.0183719 4.57771e-05 0.893614
0.0183719 4.57771e-05 0.893614
0.112413 4.57771e-05 0.888991
0.558938 4.57771e-05 0.886748
0.856611 4.57771e-05 0.885786
1 4.57771e-05 0.8869
1 4.57771e-05 0.8869
1 4.57771e-05 0.8869
1 4.57771e-05 0.8869
0.0183719 4.57771e-05 0.893614
0.0183719 4.57771e-05 0.893614
0.0183719 4.57771e-05 0.893614
0.5196 4.57771e-05 0.886961
0.82884 4.57771e-05 0.884916
1 4.57771e-05 0.8869
1 4.57771e-05 0.8869
1 4.57771e-05 0.8869
1 4.57771e-05 0.8869
0.0485847 0.193469 0.872084
0.048661 0.16321 0.87219
0.0487373 0.134707 0.872282
0.383612 0.0598459 0.87747
0.779187 4.57771e-05 0.884489
1 4.57771e-05 0.8869
1 4.57771e-05 0.8869
1 4.57771e-05 0.8869
1 4.57771e-05 0.8869
0.0699474 0.609079 0.87805
0.0681773 0.588144 0.87808
0.066865 0.572305 0.87808
0.0797436 0.546532 0.878691
0.624216 0.447303 0.881346
0.951934 0.385107 0.870222
0.997772 0.35668 0.864363
0.997772 0.352636 0.863142
0.997543 0.374441 0.863493
0.0927291 0.861738 0.865339
0.09131 0.847303 0.863355
0.0903792 0.836896 0.861097
0.0888075 0.819104 0.856733
0.393622 0.795819 0.860502
0.870893 0.800671 0.870146
0.979217 0.758343 0.837293
0.979522 0.752895 0.83563
0.979004 0.761044 0.836835
0.100847 0.935637 0.851194
0.101122 0.937377 0.848249
0.10135 0.938827 0.845701
0.101778 0.941421 0.84126
0.261601 0.951598 0.84509
0.786099 0.948089 0.842023
0.94461 0.921874 0.835447
0.975875 0.909728 0.830427
0.975906 0.911528 0.831266
0.101198 0.937804 0.847395
0.101534 0.939971 0.843763
0.101839 0.941863 0.840558
0.102312 0.944747 0.835569
0.243656 0.954055 0.837613
0.746181 0.972808 0.819806
0.919341 0.973266 0.817914
0.966934 0.973266 0.814771
0.970214 0.973266 0.81471
0.10071 0.934768 0.852628
0.101076 0.937087 0.848661
0.101442 0.939406 0.844785
0.102007 0.94287 0.838849
0.270314 0.954681 0.84184
0.759793 0.972763 0.821454
0.918456 0.973266 0.817685
0.963699 0.973297 0.81323
0.970199 0.973312 0.812512
