luts/Vintage Gold.cube
TITLE "Generated by Resolve"
LUT_3D_SIZE 5
0.00128176 4.57771e-05 0
0.215061 0.0103151 0.00225834
0.891569 0.0465095 0.0139773
0.982071 0.0495308 0.0142214
0.982071 0.0495308 0.0142214
0.0159915 0.150973 0.0149844
0.119005 0.124727 0.0128176
0.845563 0.0443122 0.0145418
0.982071 0.0495308 0.0142214
0.982071 0.0495308 0.0142214
0.0720226 0.742367 0.0858167
0.0694591 0.714214 0.0827497
0.68011 0.681544 0.0758221
0.968551 0.640238 0.074464
0.968353 0.654994 0.0758068
0.0932479 0.941039 0.111467
0.0932479 0.941039 0.111467
0.462242 0.957549 0.109972
0.964767 0.97229 0.112428
0.964767 0.97229 0.112428
0.0932479 0.941039 0.111467
0.0932479 0.941039 0.111467
0.515846 0.960433 0.110109
0.95874 0.972244 0.112413
0.964767 0.97229 0.112428
0.00128176 4.57771e-05 0.0704662
0.203937 4.57771e-05 0.0812848
0.898924 4.57771e-05 0.125628
0.987915 4.57771e-05 0.0940261
0.989212 4.57771e-05 0.118166
0.0148623 0.123934 0.0867781
0.112108 0.0959793 0.079057
0.841047 4.57771e-05 0.0565347
0.983063 4.57771e-05 0.0222477
0.983703 4.57771e-05 0.0296178
0.0704204 0.72462 0.0838941
0.0677195 0.695766 0.0806897
0.66807 0.660121 0.0733349
0.968856 0.61799 0.0724041
0.968673 0.63151 0.0736553
0.0932479 0.941039 0.111467
0.0932479 0.941039 0.111467
0.438117 0.956191 0.109957
0.961913 0.972274 0.112428
0.964767 0.97229 0.112428
0.0932479 0.941039 0.111467
0.0932479 0.941039 0.111467
0.484672 0.958801 0.109987
0.951125 0.972198 0.112398
0.964767 0.97229 0.112428
0.0132601 4.57771e-05 0.612024
0.249119 4.57771e-05 0.619089
0.906004 4.57771e-05 0.64535
1 4.57771e-05 0.639826
1 4.57771e-05 0.657435
0.0130159 4.57771e-05 0.60058
0.0957961 4.57771e-05 0.585824
0.84625 4.57771e-05 0.605035
1 4.57771e-05 0.593545
1 4.57771e-05 0.610315
0.071397 0.669947 0.531868
0.0678874 0.637797 0.510414
0.643183 0.582101 0.470207
0.984161 0.497566 0.434791
0.983948 0.511482 0.451118
0.0978103 0.949554 0.485954
0.0973068 0.949157 0.461128
0.277577 0.955856 0.423407
0.945617 0.976745 0.363363
0.964096 0.977005 0.372717
0.0985122 0.950072 0.520104
0.0979324 0.94966 0.491997
0.312398 0.958709 0.439399
0.931273 0.976654 0.372412
0.963958 0.976913 0.358465
0.017792 4.57771e-05 0.855772
0.227329 4.57771e-05 0.851896
0.896742 4.57771e-05 0.848692
1 4.57771e-05 0.840665
1 4.57771e-05 0.847623
0.0176547 4.57771e-05 0.846464
0.0192416 4.57771e-05 0.840757
0.832517 4.57771e-05 0.829572
1 4.57771e-05 0.818753
1 4.57771e-05 0.823743
0.0708629 0.627466 0.784436
0.0677501 0.594522 0.777966
0.629007 0.484886 0.779004
0.994659 0.393866 0.749462
0.994247 0.412039 0.751232
0.102571 0.952712 0.743282
0.102419 0.952651 0.733089
0.258305 0.958633 0.727138
0.938689 0.945174 0.698344
0.969467 0.936706 0.699962
0.102724 0.952773 0.753689
0.10251 0.952697 0.73991
0.27303 0.959945 0.730037
0.92137 0.974731 0.693111
0.968688 0.975113 0.684779
0.0183719 4.57771e-05 0.893614
0.215671 4.57771e-05 0.887587
0.8981 4.57771e-05 0.8869
1 4.57771e-05 0.8869
1 4.57771e-05 0.8869
0.0183719 4.57771e-05 0.893614
0.0183719 4.57771e-05 0.893614
0.82884 4.57771e-05 0.884916
1 4.57771e-05 0.8869
1 4.57771e-05 0.8869
0.0699474 0.609079 0.87805
0.066865 0.572305 0.87808
0.624216 0.447303 0.881346
0.997772 0.35668 0.864363
0.997543 0.374441 0.863493
0.100847 0.935637 0.851194
0.10135 0.938827 0.845701
0.261601 0.951598 0.84509
0.94461 0.921874 0.835447
0.975906 0.911528 0.831266
0.10071 0.934768 0.852628
0.101442 0.939406 0.844785
0.270314 0.954681 0.84184
0.918456 0.973266 0.817685
0.970199 0.973312 0.812512
