luts/Vintage Gold.cube
TITLE "Generated by Resolve"
LUT_3D_SIZE 33
0.00128176 4.57771e-05 0
0.00128176 4.57771e-05 0
0.00166323 4.57771e-05 0
0.00590524 4.57771e-05 0
0.0336461 0.00172427 0
0.0708629 0.00376898 4.57771e-05
0.108324 0.00531014 0.000549325
0.15523 0.00732433 0.00125124
0.215061 0.0103151 0.00225834
0.293355 0.0149691 0.0037232
0.384161 0.0206455 0.00552377
0.47837 0.0261387 0.0071107
0.572961 0.0314031 0.00863661
0.663828 0.0362554 0.0102083
0.746365 0.0401923 0.0116579
0.823301 0.0437018 0.0129549
0.891569 0.0465095 0.0139773
0.958236 0.0487526 0.0142367
0.982071 0.0495308 0.0142214
0.982071 0.0495308 0.0142214
0.982071 0.0495308 0.0142214
0.982071 0.0495308 0.0142214
0.982071 0.0495308 0.0142214
0.982071 0.0495308 0.0142214
0.982071 0.0495308 0.0142214
0.982071 0.0495308 0.0142214
0.982071 0.0495308 0.0142214
0.982071 0.0495308 0.0142214
0.982071 0.0495308 0.0142214
0.982071 0.0495308 0.0142214
0.982071 0.0495308 0.0142214
0.982071 0.0495308 0.0142214
0.982071 0.0495308 0.0142214
0.00128176 4.57771e-05 0
0.00128176 4.57771e-05 0
0.00134279 4.57771e-05 0
0.00404364 4.57771e-05 0
0.0242161 0.00115969 0
0.063386 0.0033875 0
0.102556 0.00508125 0.00047303
0.150744 0.00712596 0.00117494
0.210849 0.010071 0.00218204
0.28925 0.0147097 0.00363165
0.381155 0.0204776 0.00547799
0.475807 0.0259861 0.00706493
0.570794 0.0312963 0.00860609
0.662074 0.0361639 0.0101778
0.744121 0.0400854 0.0116121
0.820356 0.0435645 0.0129091
0.888685 0.0464027 0.0139467
0.954376 0.0486305 0.0142519
0.982071 0.0495308 0.0142214
0.982071 0.0495308 0.0142214
0.982071 0.0495308 0.0142214
0.982071 0.0495308 0.0142214
0.982071 0.0495308 0.0142214
0.982071 0.0495308 0.0142214
0.982071 0.0495308 0.0142214
0.982071 0.0495308 0.0142214
0.982071 0.0495308 0.0142214
0.982071 0.0495308 0.0142214
0.982071 0.0495308 0.0142214
0.982071 0.0495308 0.0142214
0.982071 0.0495308 0.0142214
0.982071 0.0495308 0.0142214
0.982071 0.0495308 0.0142214
0.00128176 0.000137331 0
0.00128176 7.62951e-05 0
0.00128176 4.57771e-05 0
0.00262455 4.57771e-05 0
0.013489 0.00047303 0
0.0532387 0.00285344 0
0.0956436 0.00480659 0.000381476
0.143816 0.00682078 0.00106813
0.203525 0.00965896 0.00205997
0.281453 0.0141909 0.0034638
0.373663 0.0200351 0.00534066
0.468299 0.0255589 0.00694286
0.564279 0.0309453 0.00849927
0.654627 0.0357671 0.0100404
0.736919 0.039765 0.01149
0.81268 0.0432136 0.0127718
0.88159 0.0461433 0.0138552
0.945953 0.0483558 0.0142519
0.982071 0.0495308 0.0142214
0.982071 0.0495308 0.0142214
0.982071 0.0495308 0.0142214
0.982071 0.0495308 0.0142214
0.982071 0.0495308 0.0142214
0.982071 0.0495308 0.0142214
0.982071 0.0495308 0.0142214
0.982071 0.0495308 0.0142214
0.982071 0.0495308 0.0142214
0.982071 0.0495308 0.0142214
0.982071 0.0495308 0.0142214
0.982071 0.0495308 0.0142214
0.982071 0.0495308 0.0142214
0.982071 0.0495308 0.0142214
0.982071 0.0495308 0.0142214
0.00128176 0.00241093 0
0.00128176 0.00195315 0
0.00128176 0.00151064 0
0.00175479 0.00112917 0
0.00595102 0.000839246 0
0.0433967 0.00204471 0.000289921
0.0878462 0.00367742 0.000732433
0.136126 0.00598154 0.00120546
0.194766 0.00915541 0.00190738
0.27219 0.013611 0.00326543
0.36524 0.0195315 0.00520333
0.459266 0.0250401 0.00680552
0.554192 0.030396 0.00833143
0.644266 0.0352178 0.00985733
0.727337 0.0393072 0.0113222
0.803403 0.0428016 0.0126192
0.87393 0.0458686 0.0137636
0.936553 0.0480507 0.0142672
0.982071 0.0495308 0.0142214
0.982071 0.0495308 0.0142214
0.982071 0.0495308 0.0142214
0.982071 0.0495308 0.0142214
0.982071 0.0495308 0.0142214
0.982071 0.0495308 0.0142214
0.982071 0.0495308 0.0142214
0.982071 0.0495308 0.0142214
0.982071 0.0495308 0.0142214
0.982071 0.0495308 0.0142214
0.982071 0.0495308 0.0142214
0.982071 0.0495308 0.0142214
0.982071 0.0495308 0.0142214
0.982071 0.0495308 0.0142214
0.982071 0.0495308 0.0142214
0.00274662 0.0142977 0.00138857
0.00231937 0.0116732 0.000976577
0.00180056 0.00866712 0.000488289
0.00135805 0.00573739 0
0.00402838 0.00489815 0
0.0334936 0.00424201 0.000518807
0.0806897 0.00404364 0.00141909
0.128893 0.004654 0.00244144
0.186297 0.00920119 0.00180056
0.262806 0.0130617 0.00308232
0.355138 0.0189364 0.00502022
0.448981 0.024445 0.00663767
0.544381 0.0298619 0.00817884
0.634241 0.0346838 0.00968948
0.717968 0.0388647 0.0111543
0.795163 0.0424201 0.0124666
0.866468 0.045594 0.0136873
0.927916 0.047776 0.0142672
0.982071 0.0495308 0.0142214
0.982071 0.0495308 0.0142214
0.982071 0.0495308 0.0142214
0.982071 0.0495308 0.0142214
0.982071 0.0495308 0.0142214
0.982071 0.0495308 0.0142214
0.982071 0.0495308 0.0142214
0.982071 0.0495308 0.0142214
0.982071 0.0495308 0.0142214
0.982071 0.0495308 0.0142214
0.982071 0.0495308 0.0142214
0.982071 0.0495308 0.0142214
0.982071 0.0495308 0.0142214
0.982071 0.0495308 0.0142214
0.982071 0.0495308 0.0142214
0.00706493 0.0429389 0.00547799
0.00666819 0.0400397 0.00509651
0.00624094 0.0369726 0.00469978
0.00576791 0.0337682 0.00425727
0.00451667 0.0305638 0.00422675
0.0199283 0.0271305 0.00408942
0.0691234 0.0225528 0.00367742
0.121157 0.00996414 0.00331121
0.179095 0.0131838 0.00222782
0.253742 0.0156863 0.00292973
0.34519 0.0191196 0.00482185
0.439841 0.0237736 0.00654612
0.536065 0.0294041 0.0080415
0.627054 0.0343023 0.00956741
0.711711 0.0385595 0.0110475
0.788663 0.0421302 0.0123598
0.860929 0.0453803 0.013611
0.921798 0.0475776 0.0142824
0.982071 0.0495308 0.0142214
0.982071 0.0495308 0.0142214
0.982071 0.0495308 0.0142214
0.982071 0.0495308 0.0142214
0.982071 0.0495308 0.0142214
0.982071 0.0495308 0.0142214
0.982071 0.0495308 0.0142214
0.982071 0.0495308 0.0142214
0.982071 0.0495308 0.0142214
0.982071 0.0495308 0.0142214
0.982071 0.0495308 0.0142214
0.982071 0.0495308 0.0142214
0.982071 0.0495308 0.0142214
0.982071 0.0495308 0.0142214
0.982071 0.0495308 0.0142214
0.0102541 0.0752117 0.00872816
0.0100557 0.0726177 0.00852979
0.00985733 0.0697032 0.00828565
0.00962844 0.066804 0.0080415
0.00843824 0.0641642 0.00807202
0.00773632 0.0610208 0.0089723
0.0487678 0.0594492 0.00810254
0.110506 0.0330358 0.00367742
0.173114 0.022385 0.0037232
0.248417 0.0209201 0.00537118
0.338598 0.0230869 0.00646983
0.432364 0.0270542 0.00683604
0.530953 0.0286107 0.00866712
0.620737 0.0339666 0.00944533
0.706249 0.0383001 0.010956
0.783642 0.0419013 0.0122835
0.856229 0.045182 0.0135195
0.917021 0.0474098 0.0142824
0.982071 0.0495308 0.0142214
0.982071 0.0495308 0.0142214
0.982071 0.0495308 0.0142214
0.982071 0.0495308 0.0142214
0.982071 0.0495308 0.0142214
0.982071 0.0495308 0.0142214
0.982071 0.0495308 0.0142214
0.982071 0.0495308 0.0142214
0.982071 0.0495308 0.0142214
0.982071 0.0495308 0.0142214
0.982071 0.0495308 0.0142214
0.982071 0.0495308 0.0142214
0.982071 0.0495308 0.0142214
0.982071 0.0495308 0.0142214
0.982071 0.0495308 0.0142214
0.0128939 0.110887 0.0116121
0.0126955 0.108248 0.0113985
0.0124514 0.105089 0.0111238
0.0122072 0.101961 0.0108644
0.0120089 0.0992294 0.0106508
0.0111696 0.096437 0.0111391
0.0214084 0.0935225 0.0116121
0.0737011 0.0858625 0.0100404
0.144717 0.0712291 0.00791943
0.217807 0.0593881 0.00823987
0.317159 0.0464027 0.00970474
0.431708 0.0368811 0.010956
0.505959 0.0489052 0.00814832
0.615137 0.0376745 0.0113069
0.700984 0.0371557 0.0118563
0.778027 0.0416419 0.012192
0.851347 0.0449531 0.0134432
0.913146 0.0472725 0.0142367
0.979568 0.0494392 0.0142214
0.982071 0.0495308 0.0142214
0.982071 0.0495308 0.0142214
0.982071 0.0495308 0.0142214
0.982071 0.0495308 0.0142214
0.982071 0.0495308 0.0142214
0.982071 0.0495308 0.0142214
0.982071 0.0495308 0.0142214
0.982071 0.0495308 0.0142214
0.982071 0.0495308 0.0142214
0.982071 0.0495308 0.0142214
0.982071 0.0495308 0.0142214
0.982071 0.0495308 0.0142214
0.982071 0.0495308 0.0142214
0.982071 0.0495308 0.0142214
0.0159915 0.150973 0.0149844
0.0157626 0.148211 0.0147555
0.0155184 0.145037 0.0144808
0.0152895 0.142016 0.0142214
0.0151064 0.139528 0.014023
0.0148928 0.136767 0.0137942
0.0184939 0.13373 0.0140841
0.0357519 0.129839 0.0150607
0.119005 0.124727 0.0128176
0.180499 0.118273 0.0120089
0.25391 0.116991 0.0110018
0.358343 0.112474 0.00970474
0.47689 0.105089 0.00926223
0.583642 0.0909895 0.00953689
0.681773 0.0721752 0.0109102
0.770565 0.0530556 0.0136721
0.845563 0.0443122 0.0145418
0.90779 0.0470893 0.0141756
0.973465 0.0492409 0.0142214
0.982071 0.0495308 0.0142214
0.982071 0.0495308 0.0142214
0.982071 0.0495308 0.0142214
0.982071 0.0495308 0.0142214
0.982071 0.0495308 0.0142214
0.982071 0.0495308 0.0142214
0.982071 0.0495308 0.0142214
0.982071 0.0495308 0.0142214
0.982071 0.0495308 0.0142214
0.982071 0.0495308 0.0142214
0.982071 0.0495308 0.0142214
0.982071 0.0495308 0.0142214
0.982071 0.0495308 0.0142214
0.982071 0.0495308 0.0142214
0.0203555 0.200595 0.0198367
0.0200656 0.197421 0.0195163
0.0197604 0.193896 0.0191806
0.0194705 0.190707 0.0188602
0.0191958 0.187549 0.0185397
0.0189212 0.184588 0.0182498
0.0188602 0.181537 0.0179599
0.0238956 0.177447 0.0190585
0.0919356 0.171298 0.0172732
0.167071 0.166232 0.016434
0.241428 0.165667 0.0169223
0.334447 0.166644 0.0151675
0.451621 0.167834 0.0135653
0.564446 0.162387 0.0128786
0.665339 0.148775 0.0124514
0.753643 0.127581 0.0128328
0.832044 0.101137 0.0133974
0.897871 0.0754101 0.0146181
0.9664 0.0536049 0.0159152
0.982315 0.0490578 0.0148928
0.982071 0.0495308 0.0142214
0.982071 0.0495308 0.0142214
0.982071 0.0495308 0.0142214
0.982071 0.0495308 0.0142214
0.982071 0.0495308 0.0142214
0.982071 0.0495308 0.0142214
0.982071 0.0495308 0.0142214
0.982071 0.0495308 0.0142214
0.982071 0.0495308 0.0142214
0.982071 0.0495308 0.0142214
0.982071 0.0495308 0.0142214
0.982071 0.0495308 0.0142214
0.982071 0.0495308 0.0142214
0.0256199 0.260685 0.0255589
0.0253452 0.257588 0.0252689
0.0249943 0.253407 0.0248875
0.0246281 0.249302 0.0244907
0.0243229 0.245716 0.024155
0.0240177 0.242466 0.0238346
0.0237583 0.239338 0.0235447
0.0257877 0.235798 0.023209
0.0502022 0.229984 0.0247196
0.147341 0.221836 0.0217441
0.218357 0.213886 0.0206607
0.308339 0.218936 0.021561
0.424247 0.226062 0.0213169
0.543496 0.228656 0.0197452
0.648692 0.22208 0.0178988
0.738445 0.207843 0.0164034
0.819883 0.189654 0.0159915
0.887572 0.167468 0.0155337
0.951858 0.142733 0.0148928
0.977646 0.117342 0.0144808
0.978103 0.0929122 0.0141451
0.979568 0.0761273 0.0146639
0.981109 0.0634928 0.0153048
0.982437 0.0540017 0.0158541
0.98262 0.0507973 0.0156863
0.982513 0.0498512 0.0153964
0.982437 0.0494087 0.0152132
0.982406 0.0492409 0.0151064
0.982391 0.0492409 0.0150912
0.982437 0.0494087 0.0152132
0.982544 0.0500649 0.0154726
0.982666 0.0513313 0.0158083
0.982269 0.0551919 0.0157931
0.0298619 0.333379 0.0345769
0.0296635 0.32929 0.0340429
0.0294347 0.324422 0.0333867
0.0291905 0.319615 0.0327306
0.0289921 0.315541 0.0321965
0.0288243 0.312062 0.0317388
0.028687 0.309239 0.0313573
0.0284886 0.305241 0.0308232
0.03682 0.300572 0.030808
0.116304 0.288945 0.0282139
0.203525 0.281544 0.0275883
0.279637 0.271717 0.0257572
0.391333 0.284779 0.0281529
0.516442 0.296284 0.030457
0.627131 0.296925 0.0284733
0.722179 0.288945 0.0253605
0.80502 0.274632 0.0225223
0.879286 0.25742 0.0205692
0.942153 0.237095 0.0187839
0.976272 0.217334 0.01738
0.976455 0.20032 0.0166629
0.976623 0.185672 0.016144
0.976776 0.173693 0.0157168
0.976898 0.164172 0.0153964
0.976989 0.156634 0.0151217
0.97705 0.151431 0.0149386
0.977111 0.148028 0.0148928
0.977127 0.146456 0.0148775
0.977111 0.147478 0.0148928
0.97705 0.151003 0.0149386
0.976989 0.156573 0.0151217
0.976898 0.164126 0.0153964
0.976806 0.171511 0.0156405
0.0371557 0.415152 0.0457008
0.0367132 0.410636 0.0450904
0.0361639 0.405325 0.044358
0.0356451 0.400229 0.0436561
0.0352789 0.396536 0.0431678
0.0348974 0.392721 0.0426337
0.0345617 0.38938 0.0421759
0.034165 0.385489 0.0416571
0.0336919 0.380728 0.041001
0.0646372 0.373907 0.0402838
0.171283 0.360174 0.0350042
0.265171 0.351446 0.0335851
0.354711 0.343084 0.0323644
0.481544 0.363272 0.0383154
0.600565 0.372961 0.0413367
0.700984 0.371664 0.0398108
0.78761 0.363287 0.0360571
0.86598 0.349218 0.0316014
0.933639 0.331655 0.0278172
0.97586 0.314137 0.0259861
0.975921 0.299611 0.0242161
0.975982 0.287678 0.0227817
0.976043 0.278096 0.0216983
0.976059 0.270588 0.0211643
0.976089 0.264973 0.0207675
0.976104 0.261173 0.0204929
0.976104 0.259037 0.0203403
0.976104 0.258747 0.020325
0.976104 0.259785 0.0204013
0.976089 0.262867 0.0206149
0.976074 0.267781 0.0209659
0.976043 0.274434 0.0214389
0.976028 0.281025 0.0219577
0.0475013 0.501884 0.0571756
0.0469062 0.497063 0.0565347
0.0462348 0.491539 0.0558022
0.0456703 0.486885 0.0552071
0.0451057 0.482307 0.054612
0.0446326 0.478431 0.054078
0.0442206 0.475059 0.0536355
0.0437629 0.471336 0.0531624
0.0431983 0.466773 0.0525521
0.0459144 0.462394 0.051957
0.113848 0.448295 0.0484627
0.236927 0.439734 0.0450141
0.341176 0.431861 0.0438239
0.442283 0.426169 0.0431678
0.569711 0.444923 0.0487221
0.675563 0.451301 0.0519112
0.766125 0.447898 0.0516213
0.847028 0.438407 0.0479896
0.918639 0.424552 0.0431067
0.970169 0.408728 0.0404517
0.974441 0.397147 0.0384833
0.974685 0.387106 0.0367742
0.974899 0.378973 0.0353704
0.975067 0.372717 0.0343023
0.975174 0.368154 0.0335088
0.97525 0.365454 0.033051
0.97528 0.36434 0.0328679
0.975296 0.363851 0.0327764
0.975265 0.364889 0.0329595
0.975174 0.368109 0.0335088
0.975052 0.372992 0.0343481
0.974884 0.379812 0.0355077
0.974701 0.386587 0.0366827
0.0568399 0.587228 0.0678874
0.0563668 0.582742 0.0673228
0.0558785 0.578134 0.0667582
0.055314 0.572946 0.0661173
0.0548104 0.568368 0.0655375
0.0544137 0.564691 0.0650645
0.0540932 0.5617 0.0647135
0.0537881 0.558801 0.0643473
0.0533455 0.554788 0.0638437
0.0528115 0.549889 0.0632334
0.0746319 0.540978 0.0615854
0.183642 0.531197 0.0580758
0.310384 0.524208 0.0555734
0.425452 0.519295 0.0551461
0.532082 0.515618 0.0548867
0.644144 0.527382 0.0588083
0.741283 0.530037 0.0614786
0.825101 0.524712 0.0619516
0.897917 0.513909 0.060029
0.952987 0.50103 0.057847
0.971771 0.489921 0.0560311
0.972 0.481712 0.054551
0.972198 0.475074 0.053254
0.972351 0.469886 0.0522164
0.972442 0.46659 0.0515908
0.972503 0.46479 0.0512245
0.972534 0.463676 0.0510262
0.972534 0.463462 0.0509651
0.972503 0.464515 0.0511788
0.972427 0.467506 0.0517433
0.972274 0.472465 0.0527352
0.972091 0.478599 0.0539254
0.971908 0.48455 0.0551156
0.0651865 0.669062 0.0776989
0.0648508 0.665324 0.0772869
0.0643778 0.660441 0.0767376
0.0639353 0.655772 0.0762188
0.0635233 0.651576 0.0757305
0.0631723 0.648096 0.0753185
0.0629129 0.645563 0.0750134
0.0625925 0.642466 0.0746319
0.0621805 0.638575 0.0741436
0.0617075 0.634058 0.0735943
0.0611429 0.628672 0.0729381
0.121233 0.618357 0.0708324
0.260258 0.613947 0.0675212
0.391638 0.609918 0.0662089
0.508354 0.605386 0.0661173
0.610971 0.601282 0.0658427
0.711086 0.606851 0.0682841
0.799481 0.606043 0.0699016
0.877195 0.599222 0.0702068
0.934234 0.587762 0.0695354
0.969665 0.576974 0.0687877
0.969818 0.570001 0.0681773
0.969924 0.564462 0.067689
0.969985 0.560922 0.0673686
0.970047 0.557916 0.0671092
0.970092 0.5561 0.0669566
0.970108 0.555154 0.066865
0.970108 0.555123 0.066865
0.970077 0.556329 0.0669718
0.970016 0.559457 0.0672465
0.96994 0.56347 0.0675975
0.969833 0.568673 0.0680552
0.969741 0.57377 0.0684977
0.0720226 0.742367 0.0858167
0.0716869 0.738537 0.0854047
0.0712596 0.733883 0.0849012
0.0708782 0.729549 0.0844434
0.0705119 0.725643 0.0840162
0.0702831 0.723125 0.0837415
0.0700694 0.720546 0.0834669
0.0697795 0.717571 0.0831311
0.0694591 0.714214 0.0827497
0.0690929 0.710292 0.0823224
0.0686961 0.706081 0.0818494
0.0796368 0.700435 0.0810864
0.178576 0.694041 0.0796368
0.340978 0.69073 0.0759442
0.473167 0.688899 0.0756695
0.585565 0.68513 0.0759289
0.68011 0.681544 0.0758221
0.770291 0.68278 0.0772106
0.857481 0.680415 0.0779278
0.914458 0.669993 0.0770886
0.960296 0.658244 0.0760815
0.968399 0.651286 0.0754711
0.96846 0.646738 0.0750591
0.968521 0.642893 0.0746929
0.968551 0.640238 0.074464
0.968582 0.638483 0.0742962
0.968582 0.637675 0.0742199
0.968582 0.637705 0.0742199
0.968566 0.639216 0.0743725
0.968521 0.641779 0.0746014
0.968475 0.645457 0.0749371
0.968414 0.650278 0.0753796
0.968353 0.654994 0.0758068
0.0777752 0.808179 0.0926986
0.0774853 0.804639 0.0923476
0.0771344 0.800458 0.0919203
0.0768139 0.796674 0.0915541
0.0765393 0.793408 0.0912184
0.0763104 0.790585 0.0909438
0.076112 0.788205 0.0907149
0.0758984 0.785611 0.0904555
0.075639 0.782589 0.090135
0.075349 0.779309 0.0897841
0.0749828 0.775265 0.0893568
0.0745403 0.770291 0.0888228
0.137194 0.763485 0.0874495
0.273655 0.762264 0.0853742
0.426566 0.762188 0.0837873
0.551019 0.760586 0.0840009
0.652567 0.755718 0.0840772
0.741344 0.752087 0.0840925
0.829007 0.749523 0.0843061
0.893523 0.743481 0.0840162
0.940368 0.733837 0.0831159
0.967025 0.726513 0.0823987
0.967117 0.722042 0.0819867
0.967193 0.718608 0.0816663
0.967239 0.716167 0.0814527
0.967269 0.714672 0.0813153
0.967285 0.714427 0.0812848
0.967285 0.714366 0.0812848
0.967269 0.715114 0.0813611
0.967224 0.717327 0.0815595
0.967147 0.720562 0.0818494
0.967056 0.724758 0.0822461
0.966964 0.729397 0.0826734
0.0854047 0.879927 0.1019
0.0847181 0.874617 0.101076
0.0839857 0.868849 0.100175
0.083238 0.863203 0.0992752
0.0825513 0.857877 0.098436
0.0820172 0.853635 0.0977798
0.081529 0.849867 0.0971847
0.0810407 0.845991 0.0965896
0.0806287 0.842603 0.0961013
0.080354 0.839323 0.0957656
0.0800488 0.835508 0.0953994
0.0796826 0.831067 0.0949569
0.089189 0.825666 0.094316
0.203708 0.822614 0.0934157
0.369223 0.823667 0.0906844
0.507576 0.825025 0.0905013
0.621012 0.822858 0.0909285
0.712764 0.817578 0.0909285
0.798108 0.814664 0.0910353
0.873793 0.810529 0.0905928
0.920119 0.802029 0.0897078
0.959182 0.793332 0.0886854
0.965423 0.788647 0.0882277
0.965515 0.785382 0.0879072
0.965576 0.783123 0.0876936
0.965606 0.782116 0.087602
0.965637 0.781247 0.0875105
0.965637 0.781018 0.0874952
0.965621 0.781628 0.0875563
0.965576 0.783368 0.0877241
0.965499 0.786053 0.0879683
0.965393 0.78996 0.0883345
0.965286 0.7935 0.0886702
0.0932479 0.941039 0.111467
0.0932479 0.941039 0.111467
0.0932479 0.941039 0.111467
0.0932479 0.941039 0.111467
0.0932021 0.940719 0.111406
0.0927138 0.936858 0.110811
0.0923171 0.933715 0.110338
0.0918746 0.930327 0.109804
0.0913405 0.926101 0.109133
0.0906996 0.921111 0.10837
0.0899062 0.915084 0.107408
0.0890364 0.908232 0.106325
0.0880446 0.900557 0.105135
0.165667 0.89279 0.103609
0.303014 0.889464 0.101091
0.460502 0.887419 0.0985275
0.584787 0.88333 0.0977035
0.684886 0.876112 0.0969558
0.768521 0.869093 0.0964523
0.851301 0.866377 0.0961318
0.901701 0.86099 0.0957809
0.941054 0.852583 0.0946517
0.964034 0.846143 0.0937972
0.964096 0.842985 0.0934768
0.964141 0.841062 0.0932937
0.964172 0.839536 0.0931411
0.964202 0.838575 0.0930495
0.964218 0.838148 0.0930037
0.964202 0.838422 0.093019
0.964157 0.840269 0.0932174
0.964111 0.842466 0.093431
0.96405 0.84538 0.0937209
0.963989 0.848188 0.0939956
0.0932479 0.941039 0.111467
0.0932479 0.941039 0.111467
0.0932479 0.941039 0.111467
0.0932479 0.941039 0.111467
0.0932479 0.941039 0.111467
0.0932479 0.941039 0.111467
0.0932479 0.941039 0.111467
0.0932479 0.941039 0.111467
0.0932479 0.941039 0.111467
0.0932479 0.941039 0.111467
0.0932479 0.941039 0.111467
0.0932479 0.941039 0.111467
0.0932479 0.941039 0.111467
0.12755 0.941085 0.111391
0.23682 0.947646 0.112734
0.413672 0.954818 0.109941
0.547158 0.955856 0.109285
0.657694 0.950301 0.108553
0.74403 0.941711 0.107546
0.821653 0.933974 0.106447
0.882094 0.926268 0.105165
0.924926 0.918486 0.103929
0.957732 0.910399 0.102556
0.963912 0.905196 0.101717
0.963867 0.901564 0.101152
0.963836 0.898833 0.10071
0.963821 0.8972 0.10045
0.963806 0.896101 0.100252
0.963806 0.896819 0.100389
0.963836 0.898436 0.100633
0.963867 0.901198 0.101076
0.963912 0.905104 0.101717
0.963958 0.908751 0.102281
0.0932479 0.941039 0.111467
0.0932479 0.941039 0.111467
0.0932479 0.941039 0.111467
0.0932479 0.941039 0.111467
0.0932479 0.941039 0.111467
0.0932479 0.941039 0.111467
0.0932479 0.941039 0.111467
0.0932479 0.941039 0.111467
0.0932479 0.941039 0.111467
0.0932479 0.941039 0.111467
0.0932479 0.941039 0.111467
0.0932479 0.941039 0.111467
0.0932479 0.941039 0.111467
0.0981765 0.94107 0.111467
0.212787 0.94612 0.112428
0.376379 0.95288 0.110201
0.519066 0.960601 0.110124
0.635019 0.966369 0.111025
0.724224 0.968704 0.111681
0.800137 0.970596 0.11223
0.863493 0.971588 0.112398
0.910491 0.971893 0.112306
0.9449 0.972152 0.112383
0.964736 0.969863 0.112047
0.964675 0.965957 0.111421
0.964645 0.96318 0.110979
0.96463 0.961501 0.110719
0.964614 0.960739 0.110597
0.964614 0.960372 0.110521
0.96463 0.961517 0.110719
0.964645 0.9635 0.11104
0.964691 0.966369 0.111482
0.964736 0.969863 0.112047
0.0932479 0.941039 0.111467
0.0932479 0.941039 0.111467
0.0932479 0.941039 0.111467
0.0932479 0.941039 0.111467
0.0932479 0.941039 0.111467
0.0932479 0.941039 0.111467
0.0932479 0.941039 0.111467
0.0932479 0.941039 0.111467
0.0932479 0.941039 0.111467
0.0932479 0.941039 0.111467
0.0932479 0.941039 0.111467
0.0932479 0.941039 0.111467
0.0932479 0.941039 0.111467
0.0932479 0.941039 0.111467
0.192477 0.944778 0.112139
0.345388 0.951263 0.110445
0.49572 0.959411 0.110002
0.615366 0.965408 0.110842
0.708629 0.968261 0.111543
0.784848 0.970306 0.112169
0.850767 0.971496 0.112428
0.898268 0.971817 0.112322
0.93373 0.972061 0.112367
0.961013 0.972259 0.112428
0.964767 0.97229 0.112428
0.964767 0.97229 0.112428
0.964767 0.97229 0.112428
0.964767 0.97229 0.112428
0.964767 0.97229 0.112428
0.964767 0.97229 0.112428
0.964767 0.97229 0.112428
0.964767 0.97229 0.112428
0.964767 0.97229 0.112428
0.0932479 0.941039 0.111467
0.0932479 0.941039 0.111467
0.0932479 0.941039 0.111467
0.0932479 0.941039 0.111467
0.0932479 0.941039 0.111467
0.0932479 0.941039 0.111467
0.0932479 0.941039 0.111467
0.0932479 0.941039 0.111467
0.0932479 0.941039 0.111467
0.0932479 0.941039 0.111467
0.0932479 0.941039 0.111467
0.0932479 0.941039 0.111467
0.0932479 0.941039 0.111467
0.0932479 0.941039 0.111467
0.175204 0.943572 0.111864
0.319371 0.950103 0.110765
0.476585 0.958343 0.109972
0.599863 0.96466 0.110689
0.696696 0.967987 0.111467
0.773114 0.970062 0.112108
0.839918 0.971359 0.112413
0.888243 0.971756 0.112337
0.924758 0.972 0.112337
0.952224 0.972198 0.112398
0.964767 0.97229 0.112428
0.964767 0.97229 0.112428
0.964767 0.97229 0.112428
0.964767 0.97229 0.112428
0.964767 0.97229 0.112428
0.964767 0.97229 0.112428
0.964767 0.97229 0.112428
0.964767 0.97229 0.112428
0.964767 0.97229 0.112428
0.0932479 0.941039 0.111467
0.0932479 0.941039 0.111467
0.0932479 0.941039 0.111467
0.0932479 0.941039 0.111467
0.0932479 0.941039 0.111467
0.0932479 0.941039 0.111467
0.0932479 0.941039 0.111467
0.0932479 0.941039 0.111467
0.0932479 0.941039 0.111467
0.0932479 0.941039 0.111467
0.0932479 0.941039 0.111467
0.0932479 0.941039 0.111467
0.0932479 0.941039 0.111467
0.0932479 0.941039 0.111467
0.161471 0.942596 0.111635
0.298619 0.949493 0.111269
0.462242 0.957549 0.109972
0.589273 0.964141 0.110582
0.688197 0.967803 0.111406
0.764446 0.969818 0.112032
0.830945 0.971191 0.112367
0.880446 0.971695 0.112367
0.917815 0.971954 0.112322
0.945373 0.972152 0.112383
0.964767 0.97229 0.112428
0.964767 0.97229 0.112428
0.964767 0.97229 0.112428
0.964767 0.97229 0.112428
0.964767 0.97229 0.112428
0.964767 0.97229 0.112428
0.964767 0.97229 0.112428
0.964767 0.97229 0.112428
0.964767 0.97229 0.112428
0.0932479 0.941039 0.111467
0.0932479 0.941039 0.111467
0.0932479 0.941039 0.111467
0.0932479 0.941039 0.111467
0.0932479 0.941039 0.111467
0.0932479 0.941039 0.111467
0.0932479 0.941039 0.111467
0.0932479 0.941039 0.111467
0.0932479 0.941039 0.111467
0.0932479 0.941039 0.111467
0.0932479 0.941039 0.111467
0.0932479 0.941039 0.111467
0.0932479 0.941039 0.111467
0.0932479 0.941039 0.111467
0.1514 0.942107 0.111559
0.284047 0.94905 0.111604
0.453437 0.957046 0.109972
0.581399 0.96376 0.110506
0.681895 0.967651 0.111376
0.758419 0.96965 0.111986
0.824552 0.971069 0.112337
0.874769 0.971664 0.112367
0.912688 0.971908 0.112306
0.940154 0.972107 0.112367
