luts/VLog to Film, Bleach Bypass.cube
TITLE "Generated by Resolve"
LUT_3D_SIZE 5
0 0 0
0.109743 0 0
0.361151 0 0
0.606882 0 0
0.739605 0 0
0 0.122774 0
0.135943 0.135943 0.00216678
0.407446 0.132128 0
0.682216 0.135866 0.00209049
0.851881 0.186374 0.0525978
0 0.392309 0
0.170123 0.442588 0.036347
0.468482 0.468482 0.064683
0.758633 0.48719 0.0853895
0.940932 0.543877 0.149676
0.0532998 0.729198 0.0532998
0.254551 0.791074 0.120745
0.548638 0.822614 0.155138
0.836164 0.836164 0.169909
0.991348 0.868025 0.204639
0.249866 1 0.249866
0.410773 1 0.279088
0.645502 1 0.262943
0.89572 1 0.234821
1 1 0.239277
0 0 0.106416
0.11223 0 0.11223
0.363516 0 0.0863203
0.610147 0 0.0573739
0.745266 0 0.0701762
0 0.126955 0.126955
0.144106 0.144106 0.144106
0.419318 0.144915 0.144915
0.697505 0.152529 0.152529
0.870283 0.206439 0.206439
0.000167849 0.409125 0.133944
0.190875 0.461585 0.190875
0.486748 0.486748 0.218677
0.778485 0.506539 0.240803
0.963165 0.565026 0.307988
0.0760204 0.750042 0.209796
0.278843 0.81326 0.278843
0.565713 0.840574 0.308782
0.849378 0.849378 0.31841
0.999512 0.876188 0.347616
0.262409 1 0.395315
0.417105 1 0.417105
0.649119 1 0.399481
0.897963 1 0.371115
1 1 0.37528
0 0 0.376989
0.104982 0 0.381872
0.356634 0 0.356634
0.605142 0 0.329274
0.743893 0 0.345983
0 0.122545 0.398535
0.144503 0.144503 0.418921
0.423438 0.149386 0.423438
0.705501 0.161257 0.434409
0.880522 0.217609 0.485786
0.00985733 0.418128 0.418128
0.20235 0.472007 0.472007
0.495796 0.495796 0.495796
0.790234 0.51783 0.51783
0.976608 0.57792 0.57792
0.0905623 0.763394 0.491859
0.291859 0.825116 0.551003
0.573266 0.848447 0.573266
0.852049 0.852049 0.576715
0.997238 0.873915 0.597986
0.263416 1 0.645945
0.413489 1 0.662943
0.643275 1 0.643275
0.891325 1 0.615305
1 1 0.619089
0 0 0.641459
0.0961624 0 0.645808
0.348501 0 0.622843
0.599725 0 0.599725
0.742611 0 0.619242
0 0.117922 0.665766
0.144823 0.144823 0.69044
0.42768 0.153964 0.698833
0.712596 0.168978 0.712596
0.889616 0.227512 0.766293
0.0190585 0.426627 0.69778
0.211582 0.480354 0.751675
0.503639 0.503639 0.775479
0.80206 0.529107 0.80206
0.987427 0.588388 0.864118
0.10367 0.775402 0.775402
0.302464 0.834806 0.834806
0.577356 0.85272 0.85272
0.851713 0.851713 0.851713
0.992172 0.868864 0.868864
0.26096 1 0.919646
0.407309 1 0.932784
0.635615 1 0.911559
0.883116 1 0.883116
1 1 0.88716
0 0 0.76701
0.0984665 0 0.771237
0.352026 0 0.749447
0.605402 0 0.728786
0.753124 0 0.753124
0 0.126101 0.796582
0.157748 0.157748 0.825605
0.443076 0.170672 0.837476
0.731197 0.189242 0.854505
0.908492 0.248112 0.908492
0.0397955 0.445762 0.840131
0.231861 0.498589 0.893614
0.522591 0.522591 0.918532
0.824262 0.550195 0.947585
1 0.607767 1
0.127535 0.797299 0.920623
0.32195 0.852613 0.975937
0.589929 0.865705 0.989013
0.85977 0.85977 0.983093
0.996323 0.873014 0.996323
0.267659 1 1
0.41088 1 1
0.637858 1 1
0.8851 1 1
1 1 1
