luts/VLog to Film, Bleach Bypass.cube
TITLE "Generated by Resolve"
LUT_3D_SIZE 33
0 0 0
0 0 0
0.00300603 0 0
0.0193027 0 0
0.0355688 0 0
0.0521859 0 0
0.0695506 0 0
0.088365 0 0
0.109743 0 0
0.134325 0 0
0.161395 0 0
0.19086 0 0
0.222766 0 0
0.256748 0 0
0.291981 0 0
0.327153 0 0
0.361151 0 0
0.395056 0 0
0.429694 0 0
0.465156 0 0
0.499474 0 0
0.530663 0 0
0.558541 0 0
0.58381 0 0
0.606882 0 0
0.62742 0 0
0.645518 0 0
0.662089 0 0
0.677791 0 0
0.693095 0 0
0.708324 0 0
0.723842 0 0
0.739605 0 0
0 0 0
0 0 0
0.00648508 0 0
0.0224918 0 0
0.038529 0 0
0.054963 0 0
0.0722362 0 0
0.0910353 0 0
0.112322 0 0
0.136736 0 0
0.163745 0 0
0.193179 0 0
0.225101 0 0
0.25919 0 0
0.294438 0 0
0.329564 0 0
0.363592 0 0
0.397452 0 0
0.432212 0 0
0.467811 0 0
0.502129 0 0
0.533379 0 0
0.561471 0 0
0.587076 0 0
0.610498 0 0
0.631281 0 0
0.649577 0 0
0.666545 0 0
0.682734 0 0
0.698436 0 0
0.714061 0 0
0.730053 0 0
0.746517 0 0
0 0.00794995 0
0 0.00877394 0
0.00972 0.00972 0
0.0256504 0.0107271 0
0.0415961 0.0116884 0
0.0579538 0.0124971 0
0.0751812 0.0131228 0
0.0938735 0.0132906 0
0.11516 0.0127718 0
0.13959 0.0113985 0
0.166629 0.00933852 0
0.196094 0.00662242 0
0.228107 0.00331121 0
0.262211 0 0
0.297581 0 0
0.33286 0 0
0.366964 0 0
0.400748 0 0
0.435676 0 0
0.471427 0 0
0.505928 0 0
0.537316 0 0
0.565621 0 0
0.591684 0 0
0.615656 0 0
0.636851 0 0
0.655512 0 0
0.672847 0 0
0.689632 0 0
0.706233 0 0
0.722622 0 0
0.739147 0 0
0.756146 0 0
0 0.0263371 0
0 0.0270542 0
0.0129702 0.0278935 0
0.0288243 0.0288243 0
0.0447547 0.0297551 0
0.0611582 0.0306249 0
0.0783551 0.03122 0
0.0970779 0.0314183 0
0.118364 0.0309148 0
0.142855 0.0295872 0
0.170031 0.0276646 0
0.199649 0.0251011 0
0.231739 0.0218662 0
0.26598 0.0181125 0
0.301488 0.0141299 0
0.33695 0.0102693 0
0.371359 0.00682078 0
0.405158 0.0031281 0
0.440192 0 0
0.476081 0 0
0.510826 0 0
0.54258 0 0
0.571435 0 0
0.597894 0 0
0.622461 0 0
0.644282 0 0
0.663783 0 0
0.68188 0 0
0.69929 0 0
0.716365 0 0
0.733562 0 0
0.751049 0.00415045 0
0.768826 0.00839246 0
0 0.0444343 0
0 0.0451362 0
0.016083 0.0459907 0
0.0319982 0.0469825 0
0.0479591 0.0479591 0
0.064332 0.0488136 0
0.0816052 0.0494545 0
0.10042 0.0497597 0
0.121874 0.0494087 0
0.146532 0.0482643 0
0.1738 0.0464332 0
0.203555 0.044007 0
0.235889 0.0410163 0
0.270451 0.0375525 0
0.306218 0.0338293 0
0.341939 0.0302586 0
0.376501 0.027039 0
0.410437 0.0237888 0
0.445899 0.0200046 0
0.482063 0.0159152 0
0.516991 0.0121614 0
0.549249 0.00956741 0
0.578836 0.00813306 0
0.606348 0.00775158 0
0.631678 0.00830091 0
0.653986 0.00999466 0
0.674266 0.0129702 0
0.693248 0.0166018 0
0.711482 0.0206607 0
0.729229 0.0249332 0
0.746914 0.0294652 0
0.764904 0.0342412 0
0.78352 0.0393988 0
0 0.0627298 0
0.00263981 0.063447 0
0.0189212 0.0643626 0
0.0349126 0.0654307 0
0.0509804 0.0665141 0
0.0675059 0.0675059 0
0.0848859 0.0682841 0
0.103838 0.0687114 0
0.125536 0.0686046 0
0.150423 0.067689 0
0.177966 0.0661326 0
0.20795 0.0639353 0
0.240528 0.0611734 0
0.275517 0.0581216 0
0.311803 0.0549172 0
0.347906 0.0517891 0
0.382757 0.0489357 0
0.416739 0.0461128 0
0.45272 0.0429694 0
0.489662 0.0398871 0
0.525154 0.0370184 0
0.557824 0.0349432 0
0.588083 0.0340734 0
0.616632 0.0344854 0
0.642908 0.0360876 0
0.666255 0.0388952 0
0.686976 0.042359 0
0.706416 0.046479 0
0.7252 0.0511482 0
0.743633 0.0561685 0
0.761898 0.0613413 0
0.780529 0.066804 0
0.799405 0.0722362 0
0 0.0814984 0
0.00500496 0.082414 0
0.0213931 0.0834516 0
0.0374762 0.084596 0
0.0536812 0.0858167 0
0.0704204 0.0870222 0
0.0881208 0.0881208 0
0.107393 0.0888685 0
0.129244 0.0889296 0
0.154391 0.0882734 0
0.18233 0.0870985 0
0.212848 0.0854353 0
0.24593 0.0831922 0
0.281331 0.0805066 0
0.318059 0.07776 0
0.354833 0.0753643 0
0.390372 0.0734417 0
0.42475 0.071397 0
0.461265 0.0689403 0
0.498573 0.0664225 0
0.5346 0.0644388 0
0.5682 0.0634165 0
0.599496 0.0633707 0
0.62884 0.0643473 0
0.655726 0.0666667 0
0.679515 0.0699626 0
0.700923 0.0741588 0
0.720867 0.0788434 0
0.740063 0.0839551 0
0.759182 0.0897383 0
0.778149 0.0956588 0.00221256
0.797284 0.101671 0.00822461
0.816678 0.107683 0.0142214
0 0.101289 0
0.00639353 0.102327 0
0.0230411 0.103609 0
0.0394141 0.105058 0
0.0558633 0.106523 0
0.0728466 0.107973 0
0.090898 0.109422 0
0.110582 0.110582 0
0.132952 0.111147 0
0.158511 0.110903 0
0.186847 0.11014 0
0.218051 0.109148 0
0.251942 0.107698 0
0.288212 0.105867 0
0.325597 0.103807 0
0.362844 0.101976 0
0.398627 0.100847 0
0.433967 0.0998856 0
0.471138 0.0983291 0
0.508827 0.0964828 0
0.545083 0.0950179 0
0.579309 0.0945449 0
0.61178 0.0953689 0
0.641932 0.0971237 0
0.669078 0.099733 0
0.693278 0.103487 0
0.715236 0.108293 0
0.735912 0.113771 0.00178531
0.755932 0.119783 0.00781262
0.775372 0.125902 0.0139315
0.794736 0.132265 0.0202945
0.814435 0.138888 0.0269169
0.834516 0.145647 0.0336614
0 0.122774 0
0.00630198 0.124041 0
0.0231785 0.125551 0
0.0399023 0.127367 0
0.0569619 0.129427 0
0.0744182 0.13135 0
0.0927901 0.13312 0
0.112902 0.134707 0.0009308
0.135943 0.135943 0.00216678
0.162448 0.136629 0.00285344
0.19173 0.136812 0.00303655
0.223423 0.136324 0.00254826
0.257923 0.13547 0.00169375
0.295033 0.134463 0.000686656
0.333425 0.13344 0
0.371542 0.132586 0
0.407446 0.132128 0
0.443076 0.131579 0
0.480644 0.130648 0
0.518746 0.129549 0
0.555444 0.128695 0
0.590402 0.128801 0
0.623682 0.130098 0
0.654337 0.132464 0
0.682216 0.135866 0.00209049
0.706996 0.140246 0.00646983
0.729381 0.145495 0.0117189
0.750744 0.151751 0.0179751
0.771221 0.158251 0.0244755
0.791287 0.165057 0.031281
0.81117 0.171969 0.0381933
0.83122 0.178988 0.0452125
0.851881 0.186374 0.0525978
0 0.14638 0
0.00460822 0.14815 0
0.0219425 0.150134 0
0.0391546 0.152422 0
0.0566262 0.154894 0
0.0748608 0.157595 0
0.0941482 0.160281 0.000686656
0.115007 0.162631 0.00303655
0.138643 0.164446 0.00486763
0.165911 0.165911 0.00633249
0.196017 0.166918 0.00732433
0.228748 0.167468 0.00787366
0.264088 0.167407 0.00782788
0.301747 0.166934 0.00735485
0.34081 0.166644 0.00706493
0.379431 0.16643 0.00683604
0.415473 0.166567 0.00698863
0.451514 0.166567 0.00698863
0.489326 0.166079 0.00650034
0.527703 0.165591 0.00601205
0.565194 0.165682 0.00610361
0.601038 0.166415 0.00683604
0.634943 0.168154 0.00857557
0.665995 0.170962 0.0113832
0.694377 0.174914 0.0153353
0.719936 0.180163 0.0205844
0.743099 0.186282 0.026688
0.764675 0.192737 0.0331426
0.785489 0.199619 0.0400397
0.805997 0.206897 0.047303
0.826413 0.214405 0.0548104
0.84712 0.222141 0.062562
0.868009 0.22977 0.0701762
0 0.172412 0
0.00224308 0.174899 0
0.0204623 0.177752 0
0.0384527 0.180819 0
0.0565957 0.183963 0
0.0753948 0.187228 0
0.0954147 0.190646 0.00196841
0.117479 0.194186 0.00550851
0.142077 0.196994 0.00830091
0.169894 0.198993 0.0103151
0.200504 0.200504 0.0118105
0.233799 0.201617 0.0129397
0.269902 0.202304 0.013611
0.308461 0.202731 0.0140383
0.347768 0.202716 0.0140383
0.386725 0.202976 0.0142824
0.422934 0.203738 0.0150607
0.459602 0.204532 0.0158389
0.497932 0.204776 0.016083
0.536629 0.204929 0.0162356
0.574441 0.205295 0.0166018
0.611215 0.206668 0.0179751
0.645869 0.209155 0.0204623
0.67747 0.212589 0.0238956
0.70634 0.217075 0.0283818
0.732341 0.222782 0.0340887
0.75584 0.229252 0.0405585
0.777951 0.236301 0.0476234
0.799191 0.243656 0.054963
0.819928 0.251209 0.062501
0.840818 0.259251 0.0705119
0.86154 0.267033 0.0782635
0.882521 0.274815 0.0859998
0 0.202045 0
0.000228885 0.205051 0
0.019028 0.208499 0
0.0378729 0.212421 0
0.0570535 0.216602 0
0.0767376 0.220768 0
0.0975509 0.224964 0.00408942
0.119936 0.22884 0.00796521
0.14519 0.232273 0.0114137
0.173739 0.235035 0.0141604
0.204959 0.23714 0.0162661
0.238712 0.238712 0.0178531
0.275578 0.240131 0.0192721
0.314626 0.241047 0.0201877
0.35465 0.241825 0.0209659
0.39379 0.242679 0.0218051
0.430304 0.243915 0.0230411
0.467567 0.245472 0.0245975
0.50631 0.246387 0.0254978
0.545281 0.247059 0.0261692
0.583703 0.247959 0.0270848
0.62121 0.249729 0.0288548
0.65626 0.252674 0.0317845
0.68864 0.256977 0.0360723
0.717937 0.261936 0.0410163
0.744106 0.267872 0.0469215
0.767803 0.274601 0.0536202
0.790097 0.28188 0.060853
0.811612 0.28957 0.0684977
0.832761 0.297597 0.0764935
0.853452 0.30544 0.0842908
0.874144 0.313207 0.0920119
0.894987 0.320806 0.0995956
0 0.234943 0
0 0.238941 0
0.0183566 0.243153 0
0.0377508 0.247623 0
0.0575875 0.252491 0
0.0780499 0.257435 0.00120546
0.0994125 0.262196 0.00595102
0.122316 0.266621 0.0103456
0.148013 0.270512 0.0142367
0.177142 0.273854 0.0175479
0.209323 0.276951 0.0206302
0.24387 0.279332 0.0229953
0.281056 0.281056 0.0247044
0.320531 0.282429 0.0260777
0.361059 0.283787 0.0274357
0.400504 0.285389 0.0290227
0.437842 0.287587 0.0312047
0.475166 0.289357 0.0329747
0.514046 0.290654 0.0342565
0.553323 0.291814 0.0354162
0.592477 0.293324 0.0369116
0.630732 0.295613 0.0391852
0.666285 0.299184 0.0427253
0.698604 0.303395 0.0469215
0.728069 0.308568 0.0520638
0.754452 0.314717 0.0581979
0.778317 0.321614 0.0650797
0.800717 0.328969 0.0724346
0.822324 0.336706 0.0801709
0.843091 0.344274 0.0877546
0.8636 0.351827 0.0953536
0.884138 0.359319 0.102907
0.90486 0.366674 0.110338
0 0.271153 0
0 0.275761 0
0.0178683 0.280751 0
0.0380407 0.286015 0
0.0583352 0.291341 0
0.0791943 0.296696 0.00233463
0.101198 0.302129 0.00773632
0.124895 0.307332 0.0129244
0.151247 0.31191 0.0174716
0.181048 0.315908 0.0214694
0.213581 0.319341 0.0248875
0.248737 0.322316 0.0278477
0.286702 0.324788 0.0303197
0.326757 0.326757 0.0322881
0.367605 0.328527 0.0340581
0.407324 0.330816 0.036347
0.444831 0.333257 0.0387884
0.482536 0.335607 0.0411383
0.521599 0.337331 0.0428626
0.561059 0.338735 0.0442817
0.6009 0.340703 0.0462501
0.639521 0.343206 0.0487678
0.674998 0.346654 0.0522164
0.707424 0.350958 0.0565499
0.736904 0.356069 0.0617075
0.76318 0.362036 0.0677195
0.787152 0.368933 0.0747082
0.809308 0.375937 0.0818036
0.830549 0.383124 0.0891432
0.851164 0.390265 0.0965438
0.871443 0.397086 0.103899
0.891691 0.403845 0.111147
0.912367 0.410712 0.118532
0 0.310033 0
0 0.315099 0
0.0184482 0.320821 0
0.0392309 0.32668 0
0.0601968 0.332647 0
0.0816358 0.338552 0.00479133
0.104082 0.344381 0.0106355
0.12845 0.350195 0.0164797
0.155657 0.355566 0.0218814
0.185992 0.360052 0.0264134
0.218967 0.363867 0.0302739
0.25452 0.367193 0.0336309
0.292958 0.370062 0.0365454
0.333761 0.372763 0.0392767
0.375143 0.375143 0.0417029
0.414496 0.377478 0.0440681
0.45211 0.380087 0.0467231
0.48986 0.382574 0.0492714
0.528893 0.384482 0.0512245
0.56878 0.386313 0.0531014
0.60882 0.388083 0.0549325
0.647425 0.390387 0.0573739
0.68275 0.393439 0.0606699
0.714992 0.397284 0.0648051
0.74432 0.401923 0.0697795
0.770733 0.40766 0.0759442
0.794247 0.413687 0.0824292
0.816129 0.419989 0.0892348
0.837049 0.426459 0.0962387
0.857435 0.433051 0.10338
0.877714 0.439841 0.110735
0.898604 0.447135 0.118669
0.919692 0.454337 0.126528
0 0.350729 0
0 0.356649 0
0.0211337 0.362585 0
0.0423438 0.368795 0
0.06392 0.375265 0.00259403
0.0861067 0.381811 0.00926223
0.109316 0.388251 0.0158694
0.134188 0.394156 0.0222019
0.161639 0.39942 0.027863
0.192462 0.404089 0.0328832
0.226032 0.408255 0.0373388
0.262119 0.411826 0.0411994
0.301045 0.414969 0.0445869
0.341909 0.417624 0.0474556
0.383246 0.419959 0.0499733
0.422354 0.422354 0.0525521
0.460029 0.424964 0.0553902
0.497673 0.427359 0.057969
0.536675 0.429358 0.0601511
0.576242 0.430686 0.0615702
0.616358 0.432135 0.0631571
0.654826 0.434256 0.0654459
0.689998 0.43714 0.068574
0.722255 0.44094 0.0727092
0.751339 0.445304 0.0774395
0.777173 0.450385 0.0829633
0.800519 0.456153 0.0892805
0.822553 0.462501 0.0962387
0.843946 0.469337 0.103761
0.865354 0.476814 0.112016
0.886366 0.484184 0.12018
0.907485 0.491539 0.128359
0.928985 0.498985 0.13666
0 0.392309 0
0.00456245 0.398306 0
0.0266575 0.404578 0
0.0484627 0.410956 0.00213626
0.0704204 0.417426 0.00910964
0.0933242 0.424247 0.0164797
0.116991 0.430762 0.0235294
0.14226 0.436988 0.0302739
0.170123 0.442588 0.036347
0.201205 0.447425 0.0416114
0.23505 0.451774 0.0463569
0.271626 0.455695 0.0506447
0.310567 0.458824 0.054078
0.351339 0.461433 0.0569314
0.392309 0.463722 0.0594492
0.430991 0.46595 0.0619059
0.468482 0.468482 0.064683
0.505928 0.470802 0.0672465
0.54435 0.472343 0.0689555
0.583886 0.473487 0.0702068
0.624079 0.474678 0.071519
0.662181 0.476432 0.0734722
0.697276 0.479179 0.0765087
0.729335 0.482719 0.0804303
0.758633 0.48719 0.0853895
0.785061 0.49276 0.0915694
0.809171 0.499153 0.0987106
0.831846 0.505959 0.106371
0.853971 0.513298 0.114672
0.875563 0.520745 0.123156
0.897139 0.528405 0.131899
0.918898 0.536156 0.140795
0.940932 0.543877 0.149676
0 0.433753 0
0.010544 0.440024 0
0.0330816 0.446647 0.00167849
0.0554665 0.453498 0.00915541
0.0782788 0.460624 0.016968
0.101244 0.467384 0.0243839
0.125093 0.47396 0.0316472
0.150561 0.480232 0.0385748
0.178653 0.485908 0.0448768
0.209995 0.490883 0.0504005
0.244083 0.495369 0.0553902
0.280415 0.498955 0.0594034
0.319188 0.501854 0.0626535
0.359655 0.504219 0.0653239
0.399954 0.506294 0.0676585
0.438544 0.508446 0.0700999
0.475746 0.51075 0.0727092
0.512596 0.512596 0.0747997
0.550622 0.513802 0.0761578
0.590097 0.514702 0.0771801
0.630533 0.515892 0.0785382
0.669306 0.518257 0.081239
0.704921 0.521416 0.0848402
0.737636 0.525475 0.0894789
0.767483 0.530343 0.0950332
0.794339 0.536126 0.101671
0.819089 0.542947 0.109514
0.842527 0.550347 0.118013
0.865019 0.557946 0.126726
0.887007 0.565713 0.135607
0.908751 0.573587 0.144579
0.930571 0.581491 0.153521
0.95288 0.589654 0.162692
0 0.476875 0
0.016022 0.483452 0
0.0388495 0.490181 0.0074464
0.061738 0.497322 0.0154116
0.0844434 0.504204 0.0231327
0.107637 0.510979 0.0307774
0.131655 0.517494 0.0381933
0.157137 0.523613 0.0451667
0.185458 0.529305 0.0516823
0.216541 0.533898 0.0569467
0.250187 0.53785 0.0614786
0.286397 0.541207 0.0653391
0.324971 0.543908 0.0684367
0.365179 0.546044 0.0709087
0.405081 0.548028 0.0731823
0.443198 0.549752 0.0751659
0.480018 0.551736 0.0774395
0.51693 0.553719 0.0797131
0.555398 0.555398 0.081651
0.595834 0.557092 0.0835737
0.637324 0.559136 0.0859236
0.676295 0.561685 0.088838
0.712306 0.565225 0.0928969
0.745541 0.569802 0.0981003
0.776059 0.575326 0.104372
0.803647 0.581903 0.111818
0.828717 0.589212 0.120027
0.85214 0.596826 0.128496
0.874678 0.604761 0.137255
0.896681 0.612909 0.146166
0.918456 0.62118 0.155154
0.940398 0.629557 0.164233
0.962249 0.637522 0.172915
0 0.520272 0
0.0213321 0.527077 0.00529488
0.0444343 0.533837 0.0130312
0.0671244 0.540597 0.020798
0.0898146 0.547295 0.0284886
0.112856 0.553841 0.035996
0.136675 0.560128 0.0432136
0.162295 0.566339 0.050309
0.190143 0.571649 0.0563668
0.221042 0.576135 0.0614481
0.254429 0.579889 0.0657054
0.290303 0.583017 0.0692302
0.328588 0.585519 0.0720531
0.368948 0.5879 0.0747082
0.408698 0.58999 0.0770581
0.44741 0.592386 0.0797284
0.484886 0.595178 0.0828412
0.522255 0.597848 0.0857862
0.561196 0.600092 0.0882734
0.602426 0.602426 0.0908522
0.644373 0.604944 0.0936141
0.684001 0.608255 0.0972457
0.720516 0.612467 0.101839
0.753994 0.617502 0.107317
0.784924 0.623697 0.114031
0.812375 0.630426 0.12134
0.837324 0.637812 0.129381
0.860731 0.645579 0.13785
0.883101 0.653452 0.146426
0.904814 0.661326 0.155032
0.926146 0.669139 0.163531
0.94725 0.676631 0.17171
0.968521 0.684016 0.179751
0.00381476 0.563195 0.00381476
0.0273594 0.569787 0.0113222
0.0502327 0.57641 0.0188449
0.0727245 0.583093 0.0263981
0.0952468 0.589807 0.0339361
0.118135 0.596414 0.0412909
0.142061 0.603037 0.0486
0.167056 0.608942 0.0550851
0.194568 0.614191 0.0607919
0.225238 0.618662 0.0656596
0.258732 0.62266 0.0699931
0.295384 0.626612 0.0742657
0.334432 0.629938 0.0778821
0.375204 0.632853 0.0810712
0.415137 0.635554 0.0840009
0.454185 0.638407 0.087129
0.492012 0.641733 0.0907454
0.530083 0.645411 0.0947433
0.569574 0.648249 0.0978408
0.611322 0.650767 0.100587
0.653468 0.653468 0.103532
0.693141 0.656855 0.107225
0.729717 0.661128 0.111879
0.763531 0.666468 0.117708
0.794079 0.672267 0.124025
0.821286 0.678706 0.131044
0.845716 0.685588 0.138552
0.868482 0.692699 0.146304
0.890364 0.700084 0.154345
0.911711 0.707607 0.162554
0.932326 0.714687 0.17026
0.952636 0.721386 0.177569
0.972915 0.727779 0.184543
0.0118257 0.605585 0.0118257
0.035172 0.612253 0.0191196
0.0578775 0.619028 0.0264744
0.0801099 0.625772 0.0337987
0.10251 0.632578 0.0411994
0.12517 0.639124 0.0483253
0.148653 0.645426 0.0552071
0.173877 0.651576 0.0619059
0.201984 0.657374 0.0682078
0.233494 0.662593 0.0738994
0.26804 0.667506 0.0792706
0.304967 0.671687 0.0838178
0.344381 0.675395 0.0878614
0.385565 0.678843 0.0916304
0.425574 0.6822 0.0952773
0.465019 0.685618 0.0990158
0.503273 0.689586 0.103349
0.540856 0.693049 0.107103
0.580514 0.695918 0.110246
0.622766 0.698466 0.113024
0.664897 0.701183 0.115984
0.704463 0.704463 0.119554
0.740978 0.708675 0.124147
0.773907 0.713146 0.129015
0.8038 0.718288 0.134615
0.830503 0.724224 0.141085
0.854475 0.730648 0.148104
0.876905 0.737423 0.155489
0.897795 0.743816 0.162448
0.917998 0.750195 0.169406
0.937896 0.756558 0.176349
0.957641 0.762692 0.183032
0.977264 0.768429 0.189288
0.0222477 0.647501 0.0222477
0.0452277 0.653864 0.0291905
0.0676738 0.660365 0.0362707
0.090074 0.667231 0.0437476
0.112749 0.674281 0.0514382
0.136034 0.681392 0.0591897
0.160357 0.688457 0.0668956
0.186221 0.695201 0.0742504
0.214801 0.701427 0.0810254
0.24715 0.707408 0.087541
0.282139 0.712673 0.0932784
0.319707 0.717449 0.098497
0.359472 0.72163 0.103059
0.400046 0.725307 0.107073
0.440146 0.728985 0.11107
0.479438 0.732509 0.114916
0.517037 0.736187 0.118929
0.554406 0.73962 0.122667
0.594217 0.742321 0.125597
0.636454 0.744427 0.127916
0.678203 0.746807 0.130495
0.717174 0.749477 0.13341
0.752895 0.752895 0.137148
0.785351 0.756878 0.141482
0.814511 0.761303 0.146304
0.840253 0.766293 0.151736
0.86363 0.772107 0.158083
0.885145 0.777966 0.164462
0.905455 0.783764 0.170794
0.924849 0.789334 0.176867
0.94374 0.794705 0.182712
0.962631 0.799985 0.188464
0.981796 0.805264 0.194217
0.035111 0.68777 0.035111
0.0587015 0.694682 0.0426642
0.0821546 0.702113 0.0507668
0.105165 0.709545 0.058854
0.128298 0.717006 0.0669871
0.152041 0.724529 0.0751812
0.176883 0.732082 0.0834211
0.203632 0.739635 0.0916609
0.233066 0.746639 0.0992905
0.265538 0.752682 0.105867
0.300725 0.758099 0.111772
0.338247 0.762921 0.117037
0.377783 0.767132 0.12163
0.417548 0.771069 0.125917
0.457221 0.774533 0.129686
0.495842 0.777691 0.13315
0.532479 0.780835 0.136584
0.569223 0.783627 0.139605
0.609033 0.785763 0.141939
0.651255 0.787686 0.14403
0.69218 0.789242 0.145739
0.730312 0.791074 0.147723
0.765072 0.79353 0.150408
0.796735 0.796735 0.153903
0.82533 0.80058 0.158083
0.85066 0.805158 0.163073
0.872862 0.809812 0.168139
0.893385 0.814664 0.173449
0.912932 0.819715 0.178943
0.931762 0.82472 0.184405
0.950256 0.829679 0.189807
0.968277 0.834104 0.194629
0.986389 0.838315 0.199222
0.0532998 0.729198 0.0532998
0.0775464 0.736736 0.0615091
0.101244 0.744381 0.0698558
0.124865 0.752361 0.0785382
0.148714 0.760479 0.0874037
0.173037 0.768536 0.0961776
0.198352 0.776532 0.104891
0.225254 0.784207 0.113268
0.254551 0.791074 0.120745
0.287144 0.797147 0.127367
0.322316 0.802563 0.133272
0.359487 0.807263 0.138399
0.398123 0.811429 0.142947
0.436423 0.814542 0.146334
0.475044 0.817258 0.149294
0.512764 0.819928 0.152209
0.548638 0.822614 0.155138
0.585153 0.824918 0.157641
0.624811 0.826261 0.159091
0.665797 0.826993 0.159899
0.70602 0.827832 0.160815
0.743572 0.829084 0.162188
0.7776 0.830823 0.16408
0.808469 0.833219 0.16669
0.836164 0.836164 0.169909
0.860594 0.839841 0.173907
0.882246 0.843931 0.178378
0.902083 0.848112 0.182925
0.920745 0.852277 0.187472
0.938949 0.856657 0.192248
0.956664 0.860838 0.196796
0.97409 0.864652 0.200961
0.991348 0.868025 0.204639
0.0766461 0.771374 0.0766461
0.10135 0.779324 0.0852979
0.125521 0.787411 0.0941329
0.149371 0.795605 0.103044
0.173342 0.80383 0.112016
0.198001 0.812207 0.121157
0.223194 0.820081 0.129747
0.249866 0.827543 0.137881
0.279057 0.834195 0.145129
0.311147 0.839811 0.151247
0.345571 0.844694 0.156573
0.382025 0.848997 0.161257
0.418585 0.852384 0.16495
0.456138 0.854994 0.167788
0.493645 0.856962 0.16994
0.529946 0.858671 0.171801
0.565057 0.860639 0.173953
0.601419 0.862287 0.175753
0.640742 0.862898 0.176425
0.680873 0.862806 0.176318
0.720073 0.862638 0.176135
0.756786 0.86305 0.176593
0.790372 0.864332 0.177981
0.820554 0.866056 0.179858
0.847425 0.868177 0.182177
0.870954 0.870954 0.185199
0.891905 0.874357 0.188891
0.911177 0.877974 0.192844
0.929335 0.881621 0.196826
0.94641 0.884886 0.200381
0.963073 0.887999 0.203784
0.979721 0.891051 0.207095
0.996414 0.893858 0.210147
0.103716 0.813764 0.103716
0.12845 0.821744 0.112398
0.152667 0.829862 0.121263
0.176547 0.838087 0.13022
0.200717 0.84651 0.139406
0.22475 0.854292 0.14789
0.249363 0.861631 0.155886
0.27541 0.868437 0.163302
0.304036 0.87454 0.16997
0.335622 0.879789 0.175692
0.369299 0.884199 0.180499
0.40351 0.887449 0.184039
0.438651 0.889876 0.186679
0.475135 0.891722 0.188708
0.511696 0.893126 0.190219
0.547204 0.894408 0.191623
0.581491 0.895323 0.192615
0.617395 0.895857 0.19321
0.656016 0.895735 0.193072
0.695583 0.895094 0.19237
0.734249 0.894377 0.191577
0.770214 0.894057 0.191226
0.802808 0.894331 0.191546
0.832288 0.895354 0.19266
0.858595 0.89691 0.194354
0.881376 0.898924 0.196551
0.901381 0.901381 0.199222
0.919722 0.904082 0.202167
0.937041 0.906889 0.205234
0.953567 0.90959 0.208179
0.969528 0.912016 0.210819
0.98529 0.914183 0.213184
1 0.916259 0.215442
0.132342 0.85568 0.132342
0.156924 0.863508 0.140887
0.181048 0.87155 0.14966
0.204257 0.879164 0.157946
0.227405 0.886625 0.166094
0.250919 0.893935 0.174044
0.27512 0.900801 0.181537
0.300465 0.906935 0.188235
0.328298 0.912398 0.194171
