luts/VLog to Film, Bleach Bypass.cube
TITLE "Generated by Resolve"
LUT_3D_SIZE 9
0 0 0
0.0355688 0 0
0.109743 0 0
0.222766 0 0
0.361151 0 0
0.499474 0 0
0.606882 0 0
0.677791 0 0
0.739605 0 0
0 0.0444343 0
0.0479591 0.0479591 0
0.121874 0.0494087 0
0.235889 0.0410163 0
0.376501 0.027039 0
0.516991 0.0121614 0
0.631678 0.00830091 0
0.711482 0.0206607 0
0.78352 0.0393988 0
0 0.122774 0
0.0569619 0.129427 0
0.135943 0.135943 0.00216678
0.257923 0.13547 0.00169375
0.407446 0.132128 0
0.555444 0.128695 0
0.682216 0.135866 0.00209049
0.771221 0.158251 0.0244755
0.851881 0.186374 0.0525978
0 0.234943 0
0.0575875 0.252491 0
0.148013 0.270512 0.0142367
0.281056 0.281056 0.0247044
0.437842 0.287587 0.0312047
0.592477 0.293324 0.0369116
0.728069 0.308568 0.0520638
0.822324 0.336706 0.0801709
0.90486 0.366674 0.110338
0 0.392309 0
0.0704204 0.417426 0.00910964
0.170123 0.442588 0.036347
0.310567 0.458824 0.054078
0.468482 0.468482 0.064683
0.624079 0.474678 0.071519
0.758633 0.48719 0.0853895
0.853971 0.513298 0.114672
0.940932 0.543877 0.149676
0.00381476 0.563195 0.00381476
0.0952468 0.589807 0.0339361
0.194568 0.614191 0.0607919
0.334432 0.629938 0.0778821
0.492012 0.641733 0.0907454
0.653468 0.653468 0.103532
0.794079 0.672267 0.124025
0.890364 0.700084 0.154345
0.972915 0.727779 0.184543
0.0532998 0.729198 0.0532998
0.148714 0.760479 0.0874037
0.254551 0.791074 0.120745
0.398123 0.811429 0.142947
0.548638 0.822614 0.155138
0.70602 0.827832 0.160815
0.836164 0.836164 0.169909
0.920745 0.852277 0.187472
0.991348 0.868025 0.204639
0.160372 0.895888 0.160372
0.252888 0.924483 0.191546
0.350408 0.947219 0.216342
0.474586 0.956115 0.226017
0.610956 0.955444 0.225299
0.758099 0.948379 0.217594
0.876219 0.944686 0.213565
0.949416 0.949416 0.218723
1 0.955261 0.225101
0.249866 1 0.249866
0.329442 1 0.267857
0.410773 1 0.279088
0.518807 1 0.275669
0.645502 1 0.262943
0.783856 1 0.24567
0.89572 1 0.234821
0.964904 1 0.235615
1 1 0.239277
0 0 0.0326696
0.0374456 0 0.0374456
0.111391 0 0.0389258
0.224292 0 0.0294041
0.362692 0 0.0130312
0.500999 0 0
0.608789 0 0
0.68011 0 0
0.742519 0 0
0 0.0459754 0.0459754
0.0495155 0.0495155 0.0495155
0.123674 0.0512093 0.0512093
0.238117 0.0432441 0.0432441
0.379355 0.0299382 0.0299382
0.520333 0.0159762 0.0159762
0.636179 0.0132143 0.0132143
0.717159 0.0268559 0.0268559
0.78999 0.0464485 0.0464485
0 0.125093 0.0526436
0.0599222 0.132387 0.0599222
0.140307 0.140307 0.0678569
0.263615 0.141131 0.0686809
0.413611 0.138766 0.0663005
0.561975 0.136187 0.0637369
0.690044 0.144396 0.071931
0.780056 0.16788 0.0954147
0.86128 0.196628 0.124163
0 0.241016 0.0461433
0.0645762 0.259495 0.0645762
0.156054 0.278614 0.0836042
0.290028 0.290028 0.0949416
0.446571 0.297124 0.102007
0.602029 0.30396 0.108812
0.738079 0.319509 0.1243
0.832105 0.347341 0.152163
0.914305 0.376822 0.181964
0 0.401114 0.0528572
0.0805982 0.426841 0.0805982
0.180804 0.452384 0.108339
0.321492 0.468727 0.126284
0.477943 0.477943 0.136446
0.633371 0.483803 0.142947
0.768765 0.497108 0.157748
0.864805 0.523674 0.187808
0.952377 0.554742 0.223468
0.0144961 0.57258 0.0758221
0.10573 0.599237 0.10573
0.2047 0.623514 0.13225
0.345708 0.640314 0.150515
0.503059 0.653071 0.164416
0.664942 0.664942 0.177371
0.805142 0.68333 0.197406
0.900511 0.710231 0.226734
0.981857 0.736721 0.255634
0.0647593 0.739712 0.12607
0.161181 0.771923 0.161181
0.267109 0.802548 0.194583
0.408713 0.821866 0.215625
0.557717 0.832181 0.226886
0.714488 0.836301 0.231357
0.843366 0.843366 0.239078
0.926772 0.858305 0.255375
0.99585 0.872526 0.270954
0.171771 0.906355 0.233097
0.262791 0.933547 0.262791
0.358785 0.954971 0.286275
0.481178 0.962798 0.294865
0.616602 0.961074 0.292973
0.762417 0.952697 0.283787
0.879179 0.947646 0.278248
0.95172 0.95172 0.282719
1 0.957153 0.28867
0.256596 1 0.318212
0.334752 1 0.334752
0.414603 1 0.344717
0.521569 1 0.340352
0.64773 1 0.326955
0.785611 1 0.309194
0.897169 1 0.297978
0.966293 1 0.298695
1 1 0.302342
0 0 0.106416
0.0384222 0 0.110887
0.11223 0 0.11223
0.225071 0 0.102663
0.363516 0 0.0863203
0.50193 0 0.0675822
0.610147 0 0.0573739
0.682063 0 0.0610666
0.745266 0 0.0701762
0 0.0467842 0.119234
0.0504311 0.0504311 0.122896
0.124819 0.052369 0.124819
0.239689 0.0448157 0.117266
0.381582 0.0322118 0.104677
0.523491 0.0195773 0.0920424
0.64065 0.0180819 0.090547
0.72253 0.0327001 0.105165
0.796139 0.0531624 0.125628
0 0.126955 0.126955
0.0624857 0.134951 0.134951
0.144106 0.144106 0.144106
0.268971 0.146456 0.146456
0.419318 0.144915 0.144915
0.568353 0.143465 0.143465
0.697505 0.152529 0.152529
0.788174 0.17673 0.17673
0.870283 0.206439 0.206439
0 0.246403 0.123995
0.071107 0.266041 0.143557
0.163745 0.286351 0.163745
0.298756 0.298756 0.176089
0.455192 0.306569 0.183871
0.611078 0.313924 0.19118
0.747387 0.329671 0.206912
0.840864 0.356832 0.234165
0.922896 0.386007 0.263859
0.000167849 0.409125 0.133944
0.0903487 0.435843 0.162814
0.190875 0.461585 0.190875
0.331533 0.477821 0.208774
0.486748 0.486748 0.218677
0.641993 0.492256 0.224796
0.778485 0.506539 0.240803
0.875242 0.533608 0.271748
0.963165 0.565026 0.307988
0.0242313 0.58117 0.158007
0.115251 0.607904 0.187701
0.214527 0.632563 0.214527
0.356115 0.649927 0.233448
0.51342 0.663828 0.2486
0.675746 0.675746 0.261662
0.815106 0.693294 0.280873
0.909453 0.719173 0.309224
0.989685 0.744549 0.336934
0.0760204 0.750042 0.209796
0.17293 0.782696 0.245396
0.278843 0.81326 0.278843
0.418494 0.83154 0.298878
0.565713 0.840574 0.308782
0.721584 0.843397 0.311879
0.849378 0.849378 0.31841
0.931762 0.863294 0.333608
0.999512 0.876188 0.347616
0.182071 0.915801 0.316182
0.271778 0.941756 0.344472
0.366003 0.961669 0.366003
0.48658 0.968307 0.373144
0.620844 0.965316 0.369924
0.765576 0.955856 0.359731
0.881392 0.949859 0.353246
0.953262 0.953262 0.356939
1 0.958236 0.362295
0.262409 1 0.395315
0.338857 1 0.409155
0.417105 1 0.417105
0.523354 1 0.412421
0.649119 1 0.399481
0.786618 1 0.382345
0.897963 1 0.371115
0.966964 1 0.37171
1 1 0.37528
0 0 0.226764
0.0359655 0 0.230838
0.109682 0 0.23209
0.222553 0 0.222553
0.36112 0 0.206317
0.499962 0 0.187793
0.608515 0 0.178012
0.681132 0 0.182452
0.745464 0 0.192782
0 0.0442512 0.239124
0.0480964 0.0480964 0.242969
0.12285 0.0503853 0.245274
0.238178 0.0433051 0.238178
0.380728 0.031342 0.226215
0.523873 0.0200351 0.214908
0.642451 0.0200656 0.214939
0.725216 0.0356451 0.230518
0.799725 0.0570687 0.251957
0 0.12578 0.248203
0.0623026 0.134768 0.257221
0.145022 0.145022 0.267521
0.271122 0.148608 0.271122
0.422248 0.148089 0.270604
0.572168 0.147799 0.270314
0.702388 0.157839 0.280415
0.793652 0.182696 0.305394
0.87631 0.213016 0.335775
0 0.248981 0.248981
0.0745708 0.269535 0.269535
0.168231 0.290852 0.290852
0.304204 0.304204 0.304204
0.461036 0.313008 0.313008
0.617273 0.320684 0.320684
0.753536 0.33637 0.33637
0.846769 0.363195 0.363195
0.928435 0.39173 0.39173
0.00588998 0.41445 0.262135
0.096849 0.441825 0.291951
0.197711 0.467811 0.32047
0.337789 0.483467 0.337789
0.492317 0.492317 0.347585
0.647898 0.498024 0.353918
0.785077 0.512886 0.370489
0.882948 0.540917 0.401221
0.970901 0.572427 0.434669
0.0307469 0.586969 0.287129
0.121263 0.613413 0.316457
0.221561 0.639017 0.344289
0.363912 0.65716 0.363912
0.520806 0.671534 0.379355
0.683421 0.683421 0.391836
0.82153 0.699718 0.408377
0.914794 0.724514 0.433402
0.993774 0.748638 0.457542
0.0843214 0.757656 0.340841
0.181353 0.790417 0.376226
0.286824 0.820523 0.407355
0.424979 0.837964 0.424979
0.570657 0.845747 0.432807
0.725292 0.847105 0.43418
0.851759 0.851759 0.438849
0.932982 0.864515 0.451637
0.999649 0.876326 0.463386
0.188327 0.921538 0.440177
0.27686 0.94638 0.464958
0.369574 0.964981 0.483314
0.488807 0.970565 0.488807
0.621576 0.966033 0.484352
0.765087 0.955367 0.473854
0.880217 0.948684 0.467247
0.951598 0.951598 0.47013
1 0.956207 0.474678
0.264378 1 0.508919
0.339437 1 0.520775
0.416373 1 0.527062
0.52195 1 0.52195
0.647227 1 0.509316
0.784466 1 0.492912
0.895659 1 0.482475
0.964569 1 0.482918
1 1 0.486198
0 0 0.376989
0.0313725 0 0.380758
0.104982 0 0.381872
0.217884 0 0.372534
0.356634 0 0.356634
0.496269 0 0.338598
0.605142 0 0.329274
0.678294 0 0.334325
0.743893 0 0.345983
0 0.0395514 0.388724
0.0436713 0.0436713 0.392554
0.118853 0.0464027 0.395087
0.234867 0.0399939 0.389136
0.378393 0.0289616 0.378393
0.522759 0.0187381 0.368338
0.642435 0.0200351 0.369604
0.726024 0.0365148 0.385794
0.801709 0.0592355 0.40705
0 0.122545 0.398535
0.0604715 0.132937 0.408194
0.144503 0.144503 0.418921
0.271519 0.149004 0.423087
0.423438 0.149386 0.423438
0.574197 0.150118 0.424125
0.705501 0.161257 0.434409
0.797482 0.186877 0.457938
0.880522 0.217609 0.485786
0 0.249851 0.403067
0.0764324 0.271412 0.422995
0.170947 0.293584 0.443336
0.307622 0.307622 0.456153
0.464988 0.317372 0.464988
0.621592 0.325368 0.472236
0.757504 0.340673 0.486076
0.850492 0.367208 0.509957
0.932326 0.395666 0.535714
0.00985733 0.418128 0.418128
0.101305 0.44593 0.44593
0.20235 0.472007 0.472007
0.342138 0.487404 0.487404
0.495796 0.495796 0.495796
0.652338 0.502358 0.502358
0.790234 0.51783 0.51783
0.888685 0.546349 0.546349
0.976608 0.57792 0.57792
0.0350042 0.590768 0.441337
0.125185 0.617029 0.467735
0.226474 0.643534 0.493767
0.36997 0.662791 0.512428
0.526299 0.677302 0.526299
0.688746 0.688746 0.537194
0.826032 0.704219 0.551873
0.918013 0.727733 0.574304
0.995514 0.750378 0.596292
0.0905623 0.763394 0.491859
0.187655 0.796201 0.523522
0.291859 0.825116 0.551003
0.428824 0.841779 0.566873
0.573266 0.848447 0.573266
0.72665 0.848463 0.573266
0.852049 0.852049 0.576715
0.931762 0.863294 0.587594
0.997238 0.873915 0.597986
0.191959 0.924865 0.580911
0.279057 0.948379 0.603922
0.370596 0.965927 0.621469
0.488685 0.970443 0.626001
0.620172 0.96463 0.620172
0.762325 0.952605 0.608118
0.876799 0.945266 0.600824
0.947768 0.947768 0.603311
1 0.952102 0.60763
0.263416 1 0.645945
0.337316 1 0.657221
0.413489 1 0.662943
0.518608 1 0.656916
0.643275 1 0.643275
0.78024 1 0.626078
0.891325 1 0.615305
0.960204 1 0.615732
1 1 0.619089
0 0 0.525673
0.0258335 0 0.528954
0.099382 0 0.5299
0.212314 0 0.521614
0.351354 0 0.507668
0.491875 0 0.491875
0.601297 0 0.484077
0.675258 0 0.489433
0.741848 0 0.500893
0 0.0341192 0.536171
0.0384527 0.0384527 0.539956
0.114046 0.0415961 0.542672
0.230716 0.0358434 0.537682
0.375692 0.026215 0.529274
0.521462 0.0172732 0.521462
0.641978 0.0195315 0.523445
0.72636 0.0368811 0.538582
0.803006 0.0606394 0.559274
0 0.118761 0.546777
0.0578927 0.130358 0.556878
0.14345 0.14345 0.568338
0.271336 0.148821 0.573053
0.424308 0.150301 0.574365
0.575769 0.151904 0.575769
0.707668 0.163607 0.586145
0.800641 0.190326 0.6103
0.883986 0.221378 0.638849
0 0.250004 0.554467
0.0777447 0.272725 0.574273
0.173266 0.295918 0.594797
0.310689 0.310689 0.608133
0.468223 0.320928 0.617502
0.625071 0.329137 0.625071
0.76051 0.343954 0.638697
0.853223 0.370153 0.662943
0.935927 0.399313 0.690791
0.0132448 0.421256 0.571466
0.105028 0.449332 0.598596
0.205921 0.475242 0.624643
0.345495 0.490425 0.640131
0.498497 0.498497 0.648371
0.656214 0.506096 0.656214
0.794995 0.522377 0.673182
0.893629 0.551049 0.703349
0.981155 0.5823 0.736019
0.038117 0.593545 0.593545
0.128664 0.620218 0.620218
0.230747 0.647456 0.647456
0.37525 0.667689 0.667689
0.531014 0.682246 0.682246
0.692683 0.692683 0.692683
0.829068 0.707256 0.707256
0.919951 0.729671 0.729671
0.996216 0.75108 0.75108
0.0959335 0.768307 0.646494
0.192859 0.800977 0.679164
0.296147 0.829038 0.707225
0.431357 0.844297 0.722484
0.574426 0.849668 0.727855
0.726787 0.8486 0.726787
0.851164 0.851164 0.729351
0.929549 0.861082 0.739269
0.993683 0.870359 0.748547
0.194507 0.927199 0.736919
0.279866 0.949111 0.758831
0.370199 0.96556 0.77528
0.487053 0.968795 0.778515
0.617426 0.961898 0.771618
0.758679 0.948959 0.758679
0.87248 0.940948 0.750668
0.942992 0.942992 0.752712
1 0.947021 0.756741
0.261128 1 0.797986
0.333593 1 0.807935
0.40943 1 0.813062
0.514321 1 0.806577
0.638392 1 0.792523
0.775174 1 0.775174
0.886137 1 0.764324
0.955047 1 0.764767
1 1 0.7682
0 0 0.641459
0.0225986 0 0.644785
0.0961624 0 0.645808
0.209201 0 0.637201
0.348501 0 0.622843
0.489662 0 0.606958
0.599725 0 0.599725
0.674861 0 0.606332
0.742611 0 0.619242
0 0.0311131 0.652598
0.0357977 0.0357977 0.656901
0.111864 0.0394141 0.660212
0.229236 0.0343633 0.655573
0.375448 0.0259709 0.647883
0.522606 0.0185702 0.641093
0.643961 0.0216983 0.643961
0.72932 0.040116 0.660853
0.806775 0.064744 0.683452
0 0.117922 0.665766
0.0581521 0.130617 0.677409
0.144823 0.144823 0.69044
0.273854 0.151324 0.696406
0.42768 0.153964 0.698833
0.579873 0.156542 0.701198
0.712596 0.168978 0.712596
0.806043 0.196216 0.737575
0.889616 0.227512 0.766293
0 0.252827 0.677195
0.0815442 0.276555 0.698863
0.177859 0.300542 0.720745
0.316426 0.316426 0.735271
0.473701 0.326986 0.74493
0.630594 0.335149 0.752422
0.765774 0.349645 0.765774
0.858137 0.375433 0.78967
0.941955 0.405432 0.818631
0.0190585 0.426627 0.69778
0.111162 0.454963 0.72604
0.211582 0.480354 0.751675
0.350958 0.495354 0.766979
0.503639 0.503639 0.775479
0.662089 0.511757 0.783902
0.80206 0.529107 0.80206
0.900725 0.557794 0.832273
0.987427 0.588388 0.864118
0.0434272 0.598352 0.72015
0.135027 0.626078 0.747921
0.237964 0.654078 0.775891
0.382818 0.674769 0.796582
0.537682 0.689265 0.811078
0.698619 0.698619 0.820432
0.833768 0.711955 0.833768
0.923369 0.733089 0.854902
0.998535 0.753399 0.875212
0.10367 0.775402 0.775402
0.199985 0.807507 0.807507
0.302464 0.834806 0.834806
0.435889 0.848814 0.848814
0.577356 0.85272 0.85272
0.728588 0.850416 0.850416
0.851713 0.851713 0.851713
0.92903 0.860563 0.860563
0.992172 0.868864 0.868864
0.198825 0.931167 0.862699
0.282887 0.951873 0.883421
0.371939 0.967178 0.898711
0.487129 0.968872 0.900404
0.61622 0.960693 0.892241
0.756848 0.947127 0.87866
0.870176 0.938643 0.870176
0.940307 0.940307 0.871839
0.998962 0.944106 0.875654
0.26096 1 0.919646
0.332113 1 0.928405
0.407309 1 0.932784
0.511894 1 0.925856
0.635615 1 0.911559
0.772229 1 0.894041
0.883116 1 0.883116
0.95198 1 0.883528
1 1 0.88716
0 0 0.710613
0.0232242 0 0.713832
0.0968338 0 0.714885
0.210056 0 0.706447
0.349691 0 0.692454
0.491173 0 0.677028
0.601816 0 0.670314
0.678187 0 0.678187
0.747341 0 0.692485
0 0.0320287 0.721904
0.0371557 0.0371557 0.726604
0.113893 0.0414282 0.730541
0.232227 0.0373541 0.726787
0.379477 0.0300603 0.720104
0.52726 0.0238956 0.714443
0.64976 0.0280156 0.718227
0.736217 0.0476387 0.736217
0.814557 0.0732433 0.759701
0 0.121431 0.737453
0.0630045 0.135454 0.750317
0.150576 0.150576 0.764187
0.280552 0.157977 0.770977
0.43476 0.161624 0.774319
0.587564 0.165194 0.7776
0.721386 0.178561 0.789853
0.815152 0.206134 0.815152
0.898695 0.2374 0.843839
0.00384527 0.26009 0.7523
0.0896468 0.284688 0.774762
0.18677 0.309483 0.797391
0.326146 0.326146 0.812619
0.482765 0.337011 0.822599
0.639307 0.34461 0.829587
0.77438 0.358968 0.842847
0.866957 0.384863 0.866957
0.951507 0.415122 0.896651
0.0288548 0.435676 0.77525
0.120974 0.463905 0.803494
0.221286 0.489097 0.829038
0.360082 0.503578 0.843885
0.512673 0.512673 0.853315
0.672236 0.521477 0.862516
0.812696 0.539223 0.881163
0.911315 0.567895 0.911315
0.99678 0.597543 0.941924
0.0527047 0.60679 0.797131
0.145159 0.635401 0.825681
0.249485 0.664622 0.854902
0.393881 0.685435 0.8757
0.547372 0.699474 0.889754
0.707988 0.707988 0.898268
0.841871 0.720058 0.910338
0.929992 0.739712 0.929992
1 0.758679 0.948959
0.115297 0.786068 0.854536
0.210452 0.817121 0.885573
0.311971 0.843488 0.911955
0.443503 0.856397 0.924849
0.583352 0.85893 0.927398
0.733791 0.855604 0.924056
0.855375 0.855375 0.923827
0.931472 0.86302 0.931472
0.993942 0.870619 0.939086
0.206317 0.938033 0.938033
0.289265 0.957687 0.957687
0.37702 0.971923 0.971923
0.490547 0.972335 0.972335
0.618402 0.962875 0.962875
0.758328 0.948608 0.948608
0.871229 0.939696 0.939696
0.941085 0.941085 0.941085
0.999588 0.944747 0.944747
0.264118 1 0.990997
0.33434 1 0.998901
0.408713 1 1
0.512779 1 0.995254
0.636301 1 0.980713
0.772793 1 0.963073
0.88365 1 0.952117
0.95256 1 0.95256
1 1 0.956329
0 0 0.76701
0.0248722 0 0.770184
0.0984665 0 0.771237
0.211948 0 0.763043
0.352026 0 0.749447
0.493874 0 0.734646
0.605402 0 0.728786
0.682811 0 0.737667
0.753124 0 0.753124
0 0.0340429 0.778607
0.0395819 0.0395819 0.783688
0.116976 0.0445258 0.78822
0.236713 0.0418402 0.785763
0.385153 0.0358587 0.78027
0.53315 0.0306401 0.775494
0.656748 0.0356298 0.780072
0.744152 0.0562905 0.799008
0.823499 0.0829786 0.823499
0 0.126101 0.796582
0.0691844 0.141649 0.810849
0.157748 0.157748 0.825605
0.288777 0.166155 0.833341
0.443076 0.170672 0.837476
0.596262 0.174899 0.841352
0.731197 0.189242 0.854505
0.825254 0.217151 0.88011
0.908492 0.248112 0.908492
0.0123903 0.268666 0.815
0.0991379 0.294224 0.838315
0.19707 0.319814 0.861677
0.336919 0.336919 0.877363
0.492653 0.347967 0.887526
0.649088 0.355215 0.894224
0.783749 0.369055 0.907057
0.877211 0.395392 0.932067
0.962463 0.426169 0.962463
0.0397955 0.445762 0.840131
0.131762 0.473701 0.868254
0.231861 0.498589 0.893614
0.37023 0.512642 0.908141
0.522591 0.522591 0.918532
0.683665 0.532372 0.928801
0.824262 0.550195 0.947585
0.922469 0.578592 0.977325
1 0.607767 1
0.063447 0.616632 0.86183
0.156817 0.646097 0.891218
0.262089 0.676158 0.921279
0.405631 0.697002 0.942138
0.557244 0.709865 0.955001
0.717617 0.717617 0.962753
0.850401 0.728588 0.973724
0.937209 0.746929 0.992065
1 0.764797 1
0.127535 0.797299 0.920623
0.221942 0.827665 0.950973
0.32195 0.852613 0.975937
0.451331 0.86421 0.987518
0.589929 0.865705 0.989013
0.739483 0.861295 0.984619
0.85977 0.85977 0.983093
0.934508 0.866041 0.989364
0.996323 0.873014 0.996323
0.214267 0.945327 1
0.296101 0.963928 1
0.382284 0.976852 1
0.494331 0.976211 1
0.621393 0.96585 1
0.760632 0.950912 1
0.873075 0.941543 0.996399
0.942657 0.942657 0.997513
1 0.946227 1
0.267659 1 1
0.337163 1 1
0.41088 1 1
0.514458 1 1
0.637858 1 1
0.774243 1 1
0.8851 1 1
0.954116 1 1
1 1 1
