luts/Warm sad.cube
LUT_3D_SIZE 6
0.030669 0.025641 0.010462
0.030669 0.025641 0.010462
0.368114 0.025641 0.030108
0.778957 0.150554 0.133599
0.991390 0.230113 0.198053
0.991390 0.234471 0.205752
0.030669 0.025641 0.010462
0.030669 0.025641 0.010462
0.361355 0.085823 0.026585
0.775607 0.150499 0.138269
0.991390 0.229877 0.200017
0.991390 0.234468 0.205771
0.113979 0.381467 0.083781
0.125688 0.379294 0.083552
0.383975 0.374522 0.094150
0.750067 0.438539 0.159947
0.991189 0.327323 0.201141
0.991390 0.234470 0.205926
0.271952 0.747147 0.261138
0.273366 0.747235 0.263867
0.449186 0.740582 0.263557
0.746339 0.736718 0.286539
0.967305 0.756602 0.295143
0.991390 0.643605 0.228355
0.361316 0.959151 0.508210
0.374563 0.958299 0.508771
0.540816 0.951313 0.503524
0.784911 0.945692 0.510875
0.952937 0.946297 0.513477
0.986581 0.940800 0.401728
0.572332 0.966497 0.704649
0.600274 0.966497 0.705086
0.701964 0.965823 0.707102
0.845154 0.964369 0.714507
0.951375 0.964460 0.721425
0.983829 0.964989 0.694908
0.030669 0.025641 0.010462
0.030669 0.025641 0.010462
0.369675 0.025641 0.071141
0.779964 0.150974 0.170396
0.991390 0.230125 0.215629
0.991390 0.234470 0.205756
0.030669 0.025641 0.010462
0.030669 0.025641 0.010462
0.365988 0.045660 0.058217
0.777985 0.150395 0.157539
0.991390 0.229921 0.207182
0.991390 0.234468 0.205752
0.112085 0.377767 0.118279
0.117883 0.377498 0.107579
0.382329 0.371797 0.117113
0.752034 0.417527 0.175519
0.991390 0.298093 0.217438
0.991390 0.234464 0.205907
0.270551 0.744257 0.305294
0.271643 0.745585 0.289304
0.429191 0.739183 0.286418
0.745129 0.734911 0.310442
0.967438 0.749220 0.310270
0.991390 0.628997 0.227477
0.360168 0.957239 0.533622
0.366524 0.957772 0.523118
0.523942 0.951189 0.518892
0.779315 0.944730 0.524627
0.952390 0.944994 0.529244
0.986420 0.938074 0.421336
0.571921 0.966497 0.718809
0.589004 0.966497 0.713198
0.694122 0.965894 0.715460
0.841416 0.964362 0.722458
0.950478 0.964455 0.730336
0.983539 0.964865 0.706396
0.030669 0.025641 0.187529
0.055273 0.025641 0.198030
0.371224 0.026232 0.244550
0.778590 0.154358 0.368335
0.991390 0.230739 0.410560
0.991390 0.234341 0.280540
0.030669 0.025641 0.199349
0.030669 0.025641 0.197909
0.372221 0.027919 0.248054
0.777808 0.153878 0.360205
0.991390 0.230700 0.398797
0.991390 0.234354 0.272313
0.105184 0.358180 0.285365
0.109058 0.356865 0.285946
0.373668 0.346435 0.294775
0.760538 0.331242 0.344420
0.991390 0.246413 0.395417
0.991390 0.234399 0.277373
0.266228 0.731728 0.460400
0.266697 0.732569 0.452974
0.381047 0.729714 0.432843
0.739218 0.723238 0.445157
0.966828 0.719687 0.446803
0.991390 0.574991 0.340568
0.355528 0.949798 0.632020
0.361381 0.950140 0.624852
0.482859 0.945806 0.605658
0.764140 0.937849 0.608189
0.949048 0.937116 0.618950
0.985141 0.925337 0.549123
0.569806 0.966497 0.775923
0.586615 0.966497 0.771539
0.681023 0.965897 0.766511
0.834253 0.963920 0.773896
0.947396 0.963921 0.783342
0.982689 0.964370 0.771865
0.053799 0.034989 0.586614
0.057299 0.035311 0.587851
0.441072 0.082061 0.613392
0.775457 0.167171 0.648418
0.991390 0.238106 0.708804
0.991390 0.241499 0.676970
0.054356 0.035582 0.589158
0.053805 0.034976 0.586607
0.423490 0.078275 0.610902
0.774582 0.166928 0.648406
0.991390 0.238117 0.705355
0.991390 0.241360 0.671555
0.118705 0.350975 0.619773
0.110596 0.325939 0.618051
0.352272 0.229767 0.617773
0.767914 0.235150 0.656161
0.991390 0.243063 0.714727
0.991390 0.241992 0.686661
0.260337 0.710283 0.675599
0.260599 0.710399 0.676210
0.356951 0.705527 0.676908
0.730328 0.693234 0.686838
0.966183 0.676456 0.708886
0.991390 0.532322 0.715770
0.350786 0.932277 0.790407
0.355108 0.932510 0.787345
0.468951 0.927269 0.778124
0.756137 0.919104 0.781671
0.942274 0.917117 0.796152
0.983532 0.904216 0.775617
0.566285 0.966497 0.872704
0.583166 0.966497 0.870542
0.678366 0.965406 0.867649
0.840025 0.963274 0.878158
0.944996 0.962809 0.879934
0.980194 0.962762 0.879934
0.120418 0.101926 0.879934
0.120470 0.101979 0.879934
0.429312 0.122395 0.879934
0.798621 0.190846 0.879934
0.991390 0.249885 0.879934
0.991390 0.254083 0.879934
0.120297 0.101783 0.879934
0.120188 0.101706 0.879934
0.394813 0.118514 0.879934
0.792067 0.189140 0.879934
0.991390 0.250129 0.879934
0.991390 0.254025 0.879934
0.129798 0.225513 0.879934
0.125551 0.189489 0.879934
0.307677 0.123578 0.879934
0.776512 0.193078 0.879934
0.991390 0.251557 0.879934
0.991390 0.254538 0.879934
0.261634 0.700147 0.879934
0.259524 0.694328 0.879934
0.322787 0.677303 0.879934
0.720535 0.655021 0.879934
0.962166 0.635441 0.879934
0.991390 0.476814 0.879934
0.347777 0.913423 0.879934
0.350586 0.913192 0.879934
0.463915 0.907601 0.879934
0.750966 0.898395 0.879934
0.936769 0.895870 0.879934
0.981470 0.890176 0.879934
0.569410 0.964941 0.879934
0.586324 0.964293 0.879934
0.680476 0.961491 0.879934
0.839324 0.958127 0.879934
0.947410 0.955476 0.879934
0.977267 0.955009 0.879934
0.146579 0.127452 0.879934
0.146544 0.127405 0.879934
0.360713 0.136069 0.879934
0.771378 0.195438 0.879934
0.991174 0.252674 0.879934
0.991390 0.260781 0.879934
0.146355 0.127200 0.879934
0.146423 0.127262 0.879934
0.323048 0.133405 0.879934
0.762390 0.193495 0.879934
0.989954 0.252078 0.879934
0.991390 0.260790 0.879934
0.150003 0.231500 0.879934
0.147893 0.203800 0.879934
0.270262 0.160338 0.879934
0.748248 0.198098 0.879934
0.985672 0.250736 0.879934
0.991390 0.260807 0.879934
0.260292 0.682754 0.879934
0.257744 0.675680 0.879934
0.322774 0.660016 0.879934
0.718801 0.658189 0.879934
0.946355 0.646403 0.879934
0.991390 0.509661 0.879934
0.343110 0.896138 0.879934
0.344988 0.894773 0.879934
0.454927 0.887308 0.879934
0.749504 0.881485 0.879934
0.935339 0.890712 0.879934
0.980783 0.885419 0.879934
0.587475 0.958788 0.879934
0.603709 0.957936 0.879934
0.692760 0.955260 0.879934
0.844465 0.952211 0.879934
0.947651 0.950547 0.879934
0.976421 0.950675 0.879934
