luts/Warm sad.cube
LUT_3D_SIZE 16
0.030669 0.025641 0.010462
0.030669 0.025641 0.010462
0.030669 0.025641 0.010462
0.030669 0.025641 0.010462
0.102643 0.025641 0.010462
0.228270 0.025641 0.010462
0.368114 0.025641 0.030108
0.516285 0.065698 0.064198
0.655679 0.111673 0.100881
0.778957 0.150554 0.133599
0.886096 0.183185 0.160858
0.968278 0.210584 0.183332
0.991390 0.230113 0.198053
0.991390 0.234478 0.201479
0.991390 0.234495 0.204069
0.991390 0.234471 0.205752
0.030669 0.025641 0.010462
0.030669 0.025641 0.010462
0.030669 0.025641 0.010462
0.030669 0.025641 0.010462
0.101418 0.025641 0.010462
0.227553 0.025641 0.010462
0.366893 0.025641 0.029914
0.515409 0.065536 0.064277
0.655067 0.111462 0.101132
0.778638 0.150437 0.134010
0.885775 0.183086 0.160989
0.967960 0.210480 0.183475
0.991390 0.230063 0.198223
0.991390 0.234484 0.201539
0.991390 0.234494 0.204066
0.991390 0.234471 0.205752
0.030669 0.025641 0.010462
0.030669 0.025641 0.010462
0.030669 0.025641 0.010462
0.030669 0.025641 0.010462
0.102836 0.025641 0.010462
0.226190 0.025641 0.010462
0.361578 0.025641 0.027038
0.513029 0.070253 0.063668
0.652926 0.111999 0.101864
0.777088 0.149878 0.135769
0.884363 0.182730 0.162605
0.967351 0.210264 0.184245
0.991390 0.229926 0.198748
0.991390 0.234497 0.201782
0.991390 0.234493 0.204056
0.991390 0.234470 0.205753
0.030669 0.025641 0.010462
0.030669 0.025641 0.010462
0.030669 0.025641 0.010462
0.030669 0.025641 0.010462
0.113743 0.050297 0.010462
0.226510 0.072416 0.010462
0.361355 0.085823 0.026585
0.509873 0.099948 0.060960
0.649879 0.126340 0.100324
0.775607 0.150499 0.138269
0.883420 0.182754 0.166955
0.966951 0.210037 0.186917
0.991390 0.229877 0.200017
0.991390 0.234477 0.202195
0.991390 0.234491 0.204066
0.991390 0.234468 0.205771
0.030669 0.122643 0.010462
0.030669 0.122169 0.010462
0.030669 0.120703 0.010462
0.063305 0.119396 0.010462
0.127483 0.120215 0.010462
0.236445 0.149281 0.018818
0.366341 0.171371 0.040627
0.507686 0.186634 0.068811
0.644607 0.191055 0.101342
0.770787 0.190458 0.134974
0.882254 0.193444 0.168781
0.967057 0.213376 0.192715
0.991390 0.229918 0.203611
0.991390 0.234416 0.203042
0.991390 0.234481 0.204421
0.991390 0.234472 0.205787
0.043930 0.243261 0.037637
0.045929 0.242927 0.037348
0.053289 0.241851 0.036373
0.087259 0.240143 0.034495
0.159440 0.238516 0.037748
0.247855 0.238649 0.044553
0.375635 0.267129 0.063811
0.509699 0.290558 0.088595
0.638895 0.306765 0.114987
0.760148 0.306887 0.140258
0.870760 0.285822 0.165617
0.962899 0.252263 0.187923
0.991413 0.240085 0.207292
0.991390 0.235066 0.206595
0.991390 0.234517 0.204695
0.991390 0.234504 0.205853
0.113979 0.381467 0.083781
0.114101 0.381140 0.083845
0.114609 0.380557 0.084183
0.125688 0.379294 0.083552
0.175159 0.377156 0.082443
0.274741 0.374674 0.086363
0.383975 0.374522 0.094150
0.513527 0.401948 0.116609
0.635530 0.425746 0.137550
0.750067 0.438539 0.159947
0.854982 0.434012 0.176740
0.947900 0.402294 0.192462
0.991189 0.327323 0.201141
0.991390 0.268937 0.203146
0.991390 0.239612 0.205275
0.991390 0.234470 0.205926
0.175143 0.516645 0.134328
0.175137 0.516546 0.134388
0.174952 0.516154 0.134758
0.179378 0.515591 0.134952
0.208474 0.513934 0.132519
0.295567 0.511165 0.132931
0.413146 0.508366 0.139505
0.517998 0.507673 0.150605
0.635863 0.533001 0.170276
0.744339 0.550942 0.191008
0.842880 0.559797 0.201952
0.931839 0.552339 0.213486
0.988791 0.525637 0.213351
0.991390 0.435769 0.203243
0.991390 0.310905 0.196317
0.991390 0.245697 0.204399
0.227409 0.639296 0.190709
0.227400 0.639165 0.190775
0.227720 0.639164 0.191027
0.228641 0.638986 0.191582
0.246616 0.638027 0.191144
0.313406 0.635102 0.189614
0.435361 0.631649 0.195134
0.544810 0.630119 0.203764
0.641853 0.629428 0.212937
0.743740 0.648590 0.233612
0.836197 0.661198 0.245046
0.920481 0.665403 0.250183
0.976883 0.657110 0.246795
0.991350 0.625824 0.231956
0.991390 0.543151 0.213460
0.991390 0.410771 0.196761
0.271952 0.747147 0.261138
0.271985 0.747212 0.261303
0.272322 0.747270 0.262169
0.273366 0.747235 0.263867
0.288167 0.746402 0.265051
0.340790 0.743877 0.263377
0.449186 0.740582 0.263557
0.562530 0.738685 0.269919
0.660023 0.737003 0.277183
0.746339 0.736718 0.286539
0.834364 0.748375 0.300846
0.914119 0.756697 0.301994
0.967305 0.756602 0.295143
0.986960 0.745784 0.272828
0.990431 0.715231 0.251125
0.991390 0.643605 0.228355
0.307660 0.835887 0.343276
0.307719 0.835685 0.343489
0.307896 0.835892 0.344208
0.311520 0.835712 0.345458
0.323362 0.835110 0.346881
0.370886 0.832851 0.345888
0.466998 0.829212 0.341842
0.578438 0.826710 0.346238
0.673740 0.825590 0.352961
0.760136 0.824823 0.359565
0.836723 0.825126 0.364586
0.910685 0.832228 0.369710
0.960655 0.836562 0.359680
0.982273 0.834022 0.333000
0.988120 0.823194 0.296115
0.988781 0.794617 0.270592
0.337195 0.910199 0.427115
0.337130 0.910241 0.427363
0.337162 0.910229 0.428023
0.342284 0.910239 0.428914
0.351987 0.909850 0.430194
0.399754 0.907333 0.428694
0.496637 0.903836 0.424302
0.596023 0.901035 0.424077
0.686674 0.899575 0.429264
0.769785 0.898628 0.434628
0.846439 0.898340 0.439103
0.911258 0.898582 0.440737
0.954028 0.901895 0.434895
0.978594 0.902384 0.412538
0.986022 0.898882 0.365406
0.987522 0.888766 0.319493
0.361316 0.959151 0.508210
0.361600 0.959150 0.508298
0.363783 0.958777 0.508620
0.374563 0.958299 0.508771
0.391908 0.957310 0.509122
0.457519 0.954845 0.506244
0.540816 0.951313 0.503524
0.625260 0.948490 0.502530
0.707650 0.946685 0.505869
0.784911 0.945692 0.510875
0.856531 0.945246 0.515191
0.914354 0.945418 0.516883
0.952937 0.946297 0.513477
0.974865 0.946358 0.497317
0.984607 0.945191 0.464513
0.986581 0.940800 0.401728
0.386571 0.966497 0.582274
0.387520 0.966497 0.582193
0.400128 0.966497 0.581818
0.428212 0.966497 0.580635
0.471045 0.966497 0.578959
0.529912 0.966497 0.577637
0.595667 0.966497 0.577214
0.664544 0.966402 0.577690
0.734563 0.964911 0.579375
0.804879 0.963420 0.583772
0.867011 0.962966 0.587746
0.917521 0.962600 0.590063
0.951593 0.962918 0.587886
0.973348 0.963464 0.580093
0.983299 0.963857 0.555488
0.985879 0.963478 0.505563
0.475652 0.966497 0.645964
0.478299 0.966497 0.645730
0.490900 0.966497 0.645551
0.516144 0.966497 0.644976
0.555083 0.966497 0.644210
0.598589 0.966515 0.643994
0.649860 0.966497 0.644556
0.706489 0.966306 0.646463
0.765804 0.965362 0.648248
0.825333 0.964778 0.651672
0.879232 0.964454 0.655633
0.921017 0.964502 0.658122
0.951200 0.964944 0.658162
0.970742 0.964725 0.653357
0.981782 0.965172 0.641435
0.984947 0.965497 0.604957
0.572332 0.966497 0.704649
0.574541 0.966497 0.704795
0.583355 0.966497 0.704767
0.600274 0.966497 0.705086
0.626611 0.966497 0.705493
0.660723 0.966497 0.706189
0.701964 0.965823 0.707102
0.748229 0.965183 0.709072
0.797202 0.964511 0.711618
0.845154 0.964369 0.714507
0.888525 0.964122 0.717744
0.924576 0.964131 0.720000
0.951375 0.964460 0.721425
0.968625 0.964328 0.719409
0.979711 0.964748 0.713197
0.983829 0.964989 0.694908
0.030669 0.025641 0.010462
0.030669 0.025641 0.010462
0.030669 0.025641 0.010462
0.030669 0.025641 0.010462
0.102379 0.025641 0.010462
0.228311 0.025641 0.010462
0.367681 0.025641 0.032305
0.516794 0.065838 0.066466
0.655866 0.111746 0.103259
0.779226 0.150605 0.136148
0.885932 0.183191 0.162031
0.968420 0.210620 0.184386
0.991390 0.230113 0.198807
0.991390 0.234477 0.201726
0.991390 0.234495 0.204067
0.991390 0.234471 0.205753
0.030669 0.025641 0.010462
0.030669 0.025641 0.010462
0.030669 0.025641 0.010462
0.030669 0.025641 0.010462
0.101869 0.025641 0.010462
0.227882 0.025641 0.010462
0.367429 0.025641 0.031006
0.516097 0.065659 0.065114
0.655480 0.111630 0.101836
0.778817 0.150511 0.134585
0.886075 0.183184 0.161272
0.968117 0.210557 0.183746
0.991390 0.230101 0.198380
0.991390 0.234483 0.201546
0.991390 0.234494 0.204075
0.991390 0.234471 0.205753
0.030669 0.025641 0.010462
0.030669 0.025641 0.010462
0.030669 0.025641 0.010462
0.030669 0.025641 0.010462
0.102396 0.025641 0.010462
0.225935 0.025641 0.010462
0.362137 0.025641 0.028724
0.513544 0.069444 0.064596
0.653301 0.111648 0.102650
0.777373 0.149993 0.136314
0.884554 0.182786 0.163021
0.967479 0.210266 0.184427
0.991390 0.229941 0.198869
0.991390 0.234496 0.201815
0.991390 0.234493 0.204060
0.991390 0.234470 0.205754
0.030669 0.025641 0.010462
0.030669 0.025641 0.010462
0.030669 0.025641 0.010462
0.030669 0.025641 0.010462
0.113008 0.048358 0.010462
0.226402 0.068994 0.010462
0.361381 0.081131 0.026976
0.510286 0.097733 0.062444
0.650266 0.124422 0.101339
0.776064 0.150016 0.138903
0.883612 0.182756 0.167402
0.966933 0.210025 0.187209
0.991390 0.229844 0.200113
0.991390 0.234483 0.202220
0.991390 0.234491 0.204055
0.991390 0.234468 0.205767
0.030669 0.122237 0.010824
0.030669 0.122190 0.010462
0.030669 0.120592 0.010462
0.061148 0.119145 0.010462
0.127340 0.119942 0.010462
0.236286 0.147894 0.019286
0.366308 0.169021 0.041224
0.507816 0.183599 0.069153
0.644904 0.187831 0.101930
0.771167 0.187618 0.136291
0.882240 0.192878 0.169381
0.967325 0.213025 0.193194
0.991390 0.229937 0.203820
0.991390 0.234420 0.203059
0.991390 0.234481 0.204414
0.991390 0.234472 0.205785
0.043759 0.242878 0.040723
0.044780 0.242927 0.038928
0.052398 0.241779 0.037935
0.084540 0.240061 0.035497
0.157977 0.238375 0.038675
0.247802 0.238532 0.045426
0.375593 0.265922 0.064590
0.509715 0.288655 0.088976
0.639103 0.304239 0.115473
0.760360 0.303662 0.140589
0.871261 0.282157 0.166180
0.963088 0.250787 0.188869
0.991421 0.239027 0.207898
0.991390 0.235034 0.206734
0.991390 0.234526 0.204650
0.991390 0.234505 0.205851
0.113823 0.381144 0.086063
0.113972 0.381132 0.084757
0.114481 0.380570 0.085085
0.124881 0.379274 0.084548
0.173280 0.377157 0.083111
0.273701 0.374567 0.086968
0.383928 0.374399 0.094739
0.513551 0.401168 0.117217
0.635599 0.424451 0.138122
0.750404 0.436693 0.160346
0.855218 0.431748 0.177109
0.948124 0.398807 0.192859
0.991174 0.324437 0.201705
0.991390 0.267112 0.203815
0.991390 0.239360 0.205418
0.991390 0.234470 0.205913
0.175054 0.516505 0.136164
0.175093 0.516519 0.135076
0.174936 0.516062 0.135361
0.179067 0.515533 0.135598
0.207169 0.513880 0.133257
0.293870 0.511159 0.133374
0.412384 0.508301 0.140399
0.517950 0.507625 0.151470
0.635774 0.532422 0.170741
0.744464 0.549953 0.191505
0.843108 0.558367 0.202278
0.932049 0.550599 0.213773
0.988848 0.523340 0.213481
0.991390 0.432677 0.203576
0.991390 0.306893 0.196384
0.991390 0.244928 0.204644
0.227352 0.639169 0.192599
0.227394 0.639217 0.191436
0.227628 0.639087 0.191661
0.228515 0.638853 0.192162
0.245835 0.637910 0.192319
0.311384 0.635087 0.190573
0.433954 0.631670 0.196044
0.544235 0.630006 0.204614
0.641779 0.629347 0.213656
0.743513 0.647986 0.234371
0.836212 0.660553 0.245414
0.920536 0.664526 0.250641
0.976828 0.655830 0.246929
0.991377 0.623940 0.232082
0.991390 0.540650 0.213390
0.991390 0.407933 0.196881
0.271818 0.747107 0.264521
0.271930 0.747138 0.262362
0.272238 0.747258 0.263219
0.272824 0.747251 0.264952
0.287622 0.746457 0.266115
0.339272 0.744061 0.264524
0.447491 0.740456 0.264522
0.561610 0.738547 0.270867
0.659517 0.737043 0.278195
0.746092 0.736556 0.287577
0.834368 0.748069 0.301769
0.914169 0.756180 0.302661
0.967262 0.756015 0.295585
0.987053 0.745080 0.272890
0.990394 0.714105 0.251233
0.991390 0.641922 0.228091
0.307539 0.835556 0.346150
0.307610 0.835762 0.344229
0.307813 0.835893 0.345080
0.310866 0.835617 0.346367
0.322847 0.835065 0.347714
0.369453 0.832862 0.346750
0.465158 0.829228 0.342860
0.577278 0.826649 0.347007
0.673010 0.825497 0.353828
0.759652 0.824728 0.360465
0.836651 0.824932 0.365509
0.910648 0.831928 0.370442
0.960665 0.836112 0.360328
0.982289 0.833540 0.333400
0.988128 0.822594 0.296408
0.988774 0.793895 0.270593
0.337077 0.910211 0.429428
0.337142 0.910198 0.427981
0.337172 0.910212 0.428642
0.341811 0.910200 0.429570
0.351574 0.909842 0.430918
0.398361 0.907391 0.429503
0.494733 0.903823 0.425093
0.594884 0.900888 0.424746
0.685911 0.899504 0.429957
0.769133 0.898534 0.435381
0.846049 0.898120 0.439826
0.911109 0.898582 0.441547
0.954051 0.901522 0.435563
0.978698 0.902037 0.413016
0.986013 0.898739 0.365755
0.987476 0.888658 0.319980
0.361253 0.959025 0.510045
0.361432 0.959031 0.508781
0.362915 0.958736 0.509127
0.373811 0.958322 0.509343
0.389966 0.957279 0.509762
0.455478 0.954718 0.506919
0.539148 0.951338 0.504191
0.624282 0.948695 0.503242
0.706846 0.946523 0.506487
0.784379 0.945676 0.511374
0.856421 0.945095 0.515778
0.914229 0.945328 0.517443
0.952965 0.946113 0.514089
0.974943 0.946666 0.498043
0.984614 0.945217 0.465136
0.986625 0.940838 0.402466
0.386577 0.966497 0.583752
0.386880 0.966497 0.582740
0.398013 0.966497 0.582347
0.426146 0.966497 0.581169
0.469134 0.966497 0.579529
0.528116 0.966497 0.578061
0.594372 0.966497 0.577681
0.663457 0.966477 0.578130
0.733860 0.964921 0.579961
0.804628 0.963449 0.584355
0.866738 0.962873 0.588090
0.917377 0.962580 0.590595
0.951510 0.962831 0.588457
0.973344 0.963459 0.580800
0.983345 0.963862 0.556150
0.985898 0.963473 0.506249
0.475556 0.966497 0.647096
0.476418 0.966497 0.646440
0.488993 0.966497 0.646117
0.514223 0.966497 0.645372
0.553462 0.966497 0.644572
0.597240 0.966517 0.644278
0.648790 0.966497 0.645201
0.705779 0.966398 0.646612
0.765185 0.965387 0.648690
0.824807 0.964781 0.652292
0.878804 0.964443 0.656028
0.920976 0.964561 0.658511
0.951097 0.964943 0.658514
0.970801 0.964953 0.653795
0.981739 0.965140 0.642013
0.984965 0.965451 0.605534
0.572343 0.966497 0.705768
0.573074 0.966497 0.705109
0.582087 0.966541 0.705071
0.599087 0.966497 0.705517
0.625381 0.966497 0.705718
0.659760 0.966497 0.706442
0.701024 0.965767 0.707538
0.747514 0.965010 0.709570
0.796638 0.964524 0.712015
0.844744 0.964352 0.714832
0.888382 0.964108 0.717901
0.924257 0.964110 0.720446
0.951264 0.964439 0.721670
0.968763 0.964313 0.719558
0.979783 0.964731 0.713321
0.983803 0.964966 0.695256
0.030669 0.025641 0.010462
0.030669 0.025641 0.010462
0.030669 0.025641 0.010462
0.030669 0.025641 0.010462
0.102601 0.025641 0.010462
0.228452 0.025641 0.018855
0.368702 0.025641 0.045063
0.518060 0.066231 0.078197
0.656685 0.112022 0.112966
0.779942 0.150801 0.146128
0.886437 0.183315 0.172389
0.968446 0.210620 0.190540
0.991390 0.230117 0.201794
0.991390 0.234469 0.202756
0.991390 0.234494 0.204100
0.991390 0.234471 0.205752
0.030669 0.025641 0.010462
0.030669 0.025641 0.010462
0.030669 0.025641 0.010462
0.030669 0.025641 0.010462
0.102266 0.025641 0.010462
0.227740 0.025641 0.017538
0.368355 0.025641 0.043687
0.517753 0.066160 0.076498
0.656521 0.111929 0.111301
0.779385 0.150688 0.144750
0.886123 0.183273 0.171023
0.968270 0.210585 0.189169
0.991390 0.230098 0.201327
0.991390 0.234474 0.202560
0.991390 0.234494 0.204100
0.991390 0.234471 0.205752
0.030669 0.025641 0.010462
0.030669 0.025641 0.010462
0.030669 0.025641 0.010462
0.030669 0.025641 0.010462
0.101185 0.025641 0.010462
0.225103 0.025641 0.013843
0.365055 0.025641 0.038045
0.515616 0.066905 0.071458
0.654966 0.111409 0.107459
0.778536 0.150363 0.140726
0.885379 0.183037 0.167019
0.967787 0.210422 0.186151
0.991390 0.230025 0.200072
0.991390 0.234481 0.202167
0.991390 0.234494 0.204076
0.991390 0.234470 0.205750
0.030669 0.025641 0.010462
0.030669 0.025641 0.010462
0.030669 0.025641 0.010462
0.030669 0.025641 0.010462
0.110001 0.040889 0.010462
0.226774 0.053692 0.010462
0.362811 0.061958 0.030923
0.512046 0.090219 0.070907
0.651986 0.117962 0.109195
0.776837 0.150112 0.142842
0.883962 0.182747 0.171088
0.967266 0.210114 0.190439
0.991390 0.229860 0.201038
0.991390 0.234482 0.202453
0.991390 0.234489 0.204222
0.991390 0.234468 0.205756
0.030669 0.119744 0.020114
0.030669 0.119755 0.019256
0.030669 0.119032 0.014578
0.051091 0.117542 0.010462
0.126502 0.118453 0.011141
0.235934 0.142227 0.024659
0.366499 0.160255 0.046404
0.508618 0.171787 0.074064
0.646152 0.175589 0.106337
0.772968 0.177917 0.143787
0.882919 0.190975 0.173324
0.967456 0.211954 0.196561
0.991390 0.229930 0.206271
0.991390 0.234427 0.203183
0.991390 0.234479 0.204638
0.991390 0.234475 0.205770
0.043072 0.241385 0.052263
0.044018 0.241444 0.050914
0.049390 0.241122 0.046645
0.076104 0.239271 0.043292
0.152720 0.237442 0.044611
0.247361 0.237759 0.050821
0.375349 0.261812 0.070483
0.509896 0.282173 0.093046
0.639852 0.294987 0.119851
0.761477 0.292288 0.144318
0.873015 0.268469 0.170231
0.963653 0.245688 0.195038
0.991451 0.235547 0.211271
0.991390 0.234898 0.208407
0.991390 0.234474 0.204781
0.991390 0.234506 0.205834
0.113227 0.380046 0.095174
0.113355 0.380037 0.094056
0.113889 0.380043 0.090783
0.122246 0.379003 0.090394
0.166523 0.376724 0.087651
0.269854 0.374191 0.090934
0.383333 0.373521 0.101267
0.513287 0.398114 0.121629
0.635718 0.419425 0.142971
0.750993 0.429782 0.163799
0.856068 0.423236 0.181100
0.949390 0.387145 0.195939
0.991312 0.314955 0.205785
0.991390 0.260971 0.206966
0.991390 0.238528 0.206654
0.991390 0.234467 0.205910
0.174771 0.515752 0.143508
0.174777 0.515767 0.142551
0.174834 0.515807 0.139554
0.178028 0.515243 0.139649
0.203096 0.513719 0.137519
0.287686 0.510718 0.138928
0.409560 0.507780 0.146329
0.517674 0.507114 0.156810
0.635636 0.530344 0.175704
0.744624 0.546542 0.195816
0.843451 0.553248 0.206664
0.932658 0.544836 0.216932
0.989302 0.514669 0.216093
0.991390 0.422240 0.206472
0.991390 0.294660 0.196964
0.991390 0.242286 0.205751
0.226897 0.638041 0.204755
0.226960 0.638232 0.202836
0.227205 0.638724 0.196791
0.228112 0.638419 0.198596
0.243045 0.637590 0.199865
0.304216 0.634778 0.197104
0.429128 0.631279 0.201935
0.542249 0.629495 0.210022
0.641619 0.628892 0.218678
0.743462 0.646606 0.240029
0.836271 0.658068 0.249330
0.920651 0.661079 0.254867
0.977102 0.651561 0.249051
0.991390 0.617848 0.234505
0.991390 0.532439 0.213924
0.991390 0.398994 0.197204
0.271427 0.746070 0.278386
0.271480 0.746235 0.276385
0.271843 0.746678 0.270094
0.272449 0.746661 0.271781
0.285514 0.745896 0.273133
0.334268 0.743586 0.271819
0.440918 0.740256 0.270605
0.558357 0.738092 0.276513
0.658018 0.736648 0.284728
0.746008 0.736111 0.293984
0.834287 0.746714 0.307101
0.913952 0.754130 0.308136
0.967298 0.753593 0.299416
0.986989 0.741965 0.275651
0.990546 0.709934 0.252401
0.991390 0.636498 0.227573
0.307188 0.834725 0.358326
0.307267 0.834892 0.356661
0.307562 0.835280 0.350885
0.308817 0.835341 0.352350
0.320964 0.834873 0.353806
0.364817 0.832775 0.353201
0.459073 0.829234 0.349347
0.573241 0.826128 0.352451
0.670792 0.825179 0.359198
0.758560 0.824334 0.365973
0.836457 0.824576 0.371051
0.910612 0.831000 0.375529
0.960440 0.834597 0.365350
0.982267 0.831737 0.336729
0.988004 0.820432 0.300105
0.988801 0.791610 0.271070
0.336808 0.909496 0.439224
0.336831 0.909722 0.437719
0.336969 0.910050 0.433210
0.340085 0.909709 0.434324
0.349949 0.909352 0.435580
0.393502 0.907223 0.434441
0.488014 0.903557 0.430476
0.590487 0.900607 0.429229
0.683229 0.899134 0.434433
0.767675 0.898351 0.439936
0.845342 0.897877 0.444508
0.910918 0.897947 0.446289
0.953758 0.900836 0.440128
0.978739 0.901110 0.417985
0.986028 0.897294 0.370569
0.987457 0.887033 0.323284
0.360914 0.958349 0.517817
0.361067 0.958568 0.516627
0.361676 0.958742 0.512949
0.371000 0.958139 0.513207
0.387288 0.957415 0.513680
0.449070 0.954793 0.511158
0.533313 0.951307 0.508376
0.620267 0.948529 0.507266
0.704090 0.946578 0.510195
0.782453 0.945477 0.515100
0.855108 0.944830 0.519579
0.913681 0.944959 0.521507
0.952770 0.945670 0.518408
0.974939 0.946190 0.502377
0.984621 0.944526 0.469780
0.986630 0.939863 0.407510
0.386441 0.966497 0.590097
0.386769 0.966497 0.589148
0.390939 0.966497 0.585816
0.419295 0.966497 0.584653
0.462761 0.966497 0.583011
0.522236 0.966497 0.581494
0.589950 0.966497 0.581044
0.660145 0.966463 0.581418
0.731156 0.964738 0.582906
0.802824 0.963450 0.587383
0.865575 0.962839 0.591294
0.916680 0.962447 0.593869
0.951175 0.962635 0.591865
0.973224 0.963333 0.584593
0.983238 0.963725 0.559954
0.985831 0.963286 0.510909
0.475155 0.966497 0.652336
0.476019 0.966497 0.651690
0.482608 0.966497 0.648808
0.508103 0.966497 0.648212
0.547599 0.966497 0.647385
0.593011 0.966515 0.647014
0.645294 0.966497 0.647702
0.702722 0.966468 0.649356
0.762939 0.965409 0.651284
0.823142 0.964730 0.654666
0.877523 0.964485 0.658704
0.920284 0.964501 0.661217
0.950916 0.964774 0.661302
0.970475 0.964965 0.656876
0.981884 0.965160 0.645433
0.984946 0.965313 0.609489
0.572195 0.966497 0.709930
0.572946 0.966497 0.709212
0.577795 0.966497 0.707295
0.595005 0.966497 0.707576
0.621703 0.966497 0.707777
0.656513 0.966497 0.708778
0.698313 0.965832 0.709800
0.744940 0.965194 0.711641
0.794816 0.964511 0.714182
0.843401 0.964333 0.716842
0.887363 0.964108 0.719962
0.923924 0.964122 0.722388
0.950930 0.964509 0.724175
0.968485 0.964315 0.722293
0.979790 0.964723 0.716071
0.983772 0.964916 0.698449
0.030669 0.025641 0.010462
0.030669 0.025641 0.010462
0.030669 0.025641 0.010462
0.030669 0.025641 0.010462
0.104690 0.025641 0.015075
0.229119 0.025641 0.041694
0.369675 0.025641 0.071141
0.519095 0.066850 0.104652
0.657225 0.112375 0.138539
0.779964 0.150974 0.170396
0.886603 0.183503 0.194185
0.968515 0.210727 0.209267
0.991390 0.230125 0.215629
0.991390 0.234466 0.204943
0.991390 0.234475 0.205582
0.991390 0.234470 0.205756
0.030669 0.025641 0.010462
0.030669 0.025641 0.010462
0.030669 0.025641 0.010462
0.030669 0.025641 0.010462
0.104275 0.025641 0.014752
0.228635 0.025641 0.040631
0.369499 0.025641 0.069902
0.518848 0.066752 0.103072
0.657100 0.112302 0.137061
0.779897 0.150947 0.168815
0.886553 0.183495 0.192461
0.968404 0.210665 0.208076
0.991390 0.230097 0.214505
0.991390 0.234467 0.204363
0.991390 0.234476 0.205518
0.991390 0.234470 0.205756
0.030669 0.025641 0.010462
0.030669 0.025641 0.010462
0.030669 0.025641 0.010462
0.030669 0.025641 0.010462
0.100973 0.025641 0.013968
0.226843 0.025641 0.038277
0.368122 0.025641 0.065843
0.517552 0.067387 0.098478
0.656062 0.111967 0.132802
0.779293 0.150696 0.164044
0.886054 0.183319 0.187350
0.968006 0.210555 0.204537
0.991390 0.230039 0.211209
0.991390 0.234476 0.203851
0.991390 0.234479 0.205284
0.991390 0.234470 0.205749
0.030669 0.025641 0.010462
0.030669 0.025641 0.010462
0.030669 0.025641 0.010462
0.030669 0.025641 0.010462
0.108820 0.025641 0.014104
0.227995 0.025641 0.032394
0.365988 0.045660 0.058217
0.515362 0.078147 0.091532
0.654572 0.113493 0.126490
0.777985 0.150395 0.157539
0.885115 0.182948 0.181258
0.967642 0.210356 0.199974
0.991390 0.229921 0.207182
0.991390 0.234489 0.203235
0.991390 0.234481 0.204914
0.991390 0.234468 0.205752
0.030669 0.115300 0.037873
0.030669 0.115199 0.037307
0.030669 0.114281 0.035107
0.031425 0.113313 0.028927
0.124599 0.114208 0.030724
0.235965 0.130193 0.042522
0.367711 0.142119 0.062902
0.511021 0.147904 0.089471
0.648956 0.158488 0.125337
0.775807 0.163514 0.160905
0.884168 0.187679 0.188242
0.967937 0.210440 0.205369
0.991390 0.229952 0.213502
0.991390 0.234436 0.205913
0.991390 0.234473 0.205110
0.991390 0.234475 0.205791
0.041792 0.238471 0.075218
0.042616 0.238451 0.074127
0.047382 0.238102 0.070818
0.067599 0.237178 0.065198
0.142277 0.234917 0.062994
0.245854 0.234916 0.069798
0.375313 0.254409 0.085696
0.510646 0.269658 0.108132
0.641446 0.278147 0.132181
0.764170 0.270406 0.158540
0.876113 0.246753 0.183760
0.965228 0.237060 0.210256
0.991390 0.230193 0.220110
0.991390 0.234640 0.213390
0.991390 0.234507 0.205783
0.991390 0.234467 0.205799
0.112085 0.377767 0.118279
0.112190 0.377804 0.116990
0.112584 0.377847 0.113201
0.117883 0.377498 0.107579
0.157110 0.375355 0.106232
0.262385 0.372604 0.108411
0.382329 0.371797 0.117113
0.513100 0.392608 0.135408
0.636078 0.410877 0.156254
0.752034 0.417527 0.175519
0.857884 0.407209 0.193070
0.951525 0.366096 0.206865
0.991390 0.298093 0.217438
0.991390 0.252080 0.216488
0.991390 0.237236 0.209857
0.991390 0.234464 0.205907
0.173807 0.513771 0.169250
0.173750 0.513765 0.167753
0.173842 0.513883 0.163185
0.176020 0.513881 0.156464
0.196196 0.512534 0.156892
0.276306 0.509416 0.155191
0.404438 0.506653 0.161229
0.516900 0.505725 0.170465
