luts/YELLOW.RED.cube
TITLE "Generated by Resolve"
LUT_3D_SIZE 33
0.0525368 0.0474861 0.0190738
0.0690013 0.0474861 0.0190738
0.0953384 0.0475471 0.0182345
0.127321 0.0474098 0.0167391
0.159823 0.0470588 0.0155032
0.192401 0.0466926 0.014725
0.224628 0.0463722 0.014313
0.256794 0.0460517 0.013962
0.289021 0.045716 0.0135958
0.321324 0.0453803 0.0132753
0.353429 0.0450446 0.0129244
0.385458 0.0447089 0.0125734
0.417441 0.0443732 0.012253
0.449363 0.0440223 0.011902
0.481346 0.0436866 0.0115969
0.513268 0.0433356 0.0112459
0.545083 0.0429999 0.0109255
0.576806 0.0426642 0.0105898
0.608331 0.0423438 0.0102846
0.639002 0.0422217 0.0103151
0.668299 0.0424659 0.0108644
0.69546 0.0431983 0.0121462
0.720043 0.0446174 0.0143587
0.741436 0.046891 0.017731
0.759152 0.0501259 0.0224002
0.773526 0.0542611 0.0282139
0.785702 0.0589761 0.0347143
0.797024 0.0639353 0.0413672
0.808606 0.0688334 0.047837
0.820935 0.073579 0.0539712
0.835081 0.0778363 0.0593729
0.8589 0.0796521 0.0614176
0.878004 0.0799268 0.0617075
0.0525673 0.0647746 0.0190433
0.0690623 0.065507 0.0189975
0.0956283 0.066041 0.0181277
0.127398 0.0662394 0.0166171
0.159747 0.0662394 0.0153658
0.192264 0.0661479 0.0145266
0.224445 0.0661173 0.0140841
0.256687 0.0661784 0.0137026
0.288762 0.0661173 0.0133364
0.320928 0.0660258 0.0129854
0.352972 0.0659648 0.0126192
0.384955 0.065919 0.012253
0.416922 0.0658732 0.011902
0.448844 0.0658732 0.0115358
0.480674 0.0658732 0.0111849
0.512505 0.0658732 0.0108186
0.544228 0.0658427 0.0104524
0.575875 0.0658427 0.0101167
0.607462 0.0658274 0.00976577
0.638407 0.0660868 0.00967422
0.667964 0.0665293 0.0100862
0.695735 0.0673686 0.0112001
0.721233 0.0688487 0.0132601
0.743755 0.0710307 0.0164492
0.76289 0.0742046 0.0209964
0.778576 0.0782177 0.0268101
0.791684 0.0827955 0.0334936
0.803571 0.0877394 0.0405737
0.81532 0.0926986 0.0475471
0.827665 0.0975509 0.0542
0.841077 0.102174 0.0603799
0.860945 0.105074 0.0640269
0.88069 0.10544 0.0643778
0.0527962 0.0962081 0.0177615
0.0692454 0.0970932 0.0176547
0.0955978 0.097673 0.0169833
0.126925 0.098024 0.015671
0.158831 0.0981918 0.0144198
0.191089 0.0981918 0.0135195
0.223301 0.0983291 0.0130007
0.255329 0.0983444 0.0126192
0.287358 0.0983597 0.0122225
0.319478 0.0983291 0.0118563
0.351431 0.0982834 0.01149
0.383398 0.0982681 0.0111086
0.415381 0.0983444 0.0107424
0.447196 0.0983291 0.0103761
0.478965 0.0982834 0.0100099
0.51075 0.0982376 0.00965896
0.542458 0.0981918 0.00929274
0.574136 0.0982071 0.00894179
0.605692 0.0982376 0.00859083
0.636927 0.0982071 0.00833143
0.66714 0.098436 0.00857557
0.695857 0.0990158 0.00946059
0.722683 0.100069 0.0112612
0.747005 0.101854 0.0142214
0.768109 0.104326 0.018555
0.785763 0.107637 0.0243534
0.800412 0.111727 0.0313115
0.813153 0.116304 0.038941
0.825238 0.121111 0.0467384
0.837583 0.125872 0.0542153
0.850614 0.130388 0.0612192
0.86569 0.134386 0.0671855
0.884611 0.135241 0.0682841
0.0520485 0.129015 0.0152895
0.068452 0.129885 0.0151522
0.0949111 0.130297 0.0148013
0.126207 0.130632 0.0139773
0.1579 0.130785 0.0130159
0.190051 0.130907 0.0122988
0.222019 0.130877 0.0118257
0.254017 0.130846 0.011429
0.285969 0.130846 0.0110475
0.318044 0.130755 0.0106508
0.350072 0.130816 0.0102846
0.381964 0.130739 0.0099031
0.413794 0.130663 0.00955215
0.445579 0.130602 0.00918593
0.477333 0.130556 0.00880446
0.509071 0.13051 0.00846876
0.540825 0.13051 0.00808728
0.572412 0.130404 0.00773632
0.603891 0.130327 0.00740063
0.635264 0.130266 0.00708019
0.665934 0.130297 0.00714122
0.695399 0.130739 0.00781262
0.723262 0.131518 0.00935378
0.748913 0.132738 0.0120699
0.77174 0.134676 0.0161593
0.791287 0.137407 0.0217899
0.807584 0.140978 0.0288853
0.821485 0.145159 0.0369726
0.834165 0.149706 0.0454719
0.846677 0.154238 0.053727
0.859663 0.158633 0.0614786
0.873487 0.162875 0.0687114
0.889891 0.164538 0.071458
0.0506905 0.161837 0.0127871
0.0670787 0.162646 0.012665
0.0937057 0.162982 0.0124819
0.125261 0.163226 0.0120394
0.156909 0.163272 0.01149
0.188861 0.163333 0.0110323
0.220752 0.163241 0.010605
0.252659 0.163195 0.0102083
0.284596 0.163104 0.00984207
0.316716 0.163088 0.00944533
0.348592 0.163043 0.00907912
0.380423 0.162905 0.0087129
0.412253 0.162799 0.00833143
0.443992 0.162722 0.00798047
0.47567 0.162585 0.00761425
0.507469 0.162661 0.00724804
0.539147 0.162554 0.00689708
0.570672 0.162371 0.00653086
0.602106 0.16228 0.00619516
0.633494 0.162158 0.00585946
0.664485 0.162158 0.00573739
0.694514 0.162402 0.00624094
0.723079 0.16289 0.00756847
0.749798 0.163806 0.0100252
0.774044 0.16527 0.0138705
0.795285 0.167498 0.0192874
0.813291 0.170626 0.0264439
0.828534 0.174334 0.0348058
0.842023 0.178439 0.0438239
0.854932 0.182727 0.0528267
0.868101 0.186999 0.0613565
0.881834 0.191165 0.069398
0.897261 0.193317 0.0733654
0.0493629 0.194354 0.0109255
0.0657664 0.195117 0.0108492
0.092546 0.195468 0.0106661
0.124132 0.195544 0.0104219
0.155779 0.195529 0.0100862
0.187671 0.195483 0.00972
0.219547 0.195392 0.00936904
0.251423 0.1953 0.00898756
0.283406 0.195331 0.00862135
0.315358 0.195148 0.00822461
0.347189 0.19501 0.00784314
0.378973 0.194903 0.00750744
0.410727 0.194797 0.00712596
0.442573 0.194736 0.00675975
0.474235 0.194614 0.00639353
0.505867 0.194476 0.00602731
0.537514 0.194293 0.00569162
0.569009 0.194186 0.0053254
0.600443 0.194049 0.0049897
0.631891 0.194003 0.00468452
0.662989 0.193896 0.00448615
0.693278 0.193942 0.00480659
0.722438 0.194247 0.00593576
0.749996 0.194888 0.00813306
0.775402 0.196002 0.0117647
0.798108 0.197925 0.0169985
0.81767 0.200427 0.0239872
0.834287 0.203632 0.0325475
0.848798 0.207385 0.0419928
0.862287 0.211383 0.0516976
0.875761 0.215473 0.0609903
0.889632 0.219562 0.06981
0.90486 0.22182 0.0746319
0.0482185 0.226658 0.00952163
0.064622 0.227436 0.00946059
0.0915236 0.227634 0.00929274
0.123095 0.227604 0.00901808
0.154726 0.227588 0.00875868
0.186587 0.227466 0.00842298
0.218479 0.227405 0.00810254
0.250355 0.227314 0.00773632
0.2822 0.227207 0.00735485
0.314107 0.227024 0.00700389
0.345892 0.226856 0.00662242
0.377661 0.226673 0.00628672
0.409476 0.226612 0.0059205
0.441154 0.226474 0.00553903
0.472786 0.226322 0.00518807
0.504402 0.226154 0.00482185
0.536004 0.225956 0.00453193
0.567468 0.225788 0.00427253
0.598993 0.225742 0.0040589
0.630304 0.225559 0.00390631
0.661463 0.225391 0.00373846
0.691966 0.225315 0.00378424
0.721508 0.225513 0.00445563
0.749706 0.22594 0.00645457
0.776104 0.226871 0.00988785
0.799924 0.228321 0.0148928
0.820874 0.230365 0.0217594
0.838849 0.233173 0.030396
0.854475 0.23653 0.040177
0.868757 0.240345 0.0505074
0.882643 0.24416 0.0605173
0.896727 0.247959 0.0699779
0.91194 0.250294 0.0756695
0.0470741 0.258732 0.00819409
0.0634928 0.259434 0.00813306
0.0905013 0.259586 0.00796521
0.122042 0.25948 0.00770581
0.153689 0.259419 0.0074464
0.185595 0.259342 0.00712596
0.217441 0.259266 0.00680552
0.249226 0.259083 0.00646983
0.281025 0.2589 0.00613413
0.312901 0.258686 0.00578317
0.344656 0.258488 0.00541695
0.376486 0.258427 0.00502022
0.408179 0.258228 0.00468452
0.439796 0.25803 0.00434882
0.471397 0.257862 0.00411994
0.502983 0.257633 0.00392157
0.53463 0.257511 0.0037232
0.56611 0.257343 0.00358587
0.597467 0.25713 0.00340276
0.628763 0.256916 0.00325017
0.659907 0.256764 0.00308232
0.690562 0.256611 0.00306706
0.7205 0.256794 0.00344854
0.749172 0.257053 0.00495918
0.776196 0.257679 0.00817884
0.800992 0.258824 0.0130312
0.823117 0.260471 0.0197757
0.842359 0.262867 0.028397
0.859159 0.265934 0.0385138
0.87425 0.269322 0.0492714
0.888701 0.272862 0.0599069
0.903166 0.276463 0.0700389
0.918441 0.278874 0.0766003
0.0459602 0.290547 0.0068513
0.0623636 0.291218 0.00679026
0.0895399 0.29131 0.00665293
0.121096 0.291295 0.00639353
0.152773 0.291218 0.00611887
0.184588 0.29102 0.00584421
0.216358 0.290867 0.00552377
0.248127 0.290684 0.00521859
0.279896 0.29044 0.00486763
0.311803 0.290288 0.00453193
0.343572 0.290089 0.00419623
0.37528 0.289876 0.00393683
0.406912 0.289662 0.00376898
0.438529 0.289448 0.00358587
0.470069 0.289219 0.00343328
0.501717 0.289067 0.00326543
0.533257 0.288884 0.00309758
0.564706 0.288624 0.00294499
0.596033 0.28838 0.00277714
0.627298 0.288167 0.00262455
0.658442 0.287938 0.00248722
0.689281 0.287877 0.00242618
0.71931 0.287861 0.00271611
0.748318 0.287999 0.00369268
0.77583 0.288441 0.00666819
0.801434 0.289265 0.011429
0.824598 0.2907 0.0180362
0.845014 0.292851 0.0267338
0.862852 0.295354 0.0369879
0.878874 0.298405 0.0481117
0.89398 0.301717 0.0593271
0.908904 0.305058 0.0700999
0.924407 0.307576 0.0774701
0.0448463 0.322194 0.00555428
0.0612497 0.32282 0.00549325
0.0885939 0.322927 0.00535592
0.12018 0.322896 0.00509651
0.151797 0.322728 0.00482185
0.183581 0.322499 0.00456245
0.21532 0.322271 0.00425727
0.247059 0.322072 0.0039826
0.278859 0.321874 0.00376898
0.31075 0.32163 0.00358587
0.342428 0.321416 0.00344854
0.37409 0.321157 0.00328069
0.405707 0.320943 0.0031281
0.437263 0.320668 0.00297551
0.46891 0.320531 0.00280766
0.50045 0.320287 0.00267033
0.531945 0.320012 0.00250248
0.563363 0.319783 0.00234989
0.594659 0.319509 0.0021973
0.625986 0.319326 0.00204471
0.65713 0.319127 0.00189212
0.687892 0.318929 0.00184634
0.718044 0.318791 0.00210575
0.74728 0.318868 0.00285344
0.775204 0.319158 0.00538643
0.801465 0.319905 0.0100862
0.825483 0.32105 0.0166781
0.846845 0.322728 0.0253147
0.865721 0.324971 0.0357366
0.882658 0.327672 0.0471962
0.898466 0.330648 0.0588693
0.914 0.333928 0.0703136
0.929763 0.336233 0.0783703
0.0437171 0.353704 0.00427253
0.0601205 0.354437 0.00421149
0.0877546 0.354452 0.00404364
0.119234 0.354284 0.00381476
0.150835 0.354116 0.00363165
0.182589 0.353857 0.00350958
0.214313 0.353628 0.00337224
0.246159 0.35346 0.00323491
0.277882 0.35317 0.00311284
0.309651 0.352911 0.00296025
0.341329 0.352605 0.00285344
0.372946 0.352285 0.00270085
0.404562 0.352117 0.002533
0.43621 0.351904 0.00239567
0.46772 0.351629 0.00224308
0.499184 0.351339 0.00209049
0.530663 0.351034 0.00195315
0.562051 0.350805 0.00180056
0.593362 0.350561 0.00166323
0.624659 0.350317 0.00149538
0.655772 0.350057 0.00135805
0.686519 0.349783 0.00132753
0.716716 0.34966 0.00157168
0.74612 0.34963 0.00224308
0.774456 0.349889 0.00436408
0.801129 0.350408 0.00903334
0.825788 0.351293 0.0156405
0.848035 0.352697 0.0242618
0.867826 0.354574 0.0348058
0.885695 0.356985 0.04654
0.902281 0.359792 0.058732
0.918379 0.362661 0.0706035
0.934524 0.36492 0.0793774
0.0426032 0.385168 0.00326543
0.0590219 0.385748 0.00323491
0.0868696 0.385733 0.00317388
0.118303 0.38555 0.00309758
0.149859 0.385336 0.00299077
0.181643 0.385016 0.00288396
0.213458 0.384848 0.00277714
0.245121 0.384573 0.00263981
0.276829 0.384298 0.002533
0.308598 0.383978 0.00239567
0.340261 0.383642 0.00225834
0.371862 0.383383 0.00213626
0.40354 0.383169 0.00199893
0.43505 0.382849 0.0018616
0.466514 0.382559 0.00170901
0.497993 0.382254 0.00157168
0.529442 0.381979 0.00143435
0.560876 0.381765 0.00128176
0.592172 0.381476 0.00114443
0.623362 0.38117 0.0010071
0.654429 0.380819 0.000869764
0.685176 0.380591 0.000854505
0.71545 0.380438 0.00111391
0.744991 0.380377 0.00177005
0.77348 0.380499 0.00358587
0.800519 0.380835 0.00825513
0.825681 0.381521 0.0149081
0.848676 0.382681 0.023621
0.869337 0.38436 0.0343481
0.888045 0.386496 0.0463874
0.905409 0.388922 0.0588083
0.922133 0.391516 0.0711223
0.93872 0.393683 0.0805829
0.0415045 0.416403 0.00268559
0.0580148 0.416907 0.00267033
0.0859388 0.416892 0.00260929
0.117372 0.416663 0.002533
0.14902 0.416526 0.00242618
0.180758 0.416175 0.00231937
0.212436 0.415869 0.00222782
0.244114 0.415549 0.00210575
0.275792 0.415213 0.00199893
0.30753 0.414908 0.00187686
0.339269 0.414679 0.00173953
0.37084 0.414374 0.00161746
0.40238 0.414038 0.00148013
0.43386 0.413703 0.00135805
0.465324 0.413382 0.00122072
0.496788 0.413046 0.00108339
0.528313 0.412848 0.000946059
0.55964 0.412528 0.000808728
0.59086 0.412222 0.000671397
0.622049 0.411856 0.000534066
0.653086 0.411551 0.000411994
0.683818 0.411292 0.000427253
0.714107 0.411124 0.000732433
0.743694 0.411002 0.00140383
0.77232 0.410941 0.00303655
0.799649 0.4112 0.0077821
0.825254 0.411719 0.0145571
0.84889 0.412741 0.0234379
0.870298 0.414145 0.0343175
0.889799 0.415915 0.04654
0.907927 0.418082 0.0592508
0.925322 0.420432 0.0719463
0.942382 0.4224 0.0820172
0.0404059 0.447456 0.00216678
0.0570993 0.447974 0.00215152
0.0850233 0.447898 0.00209049
0.116564 0.447745 0.00199893
0.148074 0.447486 0.00190738
0.179797 0.447135 0.00180056
0.211429 0.44683 0.00170901
0.243107 0.446464 0.0016022
0.274754 0.446113 0.00149538
0.306584 0.445838 0.00137331
0.338201 0.445472 0.0012665
0.369757 0.445182 0.00114443
0.401251 0.444816 0.00102235
0.432731 0.444465 0.000885023
0.464195 0.444114 0.000762951
0.49572 0.443854 0.00062562
0.527123 0.443519 0.000503548
0.558404 0.443183 0.000366217
0.589624 0.442832 0.000228885
0.620783 0.442496 0.000122072
0.651881 0.442267 3.0518e-05
0.682506 0.441917 9.15541e-05
0.712718 0.441672 0.000411994
0.742367 0.441444 0.00112917
0.771099 0.441382 0.00277714
0.798642 0.441535 0.00767529
0.824659 0.442008 0.0147097
0.848737 0.44271 0.0237583
0.870787 0.44387 0.0347753
0.89102 0.44538 0.0471656
0.909911 0.447272 0.0601511
0.928008 0.449424 0.0731823
0.945647 0.451301 0.0837415
0.0393378 0.478386 0.00167849
0.0562295 0.478843 0.00166323
0.0843214 0.478904 0.0016022
0.115694 0.47863 0.00151064
0.147173 0.478309 0.00143435
0.178897 0.477958 0.00134279
0.210513 0.477592 0.00125124
0.242252 0.477317 0.00114443
0.273884 0.476982 0.00103761
0.305592 0.476555 0.0009308
0.337194 0.476158 0.000808728
0.368734 0.475792 0.000701915
0.400214 0.475425 0.000579843
0.431754 0.475196 0.000457771
0.463188 0.474815 0.000335698
0.494591 0.474449 0.000213626
0.525979 0.474083 0.000106813
0.55729 0.473686 3.0518e-05
0.588479 0.47335 0
0.619699 0.473075 0
0.650629 0.47274 0
0.681208 0.472389 0
0.711376 0.472099 0.000213626
0.741024 0.471824 0.000961318
0.769848 0.471702 0.0027924
0.797589 0.471824 0.0080415
0.823835 0.472068 0.0152743
0.848325 0.472663 0.0246128
0.870924 0.473564 0.0358282
0.891844 0.474861 0.0484016
0.911452 0.476524 0.0616465
0.930266 0.478477 0.0749371
0.94844 0.48014 0.0858473
0.0382544 0.509255 0.00123598
0.0553902 0.509758 0.00122072
0.0834669 0.509621 0.00117494
0.114855 0.509361 0.00108339
0.146304 0.509026 0.0010071
0.177981 0.508644 0.000915541
0.209659 0.508354 0.000808728
0.241337 0.507973 0.000717174
0.272938 0.507576 0.000610361
0.304631 0.507149 0.000503548
0.336187 0.506737 0.000396735
0.367727 0.50634 0.000289921
0.399298 0.506065 0.000183108
0.430716 0.505684 7.62951e-05
0.462135 0.505287 1.5259e-05
0.493538 0.504891 0
0.52488 0.504555 0
0.556161 0.504143 0
0.587442 0.503883 0
0.618509 0.503487 0
0.649378 0.503105 0
0.679881 0.502739 0
0.710048 0.502403 0.000122072
0.739788 0.502174 0.000915541
0.768597 0.501976 0.00321965
0.796399 0.501915 0.00883497
0.822858 0.502052 0.016434
0.847684 0.502449 0.0260471
0.870787 0.503212 0.0374914
0.892363 0.504402 0.0503853
0.912612 0.505776 0.0637522
0.932113 0.507424 0.0771191
0.950866 0.508919 0.0883345
0.0372015 0.539849 0.000839246
0.05449 0.540261 0.000823987
0.0826581 0.540124 0.00077821
0.113985 0.539818 0.000686656
0.145464 0.539452 0.000610361
0.177203 0.539178 0.000518807
0.208804 0.53875 0.000427253
0.240406 0.538369 0.000335698
0.272023 0.537942 0.000244144
0.303685 0.537484 0.000137331
0.335302 0.537163 6.10361e-05
0.366827 0.536782 1.5259e-05
0.398306 0.536339 0
0.429725 0.535973 0
0.461112 0.535576 0
0.492485 0.535164 0
0.523888 0.534829 0
0.555169 0.534447 0
0.586313 0.534081 0
0.617334 0.533654 0
0.648157 0.533227 0
0.678599 0.532815 0
0.708812 0.532555 0.000137331
0.73843 0.532189 0.0010071
0.767285 0.531914 0.00402838
0.795163 0.531777 0.0101778
0.821775 0.531823 0.0181888
0.846891 0.532097 0.0281376
0.870481 0.532769 0.0399634
0.892576 0.533669 0.0529183
0.913466 0.534844 0.0663767
0.933608 0.536217 0.0798352
0.952956 0.537591 0.0912642
0.0361791 0.570184 0.00047303
0.0536049 0.570565 0.00047303
0.0818494 0.570428 0.000411994
0.113191 0.570123 0.000335698
0.144686 0.569833 0.000259403
0.176349 0.569406 0.000167849
0.207919 0.568963 9.15541e-05
0.239506 0.568551 4.57771e-05
0.271092 0.568109 1.5259e-05
0.3028 0.567727 0
0.334386 0.567315 0
0.36585 0.566888 0
0.397314 0.566491 0
0.428717 0.566049 0
0.46006 0.565621 0
0.491508 0.565316 0
0.522881 0.564904 0
0.554131 0.564462 0
0.585214 0.564004 0
0.61619 0.563607 0
0.646952 0.563195 0
0.67747 0.562814 0
0.7075 0.562371 0.000228885
0.737102 0.56199 0.00135805
0.765957 0.561669 0.00555428
0.793881 0.56141 0.0121767
0.820691 0.561456 0.0206912
0.846036 0.561639 0.0310521
0.869978 0.562081 0.0430457
0.892607 0.562753 0.0561074
0.914092 0.563729 0.0696117
0.934859 0.564889 0.0830854
0.954787 0.566262 0.094728
0.0353246 0.60029 0.000183108
0.0528878 0.600641 0.000183108
0.0811475 0.600549 0.000106813
0.112459 0.600305 6.10361e-05
0.143862 0.599893 1.5259e-05
0.175463 0.599466 0
0.207034 0.599039 0
0.238605 0.598581 0
0.270268 0.598245 0
0.30193 0.597757 0
0.33344 0.59733 0
0.364904 0.596887 0
0.396323 0.596445 0
0.427771 0.596033 0
0.45919 0.595651 0
0.490501 0.595254 0
0.521859 0.594797 0
0.553079 0.594339 0
0.584146 0.593881 0
0.615137 0.593423 0
0.645884 0.592981 0
0.676234 0.592508 1.5259e-05
0.706233 0.59202 0.000457771
0.735775 0.591562 0.00242618
0.764645 0.591165 0.00776684
0.792676 0.590982 0.0149691
0.819547 0.590814 0.0239261
0.845121 0.590845 0.0346532
0.869398 0.59115 0.0468299
0.8925 0.591699 0.0599985
0.914565 0.592477 0.0734875
0.935958 0.593591 0.0870222
0.956405 0.594675 0.0985733
0.0352636 0.629862 0.000137331
0.0529793 0.630304 0.000122072
0.0810407 0.630259 1.5259e-05
0.112001 0.63006 0
0.143206 0.629694 0
0.174701 0.629297 0
0.206195 0.628901 0
0.237842 0.628519 0
0.269383 0.628077 0
0.301015 0.627604 0
0.332494 0.627115 0
0.363973 0.626657 0
0.395422 0.626245 0
0.426856 0.625879 0
0.458228 0.625422 0
0.489555 0.624949 0
0.520897 0.624445 0
0.552087 0.623941 0
0.583185 0.623468 0
0.614145 0.623026 0
0.644785 0.622507 0
0.67509 0.621958 0.000106813
0.705058 0.621454 0.00103761
0.734539 0.620935 0.00468452
0.763485 0.620569 0.0108644
0.79147 0.620188 0.018555
0.818402 0.619959 0.0280003
0.84419 0.619898 0.0390631
0.868818 0.62005 0.0514382
0.892393 0.620508 0.0646983
0.914977 0.62121 0.078172
0.936919 0.622049 0.0914321
0.957885 0.62295 0.102876
0.0363775 0.658808 0.000396735
0.0541238 0.659159 0.000381476
0.0817884 0.659297 0.000137331
0.112261 0.659236 1.5259e-05
0.143114 0.659037 0
0.174334 0.658732 0
0.205768 0.658457 0
0.237156 0.658045 0
0.268605 0.657603 0
0.300175 0.657115 0
0.33167 0.656657 0
0.36321 0.656275 0
0.394614 0.655787 0
0.425986 0.655329 0
0.457343 0.654795 0
0.48867 0.654322 0
0.520012 0.653819 0
0.551278 0.653346 0
0.5823 0.652811 0
0.613153 0.652232 0
0.643763 0.651667 3.0518e-05
0.674022 0.651118 0.000503548
0.703975 0.650568 0.00285344
0.733471 0.650034 0.00807202
0.76228 0.6495 0.0147402
0.790295 0.649027 0.0229953
0.817319 0.648753 0.032929
0.84332 0.648585 0.0442664
0.868284 0.648676 0.0567941
0.892256 0.648997 0.0700084
0.915328 0.649516 0.083238
0.937789 0.650233 0.0962539
0.959274 0.651041 0.107668
0.0390478 0.686976 0.0010071
0.0568093 0.687327 0.000991836
0.0838941 0.687724 0.000610361
0.113664 0.687907 0.000244144
0.14406 0.688029 4.57771e-05
0.174884 0.687861 0
0.205875 0.687572 0
0.237034 0.687282 0
0.268299 0.686854 0
0.299748 0.686397 0
0.331243 0.68603 0
0.362615 0.685542 0
0.394003 0.685084 0
0.42533 0.684596 0
0.456657 0.684077 0
0.488014 0.683558 0
0.519387 0.68307 0
0.550515 0.68249 0
0.581506 0.68191 0
0.612299 0.681315 3.0518e-05
0.642878 0.68069 0.000381476
0.673121 0.680079 0.00213626
0.703044 0.679545 0.0065919
0.732448 0.678874 0.0124666
0.761227 0.678294 0.0197452
0.789242 0.677775 0.0285496
0.816373 0.677409 0.0388495
0.842634 0.677287 0.0505379
0.867857 0.677211 0.0630198
0.89218 0.677378 0.0759899
0.915709 0.677806 0.0889754
0.938674 0.67837 0.101717
0.960601 0.679103 0.112993
0.0437476 0.71426 0.00476081
0.0614786 0.714611 0.00468452
0.0877089 0.715328 0.00263981
0.116701 0.715938 0.0011902
0.146258 0.716243 0.000534066
0.176425 0.716289 0.000213626
0.206943 0.716228 4.57771e-05
0.237736 0.716014 0
0.268727 0.715709 0
0.300069 0.715434 0
0.331273 0.715007 0
0.362539 0.71458 0
0.39382 0.714092 0
0.425101 0.713603 0
0.456474 0.713176 0
0.487739 0.712596 0
0.51899 0.711986 0
0.550057 0.711421 0
0.581003 0.710765 7.62951e-05
0.611734 0.71014 0.000518807
0.64239 0.70959 0.00234989
0.672496 0.708888 0.00634775
0.702296 0.708202 0.0116121
0.73164 0.70753 0.0180972
0.760418 0.706889 0.0260014
0.788449 0.706279 0.0352789
0.815732 0.705943 0.0459907
0.842084 0.705608 0.0576181
0.867582 0.705516 0.0700084
0.892271 0.705608 0.0827344
0.916213 0.705867 0.0953536
0.93962 0.706416 0.10782
0.96199 0.707057 0.118776
0.0508888 0.740475 0.013077
0.0686046 0.740871 0.0129244
0.0938735 0.742031 0.00955215
0.121553 0.743008 0.00601205
0.150103 0.743679 0.00334173
0.179446 0.74406 0.00155642
0.209277 0.744213 0.00077821
0.239643 0.744274 0.000320439
0.270222 0.744137 0.000137331
0.301122 0.743877 4.57771e-05
0.332036 0.743587 3.0518e-05
0.363104 0.743175 1.5259e-05
0.394217 0.742748 1.5259e-05
0.425467 0.742367 1.5259e-05
0.456641 0.741863 1.5259e-05
0.4878 0.741268 3.0518e-05
0.518944 0.740688 0.000106813
0.549966 0.740032 0.000350958
0.580835 0.739376 0.00123598
0.611627 0.738796 0.00364691
0.642069 0.738064 0.00746166
0.672099 0.737377 0.0122072
0.701823 0.736645 0.0180667
0.731136 0.735912 0.0251774
0.759854 0.735241 0.0336004
0.787961 0.734707 0.0433356
0.815274 0.734188 0.0540322
0.841794 0.733822 0.0656138
0.867521 0.733639 0.0777142
0.892531 0.733669 0.0901045
0.916915 0.734005 0.102464
0.940719 0.734386 0.114458
0.963409 0.734905 0.125002
0.0607614 0.765545 0.024506
0.0784161 0.765972 0.0242924
0.102449 0.76759 0.0199283
0.128725 0.769055 0.0153201
0.156054 0.770153 0.0113375
0.184314 0.770916 0.00796521
0.213382 0.771481 0.00523384
0.242939 0.771771 0.00325017
0.272892 0.771832 0.00201419
0.303273 0.771756 0.00112917
0.333806 0.771572 0.000747692
0.364538 0.771267 0.000564584
0.395544 0.770993 0.000488289
0.426444 0.770581 0.000503548
0.45745 0.770092 0.000595102
0.488472 0.769558 0.00111391
0.519493 0.768948 0.00198367
0.5505 0.768414 0.00383001
0.581277 0.767727 0.00657664
0.611811 0.76701 0.010071
0.642161 0.766278 0.014435
0.672129 0.765515 0.0197299
0.701762 0.764767 0.0261845
0.731044 0.764096 0.033875
0.759716 0.763378 0.0425879
0.787762 0.762737 0.052369
0.815137 0.762219 0.0630655
0.841779 0.761807 0.0744182
0.86775 0.761624 0.086244
0.893111 0.761685 0.0982834
0.917769 0.761868 0.109987
0.941924 0.762219 0.121569
0.96495 0.762661 0.131685
0.0732433 0.789548 0.038819
0.0907454 0.78996 0.038529
0.113558 0.791989 0.0333562
0.138384 0.793973 0.0277256
0.164431 0.795605 0.0227817
0.191531 0.796872 0.0184482
0.219425 0.797772 0.0148165
0.24799 0.798398 0.011841
0.27718 0.798733 0.00946059
0.306889 0.798901 0.00759899
0.336965 0.798947 0.00633249
0.3673 0.798856 0.00555428
0.397787 0.798627 0.00521859
0.428397 0.798276 0.00535592
0.459098 0.797864 0.00601205
0.489921 0.797375 0.00717174
0.520851 0.796841 0.00898756
0.551629 0.796231 0.0113985
0.582208 0.79559 0.0145724
0.612619 0.794812 0.0184482
0.642817 0.79411 0.023331
0.672648 0.793317 0.029099
0.702251 0.792615 0.0360571
0.731334 0.791897 0.0439307
0.759945 0.79118 0.0527657
0.787976 0.790539 0.0625315
0.815396 0.790051 0.0730449
0.842145 0.789624 0.0840009
0.868345 0.789487 0.0954604
0.893889 0.789456 0.106783
0.918822 0.789639 0.118059
0.943267 0.789944 0.129091
0.966628 0.790326 0.138827
0.0874342 0.812726 0.0549783
0.104829 0.813153 0.0547036
0.126696 0.815488 0.0491188
0.150408 0.817929 0.0429389
0.175219 0.82002 0.0372778
0.200961 0.821683 0.0320439
0.227634 0.823011 0.0275731
0.255146 0.824033 0.0238041
0.28336 0.824765 0.0207218
0.312337 0.825254 0.018265
0.34168 0.825544 0.0165255
0.371374 0.82562 0.0153658
0.401328 0.825513 0.0147555
0.431525 0.825315 0.0147707
0.461875 0.82501 0.0153811
0.492485 0.824689 0.0167239
