luts/Yellow 55B.cube
TITLE "Generated by Resolve"
LUT_3D_SIZE 9
0 0 0.0163577
0.0228733 0 0.0143893
0.0707561 0 0.00999466
0.136034 0 0.00378424
0.215991 0 0
0.30901 0 0
0.413977 0 0
0.530037 0 0
0.656519 0 0
0.00474556 0.028687 0.0217288
0.036347 0.0348211 0.027863
0.0906233 0.03682 0.0298619
0.161456 0.0361639 0.0292058
0.246448 0.0333715 0.0264134
0.344106 0.028748 0.0217899
0.453407 0.0224765 0.0155337
0.573541 0.0147097 0.00776684
0.703899 0.00555428 0
0.0125124 0.0880751 0.0294957
0.0489967 0.0990768 0.0404974
0.107774 0.105592 0.047013
0.182849 0.109163 0.0505989
0.271839 0.110384 0.0518044
0.373312 0.10956 0.0509957
0.486244 0.10695 0.0483711
0.609888 0.102678 0.0441138
0.743618 0.0968795 0.0383154
0.0223392 0.167575 0.0393225
0.0627451 0.182498 0.0542611
0.125277 0.192767 0.0645151
0.203937 0.199924 0.0716869
0.296376 0.204593 0.0763561
0.401175 0.207111 0.0788739
0.517342 0.207706 0.079469
0.644099 0.206561 0.0783246
0.780865 0.203815 0.0755627
0.0339818 0.263722 0.0509651
0.0777905 0.282048 0.0693065
0.143618 0.295598 0.0828565
0.225467 0.305959 0.0932021
0.321004 0.31371 0.100969
0.428809 0.319234 0.106493
0.54789 0.322759 0.110018
0.677501 0.324468 0.111727
0.817044 0.324498 0.111757
0.0472725 0.374472 0.064271
0.0941482 0.39588 0.0856641
0.162936 0.412406 0.10219
0.247684 0.42565 0.115434
0.346059 0.43624 0.126024
0.456626 0.444526 0.13431
0.578408 0.450752 0.140551
0.710674 0.455116 0.1449
0.852827 0.45774 0.147539
0.062089 0.498466 0.0790723
0.111772 0.522652 0.103273
0.183307 0.541924 0.122545
0.270741 0.55787 0.138491
0.37174 0.571084 0.151705
0.484886 0.581949 0.16257
0.609201 0.590707 0.171328
0.743954 0.597559 0.17818
0.888548 0.602625 0.183261
0.0783246 0.634623 0.0953231
0.130617 0.661433 0.122133
0.204715 0.683268 0.143954
0.294667 0.701717 0.162402
0.398123 0.717403 0.178088
0.51371 0.730694 0.191394
0.640406 0.741848 0.202548
0.777508 0.751049 0.211734
0.924422 0.758434 0.219135
0.0959029 0.782162 0.112886
0.150652 0.811429 0.142153
0.227161 0.835676 0.1664
0.319478 0.856504 0.187228
0.425284 0.874525 0.205249
0.54316 0.89012 0.220844
0.672145 0.903548 0.234272
0.81149 0.914977 0.245716
0.960601 0.924575 0.255314
0 0 0.0476692
0.022797 0 0.0470741
0.071519 0 0.0435187
0.137469 0 0.0379797
0.218006 0 0.0307469
0.311559 0 0.0220188
0.417014 0 0.011902
0.533516 0 0.000503548
0.66041 0 0
0.00639353 0.0303349 0.0561532
0.0385595 0.0370336 0.0628367
0.0933394 0.0395361 0.0653544
0.16466 0.039353 0.0651713
0.25008 0.0370031 0.0628214
0.34815 0.0327916 0.0586099
0.457847 0.0269169 0.0527352
0.578347 0.0195315 0.0453346
0.709072 0.0107271 0.0365454
0.0158694 0.0914321 0.0656138
0.052781 0.102861 0.0770581
0.111971 0.109773 0.0839704
0.187427 0.113741 0.0879377
0.276783 0.115328 0.0895247
0.378607 0.11487 0.0890669
0.49189 0.112581 0.0867781
0.615854 0.108644 0.0828412
0.749905 0.103182 0.0773785
0.0270542 0.172274 0.0767987
0.0678264 0.187579 0.0921035
0.130694 0.198184 0.102708
0.209705 0.205692 0.110216
0.30248 0.210681 0.115206
0.407584 0.213519 0.118044
0.524056 0.21442 0.118944
0.651102 0.213581 0.118105
0.788159 0.211109 0.115633
0.0398718 0.269596 0.0896162
0.0840009 0.288258 0.108278
0.150134 0.302129 0.122148
0.232288 0.312779 0.132799
0.328115 0.320836 0.140856
0.43621 0.326635 0.146654
0.555581 0.330449 0.150469
0.685466 0.332433 0.152453
0.825284 0.332738 0.152758
0.0542 0.381415 0.10396
0.101381 0.403098 0.125643
0.170459 0.419913 0.142458
0.255482 0.433448 0.155993
0.354116 0.444297 0.166857
0.464958 0.452857 0.175402
0.587015 0.459358 0.181903
0.719539 0.463966 0.186526
0.861936 0.46685 0.18941
0.0699779 0.506355 0.119738
0.119936 0.530831 0.144213
0.19173 0.550362 0.163745
0.279423 0.566552 0.179934
0.380682 0.580026 0.193408
0.494087 0.59115 0.204532
0.618647 0.600153 0.213535
0.753643 0.607248 0.22063
0.898466 0.612558 0.22594
0.0871138 0.643412 0.136858
0.139651 0.670481 0.163928
0.214008 0.692561 0.186007
0.304204 0.711254 0.2047
0.407904 0.727184 0.22063
0.52372 0.740703 0.234165
0.65066 0.752102 0.245548
0.787991 0.761532 0.254978
0.935134 0.769146 0.262608
0.105531 0.791791 0.155276
0.16051 0.821286 0.184787
0.237263 0.845777 0.209262
0.329809 0.866835 0.23032
0.435843 0.885084 0.248585
0.553948 0.900908 0.264408
0.683162 0.914549 0.27805
0.822721 0.926207 0.289708
0.972045 0.936019 0.299519
0 0 0.088716
0.0224155 0 0.0891737
0.0719005 0 0.0863966
0.138491 0 0.0814832
0.219593 0 0.074815
0.313664 0 0.0665904
0.419577 0 0.0569467
0.536522 0 0.0459907
0.663828 0 0.0337835
0.00762951 0.0315709 0.0998703
0.0403449 0.0388037 0.107103
0.095613 0.0418097 0.110109
0.167376 0.0420844 0.110369
0.253239 0.0401617 0.108461
0.35172 0.0363622 0.104646
0.461784 0.030869 0.0991684
0.582666 0.0238499 0.0921492
0.713741 0.0153964 0.0836957
0.0187533 0.094316 0.110994
0.0560922 0.106172 0.12285
0.115679 0.113481 0.130159
0.191516 0.11783 0.134508
0.281239 0.119783 0.136461
0.383413 0.119661 0.136339
0.497032 0.117723 0.134401
0.621317 0.114107 0.130785
0.755688 0.108965 0.125643
0.0312657 0.176501 0.123507
0.0724041 0.192157 0.139162
0.135622 0.203113 0.150118
0.214954 0.210956 0.157946
0.308049 0.216266 0.163272
0.413489 0.219409 0.166415
0.530251 0.220615 0.16762
0.657603 0.220066 0.167086
0.794949 0.217899 0.164904
0.045243 0.274983 0.137484
0.0896925 0.29395 0.156451
0.156146 0.308125 0.170626
0.23859 0.319081 0.181582
0.334722 0.327428 0.189929
0.443107 0.333532 0.196033
0.562737 0.337621 0.200122
0.692912 0.339879 0.20238
0.833005 0.340444 0.20296
0.0606241 0.387823 0.152865
0.10808 0.409812 0.174838
0.177447 0.426902 0.191928
0.262745 0.440711 0.205737
0.361669 0.45185 0.216876
0.47277 0.46067 0.225696
0.595071 0.467414 0.232456
0.727855 0.472297 0.237324
0.870512 0.475425 0.240467
0.077348 0.513726 0.169589
0.127565 0.53846 0.194324
0.199634 0.558267 0.21413
0.287587 0.574716 0.230579
0.389105 0.588449 0.244312
0.502754 0.599817 0.25568
0.627558 0.609064 0.264942
0.762798 0.616403 0.272267
0.907866 0.621942 0.277821
0.0953689 0.651667 0.187594
0.148165 0.678981 0.214923
0.222766 0.701305 0.237247
0.313191 0.720256 0.256184
0.417151 0.736416 0.272358
0.533196 0.750195 0.286122
0.660365 0.761807 0.297749
0.797925 0.771466 0.307408
0.945296 0.779309 0.315251
0.114611 0.80087 0.206851
0.169833 0.830625 0.236591
0.246815 0.855329 0.261311
0.339605 0.876631 0.282597
0.445869 0.895109 0.301091
0.564202 0.911162 0.317128
0.693629 0.925017 0.330999
0.833402 0.936904 0.34287
0.982956 0.946929 0.352911
0 0 0.137438
0.0218204 0 0.138842
0.0720226 0 0.136767
0.139223 0 0.132464
0.220874 0 0.126329
0.315419 0 0.118608
0.42179 0 0.109422
0.539162 0 0.0988937
0.666896 0 0.0870985
0.00856031 0.0325017 0.151049
0.0417945 0.0402686 0.158801
0.0975509 0.0437476 0.162295
0.169757 0.0444648 0.163012
0.256046 0.0429694 0.161517
0.354925 0.0395666 0.158099
0.46537 0.0344549 0.153002
0.586618 0.0278019 0.146349
0.718044 0.0196994 0.138247
0.0212863 0.096849 0.163775
0.0590372 0.109117 0.176043
0.11902 0.116823 0.183749
0.195224 0.121553 0.188479
0.285313 0.123857 0.190784
0.387839 0.124086 0.191012
0.501778 0.122484 0.18941
0.626398 0.119188 0.186114
0.761074 0.114351 0.181277
0.0351263 0.180346 0.1776
0.0766003 0.196353 0.193606
0.140169 0.20766 0.204913
0.219837 0.215824 0.213077
0.313252 0.221454 0.218708
0.418982 0.224918 0.222171
0.536049 0.226429 0.223682
0.663706 0.226169 0.223423
0.801343 0.224292 0.221546
0.0502327 0.279973 0.192721
0.0950027 0.29926 0.212009
0.161761 0.313741 0.22649
0.244511 0.325002 0.237751
0.340917 0.333639 0.246387
0.449592 0.340017 0.252766
0.569512 0.344381 0.25713
0.699947 0.346914 0.259663
0.840299 0.347753 0.260502
0.0666361 0.393851 0.209125
0.114397 0.416114 0.231403
0.184039 0.433494 0.248783
0.269612 0.447578 0.262867
0.368795 0.458976 0.274266
0.480171 0.468071 0.283345
0.602731 0.475074 0.290364
0.735775 0.480217 0.295491
0.878676 0.483589 0.298878
0.0843214 0.520684 0.22681
0.134798 0.545693 0.251804
0.207141 0.565759 0.27187
0.295338 0.582467 0.288594
0.397101 0.596445 0.302571
0.511009 0.608072 0.314183
0.636057 0.617563 0.32369
0.771527 0.625132 0.331258
0.916838 0.63093 0.337041
0.103212 0.65951 0.245701
0.156268 0.687083 0.273274
0.231098 0.709651 0.295842
0.321782 0.728832 0.315022
0.425971 0.745251 0.331441
0.54226 0.759243 0.345434
0.669657 0.771099 0.35729
0.807462 0.780987 0.367178
0.955047 0.789059 0.37525
0.123293 0.809552 0.265782
0.178744 0.839536 0.29575
0.25597 0.864485 0.320714
0.348989 0.886 0.342229
0.455482 0.904707 0.360937
0.574029 0.920989 0.377218
0.70367 0.935073 0.391302
0.843671 0.947173 0.403388
0.993439 0.957412 0.413642
0 0 0.192767
0.0210727 0 0.19498
0.071931 0 0.193591
0.139712 0 0.189868
0.221881 0 0.184268
0.31693 0 0.17702
0.423743 0 0.168276
0.541543 0 0.158175
0.669657 0 0.146777
0.00924697 0.0332036 0.208652
0.0429999 0.0414588 0.216922
0.0992142 0.0454108 0.220859
0.171862 0.0465705 0.222019
0.258564 0.0454871 0.220935
0.357839 0.0424659 0.217929
0.46865 0.0377356 0.213199
0.590265 0.0314488 0.206897
0.722026 0.0236973 0.199145
0.0235447 0.0991073 0.22295
0.0616922 0.111788 0.235615
0.122057 0.119875 0.243717
0.198642 0.124971 0.248798
0.289082 0.127626 0.251469
0.391943 0.128206 0.252049
0.506218 0.126925 0.250767
0.631159 0.123949 0.247791
0.766155 0.119432 0.243259
0.0386664 0.183902 0.238071
0.0805066 0.200259 0.254429
0.144411 0.211887 0.266056
0.224399 0.220386 0.274556
0.31812 0.226337 0.280507
0.42417 0.230091 0.28426
0.541543 0.231907 0.286076
0.669474 0.231952 0.286107
0.807401 0.23035 0.284504
0.0549172 0.284642 0.254307
0.0999924 0.30425 0.273915
0.167041 0.319036 0.288701
0.250095 0.330587 0.300252
0.346807 0.339513 0.309178
0.455741 0.346181 0.315847
0.575952 0.35082 0.320485
0.706645 0.353628 0.323293
0.847272 0.354726 0.324392
0.072343 0.399542 0.271733
0.120378 0.422095 0.294286
0.190295 0.43975 0.311955
0.276158 0.454108 0.326314
0.375601 0.465782 0.337972
0.487236 0.475135 0.347326
0.610056 0.482399 0.354604
0.743343 0.487785 0.359976
0.886503 0.491417 0.363622
0.0909438 0.527321 0.290349
0.141711 0.55259 0.315618
0.214298 0.572915 0.335943
0.302754 0.589883 0.352911
0.404776 0.60412 0.367147
0.518914 0.615976 0.379004
0.644221 0.625727 0.388754
0.779934 0.633539 0.396567
0.925475 0.639567 0.402594
0.110719 0.667018 0.310124
0.164019 0.694835 0.337942
0.239109 0.717662 0.360754
0.330022 0.737087 0.380179
0.434455 0.753735 0.396826
0.550973 0.767971 0.411063
0.678614 0.780041 0.423148
0.816632 0.790158 0.433265
0.964446 0.798459 0.44155
0.131624 0.817884 0.331014
0.18732 0.848096 0.361242
0.264775 0.873289 0.386419
0.358022 0.895033 0.408164
0.464729 0.91397 0.427115
0.583505 0.930465 0.44361
0.713375 0.944778 0.457908
0.85359 0.957092 0.470222
1 0.967544 0.48069
0 0 0.253941
0.0201724 0 0.256916
0.0716716 0 0.256153
0.140017 0 0.252995
0.22269 0 0.247913
0.318196 0 0.241123
0.425467 0 0.232837
0.543664 0 0.223133
0.67219 0 0.212131
0.00975052 0.0336919 0.271977
0.0439765 0.0424506 0.280735
0.100649 0.0468605 0.285145
0.173739 0.0484474 0.286732
0.260838 0.0477607 0.286046
0.360494 0.0451362 0.283421
0.471687 0.0407721 0.279057
0.593652 0.0348211 0.273121
0.72575 0.0274205 0.265705
0.0255741 0.101137 0.2878
0.0641184 0.114199 0.300877
0.124865 0.122683 0.309346
0.201816 0.12813 0.314794
0.292592 0.131136 0.317815
0.395804 0.132052 0.31873
0.510399 0.131106 0.317769
0.635645 0.12845 0.315114
0.770947 0.124224 0.310903
0.0419623 0.187198 0.304189
0.0841382 0.203891 0.320897
0.148379 0.215854 0.33286
0.228687 0.224674 0.34168
0.322728 0.230945 0.347936
0.429084 0.235004 0.35201
0.546746 0.23711 0.354116
0.674968 0.237446 0.354437
0.813169 0.236118 0.353124
0.0593118 0.289052 0.321553
0.104707 0.308965 0.341466
0.172061 0.324056 0.356558
0.255406 0.335897 0.368399
0.352407 0.345113 0.377615
0.461631 0.352056 0.384558
0.582101 0.35697 0.389471
0.713069 0.360037 0.392538
0.853956 0.36141 0.393912
0.07776 0.404959 0.339986
0.12607 0.427802 0.362829
0.196277 0.445731 0.380758
0.282399 0.460365 0.395392
0.382116 0.472297 0.407324
0.494011 0.48191 0.416938
0.61709 0.489433 0.42446
0.750637 0.495064 0.430106
0.894026 0.498955 0.433982
0.0972915 0.533669 0.359533
0.148318 0.559213 0.385061
0.221164 0.579782 0.405646
0.30988 0.597009 0.422873
0.412146 0.61149 0.437354
0.526543 0.623606 0.44947
0.652079 0.633585 0.459449
0.788037 0.641642 0.467506
0.933806 0.647898 0.473762
0.117937 0.674235 0.380163
0.171481 0.702296 0.40824
0.246815 0.725368 0.431296
0.337972 0.745037 0.450965
0.442634 0.761913 0.467842
0.559396 0.776379 0.482322
0.687266 0.788693 0.494636
0.825498 0.799039 0.504967
0.973541 0.807553 0.513497
0.139651 0.825925 0.401892
0.19559 0.856367 0.432349
0.273274 0.881788 0.457755
0.366751 0.903761 0.479728
0.473686 0.922927 0.498894
0.592691 0.939651 0.515618
0.722774 0.954177 0.530144
0.863203 0.966705 0.542672
1 0.977371 0.553353
0 0 0.320439
0.0191501 0 0.324132
0.0712596 0 0.323964
0.140154 0 0.321355
0.223331 0 0.316762
0.319295 0 0.31043
0.426978 0 0.302571
0.545586 0 0.293278
0.674495 0 0.282658
0.010071 0.0340124 0.34052
0.0447852 0.0432441 0.349752
0.1019 0.0480964 0.354604
0.175402 0.0501106 0.356619
0.262898 0.0498207 0.356329
0.362936 0.0475776 0.354086
0.474495 0.0435798 0.350088
0.596811 0.037995 0.344503
0.729259 0.0309148 0.337423
0.0273899 0.102953 0.357839
0.066331 0.116411 0.371298
0.127443 0.125261 0.380148
0.204746 0.13106 0.385962
0.295888 0.134417 0.389319
0.39942 0.135668 0.390555
0.514336 0.135042 0.389929
0.639902 0.132708 0.387594
0.775509 0.128786 0.383673
0.0450294 0.190265 0.375479
0.087541 0.207294 0.392523
0.152117 0.219593 0.404807
0.232746 0.228733 0.413947
0.327092 0.235309 0.420523
0.433753 0.239673 0.424887
0.551705 0.242069 0.427298
0.680217 0.242695 0.427909
0.818692 0.241642 0.426871
0.0634928 0.293217 0.393942
0.109194 0.313451 0.41416
0.176837 0.328832 0.429541
0.260471 0.340963 0.441688
0.357748 0.350469 0.451179
0.467262 0.357687 0.458396
0.587991 0.362875 0.463584
0.719234 0.366217 0.466926
0.86038 0.367834 0.468559
0.0829175 0.410132 0.413382
0.131518 0.433249 0.4365
0.201999 0.451469 0.454704
0.288396 0.466361 0.469612
0.388373 0.478569 0.481804
0.500526 0.488426 0.491676
0.623865 0.496208 0.499458
0.757656 0.502098 0.505348
0.901305 0.506218 0.509468
0.103395 0.539757 0.433845
0.154665 0.56556 0.459648
0.227787 0.586404 0.480476
0.316747 0.603876 0.497963
0.419257 0.618616 0.512688
0.533898 0.630961 0.525048
0.659678 0.641184 0.535271
0.795865 0.64947 0.543557
0.941878 0.65597 0.550042
0.124895 0.681193 0.455344
0.178683 0.709514 0.483665
0.254261 0.732815 0.506966
0.345663 0.752712 0.526864
0.450568 0.769833 0.543984
0.567544 0.784543 0.558694
0.695644 0.797086 0.571237
0.834104 0.807645 0.581796
0.982376 0.816388 0.590539
0.147433 0.833692 0.477882
0.203601 0.864378 0.508568
0.281514 0.890028 0.534218
0.375219 0.91223 0.55642
0.482383 0.931624 0.575799
0.601602 0.948562 0.592752
0.731899 0.963302 0.607492
0.872541 0.976043 0.620233
1 0.986938 0.631128
0 0 0.391836
0.0180362 0 0.396201
0.0707256 0 0.396628
0.140139 0 0.394537
0.223804 0 0.390417
0.320211 0 0.384543
0.428321 0 0.377096
0.547341 0 0.368215
0.676616 0 0.357977
0.0102388 0.0341802 0.41387
0.0454108 0.0438849 0.423575
0.102983 0.0491798 0.42887
0.176898 0.0515908 0.431296
0.26479 0.0517128 0.431403
0.365194 0.049836 0.429526
0.477119 0.0462043 0.425895
0.599771 0.0409552 0.420645
0.732555 0.0342107 0.413901
0.0290227 0.104585 0.432654
0.0683452 0.118425 0.446494
0.129824 0.127642 0.455726
0.207492 0.133806 0.461891
0.29897 0.137499 0.465583
0.402823 0.139086 0.467155
0.518074 0.138766 0.46685
0.643946 0.136751 0.46482
0.779843 0.133135 0.461204
0.0478981 0.193133 0.45153
0.0907454 0.210498 0.46891
0.155642 0.223133 0.481529
0.236591 0.232578 0.490974
0.331243 0.23946 0.497856
0.438193 0.244129 0.502525
0.556451 0.246815 0.505226
0.685252 0.247715 0.506127
0.824002 0.246952 0.505364
0.0674449 0.297185 0.471077
0.113451 0.317708 0.491615
0.181399 0.333394 0.507286
0.265324 0.345815 0.519707
0.362875 0.355596 0.529488
0.472663 0.363088 0.536995
0.593668 0.368551 0.542443
0.725185 0.372152 0.546059
0.86659 0.374029 0.547936
0.0878767 0.415076 0.491508
0.136751 0.438483 0.514916
0.207507 0.456962 0.533394
0.294179 0.472129 0.548562
0.394415 0.484596 0.561028
0.506828 0.494728 0.57116
0.630411 0.502754 0.579187
0.764446 0.508888 0.585321
0.908339 0.513268 0.5897
0.109255 0.545632 0.512901
0.1608 0.571694 0.538964
0.234165 0.592782 0.560052
0.323384 0.610513 0.577783
0.426139 0.625498 0.592767
0.541024 0.638086 0.605356
0.667048 0.648554 0.615824
0.803464 0.657069 0.624338
0.949706 0.663798 0.631067
0.131624 0.687922 0.535256
0.185657 0.716487 0.563821
0.261479 0.740032 0.587366
0.353109 0.760174 0.607507
0.458244 0.777523 0.624857
0.575463 0.792462 0.639796
0.703792 0.805219 0.652567
0.842481 0.816007 0.663355
0.990951 0.824979 0.672312
0.154971 0.84123 0.558602
0.211368 0.872145 0.589517
0.289509 0.898024 0.615396
0.383444 0.920455 0.637827
0.490822 0.940063 0.657435
0.610269 0.957229 0.674601
0.740795 0.972183 0.68957
0.881651 0.985153 0.702525
1 0.996246 0.713619
0 0 0.467826
0.0168307 0 0.472816
0.0700847 0 0.473808
0.140002 0 0.472221
0.224125 0 0.468574
0.320974 0 0.463142
0.429511 0 0.456107
0.548913 0 0.447608
0.678569 0 0.437751
0.0102693 0.034226 0.491737
0.0459144 0.0443885 0.5019
0.103899 0.0500954 0.507622
0.178225 0.0529335 0.510445
0.266499 0.0534218 0.510933
0.367285 0.0519265 0.509438
0.479545 0.0486305 0.506157
0.602548 0.0437324 0.501244
0.735653 0.0373236 0.494835
0.0304875 0.10605 0.511955
0.0701915 0.120272 0.526177
0.132036 0.129854 0.53576
0.210056 0.13637 0.542275
0.301869 0.140414 0.546304
0.406058 0.142306 0.548211
0.521614 0.142321 0.548211
0.647791 0.140597 0.546487
0.783993 0.13727 0.543175
0.0505837 0.195819 0.532036
0.0937667 0.213519 0.549752
0.158984 0.226474 0.562692
0.240238 0.23624 0.572457
0.33521 0.243412 0.579644
0.442451 0.248386 0.584604
0.560998 0.251362 0.587594
0.690074 0.252537 0.588769
0.829114 0.252064 0.588281
0.0712139 0.300954 0.552666
0.117525 0.321782 0.573495
0.185763 0.337758 0.589471
0.269963 0.350469 0.602182
0.367803 0.360525 0.612253
0.477867 0.368292 0.62002
0.599145 0.374014 0.625742
0.730907 0.37789 0.629602
0.872572 0.380026 0.631754
0.0926223 0.419837 0.57409
0.141787 0.443503 0.597757
0.212802 0.462272 0.616526
0.299733 0.477699 0.631952
0.400244 0.490425 0.644678
0.512901 0.500801 0.655055
0.636744 0.509087 0.663355
0.771038 0.51548 0.669734
0.91516 0.520088 0.674342
0.114916 0.551293 0.596384
0.16672 0.577615 0.622705
0.240345 0.598962 0.644053
0.329809 0.616938 0.662028
0.432822 0.632166 0.677256
0.547936 0.644999 0.690089
0.674189 0.655711 0.700786
0.810849 0.664454 0.709545
0.957321 0.671412 0.716503
0.13814 0.694438 0.619593
0.192416 0.723247 0.648402
0.268482 0.747036 0.67219
0.360357 0.767407 0.692561
0.465721 0.784985 0.710155
0.583154 0.800153 0.725322
0.711711 0.813153 0.738308
0.850629 0.824155 0.749325
0.999329 0.833341 0.758511
0.162295 0.848554 0.643748
0.218921 0.879698 0.674907
0.297292 0.905806 0.700999
0.39144 0.928466 0.723659
0.499062 0.948287 0.743496
0.618723 0.965667 0.760876
0.749447 0.98085 0.776043
0.890532 0.994018 0.789227
1 1 0.800534
