luts/Yellow 55B.cube
TITLE "Generated by Resolve"
LUT_3D_SIZE 33
0 0 0.0163577
0.00189212 0 0.0161746
0.00709544 0 0.0157473
0.0141909 0 0.0151522
0.0228733 0 0.0143893
0.03299 0 0.013489
0.0443885 0 0.0124514
0.0570077 0 0.0112764
0.0707561 0 0.00999466
0.0855726 0 0.00860609
0.101427 0 0.00709544
0.118257 0 0.00549325
0.136034 0 0.00378424
0.154726 0 0.00196841
0.174289 0 6.10361e-05
0.19472 0 0
0.215991 0 0
0.238071 0 0
0.260945 0 0
0.284611 0 0
0.30901 0 0
0.334173 0 0
0.360067 0 0
0.386664 0 0
0.413977 0 0
0.441978 0 0
0.470665 0 0
0.500023 0 0
0.530037 0 0
0.560693 0 0
0.592004 0 0
0.623957 0 0
0.656519 0 0
0.000381476 0.00202945 0.01738
0.00384527 0.00277714 0.0181277
0.00978103 0.00309758 0.0184329
0.0175174 0.00314336 0.0184787
0.0267796 0.00296025 0.0182956
0.0374304 0.00257877 0.0179141
0.0493324 0.00204471 0.01738
0.0624094 0.00134279 0.0166934
0.0766003 0.000518807 0.0158541
0.0918593 0 0.0148775
0.10811 0 0.0137789
0.125338 0 0.0125734
0.143481 0 0.0112306
0.162539 0 0.00979629
0.182467 0 0.00823987
0.20325 0 0.00657664
0.224857 0 0.00482185
0.247272 0 0.00297551
0.270466 0 0.00102235
0.294438 0 0
0.319158 0 0
0.34461 0 0
0.370794 0 0
0.397696 0 0
0.425284 0 0
0.453574 0 0
0.482521 0 0
0.512154 0 0
0.542428 0 0
0.573358 0 0
0.604929 0 0
0.637125 0 0
0.669947 0 0
0.00170901 0.00869764 0.0187076
0.00573739 0.0100099 0.0200198
0.012192 0.0108339 0.0208438
0.0204166 0.011368 0.0213779
0.0301366 0.0116426 0.0216526
0.0412146 0.0117037 0.0217136
0.0535439 0.0115816 0.0215915
0.0670329 0.0112917 0.0213016
0.0816052 0.0108492 0.0208591
0.0972305 0.0102541 0.020264
0.113848 0.00952163 0.0195315
0.131426 0.00865187 0.0186618
0.14992 0.00766003 0.0176699
0.169314 0.00656138 0.016556
0.189578 0.0053254 0.0153353
0.210666 0.00399786 0.0139925
0.232578 0.00254826 0.0125582
0.255299 0.000991836 0.0110018
0.278798 0 0.00935378
0.303059 0 0.00759899
0.328069 0 0.00575265
0.353811 0 0.00381476
0.38027 0 0.00178531
0.407446 0 0
0.435309 0 0
0.463859 0 0
0.49308 0 0
0.522957 0 0
0.553491 0 0
0.58468 0 0
0.616495 0 0
0.648936 0 0
0.681987 0 0
0.00315862 0.0177157 0.0201419
0.00762951 0.0194858 0.021912
0.0145113 0.0207523 0.0231632
0.0231479 0.0216831 0.0241093
0.0332647 0.0223545 0.0247807
0.0447395 0.0228122 0.0252384
0.057435 0.0230564 0.0254826
0.0712749 0.0231327 0.0255436
0.0862135 0.0230259 0.025452
0.102174 0.0227665 0.0251926
0.119112 0.0223697 0.0247959
0.137011 0.0218357 0.0242466
0.155825 0.021149 0.0235752
0.175525 0.0203555 0.0227817
0.196094 0.0194247 0.0218509
0.217487 0.0183871 0.0208133
0.239689 0.0172427 0.0196689
0.262699 0.0159762 0.0184024
0.286473 0.0146029 0.0170291
0.311009 0.013138 0.0155489
0.336294 0.0115511 0.0139773
0.36231 0.00988785 0.0122988
0.389029 0.0081178 0.0105287
0.416464 0.00624094 0.00866712
0.444587 0.00428778 0.00671397
0.473381 0.00224308 0.00466926
0.502861 0.000106813 0.002533
0.532982 0 0.00030518
0.56376 0 0
0.595193 0 0
0.627237 0 0
0.659922 0 0
0.693217 0 0
0.00474556 0.028687 0.0217288
0.00961318 0.0308385 0.0238804
0.0168765 0.0324865 0.0255283
0.025864 0.0337835 0.0268254
0.036347 0.0348211 0.027863
0.0481575 0.0356146 0.0286564
0.0611887 0.0361944 0.0292363
0.0753643 0.0365911 0.029633
0.0906233 0.03682 0.0298619
0.106889 0.0368658 0.0299229
0.124147 0.0367742 0.0298314
0.142351 0.0365301 0.0295872
0.161456 0.0361639 0.0292058
0.181445 0.0356451 0.028687
0.202289 0.0350042 0.0280613
0.223972 0.0342565 0.0272984
0.246448 0.0333715 0.0264134
0.269718 0.0323796 0.0254215
0.293767 0.031281 0.0243229
0.318563 0.0300603 0.0231174
0.344106 0.028748 0.0217899
0.370382 0.0273289 0.0203708
0.39736 0.0258183 0.0188602
0.42504 0.0242008 0.0172427
0.453407 0.0224765 0.0155337
0.482444 0.020676 0.0137179
0.512154 0.0187839 0.0118257
0.542519 0.0167849 0.00984207
0.573541 0.0147097 0.00776684
0.605188 0.0125582 0.00560006
0.637476 0.0102998 0.00335698
0.670375 0.00796521 0.00102235
0.703899 0.00555428 0
0.00646983 0.0413519 0.0234684
0.0116884 0.0438544 0.0259709
0.0193027 0.0458381 0.0279545
0.0286259 0.0474708 0.0295872
0.0394293 0.0488289 0.0309453
0.0515602 0.0499428 0.0320592
0.0649119 0.0508431 0.0329595
0.0793774 0.051545 0.0336614
0.0949416 0.0520638 0.0341802
0.111498 0.0524147 0.0345312
0.129046 0.0526131 0.0347295
0.147524 0.0526436 0.0347601
0.166918 0.0525521 0.0346685
0.187182 0.0523079 0.0344244
0.208301 0.0519417 0.0340581
0.230228 0.0514534 0.0335699
0.252979 0.0508278 0.0329442
0.276509 0.0500954 0.0322118
0.300816 0.0492409 0.0313573
0.325856 0.0482795 0.0304112
0.351644 0.0472114 0.0293431
0.378164 0.0460365 0.0281682
0.405386 0.04477 0.0268864
0.433295 0.0433967 0.0255131
0.461906 0.0419165 0.024033
0.491173 0.0403449 0.0224613
0.521126 0.0386816 0.020798
0.55172 0.0369116 0.019028
0.582956 0.0350652 0.0171817
0.614832 0.0331273 0.0152438
0.647334 0.0310979 0.0132143
0.680461 0.0289769 0.0111086
0.714199 0.0267796 0.00891127
0.00834669 0.0555428 0.0253452
0.013901 0.0583658 0.0281682
0.0218051 0.0606699 0.0304723
0.0314488 0.0626078 0.0324102
0.0425574 0.064271 0.0340734
0.0549783 0.0656901 0.0354772
0.0686198 0.066865 0.0366674
0.0833906 0.0678569 0.0376593
0.0992142 0.0686656 0.0384527
0.11606 0.0692912 0.0390936
0.133883 0.069749 0.0395514
0.152621 0.0700694 0.0398566
0.172274 0.070222 0.0400244
0.192798 0.0702525 0.0400549
0.214176 0.0701305 0.0399329
0.236362 0.0699016 0.0396887
0.259358 0.0695354 0.0393225
0.283131 0.0690471 0.0388342
0.307683 0.0684367 0.0382391
0.332967 0.0677195 0.0375067
0.358999 0.0668803 0.0366827
0.385748 0.0659495 0.0357519
0.413199 0.0648966 0.034699
0.441337 0.0637522 0.0335546
0.470176 0.062501 0.0323033
0.499672 0.0611582 0.0309606
0.529839 0.0597086 0.0295109
0.560662 0.0581826 0.0279698
0.592111 0.0565499 0.0263371
0.624216 0.0548257 0.0246281
0.656931 0.0530098 0.0228122
0.690257 0.0511025 0.0209049
0.724208 0.0491188 0.0189212
0.0103609 0.0711528 0.0273594
0.0162051 0.0742809 0.0304875
0.0244144 0.0768749 0.0330816
0.0343481 0.0791028 0.0353094
0.0457465 0.0810407 0.0372473
0.0584421 0.0827344 0.038941
0.0723583 0.0841993 0.0404059
0.0873884 0.0854505 0.0416571
0.103487 0.0865187 0.0427253
0.120592 0.0874189 0.0436255
0.138674 0.0881361 0.0443427
0.157671 0.0887007 0.0449073
0.177584 0.0891127 0.0453193
0.198352 0.0893873 0.045594
0.219959 0.0895247 0.0457313
0.242405 0.0895247 0.0457313
0.265629 0.0894026 0.0456092
0.289647 0.0891432 0.0453498
0.314427 0.088777 0.0449836
0.339956 0.0882887 0.0444953
0.366201 0.0876783 0.0438849
0.393179 0.0869764 0.043183
0.420859 0.0861524 0.042359
0.449226 0.0852216 0.0414282
0.478279 0.0841993 0.0404059
0.507988 0.0830701 0.0392767
0.538369 0.0818341 0.038056
0.569406 0.0805219 0.0367285
0.601083 0.0791028 0.0353094
0.633387 0.0775769 0.0337987
0.6663 0.0759747 0.0321813
0.699855 0.0742809 0.0304875
0.734005 0.0724956 0.0287022
0.0125124 0.0880751 0.0294957
0.0186313 0.0914778 0.0329137
0.0271305 0.0943465 0.0357824
0.0373236 0.0968643 0.0382849
0.0489967 0.0990768 0.0404974
0.0619516 0.10103 0.0424506
0.0761273 0.102754 0.0441749
0.0914168 0.104265 0.0457008
0.107774 0.105592 0.047013
0.125124 0.106722 0.0481575
0.14345 0.107698 0.049134
0.162707 0.108507 0.0499428
0.182849 0.109163 0.0505989
0.203861 0.109682 0.0511025
0.225711 0.110048 0.0514687
0.248371 0.110277 0.0517128
0.271839 0.110384 0.0518044
0.296086 0.110353 0.0517891
0.32108 0.110216 0.0516365
0.346838 0.109941 0.0513771
0.373312 0.10956 0.0509957
0.400504 0.109071 0.0505074
0.428397 0.108476 0.049897
0.456977 0.107759 0.0491951
0.486244 0.10695 0.0483711
0.516182 0.10602 0.0474556
0.546761 0.105013 0.0464332
0.578012 0.103883 0.0453193
0.609888 0.102678 0.0441138
0.64239 0.101366 0.0428016
0.675517 0.0999619 0.0413977
0.709255 0.0984665 0.0399023
0.743618 0.0968795 0.0383154
0.014786 0.106233 0.0317693
0.0211795 0.109911 0.0354467
0.0299382 0.113039 0.0385901
0.0403906 0.115816 0.0413519
0.0523079 0.118288 0.0438239
0.0655375 0.120485 0.0460365
0.0799573 0.122469 0.0480049
0.095491 0.124224 0.0497597
0.112093 0.125795 0.0513313
0.129686 0.127169 0.0527047
0.148241 0.128374 0.0539254
0.167727 0.129427 0.054963
0.188113 0.130312 0.055848
0.209339 0.131044 0.0565957
0.231418 0.13164 0.0571908
0.254322 0.132097 0.0576486
0.278004 0.132433 0.057969
0.302464 0.132631 0.0581674
0.327688 0.132692 0.0582437
0.353658 0.132647 0.0581979
0.380346 0.132479 0.0580301
0.407752 0.132204 0.0577554
0.435859 0.131807 0.0573587
0.464652 0.131304 0.0568551
0.494118 0.130709 0.0562448
0.524254 0.129992 0.0555276
0.555047 0.129168 0.0547189
0.58648 0.128252 0.0538033
0.618555 0.127245 0.0527962
0.65127 0.126131 0.0516823
0.684596 0.124926 0.0504768
0.718532 0.123629 0.0491798
0.753079 0.12224 0.0477913
0.0171817 0.125566 0.034165
0.0238346 0.129503 0.0381018
0.0328374 0.132891 0.0414893
0.0435492 0.135912 0.0445106
0.0557107 0.138613 0.0472267
0.0691691 0.14107 0.0496681
0.0838331 0.143282 0.0518807
0.0996109 0.145281 0.0538796
0.116442 0.147082 0.0556802
0.134264 0.148684 0.0572976
0.153048 0.150134 0.058732
0.172763 0.1514 0.0599985
0.193362 0.152514 0.0611124
0.214832 0.153475 0.0620737
0.237125 0.154284 0.0628977
0.260243 0.154971 0.0635691
0.284138 0.155505 0.0641031
0.308812 0.155917 0.0645151
0.334249 0.156207 0.0648051
0.360418 0.156359 0.0649729
0.38732 0.156405 0.0650034
0.414939 0.156329 0.0649271
0.443244 0.156146 0.064744
0.472236 0.15584 0.0644541
0.501915 0.155444 0.0640421
0.53225 0.154925 0.0635233
0.563241 0.154299 0.0629129
0.594873 0.153582 0.0621958
0.627146 0.152773 0.0613718
0.660044 0.151858 0.0604562
0.693568 0.150835 0.0594492
0.727687 0.149737 0.0583352
0.762432 0.148531 0.0571298
0.0196994 0.146029 0.0366827
0.0265965 0.15021 0.0408637
0.0358434 0.153841 0.0444953
0.0467842 0.157092 0.0477455
0.0591897 0.160037 0.0507057
0.0728771 0.162722 0.0533761
0.0877699 0.165164 0.0558175
0.103777 0.167391 0.0580453
0.120836 0.169421 0.0600748
0.138888 0.171252 0.0619059
0.1579 0.172915 0.0635691
0.177829 0.174395 0.0650645
0.198642 0.175723 0.066392
0.220325 0.176898 0.0675669
0.242832 0.177935 0.0685893
0.266148 0.17882 0.0694743
0.290257 0.179568 0.0702373
0.315145 0.180194 0.0708476
0.34078 0.180682 0.0713359
0.367163 0.181048 0.0717021
0.394263 0.181292 0.0719463
0.42208 0.181415 0.0720684
0.450584 0.18143 0.0720836
0.479774 0.181323 0.0719921
0.509651 0.181109 0.0717784
0.540169 0.180789 0.071458
0.571359 0.180377 0.0710307
0.603189 0.179843 0.0705119
0.635645 0.179217 0.0698863
0.668742 0.178485 0.0691539
0.702449 0.177661 0.0683299
0.736767 0.176745 0.0674144
0.771679 0.175738 0.066392
0.0223392 0.167575 0.0393225
0.0294652 0.171984 0.0437324
0.038941 0.175845 0.0475929
0.0501259 0.179324 0.0510872
0.0627451 0.182498 0.0542611
0.0766613 0.185412 0.0571603
0.091783 0.188067 0.0598306
0.108003 0.190524 0.0622721
0.125277 0.192767 0.0645151
0.143542 0.194812 0.0665751
0.162768 0.196689 0.0684367
0.18291 0.198383 0.0701457
0.203937 0.199924 0.0716869
0.225818 0.201312 0.0730755
0.248539 0.202548 0.0743114
0.272068 0.203632 0.0753948
0.296376 0.204593 0.0763561
0.321462 0.205417 0.0771649
0.347311 0.206104 0.0778668
0.373877 0.206668 0.0784314
0.401175 0.207111 0.0788739
0.429191 0.207431 0.0791943
0.457893 0.20763 0.0793927
0.487282 0.207721 0.0794842
0.517342 0.207706 0.079469
0.548058 0.207584 0.0793469
0.579431 0.20734 0.0791028
0.611444 0.207004 0.0787671
0.644099 0.206561 0.0783246
0.677363 0.206027 0.0777752
0.711254 0.205386 0.0771344
0.745754 0.204639 0.0764019
0.780865 0.203815 0.0755627
0.0250858 0.190143 0.0420691
0.0324407 0.194781 0.0467079
0.0421454 0.198856 0.0507973
0.0535439 0.202564 0.0545052
0.066392 0.205966 0.0578927
0.0805219 0.209079 0.0610208
0.0958572 0.211963 0.0639048
0.112291 0.214633 0.0665599
0.129778 0.217075 0.0690166
0.148257 0.219348 0.0712749
0.167681 0.221424 0.0733654
0.188037 0.223331 0.0752728
0.209262 0.225071 0.0770123
0.231357 0.226658 0.0785992
0.254276 0.228092 0.0800336
0.277989 0.229389 0.0813306
0.30251 0.230549 0.082475
0.327794 0.231556 0.0834974
0.353826 0.232441 0.0843824
0.380591 0.233204 0.0851453
0.408087 0.233829 0.085771
0.436286 0.234348 0.0862898
0.465171 0.234745 0.0866865
0.494759 0.235019 0.0869612
0.525002 0.235187 0.087129
0.555901 0.235248 0.0871901
0.587457 0.235203 0.087129
0.619669 0.23505 0.0869764
0.652491 0.234791 0.086717
0.685954 0.234424 0.0863661
0.720012 0.233967 0.085893
0.754696 0.233402 0.0853437
0.789975 0.232746 0.0846876
0.0279393 0.213703 0.0449378
0.0355077 0.21857 0.0497902
0.0454414 0.222858 0.0540932
0.0570535 0.22678 0.0580148
0.0700999 0.230396 0.0616159
0.0844587 0.233722 0.0649577
0.0999924 0.23682 0.06804
0.11664 0.239689 0.0709087
0.134325 0.242344 0.0735637
0.153002 0.244816 0.0760357
0.172641 0.247089 0.0783246
0.193194 0.249195 0.0804303
0.214618 0.251148 0.0823682
0.236912 0.252934 0.0841535
0.260029 0.254566 0.0857862
0.28394 0.256046 0.0872816
0.308644 0.257389 0.0886244
0.334127 0.25861 0.0898299
0.360357 0.259678 0.090898
0.387304 0.260624 0.0918441
0.414984 0.261448 0.092668
0.443366 0.26215 0.09337
0.47245 0.26273 0.0939498
0.502205 0.263188 0.0944228
0.532631 0.263539 0.0947738
0.563729 0.263783 0.0950027
0.595468 0.263905 0.09514
0.627848 0.263935 0.0951553
0.660853 0.263859 0.095079
0.694484 0.263676 0.0948959
0.728725 0.263386 0.0946059
0.763592 0.263005 0.0942245
0.799039 0.262516 0.0937514
0.0309148 0.238239 0.0478981
0.0386969 0.243305 0.0529641
0.0488289 0.247822 0.0574807
0.0606394 0.251957 0.0616007
0.0739147 0.255772 0.0654154
0.0884718 0.259312 0.0689555
0.104204 0.262608 0.0722515
0.12105 0.265675 0.0753185
0.138933 0.268528 0.0781872
0.157824 0.271199 0.0808423
0.177646 0.273671 0.0833295
0.198398 0.275975 0.0856336
0.22002 0.278111 0.0877699
0.242496 0.280095 0.0897536
0.265812 0.28191 0.0915694
0.289921 0.283589 0.0932479
0.314809 0.28513 0.0947738
0.340475 0.286519 0.0961776
0.366888 0.287785 0.0974441
0.394034 0.288914 0.0985733
0.421897 0.289921 0.0995804
0.450462 0.290806 0.100465
0.479713 0.291569 0.101213
0.509651 0.29221 0.101869
0.540261 0.292744 0.102388
0.571527 0.293156 0.102815
0.603449 0.293462 0.10312
0.635996 0.29366 0.103319
0.669184 0.293751 0.10341
0.702998 0.293751 0.10341
0.737408 0.293629 0.103288
0.772442 0.293416 0.103075
0.808057 0.293111 0.10277
0.0339818 0.263722 0.0509651
0.0419776 0.268986 0.0562448
0.0523079 0.273701 0.0609598
0.064332 0.278035 0.0652934
0.0777905 0.282048 0.0693065
0.092546 0.285786 0.0730449
0.108492 0.289281 0.0765393
0.125536 0.292546 0.0798047
0.143618 0.295598 0.0828565
0.162692 0.298466 0.0857099
0.182712 0.301137 0.0883803
0.203647 0.303624 0.0908827
0.225467 0.305959 0.0932021
0.248127 0.308125 0.0953689
0.271626 0.310124 0.0973831
0.295918 0.311986 0.0992447
0.321004 0.31371 0.100969
0.346838 0.315297 0.102541
0.373434 0.316732 0.10399
0.400763 0.318044 0.105303
0.428809 0.319234 0.106493
0.457542 0.320287 0.107546
0.486992 0.321233 0.108492
0.517098 0.322057 0.109316
0.54789 0.322759 0.110018
0.579324 0.323354 0.110613
0.611414 0.323827 0.111086
0.644144 0.324208 0.111467
0.677501 0.324468 0.111727
0.711482 0.324636 0.111894
0.746059 0.324681 0.11194
0.781262 0.324651 0.11191
0.817044 0.324498 0.111757
0.0371557 0.290105 0.054139
0.0453498 0.295567 0.059617
0.0558785 0.300481 0.0645304
0.068101 0.305013 0.0690623
0.0817578 0.309224 0.0732738
0.0967117 0.313161 0.0772106
0.11284 0.316854 0.0808881
0.130083 0.320302 0.0843519
0.148348 0.323552 0.087602
0.16762 0.326589 0.0906386
0.187823 0.329458 0.0935073
0.208942 0.332143 0.0961776
0.230945 0.334646 0.0986954
0.253803 0.336996 0.101045
0.27747 0.339193 0.103243
0.301946 0.341238 0.105287
0.327214 0.34313 0.107179
0.353231 0.3449 0.108934
0.380011 0.346517 0.110567
0.407507 0.347997 0.112047
0.435721 0.349371 0.11342
0.464652 0.350607 0.114656
0.494255 0.35172 0.11577
0.524544 0.352712 0.116762
0.555505 0.353582 0.117632
0.587121 0.354345 0.118395
0.619379 0.355001 0.119051
0.652277 0.35555 0.119585
0.685802 0.355978 0.120027
0.719936 0.356313 0.120348
0.754696 0.356527 0.120577
0.790066 0.356649 0.120699
0.826017 0.35668 0.120729
0.0404364 0.317372 0.0574197
0.0488136 0.323033 0.0630961
0.0595407 0.328145 0.0681926
0.0719615 0.332876 0.0729229
0.0858167 0.33727 0.0773175
0.100954 0.34139 0.0814527
0.117266 0.345266 0.0853132
0.134691 0.348913 0.0889601
0.153155 0.352346 0.0923934
0.172595 0.355566 0.0956283
0.192996 0.358618 0.0986648
0.214298 0.361486 0.101534
0.236484 0.364172 0.104219
0.25951 0.366705 0.106752
0.28336 0.36907 0.109133
0.308019 0.371298 0.111345
0.333455 0.373373 0.11342
0.359655 0.375311 0.115358
0.386603 0.377111 0.117159
0.414282 0.378775 0.118822
0.442664 0.380301 0.120363
0.471763 0.381704 0.121767
0.501549 0.383001 0.123049
0.532006 0.384161 0.124208
0.563134 0.385214 0.125261
0.594919 0.386145 0.126192
0.627344 0.386954 0.127016
0.660395 0.387671 0.127718
0.694087 0.388266 0.128313
0.728405 0.388754 0.128817
0.763317 0.389151 0.129198
0.79884 0.389441 0.129488
0.834958 0.389624 0.129671
0.0438087 0.345495 0.0607919
0.0523842 0.351354 0.0666514
0.0632944 0.356664 0.0719463
0.0758984 0.361563 0.0768597
0.0899367 0.366155 0.0814527
0.105257 0.370474 0.0857557
0.121767 0.374533 0.0898146
0.139376 0.378347 0.0936446
0.158007 0.381964 0.097261
0.177646 0.385382 0.100664
0.198215 0.388602 0.103899
0.219699 0.391638 0.106935
0.242054 0.394507 0.109804
0.265263 0.397223 0.11252
0.289296 0.399771 0.115068
0.314122 0.402167 0.117464
0.339742 0.40441 0.119707
0.36611 0.406516 0.121813
0.393225 0.408484 0.123781
0.421073 0.41033 0.125612
0.449638 0.412024 0.127321
0.478904 0.413611 0.128893
0.508843 0.415061 0.130358
0.539467 0.416388 0.131685
0.570764 0.417594 0.132891
0.602716 0.418692 0.133989
0.635309 0.419684 0.134981
0.668528 0.420554 0.135851
0.702388 0.421317 0.136614
0.736858 0.421973 0.13727
0.771939 0.422522 0.137819
0.807614 0.422965 0.138262
0.8439 0.423316 0.138613
0.0472725 0.374472 0.064271
0.0560311 0.380529 0.0703136
0.0671397 0.386007 0.0757916
0.0799268 0.391104 0.0808881
0.0941482 0.39588 0.0856641
0.109651 0.400366 0.0901503
0.126345 0.404608 0.0943923
0.144121 0.408606 0.0983902
0.162936 0.412406 0.10219
0.182742 0.415991 0.105776
0.203494 0.419394 0.109178
0.225162 0.422599 0.112398
0.247684 0.42565 0.115434
0.271077 0.428534 0.118318
0.295277 0.43125 0.121035
0.320272 0.433814 0.123598
0.346059 0.43624 0.126024
0.372595 0.438514 0.128298
0.399878 0.44065 0.130434
0.427893 0.442649 0.132433
0.456626 0.444526 0.13431
0.486061 0.446265 0.136049
0.516167 0.447883 0.137667
0.54696 0.449378 0.139162
0.578408 0.450752 0.140551
0.610529 0.452018 0.141802
0.643275 0.453162 0.142947
0.676661 0.4542 0.143984
0.710674 0.455116 0.1449
0.745312 0.455924 0.145724
0.780545 0.456641 0.146426
0.816388 0.457252 0.147036
0.852827 0.45774 0.147539
0.0508431 0.404273 0.0678264
0.0597848 0.410513 0.074052
0.0710613 0.416175 0.0797284
0.0840314 0.421439 0.0849928
0.098436 0.426398 0.0899519
0.114122 0.431067 0.0946212
0.130983 0.435477 0.0990311
0.148943 0.439658 0.103212
0.167941 0.443626 0.107179
0.187915 0.447395 0.110948
0.208835 0.450965 0.114519
0.230671 0.454353 0.117906
0.253376 0.457572 0.121126
0.276921 0.460624 0.124163
0.301289 0.463508 0.127062
0.326467 0.466239 0.129793
0.352407 0.468833 0.132387
0.379126 0.471275 0.134829
0.406577 0.473579 0.137133
0.434745 0.475746 0.1393
0.463645 0.477775 0.141329
0.493233 0.479683 0.143236
0.523507 0.481468 0.145006
0.554467 0.483116 0.14667
0.586084 0.484657 0.148211
0.618341 0.486076 0.14963
0.651255 0.487373 0.150927
0.68481 0.488579 0.152117
0.718975 0.489647 0.153201
0.753765 0.490623 0.154177
0.789166 0.491493 0.155047
0.825162 0.492256 0.15581
0.861753 0.492912 0.156466
0.0545052 0.434882 0.0714885
0.0636301 0.441291 0.0778973
0.0750896 0.447135 0.0837415
0.0882277 0.452583 0.089189
0.1028 0.45771 0.094316
0.118654 0.462562 0.0991531
0.135698 0.46714 0.103746
0.153826 0.471504 0.108095
0.172992 0.475639 0.11223
0.193149 0.479576 0.116167
0.214237 0.483314 0.119905
0.23624 0.48687 0.123476
0.259113 0.490257 0.126848
0.282826 0.493462 0.130068
0.307362 0.496529 0.13312
0.332692 0.499428 0.136034
0.358816 0.502174 0.138781
0.385687 0.504784 0.14139
0.413291 0.507256 0.143847
0.441642 0.509575 0.146181
0.470695 0.511772 0.148379
0.500435 0.513832 0.150439
0.530877 0.515785 0.152377
0.56199 0.517601 0.154192
0.593759 0.519295 0.155886
0.626184 0.520867 0.157473
0.659266 0.522332 0.158938
0.692958 0.523674 0.160281
0.727291 0.52491 0.161517
0.762234 0.52604 0.162646
0.797787 0.527062 0.163668
0.833936 0.527977 0.164569
0.87068 0.528786 0.165393
0.0582437 0.466285 0.0752422
0.0675517 0.472862 0.0818189
0.0791791 0.478889 0.0878309
0.0925002 0.484504 0.0934615
0.10724 0.489799 0.0987564
0.123278 0.49482 0.103777
0.140475 0.49958 0.108537
0.158785 0.504097 0.113054
0.178119 0.5084 0.117357
0.198428 0.512505 0.121462
0.219699 0.516411 0.125368
0.241856 0.520134 0.129091
0.264897 0.52369 0.132647
0.288777 0.527062 0.136019
0.313481 0.530282 0.139239
0.338979 0.533349 0.142306
0.365255 0.536263 0.14522
0.392279 0.539025 0.147982
0.420066 0.541665 0.150607
0.448554 0.544152 0.153094
0.477775 0.546502 0.155459
0.507683 0.54873 0.157687
0.538277 0.55082 0.159777
0.569543 0.552789 0.161746
0.601465 0.55465 0.163607
0.634058 0.556374 0.165331
0.667277 0.557992 0.166949
0.701137 0.559487 0.168444
0.735607 0.560891 0.169833
0.770703 0.562158 0.171115
0.806409 0.563333 0.17229
0.84271 0.564401 0.173358
0.879606 0.565362 0.174319
0.062089 0.498466 0.0790723
0.0715648 0.505211 0.085832
0.08336 0.511406 0.0920119
0.096849 0.517189 0.0978103
0.111772 0.522652 0.103273
0.127962 0.52784 0.108461
0.145342 0.532769 0.11339
0.163806 0.537453 0.118074
0.183307 0.541924 0.122545
0.203784 0.546197 0.126818
0.225208 0.550271 0.130892
0.247547 0.554147 0.134768
0.270741 0.55787 0.138491
0.294774 0.56141 0.142031
0.319646 0.564782 0.145403
0.345296 0.568002 0.148638
0.37174 0.571084 0.151705
0.398932 0.574014 0.154635
0.426856 0.576791 0.157412
0.455512 0.579431 0.160052
0.484886 0.581949 0.16257
0.514946 0.584329 0.16495
0.545693 0.586572 0.167193
0.577111 0.588708 0.169329
0.609201 0.590707 0.171328
0.641932 0.592599 0.17322
0.675319 0.594369 0.17499
0.709316 0.596017 0.176638
0.743954 0.597559 0.17818
0.779202 0.598993 0.179614
0.815045 0.600305 0.180926
0.851499 0.601526 0.182147
0.888548 0.602625 0.183261
0.0660258 0.531395 0.0830091
0.0756542 0.538308 0.0899367
0.0876326 0.544671 0.0962844
0.101289 0.550622 0.102251
0.116365 0.556268 0.107881
0.132723 0.561608 0.113222
0.150271 0.566705 0.118318
0.168902 0.571557 0.123171
0.188556 0.576181 0.12781
0.209201 0.580621 0.132235
0.230793 0.584848 0.136461
0.253285 0.588891 0.140505
0.276631 0.592767 0.144381
0.300832 0.59646 0.148089
0.325856 0.6 0.151629
0.351675 0.603387 0.155001
0.378256 0.606607 0.158236
0.405615 0.609689 0.161318
0.433692 0.612634 0.164248
0.462516 0.615442 0.167056
0.492027 0.618097 0.169711
0.522255 0.62063 0.172244
0.553155 0.623041 0.174655
0.584726 0.625315 0.176928
0.616968 0.627466 0.179095
0.649851 0.629511 0.181125
0.683375 0.631434 0.183047
0.717525 0.633234 0.184848
0.752316 0.634913 0.186542
0.787701 0.6365 0.188113
0.823697 0.637964 0.189578
0.860304 0.639323 0.190951
0.89749 0.640589 0.192203
0.0700389 0.565072 0.0870222
0.0798352 0.572168 0.0941176
0.0919814 0.578683 0.100633
0.105791 0.584802 0.106752
0.121035 0.5906 0.112551
0.13756 0.596109 0.118059
0.155261 0.601358 0.123308
0.17406 0.606378 0.128328
0.193881 0.61117 0.13312
0.214679 0.615763 0.137713
0.236423 0.620142 0.142107
0.259068 0.624353 0.146304
0.282582 0.628382 0.150332
0.30695 0.632242 0.154192
0.332128 0.635935 0.157885
0.358099 0.639475 0.161425
0.384833 0.642847 0.164813
0.412345 0.646082 0.168048
0.440574 0.64918 0.17113
0.469551 0.65214 0.17409
0.499214 0.654948 0.176898
0.52958 0.657633 0.179583
0.560647 0.660182 0.182147
0.592371 0.662623 0.184573
0.62475 0.664927 0.186877
0.657786 0.667109 0.189059
0.691463 0.669169 0.191135
0.725765 0.671122 0.193072
0.760693 0.672953 0.194919
0.796231 0.674678 0.196643
0.83238 0.676295 0.19826
0.869123 0.677806 0.199756
0.906447 0.67921 0.20116
0.0741436 0.599481 0.0911269
0.0841077 0.606744 0.0983749
