luts/Yellow 55B.cube
TITLE "Generated by Resolve"
LUT_3D_SIZE 5
0 0 0.0163577
0.0707561 0 0.00999466
0.215991 0 0
0.413977 0 0
0.656519 0 0
0.0125124 0.0880751 0.0294957
0.107774 0.105592 0.047013
0.271839 0.110384 0.0518044
0.486244 0.10695 0.0483711
0.743618 0.0968795 0.0383154
0.0339818 0.263722 0.0509651
0.143618 0.295598 0.0828565
0.321004 0.31371 0.100969
0.54789 0.322759 0.110018
0.817044 0.324498 0.111757
0.062089 0.498466 0.0790723
0.183307 0.541924 0.122545
0.37174 0.571084 0.151705
0.609201 0.590707 0.171328
0.888548 0.602625 0.183261
0.0959029 0.782162 0.112886
0.227161 0.835676 0.1664
0.425284 0.874525 0.205249
0.672145 0.903548 0.234272
0.960601 0.924575 0.255314
0 0 0.088716
0.0719005 0 0.0863966
0.219593 0 0.074815
0.419577 0 0.0569467
0.663828 0 0.0337835
0.0187533 0.094316 0.110994
0.115679 0.113481 0.130159
0.281239 0.119783 0.136461
0.497032 0.117723 0.134401
0.755688 0.108965 0.125643
0.045243 0.274983 0.137484
0.156146 0.308125 0.170626
0.334722 0.327428 0.189929
0.562737 0.337621 0.200122
0.833005 0.340444 0.20296
0.077348 0.513726 0.169589
0.199634 0.558267 0.21413
0.389105 0.588449 0.244312
0.627558 0.609064 0.264942
0.907866 0.621942 0.277821
0.114611 0.80087 0.206851
0.246815 0.855329 0.261311
0.445869 0.895109 0.301091
0.693629 0.925017 0.330999
0.982956 0.946929 0.352911
0 0 0.192767
0.071931 0 0.193591
0.221881 0 0.184268
0.423743 0 0.168276
0.669657 0 0.146777
0.0235447 0.0991073 0.22295
0.122057 0.119875 0.243717
0.289082 0.127626 0.251469
0.506218 0.126925 0.250767
0.766155 0.119432 0.243259
0.0549172 0.284642 0.254307
0.167041 0.319036 0.288701
0.346807 0.339513 0.309178
0.575952 0.35082 0.320485
0.847272 0.354726 0.324392
0.0909438 0.527321 0.290349
0.214298 0.572915 0.335943
0.404776 0.60412 0.367147
0.644221 0.625727 0.388754
0.925475 0.639567 0.402594
0.131624 0.817884 0.331014
0.264775 0.873289 0.386419
0.464729 0.91397 0.427115
0.713375 0.944778 0.457908
1 0.967544 0.48069
0 0 0.320439
0.0712596 0 0.323964
0.223331 0 0.316762
0.426978 0 0.302571
0.674495 0 0.282658
0.0273899 0.102953 0.357839
0.127443 0.125261 0.380148
0.295888 0.134417 0.389319
0.514336 0.135042 0.389929
0.775509 0.128786 0.383673
0.0634928 0.293217 0.393942
0.176837 0.328832 0.429541
0.357748 0.350469 0.451179
0.587991 0.362875 0.463584
0.86038 0.367834 0.468559
0.103395 0.539757 0.433845
0.227787 0.586404 0.480476
0.419257 0.618616 0.512688
0.659678 0.641184 0.535271
0.941878 0.65597 0.550042
0.147433 0.833692 0.477882
0.281514 0.890028 0.534218
0.482383 0.931624 0.575799
0.731899 0.963302 0.607492
1 0.986938 0.631128
0 0 0.467826
0.0700847 0 0.473808
0.224125 0 0.468574
0.429511 0 0.456107
0.678569 0 0.437751
0.0304875 0.10605 0.511955
0.132036 0.129854 0.53576
0.301869 0.140414 0.546304
0.521614 0.142321 0.548211
0.783993 0.13727 0.543175
0.0712139 0.300954 0.552666
0.185763 0.337758 0.589471
0.367803 0.360525 0.612253
0.599145 0.374014 0.625742
0.872572 0.380026 0.631754
0.114916 0.551293 0.596384
0.240345 0.598962 0.644053
0.432822 0.632166 0.677256
0.674189 0.655711 0.700786
0.957321 0.671412 0.716503
0.162295 0.848554 0.643748
0.297292 0.905806 0.700999
0.499062 0.948287 0.743496
0.749447 0.98085 0.776043
1 1 0.800534
