luts/YELLOW.RED.cube
TITLE "Generated by Resolve"
LUT_3D_SIZE 9
0.0525368 0.0474861 0.0190738
0.159823 0.0470588 0.0155032
0.289021 0.045716 0.0135958
0.417441 0.0443732 0.012253
0.545083 0.0429999 0.0109255
0.668299 0.0424659 0.0108644
0.759152 0.0501259 0.0224002
0.808606 0.0688334 0.047837
0.878004 0.0799268 0.0617075
0.0506905 0.161837 0.0127871
0.156909 0.163272 0.01149
0.284596 0.163104 0.00984207
0.412253 0.162799 0.00833143
0.539147 0.162554 0.00689708
0.664485 0.162158 0.00573739
0.774044 0.16527 0.0138705
0.842023 0.178439 0.0438239
0.897261 0.193317 0.0733654
0.0459602 0.290547 0.0068513
0.152773 0.291218 0.00611887
0.279896 0.29044 0.00486763
0.406912 0.289662 0.00376898
0.533257 0.288884 0.00309758
0.658442 0.287938 0.00248722
0.77583 0.288441 0.00666819
0.862852 0.295354 0.0369879
0.924407 0.307576 0.0774701
0.0415045 0.416403 0.00268559
0.14902 0.416526 0.00242618
0.275792 0.415213 0.00199893
0.40238 0.414038 0.00148013
0.528313 0.412848 0.000946059
0.653086 0.411551 0.000411994
0.77232 0.410941 0.00303655
0.870298 0.414145 0.0343175
0.942382 0.4224 0.0820172
0.0372015 0.539849 0.000839246
0.145464 0.539452 0.000610361
0.272023 0.537942 0.000244144
0.398306 0.536339 0
0.523888 0.534829 0
0.648157 0.533227 0
0.767285 0.531914 0.00402838
0.870481 0.532769 0.0399634
0.952956 0.537591 0.0912642
0.0363775 0.658808 0.000396735
0.143114 0.659037 0
0.268605 0.657603 0
0.394614 0.655787 0
0.520012 0.653819 0
0.643763 0.651667 3.0518e-05
0.76228 0.6495 0.0147402
0.868284 0.648676 0.0567941
0.959274 0.651041 0.107668
0.0607614 0.765545 0.024506
0.156054 0.770153 0.0113375
0.272892 0.771832 0.00201419
0.395544 0.770993 0.000488289
0.519493 0.768948 0.00198367
0.642161 0.766278 0.014435
0.759716 0.763378 0.0425879
0.86775 0.761624 0.086244
0.96495 0.762661 0.131685
0.117784 0.858335 0.0891585
0.201312 0.866697 0.0717784
0.301671 0.874144 0.0519265
0.413108 0.877104 0.0426032
0.530617 0.876982 0.0454566
0.649058 0.875227 0.0613565
0.76379 0.873121 0.0896162
0.872145 0.871992 0.125765
0.973846 0.873198 0.156847
0.160937 0.949737 0.136645
0.248219 0.95584 0.131243
0.343023 0.96527 0.116854
0.445624 0.971633 0.108186
0.554345 0.975052 0.10901
0.665476 0.976425 0.120333
0.775418 0.977066 0.141085
0.882017 0.978454 0.164691
0.986206 0.982513 0.169512
0.0517281 0.0469368 0.132586
0.156878 0.0468299 0.136599
0.288365 0.0445258 0.138277
0.416876 0.043122 0.138643
0.544488 0.0417029 0.138872
0.67071 0.0403296 0.139025
0.782055 0.0429541 0.141268
0.845548 0.0590372 0.151995
0.892744 0.0769818 0.16466
0.0523995 0.160388 0.134417
0.156741 0.162188 0.137652
0.283345 0.162539 0.134096
0.411353 0.162066 0.133242
0.538277 0.161715 0.132784
0.663935 0.161166 0.132174
0.786389 0.161334 0.132616
0.880079 0.16875 0.143206
0.932464 0.185245 0.165209
0.0449073 0.289754 0.129015
0.152163 0.290181 0.129732
0.279042 0.289525 0.128954
0.405921 0.288762 0.127794
0.532265 0.287922 0.126772
0.657481 0.286946 0.125719
0.781903 0.286046 0.124865
0.893278 0.287968 0.132372
0.963653 0.298833 0.159854
0.0403601 0.415427 0.125383
0.148028 0.415381 0.125414
0.274861 0.414191 0.124285
0.401343 0.412985 0.122972
0.527108 0.411673 0.121508
0.652033 0.410437 0.120195
0.776303 0.40911 0.118914
0.894057 0.408942 0.12462
0.980896 0.414816 0.153933
0.0359808 0.53875 0.121981
0.144396 0.538369 0.121584
0.270954 0.536767 0.120134
0.397177 0.535195 0.118532
0.522637 0.533562 0.116884
0.647288 0.532067 0.115343
0.771252 0.530495 0.11397
0.890639 0.529458 0.120607
0.987457 0.532113 0.152361
0.0319677 0.65893 0.118822
0.140948 0.658259 0.118044
0.267247 0.656413 0.116289
0.393271 0.654627 0.114458
0.518517 0.652811 0.112581
0.643 0.651133 0.110933
0.766522 0.649378 0.11075
0.885786 0.647593 0.121569
0.987884 0.648264 0.158373
0.0397498 0.772747 0.125963
0.141161 0.774975 0.118486
0.263951 0.774258 0.11313
0.389364 0.772488 0.110491
0.514549 0.770565 0.108705
0.639002 0.768597 0.108339
0.762081 0.766354 0.113069
0.880858 0.763806 0.131685
0.986114 0.76289 0.174716
0.084535 0.871504 0.167239
0.166995 0.880507 0.146868
0.273121 0.886076 0.127504
0.391394 0.88687 0.118212
0.514153 0.885771 0.115373
0.637659 0.883726 0.118318
0.759854 0.880903 0.130251
0.877897 0.877745 0.15848
0.985687 0.875853 0.203418
0.141665 0.958938 0.220478
0.218387 0.96939 0.202213
0.309255 0.981018 0.176745
0.413504 0.987747 0.158831
0.527626 0.990295 0.151659
0.646281 0.990127 0.155856
0.765179 0.988388 0.17261
0.881071 0.986374 0.202838
0.989868 0.985779 0.241627
0.0513313 0.0456092 0.262043
0.160235 0.0450141 0.263401
0.288746 0.0436866 0.26424
0.417121 0.0423285 0.264591
0.544671 0.0409857 0.264714
0.670848 0.0396735 0.264591
0.790539 0.0401465 0.264225
0.871641 0.0521096 0.264286
0.917708 0.0713664 0.267369
0.0488746 0.161547 0.258366
0.157259 0.162875 0.256413
0.281147 0.163455 0.25835
0.41117 0.162203 0.259052
0.538079 0.161715 0.258549
0.663752 0.161105 0.257877
0.788769 0.16051 0.257206
0.90071 0.163409 0.258564
0.967071 0.17705 0.267308
0.0440223 0.289723 0.254978
0.153399 0.289662 0.255756
0.279667 0.288808 0.258366
0.405249 0.28867 0.254017
0.531823 0.287633 0.252567
0.657115 0.286671 0.251484
0.781781 0.285664 0.250401
0.904723 0.284932 0.249973
0.998672 0.29044 0.259052
0.0394903 0.415183 0.251286
0.147936 0.415106 0.25127
0.274769 0.413809 0.250324
0.401022 0.412573 0.249058
0.52665 0.411276 0.24744
0.651545 0.410056 0.246036
0.775876 0.408713 0.244617
0.900465 0.407111 0.243137
1 0.408194 0.249943
0.035111 0.538323 0.247715
0.144091 0.537942 0.247364
0.270649 0.536324 0.245945
0.396811 0.534722 0.244434
0.522179 0.533043 0.242786
0.646754 0.531579 0.241169
0.770794 0.530037 0.239582
0.895338 0.528084 0.23772
1 0.527367 0.243259
0.0309911 0.658412 0.244282
0.140505 0.657786 0.243656
0.266804 0.65594 0.241962
0.392706 0.653956 0.240131
0.518029 0.652201 0.238422
0.642466 0.650584 0.236759
0.766308 0.648859 0.235004
0.890654 0.646799 0.233188
1 0.64538 0.239734
0.0313268 0.775235 0.243626
0.137133 0.775845 0.240116
0.262898 0.773953 0.237964
0.388693 0.771817 0.235966
0.513924 0.769985 0.23415
0.638239 0.768215 0.23241
0.76202 0.766384 0.230655
0.886046 0.764248 0.229984
0.999985 0.762295 0.240604
0.0603799 0.880812 0.263691
0.147204 0.888121 0.248096
0.261402 0.89044 0.236667
0.384634 0.889296 0.232013
0.509575 0.88751 0.229786
0.633906 0.885618 0.228122
0.757641 0.883589 0.227405
0.881422 0.881209 0.231495
0.999603 0.878584 0.249897
0.117952 0.969589 0.30692
0.188891 0.9823 0.284352
0.279545 0.994141 0.257023
0.389899 0.998718 0.241413
0.509651 0.999527 0.234226
0.632349 0.998779 0.232105
0.75552 0.997238 0.23476
0.878752 0.995071 0.246235
0.99794 0.992569 0.274983
0.0514839 0.0457618 0.382132
0.161318 0.0450752 0.383337
0.289738 0.0438849 0.383551
0.417914 0.0425879 0.383688
0.545373 0.0412604 0.383749
0.671473 0.0399481 0.383551
0.793683 0.039704 0.382605
0.885588 0.0489815 0.377279
0.936126 0.0676585 0.371649
0.0478523 0.162371 0.378363
0.156954 0.163363 0.378683
0.284062 0.163226 0.377722
0.411704 0.162661 0.377905
0.538415 0.162036 0.377356
0.664118 0.161501 0.376776
0.789151 0.160845 0.376013
0.908782 0.161654 0.37499
0.990631 0.171511 0.375174
0.0431983 0.290272 0.374105
0.152529 0.290562 0.37409
0.280766 0.289708 0.370504
0.40296 0.289876 0.37203
0.531899 0.287953 0.371374
0.657267 0.286931 0.370382
0.781949 0.285847 0.369268
0.907027 0.284459 0.367895
1 0.286213 0.368902
0.0388037 0.415473 0.37026
0.148211 0.415381 0.370123
0.27631 0.413642 0.369604
0.401755 0.412284 0.371405
0.526543 0.41149 0.366583
0.651545 0.410193 0.36495
0.775906 0.40882 0.363531
0.900725 0.40708 0.361822
1 0.405768 0.361212
0.0344701 0.538476 0.366583
0.144274 0.538079 0.366201
0.270878 0.536355 0.364797
0.397009 0.53463 0.363409
0.52224 0.533135 0.361868
0.646738 0.531579 0.360174
0.770703 0.529976 0.35845
0.895338 0.528069 0.356603
1 0.526024 0.35494
0.0303502 0.658503 0.363073
0.140581 0.657816 0.362402
0.266911 0.65594 0.360739
0.392844 0.653864 0.359014
0.51809 0.652155 0.357412
0.642435 0.650477 0.355703
0.76614 0.648692 0.353872
0.890639 0.646708 0.351949
1 0.644495 0.349981
0.0285344 0.776074 0.360418
0.136828 0.775952 0.358526
0.262928 0.773922 0.356664
0.388708 0.771771 0.354757
0.513924 0.769894 0.353033
0.638224 0.768109 0.351324
0.761852 0.766232 0.349477
0.886305 0.764202 0.347539
1 0.761944 0.345861
0.048661 0.885313 0.369802
0.13959 0.891066 0.358907
0.258717 0.89131 0.352422
0.384298 0.889296 0.350332
0.509499 0.887419 0.348516
0.633814 0.885573 0.346822
0.757458 0.88365 0.345006
0.881941 0.881682 0.343145
0.999985 0.879362 0.343252
0.101244 0.977127 0.400702
0.169451 0.990738 0.378973
0.265187 0.999634 0.357733
0.381781 1 0.34818
0.505196 1 0.34435
0.629328 0.999863 0.342351
0.753063 0.998749 0.340749
0.877638 0.997513 0.340475
0.99971 0.995956 0.346181
0.0519417 0.0462043 0.496651
0.162615 0.0454871 0.497566
0.29102 0.0443122 0.497475
0.419089 0.0430457 0.497353
0.546304 0.0417334 0.497063
0.67245 0.0404212 0.496818
0.794888 0.0401312 0.495384
0.891295 0.0483864 0.486671
0.946883 0.0661479 0.474617
0.0481727 0.163348 0.492622
0.157885 0.164263 0.492912
0.285435 0.163958 0.492134
0.412695 0.163516 0.491539
0.539254 0.162829 0.490883
0.664881 0.162249 0.490196
0.789868 0.161578 0.489357
0.912047 0.161425 0.487678
1 0.168795 0.483696
0.0433814 0.29102 0.48806
0.153002 0.291417 0.487999
0.280262 0.290593 0.486
0.405432 0.290196 0.484169
0.532479 0.28864 0.48484
0.657801 0.287526 0.483894
0.782452 0.286412 0.482795
0.907546 0.284932 0.481361
1 0.28481 0.480079
0.0385901 0.416114 0.484062
0.14873 0.416098 0.483772
0.276158 0.414511 0.482261
0.403449 0.412802 0.480262
0.524666 0.412695 0.48043
0.651896 0.410727 0.478584
0.776257 0.409293 0.47718
0.901122 0.407477 0.475532
1 0.405493 0.473747
0.0339361 0.539025 0.480293
0.144762 0.538567 0.479774
0.271427 0.536828 0.478325
0.398535 0.53463 0.477638
0.522896 0.533181 0.477958
0.646998 0.532036 0.474022
0.770962 0.530373 0.472221
0.895613 0.528466 0.470405
1 0.526238 0.468391
0.0298466 0.65893 0.476616
0.141009 0.658213 0.475898
0.267308 0.65626 0.474281
0.393317 0.654215 0.472694
0.518593 0.652445 0.471275
0.642756 0.650767 0.469642
0.7664 0.648966 0.46775
0.890929 0.647013 0.465843
1 0.644755 0.463706
0.0277104 0.776562 0.473396
0.137194 0.776257 0.471962
0.263203 0.77409 0.470146
0.38909 0.772061 0.468437
0.514336 0.770123 0.466819
0.638529 0.768292 0.465202
0.762142 0.766461 0.463416
0.88658 0.764477 0.461494
1 0.762203 0.459342
0.0444343 0.887297 0.47776
0.137118 0.892439 0.46978
0.258839 0.891661 0.465827
0.384649 0.889601 0.464012
0.509865 0.887648 0.462333
0.634043 0.885679 0.460655
0.757778 0.883879 0.458961
0.882231 0.881971 0.457084
0.999985 0.879744 0.455024
0.0923323 0.981582 0.499107
0.159274 0.995468 0.480476
0.259464 1 0.46511
0.38024 1 0.459724
0.505302 1 0.457893
0.629541 0.999542 0.456153
0.753338 0.998627 0.454505
0.877867 0.997696 0.452689
0.999725 0.996704 0.45069
0.0524605 0.0467536 0.619303
0.164034 0.0459602 0.621225
0.292393 0.044831 0.621683
0.420417 0.0435492 0.622019
0.547539 0.0422217 0.622217
0.673518 0.0409247 0.622461
0.794079 0.0413825 0.619654
0.890578 0.0500343 0.606302
0.950805 0.0669718 0.587594
0.0485847 0.164508 0.614633
0.158923 0.165408 0.615641
0.286564 0.164981 0.615213
0.413748 0.164355 0.61471
0.540261 0.163745 0.614298
0.665751 0.163165 0.613901
0.790692 0.162387 0.613336
0.913619 0.162051 0.611353
1 0.16791 0.604212
0.0437629 0.292042 0.60972
0.153796 0.292363 0.610056
0.280888 0.291447 0.608972
0.407462 0.290333 0.607721
0.533455 0.289326 0.606912
0.658579 0.288289 0.606165
0.783078 0.287083 0.605081
0.908202 0.285618 0.603708
1 0.28455 0.601648
0.0390021 0.416999 0.605524
0.149371 0.416876 0.605463
0.276219 0.415473 0.603906
0.402747 0.414038 0.6009
0.526207 0.413397 0.598947
0.652399 0.411414 0.599771
0.776684 0.409812 0.598367
0.901656 0.408133 0.596719
1 0.406058 0.594705
0.0343023 0.539742 0.601831
0.145357 0.539254 0.601404
0.271962 0.537484 0.599619
0.398901 0.535439 0.597559
0.524926 0.533593 0.596399
0.645365 0.533181 0.595453
0.771298 0.530877 0.592935
0.896086 0.529015 0.590997
1 0.526741 0.588708
0.0298314 0.65951 0.598291
0.141573 0.658747 0.597574
0.267796 0.656672 0.595453
0.393942 0.654719 0.593545
0.520302 0.652491 0.592782
0.643336 0.651011 0.592248
0.766766 0.6495 0.588312
0.891325 0.647486 0.586084
1 0.645228 0.583642
0.0284581 0.776761 0.594873
0.137697 0.776745 0.593576
0.263722 0.774578 0.591318
0.389685 0.772488 0.589258
0.515007 0.77052 0.587442
0.639109 0.768673 0.585702
0.762631 0.766888 0.58378
0.887007 0.764935 0.581552
1 0.7626 0.579019
0.0454871 0.887678 0.595789
0.136889 0.893156 0.590158
0.259327 0.892134 0.586755
0.385183 0.890028 0.584588
0.510414 0.88809 0.582681
0.634607 0.886122 0.580835
0.758312 0.884337 0.579049
0.882734 0.88246 0.576959
0.999954 0.88011 0.574456
0.0903944 0.983719 0.608499
0.154788 0.997665 0.594308
0.257252 1 0.583276
0.380636 1 0.579873
0.505791 1 0.577829
0.630091 0.999359 0.576013
0.753902 0.998627 0.574289
0.878401 0.997879 0.57232
0.999756 0.997131 0.569894
0.0532387 0.0475929 0.76025
0.165347 0.0466163 0.766155
0.293706 0.045304 0.768109
0.421653 0.0440223 0.768765
0.548363 0.0428931 0.768795
0.671443 0.0427558 0.766323
0.784527 0.0460822 0.756558
0.874113 0.057847 0.733181
0.939086 0.0738842 0.7084
0.0490883 0.165667 0.758877
0.160006 0.166522 0.760861
0.287663 0.166003 0.760723
0.414801 0.165301 0.760235
0.541299 0.16463 0.760006
0.666697 0.164019 0.759731
0.791424 0.16321 0.759213
0.91194 0.163836 0.755047
1 0.170214 0.742733
0.0441596 0.29305 0.753811
0.154635 0.293339 0.75462
0.281727 0.292332 0.753658
0.408423 0.291127 0.752422
0.534447 0.290074 0.751553
0.659403 0.289036 0.750744
0.78381 0.2878 0.749599
0.908888 0.286305 0.748241
1 0.285069 0.745708
0.0393835 0.417868 0.749416
0.150042 0.4177 0.749569
0.276722 0.416175 0.747845
0.403082 0.414725 0.74609
0.52871 0.413321 0.744564
0.653284 0.412024 0.743282
0.77734 0.410437 0.741833
0.90222 0.408728 0.740078
1 0.406638 0.737774
0.0347753 0.540429 0.745617
0.145922 0.539925 0.745266
0.272343 0.538064 0.743053
0.398566 0.536309 0.740948
0.524025 0.534737 0.738521
0.647227 0.533471 0.735805
0.771725 0.531533 0.735454
0.896529 0.529534 0.733486
1 0.52726 0.730907
0.0319829 0.659586 0.741497
0.142107 0.659281 0.741283
0.268284 0.657267 0.738796
0.3944 0.655253 0.736461
0.520165 0.653346 0.734081
0.644938 0.651591 0.729778
0.764401 0.650843 0.730144
0.8916 0.648066 0.728099
1 0.645685 0.725292
0.0363622 0.775219 0.736721
0.13846 0.777157 0.737118
0.264225 0.775067 0.734508
0.390188 0.773022 0.732052
0.515602 0.771038 0.729854
0.641657 0.768414 0.72874
0.76318 0.767025 0.729259
0.887205 0.765484 0.723568
1 0.763088 0.720333
0.0593423 0.884596 0.733791
0.140475 0.892744 0.732586
0.259846 0.892638 0.729717
0.385702 0.890471 0.727199
0.510994 0.888441 0.724941
0.63534 0.886519 0.722896
0.759075 0.884688 0.721187
0.883207 0.882841 0.718791
0.999939 0.880583 0.715709
0.103288 0.981628 0.737987
0.159457 0.997574 0.731975
0.257389 1 0.725139
0.381186 1 0.722103
0.50634 0.999847 0.719707
0.630716 0.999268 0.717784
0.754574 0.998734 0.715984
0.878981 0.998199 0.713787
0.999817 0.99765 0.71104
0.0590677 0.0546273 0.832807
0.164874 0.0535286 0.860502
0.288899 0.0513466 0.883406
0.41413 0.0499886 0.892531
0.536431 0.0502327 0.892058
0.651087 0.0532235 0.882551
0.752941 0.0608988 0.862562
0.838956 0.0742199 0.834379
0.912917 0.0870222 0.812604
0.0578164 0.168765 0.868208
0.163088 0.169146 0.891585
0.288411 0.167849 0.905287
0.415457 0.166644 0.90898
0.541909 0.165957 0.909377
0.666423 0.165606 0.908064
0.787518 0.166125 0.903471
0.900114 0.169924 0.891554
0.989487 0.179324 0.870054
0.0523842 0.293812 0.885054
0.157137 0.294469 0.899901
0.282689 0.293263 0.904143
0.409384 0.292058 0.903105
0.535424 0.290944 0.902129
0.660349 0.289906 0.901152
0.784665 0.288579 0.899962
0.90959 0.287144 0.89839
1 0.287007 0.893309
0.0478676 0.417594 0.887922
0.151843 0.418479 0.898314
0.277485 0.416968 0.89836
0.403876 0.415518 0.896727
0.529564 0.414099 0.895201
0.654124 0.412634 0.893706
0.778195 0.411139 0.89218
0.902983 0.409384 0.890379
1 0.407294 0.888014
0.0464179 0.539025 0.8851
0.147707 0.540459 0.894301
0.272984 0.538827 0.893385
0.39913 0.537057 0.891356
0.52459 0.535378 0.889418
0.648829 0.53373 0.887419
0.772641 0.532082 0.885664
0.897231 0.530175 0.883696
1 0.527794 0.881086
0.0507973 0.656123 0.879423
0.145159 0.659297 0.889601
0.268864 0.657877 0.888991
0.394858 0.655924 0.886687
0.520226 0.654108 0.884474
0.644373 0.652323 0.882124
0.767834 0.650629 0.879973
0.892226 0.648646 0.87808
1 0.646174 0.87541
0.06598 0.768704 0.872114
0.146242 0.775814 0.883894
0.264805 0.775616 0.884596
0.390677 0.773587 0.88217
0.515892 0.771542 0.879698
0.640314 0.769696 0.877455
0.764279 0.768124 0.872389
0.885557 0.766918 0.871794
1 0.763653 0.870573
0.0969558 0.87599 0.866148
0.156832 0.889143 0.877241
0.260975 0.892989 0.879667
0.386252 0.891051 0.877317
0.511452 0.88896 0.874907
0.63592 0.887144 0.872877
0.761791 0.884672 0.870954
0.883604 0.883253 0.871168
0.999893 0.881392 0.866499
0.135622 0.975006 0.86598
0.183368 0.992477 0.872694
0.262257 0.999985 0.874449
0.381796 1 0.872312
0.506935 0.999756 0.869947
0.631418 0.99939 0.868055
0.755459 0.999039 0.8663
0.880659 0.998566 0.865492
0.999878 0.998383 0.862425
0.0632181 0.0593729 0.881682
0.165637 0.0587472 0.913207
0.285817 0.0566873 0.943877
0.409079 0.0550698 0.95906
0.529824 0.0553292 0.960739
0.642878 0.0586252 0.950988
0.743969 0.0663615 0.930983
0.831571 0.0788891 0.904463
0.907546 0.0904707 0.88484
0.0665599 0.17229 0.923522
0.167193 0.172763 0.958663
0.28896 0.170825 0.985733
0.415183 0.169223 0.995956
0.541192 0.168261 0.998032
0.66482 0.168124 0.995804
0.783978 0.169329 0.988876
0.89337 0.17435 0.97348
0.980163 0.18436 0.950042
0.0641337 0.295033 0.954223
0.162356 0.296056 0.9832
0.28423 0.294621 0.998978
0.410513 0.293187 1
0.536522 0.292058 1
0.661311 0.290822 0.99913
0.785672 0.289616 0.997772
0.909743 0.288487 0.995407
1 0.28925 0.988632
0.0610513 0.417334 0.966674
0.156909 0.419242 0.989761
0.278645 0.418067 0.998505
0.404913 0.416541 0.997635
0.530587 0.415076 0.996292
0.65507 0.413581 0.99498
0.779171 0.412055 0.993667
0.903929 0.41033 0.992355
1 0.408194 0.991073
0.0617227 0.537484 0.9682
0.153094 0.540658 0.98883
0.273945 0.539757 0.994766
0.400046 0.537972 0.99353
0.525475 0.536278 0.992172
0.649775 0.534569 0.990814
0.773617 0.532891 0.989502
0.898177 0.530999 0.988251
1 0.528634 0.986999
0.0694591 0.6533 0.964004
0.152102 0.658869 0.984741
0.269764 0.658701 0.990814
0.395697 0.656764 0.989578
0.520943 0.654841 0.988235
0.645212 0.653086 0.986801
0.768887 0.651377 0.985412
0.893156 0.649393 0.984192
1 0.647028 0.983032
0.0877852 0.764736 0.957717
0.156527 0.774395 0.978714
0.265949 0.776364 0.98674
0.391501 0.774395 0.985702
0.516655 0.772351 0.98439
0.64097 0.770535 0.982956
0.76463 0.768795 0.981308
0.888304 0.766979 0.979507
1 0.764538 0.979065
0.118364 0.871931 0.953384
0.172213 0.886336 0.971618
0.264057 0.893172 0.98204
0.38706 0.891829 0.981826
0.51223 0.889769 0.98056
0.636637 0.887968 0.979202
0.760845 0.886091 0.977539
0.884871 0.884504 0.972992
0.999908 0.882841 0.974731
0.153368 0.972152 0.954559
0.201846 0.988891 0.96701
0.268833 0.999817 0.977279
0.382513 1 0.978149
0.507774 0.999863 0.976852
0.632242 0.99971 0.975525
0.756344 0.999557 0.974227
0.883482 0.999313 0.973968
0.999924 0.999329 0.975158
