luts/YELLOW.RED.cube
TITLE "Generated by Resolve"
LUT_3D_SIZE 5
0.0525368 0.0474861 0.0190738
0.289021 0.045716 0.0135958
0.545083 0.0429999 0.0109255
0.759152 0.0501259 0.0224002
0.878004 0.0799268 0.0617075
0.0459602 0.290547 0.0068513
0.279896 0.29044 0.00486763
0.533257 0.288884 0.00309758
0.77583 0.288441 0.00666819
0.924407 0.307576 0.0774701
0.0372015 0.539849 0.000839246
0.272023 0.537942 0.000244144
0.523888 0.534829 0
0.767285 0.531914 0.00402838
0.952956 0.537591 0.0912642
0.0607614 0.765545 0.024506
0.272892 0.771832 0.00201419
0.519493 0.768948 0.00198367
0.759716 0.763378 0.0425879
0.96495 0.762661 0.131685
0.160937 0.949737 0.136645
0.343023 0.96527 0.116854
0.554345 0.975052 0.10901
0.775418 0.977066 0.141085
0.986206 0.982513 0.169512
0.0513313 0.0456092 0.262043
0.288746 0.0436866 0.26424
0.544671 0.0409857 0.264714
0.790539 0.0401465 0.264225
0.917708 0.0713664 0.267369
0.0440223 0.289723 0.254978
0.279667 0.288808 0.258366
0.531823 0.287633 0.252567
0.781781 0.285664 0.250401
0.998672 0.29044 0.259052
0.035111 0.538323 0.247715
0.270649 0.536324 0.245945
0.522179 0.533043 0.242786
0.770794 0.530037 0.239582
1 0.527367 0.243259
0.0313268 0.775235 0.243626
0.262898 0.773953 0.237964
0.513924 0.769985 0.23415
0.76202 0.766384 0.230655
0.999985 0.762295 0.240604
0.117952 0.969589 0.30692
0.279545 0.994141 0.257023
0.509651 0.999527 0.234226
0.75552 0.997238 0.23476
0.99794 0.992569 0.274983
0.0519417 0.0462043 0.496651
0.29102 0.0443122 0.497475
0.546304 0.0417334 0.497063
0.794888 0.0401312 0.495384
0.946883 0.0661479 0.474617
0.0433814 0.29102 0.48806
0.280262 0.290593 0.486
0.532479 0.28864 0.48484
0.782452 0.286412 0.482795
1 0.28481 0.480079
0.0339361 0.539025 0.480293
0.271427 0.536828 0.478325
0.522896 0.533181 0.477958
0.770962 0.530373 0.472221
1 0.526238 0.468391
0.0277104 0.776562 0.473396
0.263203 0.77409 0.470146
0.514336 0.770123 0.466819
0.762142 0.766461 0.463416
1 0.762203 0.459342
0.0923323 0.981582 0.499107
0.259464 1 0.46511
0.505302 1 0.457893
0.753338 0.998627 0.454505
0.999725 0.996704 0.45069
0.0532387 0.0475929 0.76025
0.293706 0.045304 0.768109
0.548363 0.0428931 0.768795
0.784527 0.0460822 0.756558
0.939086 0.0738842 0.7084
0.0441596 0.29305 0.753811
0.281727 0.292332 0.753658
0.534447 0.290074 0.751553
0.78381 0.2878 0.749599
1 0.285069 0.745708
0.0347753 0.540429 0.745617
0.272343 0.538064 0.743053
0.524025 0.534737 0.738521
0.771725 0.531533 0.735454
1 0.52726 0.730907
0.0363622 0.775219 0.736721
0.264225 0.775067 0.734508
0.515602 0.771038 0.729854
0.76318 0.767025 0.729259
1 0.763088 0.720333
0.103288 0.981628 0.737987
0.257389 1 0.725139
0.50634 0.999847 0.719707
0.754574 0.998734 0.715984
0.999817 0.99765 0.71104
0.0632181 0.0593729 0.881682
0.285817 0.0566873 0.943877
0.529824 0.0553292 0.960739
0.743969 0.0663615 0.930983
0.907546 0.0904707 0.88484
0.0641337 0.295033 0.954223
0.28423 0.294621 0.998978
0.536522 0.292058 1
0.785672 0.289616 0.997772
1 0.28925 0.988632
0.0617227 0.537484 0.9682
0.273945 0.539757 0.994766
0.525475 0.536278 0.992172
0.773617 0.532891 0.989502
1 0.528634 0.986999
0.0877852 0.764736 0.957717
0.265949 0.776364 0.98674
0.516655 0.772351 0.98439
0.76463 0.768795 0.981308
1 0.764538 0.979065
0.153368 0.972152 0.954559
0.268833 0.999817 0.977279
0.507774 0.999863 0.976852
0.756344 0.999557 0.974227
0.999924 0.999329 0.975158
